mpecck/BCQC/bcqc_with_qdt/results/raw/input_10/independent_qc/training/20_workpiece/20200429_084438/wp_18_qc_majority_0.9.csv
production_index,step_idx,production_workcell,qc,consent,winner_qc_list,score,production_time,transport_time,inspection_time,network_time,qc_results,actual_quality,qc_score,score_error,in_winner_counter,in_qc_counter,qc_capability
69.0,1.0,wc_1,,0.0,,,78.0,,,,,Pass,,,,,
69.0,1.0,wc_1,,0.0,,,,0.0,,,,Pass,,,,,
69.0,1.0,wc_1,wc_1,0.0,"[('wc_1', 0.8000000000000006)]",0.8000000000000006,,,21.0,0.002068,['Pass'],Pass,0.8000000000000006,-0.633333333333334,1.0,6.0,1.0
69.0,1.0,wc_1,,0.0,,,,243.0,,,,Pass,,,,,
69.0,1.0,wc_1,wc_15,0.0,"[('wc_15', 0.22000000000000008), ('wc_1', 0.8000000000000006)]",0.8440000000000005,,,29.0,0.004465,['Pass'],Pass,0.22000000000000008,-0.09500000000000008,1.0,8.0,0.2
69.0,1.0,wc_1,,0.0,,,,402.0,,,,Pass,,,,,
69.0,1.0,wc_1,wc_11,0.0,"[('wc_1', 0.8000000000000006), ('wc_15', 0.22000000000000008)]",0.8440000000000005,,,34.0,0.005914,['Pass'],Pass,0.29000000000000015,-0.12333333333333349,1.0,6.0,0.3
69.0,1.0,wc_1,,0.0,,,,41.0,,,,Pass,,,,,
69.0,1.0,wc_1,wc_7,0.0,"[('wc_1', 0.8000000000000006), ('wc_15', 0.22000000000000008)]",0.8440000000000005,,,36.0,0.0076170000000000005,['Pass'],Pass,0.4400000000000003,-0.4400000000000003,0.0,5.0,0.3
69.0,1.0,wc_1,,0.0,,,,321.0,,,,Pass,,,,,
69.0,1.0,wc_1,wc_4,1.0,"[('wc_4', 0.5200000000000004), ('wc_1', 0.8000000000000006), ('wc_15', 0.22000000000000008)]",0.9251200000000003,,,33.0,0.04285799999999999,['Pass'],Pass,0.5200000000000004,-0.14500000000000035,3.0,8.0,0.5
73.0,4.0,wc_4,,0.0,,,,0.0,,,,Pass,,,,,
73.0,4.0,wc_4,,0.0,,,72.0,,,,,Pass,,,,,
73.0,4.0,wc_4,,0.0,,,,0.0,,,,Pass,,,,,
73.0,4.0,wc_4,wc_4,0.0,"[('wc_4', 0.5200000000000004)]",0.5200000000000004,,,27.0,0.002152,['Pass'],Pass,0.5200000000000004,-0.14500000000000035,3.0,8.0,0.5
73.0,4.0,wc_4,,0.0,,,,142.0,,,,Pass,,,,,
73.0,4.0,wc_4,wc_9,0.0,"[('wc_9', 0.5800000000000004), ('wc_4', 0.5200000000000004)]",0.7984000000000003,,,37.0,0.0038,['Pass'],Pass,0.5800000000000004,-0.3492307692307696,0.0,0.0,0.6
73.0,4.0,wc_4,,0.0,,,,402.0,,,,Pass,,,,,
73.0,4.0,wc_4,wc_5,0.0,"[('wc_5', 0.2400000000000001), ('wc_4', 0.5200000000000004), ('wc_9', 0.5800000000000004)]",0.8467840000000003,,,26.0,0.00645,['Pass'],Pass,0.2400000000000001,-0.04000000000000009,0.0,0.0,0.2
73.0,4.0,wc_4,,0.0,,,,83.0,,,,Pass,,,,,
73.0,4.0,wc_4,wc_3,1.0,"[('wc_3', 0.8000000000000006), ('wc_4', 0.5200000000000004), ('wc_9', 0.5800000000000004), ('wc_5', 0.2400000000000001)]",0.9693568000000001,,,34.0,0.039563,['Pass'],Pass,0.8000000000000006,-0.8000000000000006,0.0,0.0,1.0
78.0,3.0,wc_3,,0.0,,,,0.0,,,,Pass,,,,,
78.0,3.0,wc_3,,0.0,,,79.0,,,,,Pass,,,,,
78.0,3.0,wc_3,,0.0,,,,0.0,,,,Pass,,,,,
78.0,3.0,wc_3,wc_3,0.0,"[('wc_3', 0.8000000000000006)]",0.8000000000000006,,,23.0,0.002218,['Pass'],Pass,0.8000000000000006,-0.8000000000000006,0.0,0.0,1.0
78.0,3.0,wc_3,,0.0,,,,141.0,,,,Pass,,,,,
78.0,3.0,wc_3,wc_8,0.0,"[('wc_8', 0.8300000000000006), ('wc_3', 0.8000000000000006)]",0.9660000000000002,,,21.0,0.003973,['Pass'],Pass,0.8300000000000006,-0.663333333333334,1.0,6.0,1.0
78.0,3.0,wc_3,,0.0,,,,301.0,,,,Pass,,,,,
78.0,3.0,wc_3,wc_4,1.0,"[('wc_4', 0.5200000000000004), ('wc_3', 0.8000000000000006), ('wc_8', 0.8300000000000006)]",0.9836800000000001,,,22.0,0.037873000000000004,['Pass'],Pass,0.5200000000000004,-0.5200000000000004,0.0,0.0,0.5
83.0,2.0,wc_2,,0.0,,,,81.0,,,,Fail,,,,,
83.0,2.0,wc_2,,0.0,,,52.0,,,,,Fail,,,,,
83.0,2.0,wc_2,,0.0,,,,0.0,,,,Fail,,,,,
83.0,2.0,wc_2,wc_2,0.0,"[('wc_2', 0.6400000000000005)]",0.6400000000000005,,,21.0,0.002379,['Fail'],Fail,0.6400000000000005,-0.6400000000000005,0.0,7.0,0.5
83.0,2.0,wc_2,,0.0,,,,243.0,,,,Fail,,,,,
83.0,2.0,wc_2,wc_16,0.0,"[('wc_16', 0.8200000000000006)]",0.8200000000000006,,,28.0,0.003897,['Pass'],Fail,0.8200000000000006,-0.7088888888888896,1.0,9.0,0.9
83.0,2.0,wc_2,,0.0,,,,223.0,,,,Fail,,,,,
83.0,2.0,wc_2,wc_7,0.0,"[('wc_7', 0.43000000000000027), ('wc_16', 0.8200000000000006)]",0.8974000000000004,,,37.0,0.0060490000000000006,['Pass'],Fail,0.43000000000000027,-0.43000000000000027,0.0,8.0,0.3
83.0,2.0,wc_2,,0.0,,,,142.0,,,,Fail,,,,,
83.0,2.0,wc_2,wc_12,0.0,"[('wc_16', 0.8200000000000006), ('wc_7', 0.43000000000000027)]",0.8974000000000004,,,23.0,0.008058,['Pass'],Fail,0.2500000000000001,-0.08333333333333345,1.0,6.0,0.2
83.0,2.0,wc_2,,0.0,,,,242.0,,,,Fail,,,,,
83.0,2.0,wc_2,wc_1,1.0,"[('wc_1', 0.8000000000000006), ('wc_2', 0.6400000000000005), ('wc_12', 0.2500000000000001)]",0.9460000000000003,,,35.0,0.04874799999999999,['Fail'],Fail,0.8000000000000006,-0.8000000000000006,0.0,0.0,1.0
98.0,2.0,wc_2,,0.0,,,,0.0,,,,Pass,,,,,
98.0,2.0,wc_2,,0.0,,,65.0,,,,,Pass,,,,,
98.0,2.0,wc_2,,0.0,,,,0.0,,,,Pass,,,,,
98.0,2.0,wc_2,wc_2,0.0,"[('wc_2', 0.6400000000000005)]",0.6400000000000005,,,34.0,0.002767,['Pass'],Pass,0.6400000000000005,-0.5150000000000005,1.0,8.0,0.5
98.0,2.0,wc_2,,0.0,,,,183.0,,,,Pass,,,,,
98.0,2.0,wc_2,wc_9,0.0,"[('wc_2', 0.6400000000000005)]",0.6400000000000005,,,25.0,0.004194,['Pass'],Pass,0.5900000000000004,-0.2566666666666671,1.0,3.0,0.6
98.0,2.0,wc_2,,0.0,,,,382.0,,,,Pass,,,,,
98.0,2.0,wc_2,wc_4,0.0,"[('wc_4', 0.5200000000000004), ('wc_9', 0.5900000000000004)]",0.8032000000000004,,,38.0,0.005888,['Fail'],Pass,0.5200000000000004,-0.5200000000000004,0.0,1.0,0.5
98.0,2.0,wc_2,,0.0,,,,222.0,,,,Pass,,,,,
98.0,2.0,wc_2,wc_17,1.0,"[('wc_17', 0.7600000000000006), ('wc_9', 0.5900000000000004), ('wc_4', 0.5200000000000004)]",0.9527680000000002,,,39.0,0.038902,['Fail'],Pass,0.7600000000000006,-0.42666666666666725,2.0,6.0,0.6
134.0,5.0,wc_5,,0.0,,,,402.0,,,,Pass,,,,,
134.0,5.0,wc_5,,0.0,,,61.0,,,,,Pass,,,,,
134.0,5.0,wc_5,,0.0,,,,0.0,,,,Pass,,,,,
134.0,5.0,wc_5,wc_5,0.0,"[('wc_5', 0.2500000000000001)]",0.2500000000000001,,,20.0,0.002238,['Pass'],Pass,0.2500000000000001,-1.1102230246251565e-16,1.0,4.0,0.2
134.0,5.0,wc_5,,0.0,,,,141.0,,,,Pass,,,,,
134.0,5.0,wc_5,wc_14,0.0,"[('wc_14', 0.6700000000000005), ('wc_5', 0.2500000000000001)]",0.7525000000000004,,,24.0,0.004131,['Pass'],Pass,0.6700000000000005,-0.3623076923076928,0.0,0.0,0.7
134.0,5.0,wc_5,,0.0,,,,281.0,,,,Pass,,,,,
134.0,5.0,wc_5,wc_9,0.0,"[('wc_5', 0.2500000000000001), ('wc_14', 0.6700000000000005)]",0.7525000000000004,,,24.0,0.0055569999999999994,['Pass'],Pass,0.5900000000000004,-0.09000000000000041,2.0,4.0,0.6
134.0,5.0,wc_5,,0.0,,,,0.0,,,,Pass,,,,,
134.0,5.0,wc_5,wc_10,1.0,"[('wc_10', 0.7900000000000006), ('wc_5', 0.2500000000000001), ('wc_14', 0.6700000000000005)]",0.9480250000000002,,,36.0,0.039698,['Pass'],Pass,0.7900000000000006,-0.7900000000000006,0.0,0.0,0.9
139.0,6.0,wc_6,,0.0,,,,41.0,,,,Pass,,,,,
139.0,6.0,wc_6,,0.0,,,51.0,,,,,Pass,,,,,
139.0,6.0,wc_6,,0.0,,,,0.0,,,,Pass,,,,,
139.0,6.0,wc_6,wc_6,0.0,"[('wc_6', 0.8600000000000007)]",0.8600000000000007,,,36.0,0.002392,['Pass'],Pass,0.8600000000000007,-0.7830769230769237,0.0,0.0,0.8
139.0,6.0,wc_6,,0.0,,,,222.0,,,,Pass,,,,,
139.0,6.0,wc_6,wc_2,0.0,"[('wc_2', 0.6300000000000004), ('wc_6', 0.8600000000000007)]",0.9482000000000003,,,26.0,0.0039369999999999995,['Pass'],Pass,0.6300000000000004,-0.5300000000000005,0.0,0.0,0.5
139.0,6.0,wc_6,,0.0,,,,183.0,,,,Pass,,,,,
139.0,6.0,wc_6,wc_9,1.0,"[('wc_9', 0.5800000000000004), ('wc_6', 0.8600000000000007), ('wc_2', 0.6300000000000004)]",0.9782440000000001,,,20.0,0.041715999999999996,['Pass'],Pass,0.5800000000000004,-0.0800000000000004,3.0,6.0,0.6
148.0,11.0,wc_11,,0.0,,,,0.0,,,,Pass,,,,,
148.0,11.0,wc_11,,0.0,,,58.0,,,,,Pass,,,,,
148.0,11.0,wc_11,,0.0,,,,0.0,,,,Pass,,,,,
148.0,11.0,wc_11,wc_11,0.0,"[('wc_11', 0.28000000000000014)]",0.28000000000000014,,,31.0,0.002272,['Fail'],Pass,0.28000000000000014,-0.2030769230769232,0.0,0.0,0.3
148.0,11.0,wc_11,,0.0,,,,223.0,,,,Pass,,,,,
148.0,11.0,wc_11,wc_2,0.0,"[('wc_2', 0.6400000000000005)]",0.6400000000000005,,,38.0,0.004,['Pass'],Pass,0.6400000000000005,0.35999999999999954,1.0,1.0,0.5
148.0,11.0,wc_11,,0.0,,,,0.0,,,,Pass,,,,,
148.0,11.0,wc_11,wc_5,0.0,"[('wc_2', 0.6400000000000005)]",0.6400000000000005,,,36.0,0.00795,['Pass'],Pass,0.2600000000000001,0.0733333333333332,2.0,6.0,0.2
148.0,11.0,wc_11,,0.0,,,,101.0,,,,Pass,,,,,
148.0,11.0,wc_11,wc_8,0.0,"[('wc_8', 0.8300000000000006), ('wc_2', 0.6400000000000005)]",0.9388000000000003,,,26.0,0.014611,['Pass'],Pass,0.8300000000000006,-0.6481818181818189,0.0,0.0,1.0
148.0,11.0,wc_11,,0.0,,,,0.0,,,,Pass,,,,,
148.0,11.0,wc_11,wc_9,1.0,"[('wc_9', 0.5800000000000004), ('wc_2', 0.6400000000000005), ('wc_8', 0.8300000000000006)]",0.9742960000000002,,,36.0,0.04335399999999999,['Pass'],Pass,0.5800000000000004,-0.008571428571429007,4.0,7.0,0.6
159.0,10.0,wc_10,,0.0,,,,0.0,,,,Fail,,,,,
159.0,10.0,wc_10,,0.0,,,72.0,,,,,Fail,,,,,
159.0,10.0,wc_10,,0.0,,,,0.0,,,,Fail,,,,,
159.0,10.0,wc_10,wc_10,0.0,"[('wc_10', 0.7900000000000006)]",0.7900000000000006,,,37.0,0.003316,['Fail'],Fail,0.7900000000000006,-0.7900000000000006,0.0,2.0,0.9
159.0,10.0,wc_10,,0.0,,,,223.0,,,,Fail,,,,,
159.0,10.0,wc_10,wc_1,0.0,"[('wc_1', 0.8000000000000006), ('wc_10', 0.7900000000000006)]",0.9580000000000003,,,34.0,0.0046630000000000005,['Fail'],Fail,0.8000000000000006,-0.8000000000000006,0.0,4.0,1.0
159.0,10.0,wc_10,,0.0,,,,0.0,,,,Fail,,,,,
159.0,10.0,wc_10,wc_2,1.0,"[('wc_2', 0.6500000000000005), ('wc_10', 0.7900000000000006), ('wc_1', 0.8000000000000006)]",0.9853000000000001,,,30.0,0.04622999999999999,['Fail'],Fail,0.6600000000000005,0.3399999999999995,3.0,3.0,0.5
168.0,7.0,wc_7,,0.0,,,,142.0,,,,Pass,,,,,
168.0,7.0,wc_7,,0.0,,,50.0,,,,,Pass,,,,,
168.0,7.0,wc_7,,0.0,,,,0.0,,,,Pass,,,,,
168.0,7.0,wc_7,wc_7,0.0,"[('wc_7', 0.42000000000000026)]",0.42000000000000026,,,34.0,0.002246,['Pass'],Pass,0.42000000000000026,-0.42000000000000026,0.0,0.0,0.3
168.0,7.0,wc_7,,0.0,,,,203.0,,,,Pass,,,,,
168.0,7.0,wc_7,wc_15,0.0,"[('wc_7', 0.42000000000000026)]",0.42000000000000026,,,28.0,0.00448,['Pass'],Pass,0.22000000000000008,-0.10235294117647067,0.0,0.0,0.2
168.0,7.0,wc_7,,0.0,,,,61.0,,,,Pass,,,,,
168.0,7.0,wc_7,wc_12,0.0,"[('wc_12', 0.2600000000000001), ('wc_7', 0.42000000000000026)]",0.5708000000000002,,,35.0,0.006256,['Pass'],Pass,0.2600000000000001,-0.09333333333333346,0.0,0.0,0.2
168.0,7.0,wc_7,,0.0,,,,222.0,,,,Pass,,,,,
168.0,7.0,wc_7,wc_8,1.0,"[('wc_8', 0.8400000000000006), ('wc_7', 0.42000000000000026), ('wc_12', 0.2600000000000001)]",0.9313280000000003,,,40.0,0.044121,['Pass'],Pass,0.8400000000000006,-0.173333333333334,2.0,3.0,1.0
180.0,9.0,wc_9,,0.0,,,,0.0,,,,Fail,,,,,
180.0,9.0,wc_9,,0.0,,,78.0,,,,,Fail,,,,,
180.0,9.0,wc_9,,0.0,,,,0.0,,,,Fail,,,,,
180.0,9.0,wc_9,wc_9,0.0,"[('wc_9', 0.5800000000000004)]",0.5800000000000004,,,26.0,0.002285,['Pass'],Fail,0.5800000000000004,-0.13555555555555598,4.0,9.0,0.6
180.0,9.0,wc_9,,0.0,,,,0.0,,,,Fail,,,,,
180.0,9.0,wc_9,wc_10,0.0,"[('wc_10', 0.7900000000000006)]",0.7900000000000006,,,24.0,0.004098,['Fail'],Fail,0.7900000000000006,-0.5400000000000006,1.0,4.0,0.9
180.0,9.0,wc_9,,0.0,,,,142.0,,,,Fail,,,,,
180.0,9.0,wc_9,wc_15,0.0,"[('wc_15', 0.21000000000000008), ('wc_10', 0.7900000000000006)]",0.8341000000000005,,,39.0,0.006000999999999999,['Fail'],Fail,0.21000000000000008,-0.21000000000000008,0.0,1.0,0.2
180.0,9.0,wc_9,,0.0,,,,0.0,,,,Fail,,,,,
180.0,9.0,wc_9,wc_17,1.0,"[('wc_17', 0.7600000000000006), ('wc_10', 0.7900000000000006), ('wc_15', 0.21000000000000008)]",0.9601840000000003,,,24.0,0.038912,['Fail'],Fail,0.7600000000000006,-0.7600000000000006,0.0,0.0,0.6
189.0,10.0,wc_10,,0.0,,,,342.0,,,,Pass,,,,,
189.0,10.0,wc_10,,0.0,,,51.0,,,,,Pass,,,,,
189.0,10.0,wc_10,,0.0,,,,0.0,,,,Pass,,,,,
189.0,10.0,wc_10,wc_10,0.0,"[('wc_10', 0.7900000000000006)]",0.7900000000000006,,,34.0,0.002092,['Pass'],Pass,0.7900000000000006,-0.39000000000000057,2.0,5.0,0.9
189.0,10.0,wc_10,,0.0,,,,382.0,,,,Pass,,,,,
189.0,10.0,wc_10,wc_5,0.0,"[('wc_5', 0.2600000000000001), ('wc_10', 0.7900000000000006)]",0.8446000000000005,,,31.0,0.00434,['Pass'],Pass,0.2600000000000001,-0.06000000000000011,0.0,0.0,0.2
189.0,10.0,wc_10,,0.0,,,,101.0,,,,Pass,,,,,
189.0,10.0,wc_10,wc_8,1.0,"[('wc_8', 0.8400000000000006), ('wc_10', 0.7900000000000006), ('wc_5', 0.2600000000000001)]",0.9751360000000002,,,34.0,0.038669999999999996,['Pass'],Pass,0.8400000000000006,-0.24000000000000066,3.0,5.0,1.0
204.0,8.0,wc_8,,0.0,,,,0.0,,,,Pass,,,,,
204.0,8.0,wc_8,,0.0,,,57.0,,,,,Pass,,,,,
204.0,8.0,wc_8,,0.0,,,,0.0,,,,Pass,,,,,
204.0,8.0,wc_8,wc_8,0.0,"[('wc_8', 0.8400000000000006)]",0.8400000000000006,,,32.0,0.002201,['Pass'],Pass,0.8400000000000006,-0.24000000000000066,3.0,5.0,1.0
204.0,8.0,wc_8,,0.0,,,,182.0,,,,Pass,,,,,
204.0,8.0,wc_8,wc_2,0.0,"[('wc_2', 0.6600000000000005), ('wc_8', 0.8400000000000006)]",0.9456000000000003,,,32.0,0.0055720000000000006,['Pass'],Pass,0.6600000000000005,-0.16000000000000048,3.0,6.0,0.5
204.0,8.0,wc_8,,0.0,,,,0.0,,,,Pass,,,,,
204.0,8.0,wc_8,wc_5,0.0,"[('wc_8', 0.8400000000000006), ('wc_2', 0.6600000000000005)]",0.9456000000000003,,,20.0,0.006237,['Pass'],Pass,0.27000000000000013,0.7299999999999999,1.0,1.0,0.2
204.0,8.0,wc_8,,0.0,,,,182.0,,,,Pass,,,,,
204.0,8.0,wc_8,wc_16,1.0,"[('wc_16', 0.8100000000000006), ('wc_8', 0.8400000000000006), ('wc_2', 0.6600000000000005)]",0.9896640000000001,,,23.0,0.04730000000000001,['Pass'],Pass,0.8100000000000006,-0.6988888888888896,1.0,9.0,0.9
218.0,9.0,wc_9,,0.0,,,,342.0,,,,Fail,,,,,
218.0,9.0,wc_9,,0.0,,,69.0,,,,,Fail,,,,,
218.0,9.0,wc_9,,0.0,,,,0.0,,,,Fail,,,,,
218.0,9.0,wc_9,wc_9,0.0,"[('wc_9', 0.5700000000000004)]",0.5700000000000004,,,31.0,0.00207,['Fail'],Fail,0.5700000000000004,-0.5700000000000004,0.0,2.0,0.6
218.0,9.0,wc_9,,0.0,,,,141.0,,,,Fail,,,,,
218.0,9.0,wc_9,wc_14,0.0,"[('wc_14', 0.6800000000000005), ('wc_9', 0.5700000000000004)]",0.8624000000000003,,,21.0,0.004276,['Fail'],Fail,0.6800000000000005,-0.5550000000000005,1.0,8.0,0.7
218.0,9.0,wc_9,,0.0,,,,102.0,,,,Fail,,,,,
218.0,9.0,wc_9,wc_13,1.0,"[('wc_13', 0.7800000000000006), ('wc_9', 0.5700000000000004), ('wc_14', 0.6800000000000005)]",0.9697280000000001,,,33.0,0.041099,['Fail'],Fail,0.7800000000000006,-0.7800000000000006,0.0,0.0,0.7
231.0,9.0,wc_9,,0.0,,,,301.0,,,,Pass,,,,,
231.0,9.0,wc_9,,0.0,,,73.0,,,,,Pass,,,,,
231.0,9.0,wc_9,,0.0,,,,0.0,,,,Pass,,,,,
231.0,9.0,wc_9,wc_9,0.0,"[('wc_9', 0.5700000000000004)]",0.5700000000000004,,,35.0,0.002145,['Pass'],Pass,0.5700000000000004,-0.23666666666666708,1.0,3.0,0.6
231.0,9.0,wc_9,,0.0,,,,61.0,,,,Pass,,,,,
231.0,9.0,wc_9,wc_6,0.0,"[('wc_6', 0.8700000000000007), ('wc_9', 0.5700000000000004)]",0.9441000000000004,,,32.0,0.00385,['Pass'],Pass,0.8700000000000007,-0.7450000000000007,1.0,8.0,0.8
231.0,9.0,wc_9,,0.0,,,,182.0,,,,Pass,,,,,
231.0,9.0,wc_9,wc_13,1.0,"[('wc_13', 0.7800000000000006), ('wc_9', 0.5700000000000004), ('wc_6', 0.8700000000000007)]",0.9877020000000001,,,36.0,0.038876,['Pass'],Pass,0.7900000000000006,0.2099999999999994,1.0,1.0,0.7
242.0,12.0,wc_12,,0.0,,,,102.0,,,,Fail,,,,,
242.0,12.0,wc_12,,0.0,,,68.0,,,,,Fail,,,,,
242.0,12.0,wc_12,,0.0,,,,0.0,,,,Fail,,,,,
242.0,12.0,wc_12,wc_12,0.0,"[('wc_12', 0.27000000000000013)]",0.27000000000000013,,,28.0,0.002224,['Fail'],Fail,0.27000000000000013,-0.10333333333333347,1.0,6.0,0.2
242.0,12.0,wc_12,,0.0,,,,0.0,,,,Fail,,,,,
242.0,12.0,wc_12,wc_14,0.0,"[('wc_14', 0.6800000000000005), ('wc_12', 0.27000000000000013)]",0.7664000000000004,,,20.0,0.004198,['Fail'],Fail,0.6800000000000005,-0.4800000000000005,0.0,0.0,0.7
242.0,12.0,wc_12,,0.0,,,,202.0,,,,Fail,,,,,
242.0,12.0,wc_12,wc_1,1.0,"[('wc_1', 0.8000000000000006), ('wc_12', 0.27000000000000013), ('wc_14', 0.6800000000000005)]",0.9532800000000002,,,30.0,0.04580000000000001,['Fail'],Fail,0.8000000000000006,-0.8000000000000006,0.0,0.0,1.0
253.0,12.0,wc_12,,0.0,,,,182.0,,,,Pass,,,,,
253.0,12.0,wc_12,,0.0,,,73.0,,,,,Pass,,,,,
253.0,12.0,wc_12,,0.0,,,,0.0,,,,Pass,,,,,
253.0,12.0,wc_12,wc_12,0.0,"[('wc_12', 0.28000000000000014)]",0.28000000000000014,,,24.0,0.002173,['Pass'],Pass,0.28000000000000014,0.005714285714285561,2.0,7.0,0.2
253.0,12.0,wc_12,,0.0,,,,361.0,,,,Pass,,,,,
253.0,12.0,wc_12,wc_11,0.0,"[('wc_11', 0.27000000000000013), ('wc_12', 0.28000000000000014)]",0.47440000000000015,,,23.0,0.004344,['Pass'],Pass,0.27000000000000013,-0.27000000000000013,0.0,9.0,0.3
253.0,12.0,wc_12,,0.0,,,,203.0,,,,Pass,,,,,
253.0,12.0,wc_12,wc_1,0.0,"[('wc_1', 0.8000000000000006), ('wc_12', 0.28000000000000014), ('wc_11', 0.27000000000000013)]",0.8948800000000003,,,33.0,0.005527000000000001,['Pass'],Pass,0.8000000000000006,-0.8000000000000006,0.0,0.0,1.0
253.0,12.0,wc_12,,0.0,,,,202.0,,,,Pass,,,,,
253.0,12.0,wc_12,wc_13,1.0,"[('wc_13', 0.7900000000000006), ('wc_12', 0.28000000000000014), ('wc_11', 0.27000000000000013), ('wc_1', 0.8000000000000006)]",0.9779248000000001,,,25.0,0.041562,['Pass'],Pass,0.7900000000000006,-0.12333333333333396,2.0,3.0,0.7
274.0,13.0,wc_13,,0.0,,,,0.0,,,,Fail,,,,,
274.0,13.0,wc_13,,0.0,,,70.0,,,,,Fail,,,,,
274.0,13.0,wc_13,,0.0,,,,0.0,,,,Fail,,,,,
274.0,13.0,wc_13,wc_13,0.0,"[('wc_13', 0.7900000000000006)]",0.7900000000000006,,,34.0,0.002495,['Fail'],Fail,0.7900000000000006,-0.12333333333333396,2.0,3.0,0.7
274.0,13.0,wc_13,,0.0,,,,182.0,,,,Fail,,,,,
274.0,13.0,wc_13,wc_7,0.0,"[('wc_7', 0.43000000000000027), ('wc_13', 0.7900000000000006)]",0.8803000000000004,,,20.0,0.007611,['Fail'],Fail,0.43000000000000027,-0.30500000000000027,1.0,8.0,0.3
274.0,13.0,wc_13,,0.0,,,,202.0,,,,Fail,,,,,
274.0,13.0,wc_13,wc_2,1.0,"[('wc_2', 0.6600000000000005), ('wc_13', 0.7900000000000006), ('wc_7', 0.43000000000000027)]",0.9593020000000002,,,33.0,0.043528,['Fail'],Fail,0.6600000000000005,-0.6600000000000005,0.0,0.0,0.5
296.0,13.0,wc_13,,0.0,,,,182.0,,,,Fail,,,,,
296.0,13.0,wc_13,,0.0,,,55.0,,,,,Fail,,,,,
296.0,13.0,wc_13,,0.0,,,,0.0,,,,Fail,,,,,
296.0,13.0,wc_13,wc_13,0.0,"[('wc_13', 0.7900000000000006)]",0.7900000000000006,,,37.0,0.002797,['Fail'],Fail,0.7900000000000006,-0.04000000000000059,3.0,4.0,0.7
296.0,13.0,wc_13,,0.0,,,,202.0,,,,Fail,,,,,
296.0,13.0,wc_13,wc_8,0.0,"[('wc_8', 0.8400000000000006), ('wc_13', 0.7900000000000006)]",0.9664000000000003,,,24.0,0.003999,['Fail'],Fail,0.8400000000000006,-0.476363636363637,0.0,0.0,1.0
296.0,13.0,wc_13,,0.0,,,,321.0,,,,Fail,,,,,
296.0,13.0,wc_13,wc_5,1.0,"[('wc_5', 0.27000000000000013), ('wc_13', 0.7900000000000006), ('wc_8', 0.8400000000000006)]",0.9754720000000001,,,36.0,0.04192,['Fail'],Fail,0.27000000000000013,-0.02000000000000013,2.0,8.0,0.2
308.0,13.0,wc_13,,0.0,,,,121.0,,,,Pass,,,,,
308.0,13.0,wc_13,,0.0,,,79.0,,,,,Pass,,,,,
308.0,13.0,wc_13,,0.0,,,,0.0,,,,Pass,,,,,
308.0,13.0,wc_13,wc_13,0.0,"[('wc_13', 0.7900000000000006)]",0.7900000000000006,,,38.0,0.001937,['Pass'],Pass,0.7900000000000006,0.009999999999999454,4.0,5.0,0.7
308.0,13.0,wc_13,,0.0,,,,0.0,,,,Pass,,,,,
308.0,13.0,wc_13,wc_15,0.0,"[('wc_13', 0.7900000000000006)]",0.7900000000000006,,,26.0,0.00411,['Pass'],Pass,0.22000000000000008,-0.12000000000000008,0.0,0.0,0.2
308.0,13.0,wc_13,,0.0,,,,0.0,,,,Pass,,,,,
308.0,13.0,wc_13,wc_16,0.0,"[('wc_16', 0.8100000000000006), ('wc_15', 0.22000000000000008)]",0.8518000000000006,,,26.0,0.006118,['Fail'],Pass,0.8100000000000006,-0.743333333333334,0.0,0.0,0.9
308.0,13.0,wc_13,,0.0,,,,263.0,,,,Pass,,,,,
308.0,13.0,wc_13,wc_1,0.0,"[('wc_1', 0.8100000000000006), ('wc_13', 0.7900000000000006)]",0.9601000000000003,,,35.0,0.008118,['Pass'],Pass,0.8100000000000006,-0.4766666666666673,1.0,3.0,1.0
308.0,13.0,wc_13,,0.0,,,,0.0,,,,Pass,,,,,
308.0,13.0,wc_13,wc_2,1.0,"[('wc_2', 0.6600000000000005), ('wc_13', 0.7900000000000006), ('wc_1', 0.8100000000000006)]",0.9864340000000001,,,32.0,0.046102,['Pass'],Pass,0.6600000000000005,-0.16000000000000048,1.0,2.0,0.5
324.0,15.0,wc_15,,0.0,,,,223.0,,,,Pass,,,,,
324.0,15.0,wc_15,,0.0,,,80.0,,,,,Pass,,,,,
324.0,15.0,wc_15,,0.0,,,,0.0,,,,Pass,,,,,
324.0,15.0,wc_15,wc_15,0.0,"[('wc_15', 0.21000000000000008)]",0.21000000000000008,,,37.0,0.002123,['Pass'],Pass,0.21000000000000008,-0.21000000000000008,0.0,1.0,0.2
324.0,15.0,wc_15,,0.0,,,,362.0,,,,Pass,,,,,
324.0,15.0,wc_15,wc_9,0.0,"[('wc_9', 0.5700000000000004), ('wc_15', 0.21000000000000008)]",0.6603000000000003,,,30.0,0.00436,['Pass'],Pass,0.5700000000000004,-0.3477777777777782,2.0,9.0,0.6
324.0,15.0,wc_15,,0.0,,,,382.0,,,,Pass,,,,,
324.0,15.0,wc_15,wc_4,0.0,"[('wc_4', 0.5200000000000004), ('wc_15', 0.21000000000000008), ('wc_9', 0.5700000000000004)]",0.8369440000000002,,,31.0,0.007855000000000001,['Pass'],Pass,0.5200000000000004,-0.46117647058823563,0.0,0.0,0.5
324.0,15.0,wc_15,,0.0,,,,101.0,,,,Pass,,,,,
324.0,15.0,wc_15,wc_7,0.0,"[('wc_15', 0.21000000000000008), ('wc_9', 0.5700000000000004), ('wc_4', 0.5200000000000004)]",0.8369440000000002,,,40.0,0.017771,['Pass'],Pass,0.43000000000000027,-0.24818181818181845,0.0,0.0,0.3
324.0,15.0,wc_15,,0.0,,,,142.0,,,,Pass,,,,,
324.0,15.0,wc_15,wc_12,0.0,"[('wc_15', 0.21000000000000008), ('wc_9', 0.5700000000000004), ('wc_4', 0.5200000000000004)]",0.8369440000000002,,,33.0,0.012253,['Pass'],Pass,0.29000000000000015,-0.01727272727272744,0.0,0.0,0.2
324.0,15.0,wc_15,,0.0,,,,341.0,,,,Pass,,,,,
324.0,15.0,wc_15,wc_10,1.0,"[('wc_10', 0.7900000000000006), ('wc_15', 0.21000000000000008), ('wc_9', 0.5700000000000004), ('wc_4', 0.5200000000000004)]",0.9657582400000001,,,39.0,0.049551,['Pass'],Pass,0.7900000000000006,-0.7900000000000006,0.0,0.0,0.9
336.0,14.0,wc_14,,0.0,,,,121.0,,,,Pass,,,,,
336.0,14.0,wc_14,,0.0,,,62.0,,,,,Pass,,,,,
336.0,14.0,wc_14,,0.0,,,,0.0,,,,Pass,,,,,
336.0,14.0,wc_14,wc_14,0.0,"[('wc_14', 0.6900000000000005)]",0.6900000000000005,,,20.0,0.002034,['Pass'],Pass,0.6900000000000005,-0.5233333333333339,1.0,6.0,0.7
336.0,14.0,wc_14,,0.0,,,,321.0,,,,Pass,,,,,
336.0,14.0,wc_14,wc_11,0.0,"[('wc_11', 0.27000000000000013), ('wc_14', 0.6900000000000005)]",0.7737000000000004,,,27.0,0.003965,['Pass'],Pass,0.27000000000000013,-0.27000000000000013,0.0,4.0,0.3
336.0,14.0,wc_14,,0.0,,,,103.0,,,,Pass,,,,,
336.0,14.0,wc_14,wc_10,1.0,"[('wc_10', 0.7900000000000006), ('wc_14', 0.6900000000000005), ('wc_11', 0.27000000000000013)]",0.9524770000000002,,,28.0,0.043019,['Pass'],Pass,0.8000000000000006,0.1999999999999994,1.0,1.0,0.9
347.0,16.0,wc_16,,0.0,,,,162.0,,,,Fail,,,,,
347.0,16.0,wc_16,,0.0,,,67.0,,,,,Fail,,,,,
347.0,16.0,wc_16,,0.0,,,,0.0,,,,Fail,,,,,
347.0,16.0,wc_16,wc_16,0.0,"[('wc_16', 0.8000000000000006)]",0.8000000000000006,,,31.0,0.002174,['Fail'],Fail,0.8000000000000006,-0.8000000000000006,0.0,3.0,0.9
347.0,16.0,wc_16,,0.0,,,,382.0,,,,Fail,,,,,
347.0,16.0,wc_16,wc_11,0.0,"[('wc_11', 0.27000000000000013), ('wc_16', 0.8000000000000006)]",0.8540000000000004,,,22.0,0.004047,['Fail'],Fail,0.27000000000000013,-0.07000000000000012,1.0,5.0,0.3
347.0,16.0,wc_16,,0.0,,,,61.0,,,,Fail,,,,,
347.0,16.0,wc_16,wc_12,0.0,"[('wc_16', 0.8000000000000006), ('wc_11', 0.27000000000000013)]",0.8540000000000004,,,30.0,0.006514,['Fail'],Fail,0.28000000000000014,-0.28000000000000014,0.0,2.0,0.2
347.0,16.0,wc_16,,0.0,,,,0.0,,,,Fail,,,,,
347.0,16.0,wc_16,wc_13,0.0,"[('wc_13', 0.8000000000000006), ('wc_12', 0.28000000000000014)]",0.8560000000000004,,,38.0,0.008323,['Pass'],Fail,0.8000000000000006,-0.1750000000000006,5.0,8.0,0.7
347.0,16.0,wc_16,,0.0,,,,341.0,,,,Fail,,,,,
347.0,16.0,wc_16,wc_3,1.0,"[('wc_3', 0.8100000000000006), ('wc_16', 0.8000000000000006), ('wc_11', 0.27000000000000013)]",0.9722600000000001,,,24.0,0.047354,['Fail'],Fail,0.8100000000000006,-0.8100000000000006,0.0,0.0,1.0
359.0,16.0,wc_16,,0.0,,,,222.0,,,,Fail,,,,,
359.0,16.0,wc_16,,0.0,,,63.0,,,,,Fail,,,,,
359.0,16.0,wc_16,,0.0,,,,0.0,,,,Fail,,,,,
359.0,16.0,wc_16,wc_16,0.0,"[('wc_16', 0.8000000000000006)]",0.8000000000000006,,,39.0,0.002056,['Fail'],Fail,0.8000000000000006,-0.5500000000000006,1.0,4.0,0.9
359.0,16.0,wc_16,,0.0,,,,0.0,,,,Fail,,,,,
359.0,16.0,wc_16,wc_17,0.0,"[('wc_17', 0.7600000000000006), ('wc_16', 0.8000000000000006)]",0.9520000000000003,,,23.0,0.003973,['Fail'],Fail,0.7600000000000006,-0.7600000000000006,0.0,0.0,0.6
359.0,16.0,wc_16,,0.0,,,,243.0,,,,Fail,,,,,
359.0,16.0,wc_16,wc_1,1.0,"[('wc_1', 0.8100000000000006), ('wc_16', 0.8000000000000006), ('wc_17', 0.7600000000000006)]",0.9908800000000001,,,22.0,0.049528,['Fail'],Fail,0.8100000000000006,-0.4350000000000006,3.0,8.0,1.0
372.0,16.0,wc_16,,0.0,,,,263.0,,,,Fail,,,,,
372.0,16.0,wc_16,,0.0,,,70.0,,,,,Fail,,,,,
372.0,16.0,wc_16,,0.0,,,,0.0,,,,Fail,,,,,
372.0,16.0,wc_16,wc_16,0.0,"[('wc_16', 0.8000000000000006)]",0.8000000000000006,,,28.0,0.001972,['Fail'],Fail,0.8000000000000006,-0.4000000000000006,2.0,5.0,0.9
372.0,16.0,wc_16,,0.0,,,,61.0,,,,Fail,,,,,
372.0,16.0,wc_16,wc_13,0.0,"[('wc_13', 0.7900000000000006), ('wc_16', 0.8000000000000006)]",0.9580000000000003,,,39.0,0.004472,['Fail'],Fail,0.7900000000000006,-0.2900000000000006,0.0,0.0,0.7
372.0,16.0,wc_16,,0.0,,,,341.0,,,,Fail,,,,,
372.0,16.0,wc_16,wc_3,1.0,"[('wc_3', 0.8100000000000006), ('wc_16', 0.8000000000000006), ('wc_13', 0.7900000000000006)]",0.9920200000000001,,,28.0,0.041081,['Fail'],Fail,0.8100000000000006,-0.3100000000000006,1.0,2.0,1.0
382.0,16.0,wc_16,,0.0,,,,222.0,,,,Fail,,,,,
382.0,16.0,wc_16,,0.0,,,52.0,,,,,Fail,,,,,
382.0,16.0,wc_16,,0.0,,,,0.0,,,,Fail,,,,,
382.0,16.0,wc_16,wc_16,0.0,"[('wc_16', 0.8000000000000006)]",0.8000000000000006,,,38.0,0.002311,['Fail'],Fail,0.8000000000000006,-0.3000000000000006,3.0,6.0,0.9
382.0,16.0,wc_16,,0.0,,,,342.0,,,,Fail,,,,,
382.0,16.0,wc_16,wc_9,0.0,"[('wc_9', 0.5700000000000004), ('wc_16', 0.8000000000000006)]",0.9140000000000004,,,34.0,0.003909,['Fail'],Fail,0.5700000000000004,-0.5700000000000004,0.0,4.0,0.6
382.0,16.0,wc_16,,0.0,,,,101.0,,,,Fail,,,,,
382.0,16.0,wc_16,wc_8,1.0,"[('wc_8', 0.8500000000000006), ('wc_16', 0.8000000000000006), ('wc_9', 0.5700000000000004)]",0.9871000000000001,,,20.0,0.040809,['Fail'],Fail,0.8500000000000006,-0.6000000000000006,2.0,8.0,1.0
394.0,16.0,wc_16,,0.0,,,,203.0,,,,Pass,,,,,
394.0,16.0,wc_16,,0.0,,,70.0,,,,,Pass,,,,,
394.0,16.0,wc_16,,0.0,,,,0.0,,,,Pass,,,,,
394.0,16.0,wc_16,wc_16,0.0,"[('wc_16', 0.8000000000000006)]",0.8000000000000006,,,28.0,0.002455,['Pass'],Pass,0.8000000000000006,-0.2285714285714292,4.0,7.0,0.9
394.0,16.0,wc_16,,0.0,,,,362.0,,,,Pass,,,,,
394.0,16.0,wc_16,wc_10,0.0,"[('wc_10', 0.8000000000000006), ('wc_16', 0.8000000000000006)]",0.9600000000000002,,,29.0,0.003915,['Pass'],Pass,0.8000000000000006,-0.6000000000000005,1.0,5.0,0.9
394.0,16.0,wc_16,,0.0,,,,382.0,,,,Pass,,,,,
394.0,16.0,wc_16,wc_5,1.0,"[('wc_5', 0.27000000000000013), ('wc_16', 0.8000000000000006), ('wc_10', 0.8000000000000006)]",0.9708000000000002,,,20.0,0.04183699999999999,['Pass'],Pass,0.27000000000000013,-0.27000000000000013,0.0,0.0,0.2
403.0,17.0,wc_17,,0.0,,,,202.0,,,,Pass,,,,,
403.0,17.0,wc_17,,0.0,,,50.0,,,,,Pass,,,,,
403.0,17.0,wc_17,,0.0,,,,0.0,,,,Pass,,,,,
403.0,17.0,wc_17,wc_17,0.0,"[('wc_17', 0.7700000000000006)]",0.7700000000000006,,,29.0,0.002182,['Fail'],Pass,0.7700000000000006,-0.5200000000000006,1.0,4.0,0.6
403.0,17.0,wc_17,,0.0,,,,243.0,,,,Pass,,,,,
403.0,17.0,wc_17,wc_1,0.0,"[('wc_1', 0.8100000000000006)]",0.8100000000000006,,,23.0,0.004501,['Pass'],Pass,0.8100000000000006,-0.5372727272727279,0.0,0.0,1.0
403.0,17.0,wc_17,,0.0,,,,182.0,,,,Pass,,,,,
403.0,17.0,wc_17,wc_12,0.0,"[('wc_12', 0.27000000000000013), ('wc_17', 0.7700000000000006)]",0.8321000000000005,,,30.0,0.006137999999999999,['Fail'],Pass,0.27000000000000013,-0.27000000000000013,0.0,7.0,0.2
403.0,17.0,wc_17,,0.0,,,,222.0,,,,Pass,,,,,
403.0,17.0,wc_17,wc_8,0.0,"[('wc_8', 0.8500000000000006), ('wc_1', 0.8100000000000006)]",0.9715000000000003,,,40.0,0.007463000000000001,['Pass'],Pass,0.8500000000000006,-0.6277777777777784,2.0,9.0,1.0
403.0,17.0,wc_17,,0.0,,,,301.0,,,,Pass,,,,,
403.0,17.0,wc_17,wc_4,1.0,"[('wc_4', 0.5300000000000004), ('wc_1', 0.8100000000000006), ('wc_8', 0.8500000000000006)]",0.9866050000000001,,,39.0,0.04254100000000001,['Pass'],Pass,0.5300000000000004,-0.28000000000000036,2.0,8.0,0.5
