mpecck/BCQC/bcqc_with_qdt/results/raw/input_10/independent_qc/training/20_workpiece/20200429_084438/wp_13_qc_majority_0.9.csv
production_index,step_idx,production_workcell,qc,consent,winner_qc_list,score,production_time,transport_time,inspection_time,network_time,qc_results,actual_quality,qc_score,score_error,in_winner_counter,in_qc_counter,qc_capability
44.0,1.0,wc_1,,0.0,,,69.0,,,,,Pass,,,,,
44.0,1.0,wc_1,,0.0,,,,0.0,,,,Pass,,,,,
44.0,1.0,wc_1,wc_1,0.0,"[('wc_1', 0.6300000000000004)]",0.6300000000000004,,,34.0,0.002213,['Pass'],Pass,0.6300000000000004,-0.5050000000000004,1.0,8.0,1.0
44.0,1.0,wc_1,,0.0,,,,203.0,,,,Pass,,,,,
44.0,1.0,wc_1,wc_9,0.0,"[('wc_9', 0.5900000000000004), ('wc_1', 0.6300000000000004)]",0.8483000000000003,,,38.0,0.0044670000000000005,['Pass'],Pass,0.5900000000000004,-0.09000000000000041,1.0,2.0,0.6
44.0,1.0,wc_1,,0.0,,,,121.0,,,,Pass,,,,,
44.0,1.0,wc_1,wc_13,1.0,"[('wc_13', 0.6900000000000005), ('wc_1', 0.6300000000000004), ('wc_9', 0.5900000000000004)]",0.9529730000000002,,,36.0,0.035456999999999995,['Pass'],Pass,0.6900000000000005,-0.4677777777777783,2.0,9.0,0.7
54.0,3.0,wc_3,,0.0,,,,341.0,,,,Pass,,,,,
54.0,3.0,wc_3,,0.0,,,71.0,,,,,Pass,,,,,
54.0,3.0,wc_3,,0.0,,,,0.0,,,,Pass,,,,,
54.0,3.0,wc_3,wc_3,0.0,"[('wc_3', 0.7900000000000006)]",0.7900000000000006,,,35.0,0.002437,['Pass'],Pass,0.7900000000000006,-0.7900000000000006,0.0,1.0,1.0
54.0,3.0,wc_3,,0.0,,,,242.0,,,,Pass,,,,,
54.0,3.0,wc_3,wc_17,0.0,"[('wc_17', 0.6100000000000004), ('wc_3', 0.7900000000000006)]",0.9181000000000004,,,29.0,0.004251,['Pass'],Pass,0.6100000000000004,0.0566666666666662,2.0,3.0,0.6
54.0,3.0,wc_3,,0.0,,,,61.0,,,,Pass,,,,,
54.0,3.0,wc_3,wc_14,1.0,"[('wc_14', 0.5800000000000004), ('wc_3', 0.7900000000000006), ('wc_17', 0.6100000000000004)]",0.9656020000000002,,,28.0,0.036267999999999995,['Pass'],Pass,0.5800000000000004,-0.3300000000000004,2.0,8.0,0.7
59.0,4.0,wc_4,,0.0,,,,341.0,,,,Pass,,,,,
59.0,4.0,wc_4,,0.0,,,75.0,,,,,Pass,,,,,
59.0,4.0,wc_4,,0.0,,,,0.0,,,,Pass,,,,,
59.0,4.0,wc_4,wc_4,0.0,"[('wc_4', 0.4500000000000003)]",0.4500000000000003,,,31.0,0.002638,['Pass'],Pass,0.4500000000000003,-0.39736842105263187,0.0,0.0,0.5
59.0,4.0,wc_4,,0.0,,,,121.0,,,,Pass,,,,,
59.0,4.0,wc_4,wc_8,0.0,"[('wc_8', 0.7500000000000006), ('wc_4', 0.4500000000000003)]",0.8625000000000004,,,30.0,0.004446,['Pass'],Pass,0.7500000000000006,-0.6500000000000006,0.0,0.0,1.0
59.0,4.0,wc_4,,0.0,,,,0.0,,,,Pass,,,,,
59.0,4.0,wc_4,wc_10,1.0,"[('wc_10', 0.7300000000000005), ('wc_4', 0.4500000000000003), ('wc_8', 0.7500000000000006)]",0.9628750000000001,,,35.0,0.03843,['Pass'],Pass,0.7300000000000005,-0.5077777777777783,2.0,9.0,0.9
65.0,2.0,wc_2,,0.0,,,,243.0,,,,Pass,,,,,
65.0,2.0,wc_2,,0.0,,,72.0,,,,,Pass,,,,,
65.0,2.0,wc_2,,0.0,,,,0.0,,,,Pass,,,,,
65.0,2.0,wc_2,wc_2,0.0,"[('wc_2', 0.5700000000000004)]",0.5700000000000004,,,21.0,0.002937,['Fail'],Pass,0.5700000000000004,-0.5700000000000004,0.0,0.0,0.5
65.0,2.0,wc_2,,0.0,,,,122.0,,,,Pass,,,,,
65.0,2.0,wc_2,wc_6,0.0,"[('wc_6', 0.8300000000000006), ('wc_2', 0.5700000000000004)]",0.9269000000000003,,,40.0,0.004618000000000001,['Fail'],Pass,0.8300000000000006,-0.8300000000000006,0.0,7.0,0.8
65.0,2.0,wc_2,,0.0,,,,263.0,,,,Pass,,,,,
65.0,2.0,wc_2,wc_17,1.0,"[('wc_17', 0.6200000000000004), ('wc_2', 0.5700000000000004), ('wc_6', 0.8300000000000006)]",0.9722220000000001,,,35.0,0.03863,['Fail'],Pass,0.6300000000000004,0.03666666666666618,4.0,6.0,0.6
87.0,5.0,wc_5,,0.0,,,,402.0,,,,Fail,,,,,
87.0,5.0,wc_5,,0.0,,,73.0,,,,,Fail,,,,,
87.0,5.0,wc_5,,0.0,,,,0.0,,,,Fail,,,,,
87.0,5.0,wc_5,wc_5,0.0,"[('wc_5', 0.20000000000000007)]",0.20000000000000007,,,21.0,0.002147,['Pass'],Fail,0.20000000000000007,-0.20000000000000007,0.0,6.0,0.2
87.0,5.0,wc_5,,0.0,,,,121.0,,,,Fail,,,,,
87.0,5.0,wc_5,wc_13,0.0,"[('wc_13', 0.6900000000000005)]",0.6900000000000005,,,25.0,0.004259,['Fail'],Fail,0.6900000000000005,-0.5233333333333339,0.0,0.0,0.7
87.0,5.0,wc_5,,0.0,,,,0.0,,,,Fail,,,,,
87.0,5.0,wc_5,wc_15,0.0,"[('wc_13', 0.6900000000000005)]",0.6900000000000005,,,28.0,0.005781,['Fail'],Fail,0.2400000000000001,-0.2400000000000001,0.0,4.0,0.2
87.0,5.0,wc_5,,0.0,,,,283.0,,,,Fail,,,,,
87.0,5.0,wc_5,wc_1,0.0,"[('wc_1', 0.6300000000000004), ('wc_13', 0.6900000000000005)]",0.8853000000000003,,,27.0,0.008684,['Fail'],Fail,0.6300000000000004,-0.4633333333333338,0.0,0.0,1.0
87.0,5.0,wc_5,,0.0,,,,0.0,,,,Fail,,,,,
87.0,5.0,wc_5,wc_4,0.0,"[('wc_13', 0.6900000000000005), ('wc_1', 0.6300000000000004)]",0.8853000000000003,,,25.0,0.011958000000000002,['Fail'],Fail,0.4600000000000003,0.0399999999999997,1.0,2.0,0.5
87.0,5.0,wc_5,,0.0,,,,161.0,,,,Fail,,,,,
87.0,5.0,wc_5,wc_14,1.0,"[('wc_14', 0.5800000000000004), ('wc_13', 0.6900000000000005), ('wc_1', 0.6300000000000004)]",0.9518260000000002,,,29.0,0.051645,['Fail'],Fail,0.5800000000000004,-0.5800000000000004,0.0,0.0,0.7
125.0,5.0,wc_5,,0.0,,,,361.0,,,,Fail,,,,,
125.0,5.0,wc_5,,0.0,,,67.0,,,,,Fail,,,,,
125.0,5.0,wc_5,,0.0,,,,0.0,,,,Fail,,,,,
125.0,5.0,wc_5,wc_5,0.0,"[('wc_5', 0.19000000000000006)]",0.19000000000000006,,,26.0,0.002315,['Pass'],Fail,0.19000000000000006,-0.19000000000000006,0.0,7.0,0.2
125.0,5.0,wc_5,,0.0,,,,81.0,,,,Fail,,,,,
125.0,5.0,wc_5,wc_7,0.0,"[('wc_7', 0.4400000000000003)]",0.4400000000000003,,,29.0,0.003902,['Fail'],Fail,0.4400000000000003,-0.19000000000000028,2.0,8.0,0.3
125.0,5.0,wc_5,,0.0,,,,162.0,,,,Fail,,,,,
125.0,5.0,wc_5,wc_13,0.0,"[('wc_13', 0.7000000000000005), ('wc_7', 0.4400000000000003)]",0.8320000000000004,,,29.0,0.005658,['Fail'],Fail,0.7000000000000005,0.2999999999999995,1.0,1.0,0.7
125.0,5.0,wc_5,,0.0,,,,102.0,,,,Fail,,,,,
125.0,5.0,wc_5,wc_12,0.0,"[('wc_12', 0.2400000000000001), ('wc_7', 0.4400000000000003), ('wc_13', 0.7000000000000005)]",0.8723200000000003,,,28.0,0.007899,['Fail'],Fail,0.2400000000000001,-0.1150000000000001,1.0,8.0,0.2
125.0,5.0,wc_5,,0.0,,,,0.0,,,,Fail,,,,,
125.0,5.0,wc_5,wc_14,1.0,"[('wc_14', 0.5800000000000004), ('wc_7', 0.4400000000000003), ('wc_13', 0.7000000000000005), ('wc_12', 0.2400000000000001)]",0.9463744000000002,,,39.0,0.045932,['Fail'],Fail,0.5900000000000004,0.4099999999999996,1.0,1.0,0.7
200.0,5.0,wc_5,,0.0,,,,361.0,,,,Fail,,,,,
200.0,5.0,wc_5,,0.0,,,52.0,,,,,Fail,,,,,
200.0,5.0,wc_5,,0.0,,,,0.0,,,,Fail,,,,,
200.0,5.0,wc_5,wc_5,0.0,"[('wc_5', 0.18000000000000005)]",0.18000000000000005,,,37.0,0.002129,['Pass'],Fail,0.18000000000000005,-0.18000000000000005,0.0,8.0,0.2
200.0,5.0,wc_5,,0.0,,,,162.0,,,,Fail,,,,,
200.0,5.0,wc_5,wc_15,0.0,"[('wc_15', 0.2300000000000001)]",0.2300000000000001,,,36.0,0.004651000000000001,['Fail'],Fail,0.2300000000000001,-0.2300000000000001,0.0,6.0,0.2
200.0,5.0,wc_5,,0.0,,,,283.0,,,,Fail,,,,,
200.0,5.0,wc_5,wc_1,0.0,"[('wc_1', 0.6400000000000005), ('wc_15', 0.2300000000000001)]",0.7228000000000003,,,23.0,0.005621,['Fail'],Fail,0.6400000000000005,-0.14000000000000046,1.0,2.0,1.0
200.0,5.0,wc_5,,0.0,,,,182.0,,,,Fail,,,,,
200.0,5.0,wc_5,wc_8,1.0,"[('wc_8', 0.7600000000000006), ('wc_15', 0.2300000000000001), ('wc_1', 0.6400000000000005)]",0.9334720000000003,,,37.0,0.045057,['Fail'],Fail,0.7600000000000006,-0.36000000000000054,2.0,5.0,1.0
234.0,5.0,wc_5,,0.0,,,,321.0,,,,Fail,,,,,
234.0,5.0,wc_5,,0.0,,,64.0,,,,,Fail,,,,,
234.0,5.0,wc_5,,0.0,,,,0.0,,,,Fail,,,,,
234.0,5.0,wc_5,wc_5,0.0,"[('wc_5', 0.17000000000000004)]",0.17000000000000004,,,24.0,0.002364,['Pass'],Fail,0.17000000000000004,-0.17000000000000004,0.0,9.0,0.2
234.0,5.0,wc_5,,0.0,,,,162.0,,,,Fail,,,,,
234.0,5.0,wc_5,wc_11,0.0,"[('wc_11', 0.3400000000000002)]",0.3400000000000002,,,33.0,0.004106,['Fail'],Fail,0.3400000000000002,-0.3400000000000002,0.0,0.0,0.3
234.0,5.0,wc_5,,0.0,,,,122.0,,,,Fail,,,,,
234.0,5.0,wc_5,wc_15,0.0,"[('wc_15', 0.2300000000000001), ('wc_5', 0.17000000000000004)]",0.3609000000000001,,,22.0,0.005791,['Pass'],Fail,0.2300000000000001,-0.08714285714285724,1.0,7.0,0.2
234.0,5.0,wc_5,,0.0,,,,263.0,,,,Fail,,,,,
234.0,5.0,wc_5,wc_8,0.0,"[('wc_8', 0.7600000000000006), ('wc_11', 0.3400000000000002)]",0.8416000000000005,,,21.0,0.00821,['Fail'],Fail,0.7600000000000006,-0.36000000000000054,2.0,5.0,1.0
234.0,5.0,wc_5,,0.0,,,,281.0,,,,Fail,,,,,
234.0,5.0,wc_5,wc_3,1.0,"[('wc_3', 0.7900000000000006), ('wc_11', 0.3400000000000002), ('wc_8', 0.7600000000000006)]",0.9667360000000002,,,40.0,0.040865,['Fail'],Fail,0.7900000000000006,-0.5400000000000006,2.0,8.0,1.0
270.0,5.0,wc_5,,0.0,,,,0.0,,,,Pass,,,,,
270.0,5.0,wc_5,,0.0,,,73.0,,,,,Pass,,,,,
270.0,5.0,wc_5,,0.0,,,,0.0,,,,Pass,,,,,
270.0,5.0,wc_5,wc_5,0.0,"[('wc_5', 0.16000000000000003)]",0.16000000000000003,,,32.0,0.002153,['Pass'],Pass,0.16000000000000003,-0.16000000000000003,0.0,0.0,0.2
270.0,5.0,wc_5,,0.0,,,,81.0,,,,Pass,,,,,
270.0,5.0,wc_5,wc_7,0.0,"[('wc_7', 0.4400000000000003), ('wc_5', 0.16000000000000003)]",0.5296000000000003,,,20.0,0.003876,['Pass'],Pass,0.4400000000000003,-0.16727272727272757,0.0,0.0,0.3
270.0,5.0,wc_5,,0.0,,,,0.0,,,,Pass,,,,,
270.0,5.0,wc_5,wc_11,0.0,"[('wc_5', 0.16000000000000003), ('wc_7', 0.4400000000000003)]",0.5296000000000003,,,25.0,0.006076,['Pass'],Pass,0.3500000000000002,0.6499999999999998,1.0,1.0,0.3
270.0,5.0,wc_5,,0.0,,,,101.0,,,,Pass,,,,,
270.0,5.0,wc_5,wc_14,0.0,"[('wc_14', 0.5900000000000004), ('wc_5', 0.16000000000000003), ('wc_7', 0.4400000000000003)]",0.8071360000000003,,,23.0,0.007587999999999999,['Pass'],Pass,0.5900000000000004,-0.2566666666666671,1.0,3.0,0.7
270.0,5.0,wc_5,,0.0,,,,341.0,,,,Pass,,,,,
270.0,5.0,wc_5,wc_4,0.0,"[('wc_4', 0.4500000000000003), ('wc_5', 0.16000000000000003), ('wc_7', 0.4400000000000003), ('wc_14', 0.5900000000000004)]",0.8939248000000002,,,40.0,0.010155,['Pass'],Pass,0.4500000000000003,-0.28333333333333366,1.0,6.0,0.5
270.0,5.0,wc_5,,0.0,,,,121.0,,,,Pass,,,,,
270.0,5.0,wc_5,wc_12,0.0,"[('wc_5', 0.16000000000000003), ('wc_7', 0.4400000000000003), ('wc_14', 0.5900000000000004), ('wc_4', 0.4500000000000003)]",0.8939248000000002,,,33.0,0.012696,['Pass'],Pass,0.2400000000000001,-0.05818181818181828,0.0,0.0,0.2
270.0,5.0,wc_5,,0.0,,,,0.0,,,,Pass,,,,,
270.0,5.0,wc_5,wc_17,1.0,"[('wc_17', 0.6300000000000004), ('wc_5', 0.16000000000000003), ('wc_7', 0.4400000000000003), ('wc_14', 0.5900000000000004), ('wc_4', 0.4500000000000003)]",0.9607521760000002,,,38.0,0.042934,['Pass'],Pass,0.6300000000000004,-0.6300000000000004,0.0,0.0,0.6
290.0,6.0,wc_6,,0.0,,,,183.0,,,,Fail,,,,,
290.0,6.0,wc_6,,0.0,,,75.0,,,,,Fail,,,,,
290.0,6.0,wc_6,,0.0,,,,0.0,,,,Fail,,,,,
290.0,6.0,wc_6,wc_6,0.0,"[('wc_6', 0.8300000000000006)]",0.8300000000000006,,,27.0,0.002068,['Fail'],Fail,0.8300000000000006,-0.7530769230769236,0.0,0.0,0.8
290.0,6.0,wc_6,,0.0,,,,222.0,,,,Fail,,,,,
290.0,6.0,wc_6,wc_2,0.0,"[('wc_2', 0.5800000000000004), ('wc_6', 0.8300000000000006)]",0.9286000000000003,,,39.0,0.004025,['Fail'],Fail,0.5800000000000004,-0.4133333333333338,1.0,6.0,0.5
290.0,6.0,wc_6,,0.0,,,,182.0,,,,Fail,,,,,
290.0,6.0,wc_6,wc_13,1.0,"[('wc_13', 0.7100000000000005), ('wc_6', 0.8300000000000006), ('wc_2', 0.5800000000000004)]",0.9792940000000001,,,36.0,0.043491,['Fail'],Fail,0.7100000000000005,-0.21000000000000052,3.0,6.0,0.7
326.0,6.0,wc_6,,0.0,,,,162.0,,,,Pass,,,,,
326.0,6.0,wc_6,,0.0,,,74.0,,,,,Pass,,,,,
326.0,6.0,wc_6,,0.0,,,,0.0,,,,Pass,,,,,
326.0,6.0,wc_6,wc_6,0.0,"[('wc_6', 0.8400000000000006)]",0.8400000000000006,,,20.0,0.002088,['Pass'],Pass,0.8400000000000006,0.15999999999999936,1.0,1.0,0.8
326.0,6.0,wc_6,,0.0,,,,263.0,,,,Pass,,,,,
326.0,6.0,wc_6,wc_17,0.0,"[('wc_17', 0.6300000000000004), ('wc_6', 0.8400000000000006)]",0.9408000000000003,,,24.0,0.004535,['Pass'],Pass,0.6300000000000004,-0.6300000000000004,0.0,1.0,0.6
326.0,6.0,wc_6,,0.0,,,,362.0,,,,Pass,,,,,
326.0,6.0,wc_6,wc_11,1.0,"[('wc_11', 0.3500000000000002), ('wc_6', 0.8400000000000006), ('wc_17', 0.6300000000000004)]",0.9615200000000003,,,40.0,0.042226,['Pass'],Pass,0.3600000000000002,0.1399999999999998,2.0,4.0,0.3
339.0,9.0,wc_9,,0.0,,,,83.0,,,,Pass,,,,,
339.0,9.0,wc_9,,0.0,,,78.0,,,,,Pass,,,,,
339.0,9.0,wc_9,,0.0,,,,0.0,,,,Pass,,,,,
339.0,9.0,wc_9,wc_9,0.0,"[('wc_9', 0.6000000000000004)]",0.6000000000000004,,,24.0,0.002413,['Pass'],Pass,0.6000000000000004,-0.44615384615384657,0.0,0.0,0.6
339.0,9.0,wc_9,,0.0,,,,243.0,,,,Pass,,,,,
339.0,9.0,wc_9,wc_1,0.0,"[('wc_1', 0.6500000000000005), ('wc_9', 0.6000000000000004)]",0.8600000000000003,,,37.0,0.003798,['Pass'],Pass,0.6500000000000005,-0.36428571428571477,2.0,7.0,1.0
339.0,9.0,wc_9,,0.0,,,,182.0,,,,Pass,,,,,
339.0,9.0,wc_9,wc_8,1.0,"[('wc_8', 0.7600000000000006), ('wc_9', 0.6000000000000004), ('wc_1', 0.6500000000000005)]",0.9664000000000001,,,34.0,0.036951000000000005,['Pass'],Pass,0.7600000000000006,-0.7600000000000006,0.0,0.0,1.0
355.0,7.0,wc_7,,0.0,,,,102.0,,,,Pass,,,,,
355.0,7.0,wc_7,,0.0,,,53.0,,,,,Pass,,,,,
355.0,7.0,wc_7,,0.0,,,,0.0,,,,Pass,,,,,
355.0,7.0,wc_7,wc_7,0.0,"[('wc_7', 0.4500000000000003)]",0.4500000000000003,,,34.0,0.002351,['Pass'],Pass,0.4500000000000003,-0.2000000000000003,1.0,4.0,0.3
355.0,7.0,wc_7,,0.0,,,,0.0,,,,Pass,,,,,
355.0,7.0,wc_7,wc_10,0.0,"[('wc_10', 0.7300000000000005), ('wc_7', 0.4500000000000003)]",0.8515000000000004,,,36.0,0.004845,['Pass'],Pass,0.7300000000000005,-0.6188888888888895,0.0,0.0,0.9
355.0,7.0,wc_7,,0.0,,,,81.0,,,,Pass,,,,,
355.0,7.0,wc_7,wc_12,0.0,"[('wc_12', 0.2300000000000001), ('wc_7', 0.4500000000000003), ('wc_10', 0.7300000000000005)]",0.8856550000000003,,,39.0,0.006150999999999999,['Pass'],Pass,0.2300000000000001,-0.2300000000000001,0.0,4.0,0.2
355.0,7.0,wc_7,,0.0,,,,262.0,,,,Pass,,,,,
355.0,7.0,wc_7,wc_2,1.0,"[('wc_2', 0.5800000000000004), ('wc_7', 0.4500000000000003), ('wc_10', 0.7300000000000005), ('wc_12', 0.2300000000000001)]",0.9519751000000002,,,26.0,0.03876999999999999,['Pass'],Pass,0.5800000000000004,-0.5800000000000004,0.0,0.0,0.5
375.0,11.0,wc_11,,0.0,,,,223.0,,,,Fail,,,,,
375.0,11.0,wc_11,,0.0,,,66.0,,,,,Fail,,,,,
375.0,11.0,wc_11,,0.0,,,,0.0,,,,Fail,,,,,
375.0,11.0,wc_11,wc_11,0.0,"[('wc_11', 0.3600000000000002)]",0.3600000000000002,,,37.0,0.002383,['Pass'],Fail,0.3600000000000002,-0.026666666666666894,2.0,6.0,0.3
375.0,11.0,wc_11,,0.0,,,,342.0,,,,Fail,,,,,
375.0,11.0,wc_11,wc_4,0.0,"[('wc_4', 0.4500000000000003), ('wc_11', 0.3600000000000002)]",0.6480000000000004,,,35.0,0.004867,['Pass'],Fail,0.4500000000000003,-0.26818181818181847,0.0,0.0,0.5
375.0,11.0,wc_11,,0.0,,,,142.0,,,,Fail,,,,,
375.0,11.0,wc_11,wc_9,0.0,"[('wc_11', 0.3600000000000002), ('wc_4', 0.4500000000000003)]",0.6480000000000004,,,29.0,0.007694,['Pass'],Fail,0.6100000000000004,-0.11000000000000043,1.0,2.0,0.6
375.0,11.0,wc_11,,0.0,,,,121.0,,,,Fail,,,,,
375.0,11.0,wc_11,wc_13,0.0,"[('wc_13', 0.7100000000000005), ('wc_9', 0.6100000000000004)]",0.8869000000000004,,,25.0,0.007908,['Fail'],Fail,0.7100000000000005,-0.3766666666666672,3.0,9.0,0.7
375.0,11.0,wc_11,,0.0,,,,0.0,,,,Fail,,,,,
375.0,11.0,wc_11,wc_16,1.0,"[('wc_16', 0.7500000000000006), ('wc_9', 0.6100000000000004), ('wc_13', 0.7100000000000005)]",0.9717250000000002,,,29.0,0.042364,['Fail'],Fail,0.7500000000000006,-0.7500000000000006,0.0,0.0,0.9
384.0,11.0,wc_11,,0.0,,,,382.0,,,,Fail,,,,,
384.0,11.0,wc_11,,0.0,,,52.0,,,,,Fail,,,,,
384.0,11.0,wc_11,,0.0,,,,0.0,,,,Fail,,,,,
384.0,11.0,wc_11,wc_11,0.0,"[('wc_11', 0.3500000000000002)]",0.3500000000000002,,,38.0,0.00223,['Fail'],Fail,0.3500000000000002,-0.0642857142857145,2.0,7.0,0.3
384.0,11.0,wc_11,,0.0,,,,61.0,,,,Fail,,,,,
384.0,11.0,wc_11,wc_8,0.0,"[('wc_8', 0.7600000000000006), ('wc_11', 0.3500000000000002)]",0.8440000000000004,,,21.0,0.004057,['Fail'],Fail,0.7600000000000006,-0.7600000000000006,0.0,2.0,1.0
384.0,11.0,wc_11,,0.0,,,,122.0,,,,Fail,,,,,
384.0,11.0,wc_11,wc_12,0.0,"[('wc_12', 0.2300000000000001), ('wc_11', 0.3500000000000002), ('wc_8', 0.7600000000000006)]",0.8798800000000003,,,31.0,0.006593,['Fail'],Fail,0.2300000000000001,-0.06333333333333344,1.0,6.0,0.2
384.0,11.0,wc_11,,0.0,,,,0.0,,,,Fail,,,,,
384.0,11.0,wc_11,wc_16,1.0,"[('wc_16', 0.7500000000000006), ('wc_11', 0.3500000000000002), ('wc_8', 0.7600000000000006), ('wc_12', 0.2300000000000001)]",0.9699700000000001,,,40.0,0.04332100000000001,['Fail'],Fail,0.7600000000000006,0.23999999999999944,1.0,1.0,0.9
396.0,8.0,wc_8,,0.0,,,,243.0,,,,Fail,,,,,
396.0,8.0,wc_8,,0.0,,,80.0,,,,,Fail,,,,,
396.0,8.0,wc_8,,0.0,,,,0.0,,,,Fail,,,,,
396.0,8.0,wc_8,wc_8,0.0,"[('wc_8', 0.7600000000000006)]",0.7600000000000006,,,24.0,0.002367,['Fail'],Fail,0.7600000000000006,-0.42666666666666725,1.0,3.0,1.0
396.0,8.0,wc_8,,0.0,,,,0.0,,,,Fail,,,,,
396.0,8.0,wc_8,wc_11,0.0,"[('wc_8', 0.7600000000000006)]",0.7600000000000006,,,20.0,0.004232,['Fail'],Fail,0.3600000000000002,0.014999999999999791,3.0,8.0,0.3
396.0,8.0,wc_8,,0.0,,,,21.0,,,,Fail,,,,,
396.0,8.0,wc_8,wc_6,0.0,"[('wc_6', 0.8500000000000006), ('wc_8', 0.7600000000000006)]",0.9640000000000002,,,40.0,0.006383000000000001,['Fail'],Fail,0.8500000000000006,-0.5166666666666673,2.0,6.0,0.8
396.0,8.0,wc_8,,0.0,,,,321.0,,,,Fail,,,,,
396.0,8.0,wc_8,wc_3,0.0,"[('wc_8', 0.7600000000000006), ('wc_6', 0.8500000000000006)]",0.9640000000000002,,,23.0,0.007337,['Fail'],Fail,0.7900000000000006,-0.6566666666666673,0.0,0.0,1.0
396.0,8.0,wc_8,,0.0,,,,101.0,,,,Fail,,,,,
396.0,8.0,wc_8,wc_2,1.0,"[('wc_2', 0.5800000000000004), ('wc_8', 0.7600000000000006), ('wc_6', 0.8500000000000006)]",0.9848800000000001,,,21.0,0.044729000000000005,['Fail'],Fail,0.5800000000000004,-0.2466666666666671,1.0,3.0,0.5
412.0,8.0,wc_8,,0.0,,,,162.0,,,,Fail,,,,,
412.0,8.0,wc_8,,0.0,,,80.0,,,,,Fail,,,,,
412.0,8.0,wc_8,,0.0,,,,0.0,,,,Fail,,,,,
412.0,8.0,wc_8,wc_8,0.0,"[('wc_8', 0.7600000000000006)]",0.7600000000000006,,,32.0,0.002199,['Pass'],Fail,0.7600000000000006,-0.26000000000000056,2.0,4.0,1.0
412.0,8.0,wc_8,,0.0,,,,82.0,,,,Fail,,,,,
412.0,8.0,wc_8,wc_6,0.0,"[('wc_6', 0.8500000000000006)]",0.8500000000000006,,,35.0,0.004054,['Fail'],Fail,0.8500000000000006,-0.4214285714285721,3.0,7.0,0.8
412.0,8.0,wc_8,,0.0,,,,243.0,,,,Fail,,,,,
412.0,8.0,wc_8,wc_16,0.0,"[('wc_16', 0.7600000000000006), ('wc_8', 0.7600000000000006)]",0.9424000000000002,,,39.0,0.005939,['Pass'],Fail,0.7600000000000006,-0.26000000000000056,1.0,2.0,0.9
412.0,8.0,wc_8,,0.0,,,,81.0,,,,Fail,,,,,
412.0,8.0,wc_8,wc_14,0.0,"[('wc_8', 0.7600000000000006), ('wc_16', 0.7600000000000006)]",0.9424000000000002,,,32.0,0.007369,['Pass'],Fail,0.5900000000000004,-0.4081818181818186,0.0,0.0,0.7
412.0,8.0,wc_8,,0.0,,,,0.0,,,,Fail,,,,,
412.0,8.0,wc_8,wc_17,1.0,"[('wc_17', 0.6300000000000004), ('wc_8', 0.7600000000000006), ('wc_16', 0.7600000000000006)]",0.9786880000000001,,,20.0,0.04787100000000001,['Pass'],Fail,0.6300000000000004,-0.38000000000000045,2.0,8.0,0.6
424.0,8.0,wc_8,,0.0,,,,223.0,,,,Fail,,,,,
424.0,8.0,wc_8,,0.0,,,75.0,,,,,Fail,,,,,
424.0,8.0,wc_8,,0.0,,,,0.0,,,,Fail,,,,,
424.0,8.0,wc_8,wc_8,0.0,"[('wc_8', 0.7600000000000006)]",0.7600000000000006,,,37.0,0.002116,['Fail'],Fail,0.7600000000000006,-0.1600000000000006,3.0,5.0,1.0
424.0,8.0,wc_8,,0.0,,,,82.0,,,,Fail,,,,,
424.0,8.0,wc_8,wc_6,0.0,"[('wc_6', 0.8400000000000006), ('wc_8', 0.7600000000000006)]",0.9616000000000002,,,32.0,0.004057,['Fail'],Fail,0.8400000000000006,-0.46500000000000064,3.0,8.0,0.8
424.0,8.0,wc_8,,0.0,,,,0.0,,,,Fail,,,,,
424.0,8.0,wc_8,wc_9,1.0,"[('wc_9', 0.6200000000000004), ('wc_8', 0.7600000000000006), ('wc_6', 0.8400000000000006)]",0.9854080000000001,,,35.0,0.038836,['Fail'],Fail,0.6200000000000004,-0.1914285714285719,3.0,7.0,0.6
431.0,8.0,wc_8,,0.0,,,,101.0,,,,Pass,,,,,
431.0,8.0,wc_8,,0.0,,,64.0,,,,,Pass,,,,,
431.0,8.0,wc_8,,0.0,,,,0.0,,,,Pass,,,,,
431.0,8.0,wc_8,wc_8,0.0,"[('wc_8', 0.7600000000000006)]",0.7600000000000006,,,32.0,0.002479,['Pass'],Pass,0.7600000000000006,-0.09333333333333393,4.0,6.0,1.0
431.0,8.0,wc_8,,0.0,,,,223.0,,,,Pass,,,,,
431.0,8.0,wc_8,wc_17,0.0,"[('wc_17', 0.6300000000000004), ('wc_8', 0.7600000000000006)]",0.9112000000000003,,,27.0,0.0039369999999999995,['Pass'],Pass,0.6300000000000004,-0.40777777777777824,2.0,9.0,0.6
431.0,8.0,wc_8,,0.0,,,,362.0,,,,Pass,,,,,
431.0,8.0,wc_8,wc_3,1.0,"[('wc_3', 0.7800000000000006), ('wc_8', 0.7600000000000006), ('wc_17', 0.6300000000000004)]",0.9804640000000001,,,34.0,0.037451,['Pass'],Pass,0.7800000000000006,-0.5300000000000006,1.0,4.0,1.0
444.0,11.0,wc_11,,0.0,,,,202.0,,,,Fail,,,,,
444.0,11.0,wc_11,,0.0,,,63.0,,,,,Fail,,,,,
444.0,11.0,wc_11,,0.0,,,,0.0,,,,Fail,,,,,
444.0,11.0,wc_11,wc_11,0.0,"[('wc_11', 0.3500000000000002)]",0.3500000000000002,,,31.0,0.002036,['Pass'],Fail,0.3500000000000002,-0.1000000000000002,0.0,0.0,0.3
444.0,11.0,wc_11,,0.0,,,,322.0,,,,Fail,,,,,
444.0,11.0,wc_11,wc_3,0.0,"[('wc_3', 0.7800000000000006)]",0.7800000000000006,,,31.0,0.004005,['Fail'],Fail,0.7800000000000006,-0.5300000000000006,1.0,4.0,1.0
444.0,11.0,wc_11,,0.0,,,,81.0,,,,Fail,,,,,
444.0,11.0,wc_11,wc_1,0.0,"[('wc_1', 0.6500000000000005), ('wc_3', 0.7800000000000006)]",0.9230000000000003,,,38.0,0.006684999999999999,['Fail'],Fail,0.6500000000000005,-0.45000000000000046,0.0,0.0,1.0
444.0,11.0,wc_11,,0.0,,,,263.0,,,,Fail,,,,,
444.0,11.0,wc_11,wc_16,1.0,"[('wc_16', 0.7600000000000006), ('wc_3', 0.7800000000000006), ('wc_1', 0.6500000000000005)]",0.9815200000000002,,,39.0,0.042397,['Fail'],Fail,0.7600000000000006,-0.26000000000000056,3.0,6.0,0.9
453.0,11.0,wc_11,,0.0,,,,382.0,,,,Pass,,,,,
453.0,11.0,wc_11,,0.0,,,69.0,,,,,Pass,,,,,
453.0,11.0,wc_11,,0.0,,,,0.0,,,,Pass,,,,,
453.0,11.0,wc_11,wc_11,0.0,"[('wc_11', 0.3400000000000002)]",0.3400000000000002,,,30.0,0.002235,['Fail'],Pass,0.3400000000000002,-0.3400000000000002,0.0,1.0,0.3
453.0,11.0,wc_11,,0.0,,,,122.0,,,,Pass,,,,,
453.0,11.0,wc_11,wc_15,0.0,"[('wc_15', 0.22000000000000008), ('wc_11', 0.3400000000000002)]",0.4852000000000002,,,22.0,0.0040420000000000005,['Fail'],Pass,0.22000000000000008,-0.1700000000000001,0.0,0.0,0.2
453.0,11.0,wc_11,,0.0,,,,101.0,,,,Pass,,,,,
453.0,11.0,wc_11,wc_14,0.0,"[('wc_14', 0.5800000000000004), ('wc_11', 0.3400000000000002), ('wc_15', 0.22000000000000008)]",0.7837840000000003,,,21.0,0.00666,['Fail'],Pass,0.5800000000000004,-0.5800000000000004,0.0,4.0,0.7
453.0,11.0,wc_11,,0.0,,,,0.0,,,,Pass,,,,,
453.0,11.0,wc_11,wc_17,1.0,"[('wc_17', 0.6300000000000004), ('wc_11', 0.3400000000000002), ('wc_15', 0.22000000000000008), ('wc_14', 0.5800000000000004)]",0.9200000800000002,,,40.0,0.04513,['Fail'],Pass,0.6300000000000004,-0.13000000000000045,1.0,2.0,0.6
473.0,10.0,wc_10,,0.0,,,,342.0,,,,Pass,,,,,
473.0,10.0,wc_10,,0.0,,,70.0,,,,,Pass,,,,,
473.0,10.0,wc_10,,0.0,,,,0.0,,,,Pass,,,,,
473.0,10.0,wc_10,wc_10,0.0,"[('wc_10', 0.7400000000000005)]",0.7400000000000005,,,21.0,0.002255,['Pass'],Pass,0.7400000000000005,-0.6288888888888895,1.0,9.0,0.9
473.0,10.0,wc_10,,0.0,,,,162.0,,,,Pass,,,,,
473.0,10.0,wc_10,wc_16,0.0,"[('wc_16', 0.7600000000000006), ('wc_10', 0.7400000000000005)]",0.9376000000000003,,,40.0,0.004276,['Pass'],Pass,0.7600000000000006,-0.331428571428572,3.0,7.0,0.9
473.0,10.0,wc_10,,0.0,,,,243.0,,,,Pass,,,,,
473.0,10.0,wc_10,wc_8,1.0,"[('wc_8', 0.7600000000000006), ('wc_10', 0.7400000000000005), ('wc_16', 0.7600000000000006)]",0.9850240000000001,,,35.0,0.03869,['Pass'],Pass,0.7600000000000006,-0.7600000000000006,0.0,0.0,1.0
492.0,12.0,wc_12,,0.0,,,,122.0,,,,Fail,,,,,
492.0,12.0,wc_12,,0.0,,,80.0,,,,,Fail,,,,,
492.0,12.0,wc_12,,0.0,,,,0.0,,,,Fail,,,,,
492.0,12.0,wc_12,wc_12,0.0,"[('wc_12', 0.2400000000000001)]",0.2400000000000001,,,35.0,0.002516,['Pass'],Fail,0.2400000000000001,-0.09714285714285725,0.0,0.0,0.2
492.0,12.0,wc_12,,0.0,,,,242.0,,,,Fail,,,,,
492.0,12.0,wc_12,wc_1,0.0,"[('wc_1', 0.6600000000000005)]",0.6600000000000005,,,36.0,0.00409,['Fail'],Fail,0.6600000000000005,-0.32666666666666716,1.0,3.0,1.0
492.0,12.0,wc_12,,0.0,,,,0.0,,,,Fail,,,,,
492.0,12.0,wc_12,wc_2,0.0,"[('wc_2', 0.5800000000000004), ('wc_1', 0.6600000000000005)]",0.8572000000000004,,,35.0,0.005861,['Fail'],Fail,0.5800000000000004,-0.4688888888888893,1.0,9.0,0.5
492.0,12.0,wc_12,,0.0,,,,263.0,,,,Fail,,,,,
492.0,12.0,wc_12,wc_17,1.0,"[('wc_17', 0.6300000000000004), ('wc_1', 0.6600000000000005), ('wc_2', 0.5800000000000004)]",0.9471640000000002,,,30.0,0.05054,['Fail'],Fail,0.6300000000000004,-0.13000000000000045,2.0,4.0,0.6
509.0,12.0,wc_12,,0.0,,,,21.0,,,,Pass,,,,,
509.0,12.0,wc_12,,0.0,,,61.0,,,,,Pass,,,,,
509.0,12.0,wc_12,,0.0,,,,0.0,,,,Pass,,,,,
509.0,12.0,wc_12,wc_12,0.0,"[('wc_12', 0.2300000000000001)]",0.2300000000000001,,,37.0,0.002083,['Fail'],Pass,0.2300000000000001,-0.2300000000000001,0.0,1.0,0.2
509.0,12.0,wc_12,,0.0,,,,341.0,,,,Pass,,,,,
509.0,12.0,wc_12,wc_10,0.0,"[('wc_10', 0.7400000000000005)]",0.7400000000000005,,,28.0,0.0041329999999999995,['Pass'],Pass,0.7400000000000005,-0.7400000000000005,0.0,1.0,0.9
509.0,12.0,wc_12,,0.0,,,,362.0,,,,Pass,,,,,
509.0,12.0,wc_12,wc_4,0.0,"[('wc_4', 0.4400000000000003), ('wc_10', 0.7400000000000005)]",0.8544000000000004,,,39.0,0.006313000000000001,['Pass'],Pass,0.4400000000000003,-0.4400000000000003,0.0,0.0,0.5
509.0,12.0,wc_12,,0.0,,,,182.0,,,,Pass,,,,,
509.0,12.0,wc_12,wc_15,0.0,"[('wc_10', 0.7400000000000005), ('wc_4', 0.4400000000000003)]",0.8544000000000004,,,22.0,0.007422,['Pass'],Pass,0.2300000000000001,0.10333333333333322,1.0,3.0,0.2
509.0,12.0,wc_12,,0.0,,,,362.0,,,,Pass,,,,,
509.0,12.0,wc_12,wc_9,1.0,"[('wc_9', 0.6200000000000004), ('wc_10', 0.7400000000000005), ('wc_4', 0.4400000000000003)]",0.9446720000000002,,,33.0,0.070914,['Pass'],Pass,0.6200000000000004,-0.6200000000000004,0.0,0.0,0.6
543.0,13.0,wc_13,,0.0,,,,121.0,,,,Pass,,,,,
543.0,13.0,wc_13,,0.0,,,70.0,,,,,Pass,,,,,
543.0,13.0,wc_13,,0.0,,,,0.0,,,,Pass,,,,,
543.0,13.0,wc_13,wc_13,0.0,"[('wc_13', 0.7100000000000005)]",0.7100000000000005,,,23.0,0.002385,['Pass'],Pass,0.7100000000000005,-0.7100000000000005,0.0,0.0,0.7
543.0,13.0,wc_13,,0.0,,,,0.0,,,,Pass,,,,,
543.0,13.0,wc_13,wc_17,0.0,"[('wc_17', 0.6300000000000004), ('wc_13', 0.7100000000000005)]",0.8927000000000003,,,39.0,0.004072,['Pass'],Pass,0.6300000000000004,-0.23000000000000043,2.0,5.0,0.6
543.0,13.0,wc_13,,0.0,,,,183.0,,,,Pass,,,,,
543.0,13.0,wc_13,wc_6,1.0,"[('wc_6', 0.8400000000000006), ('wc_13', 0.7100000000000005), ('wc_17', 0.6300000000000004)]",0.9828320000000001,,,28.0,0.037736000000000006,['Pass'],Pass,0.8400000000000006,-0.8400000000000006,0.0,0.0,0.8
551.0,15.0,wc_15,,0.0,,,,223.0,,,,Fail,,,,,
551.0,15.0,wc_15,,0.0,,,56.0,,,,,Fail,,,,,
551.0,15.0,wc_15,,0.0,,,,0.0,,,,Fail,,,,,
551.0,15.0,wc_15,wc_15,0.0,"[('wc_15', 0.2300000000000001)]",0.2300000000000001,,,38.0,0.002359,['Pass'],Fail,0.2300000000000001,-0.030000000000000082,1.0,5.0,0.2
551.0,15.0,wc_15,,0.0,,,,442.0,,,,Fail,,,,,
551.0,15.0,wc_15,wc_5,0.0,"[('wc_15', 0.2300000000000001)]",0.2300000000000001,,,24.0,0.004564,['Pass'],Fail,0.17000000000000004,-0.11117647058823533,0.0,0.0,0.2
551.0,15.0,wc_15,,0.0,,,,142.0,,,,Fail,,,,,
551.0,15.0,wc_15,wc_10,0.0,"[('wc_10', 0.7400000000000005), ('wc_5', 0.17000000000000004)]",0.7842000000000005,,,21.0,0.006082000000000001,['Fail'],Fail,0.7400000000000005,-0.40666666666666723,1.0,3.0,0.9
551.0,15.0,wc_15,,0.0,,,,121.0,,,,Fail,,,,,
551.0,15.0,wc_15,wc_14,1.0,"[('wc_14', 0.5800000000000004), ('wc_5', 0.17000000000000004), ('wc_10', 0.7400000000000005)]",0.9093640000000003,,,37.0,0.040195,['Fail'],Fail,0.5800000000000004,-0.5800000000000004,0.0,0.0,0.7
561.0,14.0,wc_14,,0.0,,,,0.0,,,,Fail,,,,,
561.0,14.0,wc_14,,0.0,,,74.0,,,,,Fail,,,,,
561.0,14.0,wc_14,,0.0,,,,0.0,,,,Fail,,,,,
561.0,14.0,wc_14,wc_14,0.0,"[('wc_14', 0.5800000000000004)]",0.5800000000000004,,,24.0,0.002698,['Fail'],Fail,0.5800000000000004,-0.5800000000000004,0.0,0.0,0.7
561.0,14.0,wc_14,,0.0,,,,301.0,,,,Fail,,,,,
561.0,14.0,wc_14,wc_10,0.0,"[('wc_10', 0.7400000000000005), ('wc_14', 0.5800000000000004)]",0.8908000000000004,,,34.0,0.0046700000000000005,['Fail'],Fail,0.7400000000000005,-0.24000000000000055,2.0,4.0,0.9
561.0,14.0,wc_14,,0.0,,,,243.0,,,,Fail,,,,,
561.0,14.0,wc_14,wc_2,1.0,"[('wc_2', 0.5800000000000004), ('wc_14', 0.5800000000000004), ('wc_10', 0.7400000000000005)]",0.9541360000000002,,,28.0,0.043621999999999994,['Fail'],Fail,0.5800000000000004,-0.3300000000000004,1.0,4.0,0.5
570.0,16.0,wc_16,,0.0,,,,243.0,,,,Pass,,,,,
570.0,16.0,wc_16,,0.0,,,73.0,,,,,Pass,,,,,
570.0,16.0,wc_16,,0.0,,,,0.0,,,,Pass,,,,,
570.0,16.0,wc_16,wc_16,0.0,"[('wc_16', 0.7600000000000006)]",0.7600000000000006,,,39.0,0.002263,['Pass'],Pass,0.7600000000000006,-0.45230769230769285,0.0,0.0,0.9
570.0,16.0,wc_16,,0.0,,,,203.0,,,,Pass,,,,,
570.0,16.0,wc_16,wc_6,0.0,"[('wc_6', 0.8400000000000006)]",0.8400000000000006,,,31.0,0.004762000000000001,['Fail'],Pass,0.8400000000000006,-0.8400000000000006,0.0,2.0,0.8
570.0,16.0,wc_16,,0.0,,,,0.0,,,,Pass,,,,,
570.0,16.0,wc_16,wc_7,0.0,"[('wc_7', 0.4500000000000003), ('wc_6', 0.8400000000000006)]",0.9120000000000004,,,22.0,0.006232,['Fail'],Pass,0.4500000000000003,-0.34473684210526345,0.0,0.0,0.3
570.0,16.0,wc_16,,0.0,,,,341.0,,,,Pass,,,,,
570.0,16.0,wc_16,wc_5,0.0,"[('wc_6', 0.8400000000000006), ('wc_7', 0.4500000000000003)]",0.9120000000000004,,,25.0,0.007494000000000001,['Fail'],Pass,0.18000000000000005,0.31999999999999995,1.0,2.0,0.2
570.0,16.0,wc_16,,0.0,,,,202.0,,,,Pass,,,,,
570.0,16.0,wc_16,wc_17,1.0,"[('wc_17', 0.6300000000000004), ('wc_16', 0.7600000000000006), ('wc_5', 0.18000000000000005)]",0.9271840000000002,,,38.0,0.052615,['Pass'],Pass,0.6300000000000004,-0.18555555555555603,4.0,9.0,0.6
578.0,15.0,wc_15,,0.0,,,,83.0,,,,Pass,,,,,
578.0,15.0,wc_15,,0.0,,,60.0,,,,,Pass,,,,,
578.0,15.0,wc_15,,0.0,,,,0.0,,,,Pass,,,,,
578.0,15.0,wc_15,wc_15,0.0,"[('wc_15', 0.22000000000000008)]",0.22000000000000008,,,27.0,0.002524,['Pass'],Pass,0.22000000000000008,-0.09500000000000008,1.0,8.0,0.2
578.0,15.0,wc_15,,0.0,,,,223.0,,,,Pass,,,,,
578.0,15.0,wc_15,wc_6,0.0,"[('wc_6', 0.8300000000000006)]",0.8300000000000006,,,25.0,0.004157,['Fail'],Pass,0.8300000000000006,-0.8300000000000006,0.0,3.0,0.8
578.0,15.0,wc_15,,0.0,,,,263.0,,,,Pass,,,,,
578.0,15.0,wc_15,wc_17,0.0,"[('wc_17', 0.6300000000000004), ('wc_6', 0.8300000000000006)]",0.9371000000000003,,,32.0,0.006368,['Fail'],Pass,0.6300000000000004,-0.18555555555555603,4.0,9.0,0.6
578.0,15.0,wc_15,,0.0,,,,223.0,,,,Pass,,,,,
578.0,15.0,wc_15,wc_8,0.0,"[('wc_6', 0.8300000000000006), ('wc_17', 0.6300000000000004)]",0.9371000000000003,,,31.0,0.007089,['Fail'],Pass,0.7600000000000006,-0.7600000000000006,0.0,6.0,1.0
578.0,15.0,wc_15,,0.0,,,,203.0,,,,Pass,,,,,
578.0,15.0,wc_15,wc_16,1.0,"[('wc_16', 0.7700000000000006), ('wc_15', 0.22000000000000008), ('wc_8', 0.7600000000000006)]",0.9569440000000002,,,37.0,0.044549,['Pass'],Pass,0.7800000000000006,0.21999999999999942,2.0,2.0,0.9
592.0,14.0,wc_14,,0.0,,,,81.0,,,,Pass,,,,,
592.0,14.0,wc_14,,0.0,,,68.0,,,,,Pass,,,,,
592.0,14.0,wc_14,,0.0,,,,0.0,,,,Pass,,,,,
592.0,14.0,wc_14,wc_14,0.0,"[('wc_14', 0.5900000000000004)]",0.5900000000000004,,,29.0,0.002327,['Pass'],Pass,0.5900000000000004,-0.2566666666666671,1.0,3.0,0.7
592.0,14.0,wc_14,,0.0,,,,321.0,,,,Pass,,,,,
592.0,14.0,wc_14,wc_3,0.0,"[('wc_3', 0.7800000000000006), ('wc_14', 0.5900000000000004)]",0.9098000000000004,,,38.0,0.004446,['Pass'],Pass,0.7800000000000006,-0.6371428571428577,0.0,0.0,1.0
592.0,14.0,wc_14,,0.0,,,,121.0,,,,Pass,,,,,
592.0,14.0,wc_14,wc_7,1.0,"[('wc_7', 0.4400000000000003), ('wc_14', 0.5900000000000004), ('wc_3', 0.7800000000000006)]",0.9494880000000002,,,21.0,0.041316,['Pass'],Pass,0.4400000000000003,-0.10666666666666696,1.0,3.0,0.3
604.0,17.0,wc_17,,0.0,,,,243.0,,,,Fail,,,,,
604.0,17.0,wc_17,,0.0,,,69.0,,,,,Fail,,,,,
604.0,17.0,wc_17,,0.0,,,,0.0,,,,Fail,,,,,
604.0,17.0,wc_17,wc_17,0.0,"[('wc_17', 0.6200000000000004)]",0.6200000000000004,,,28.0,0.003761,['Fail'],Fail,0.6200000000000004,-0.6200000000000004,0.0,1.0,0.6
604.0,17.0,wc_17,,0.0,,,,322.0,,,,Fail,,,,,
604.0,17.0,wc_17,wc_9,0.0,"[('wc_9', 0.6200000000000004), ('wc_17', 0.6200000000000004)]",0.8556000000000004,,,24.0,0.004778,['Fail'],Fail,0.6200000000000004,-0.6200000000000004,0.0,6.0,0.6
604.0,17.0,wc_17,,0.0,,,,162.0,,,,Fail,,,,,
604.0,17.0,wc_17,wc_15,0.0,"[('wc_15', 0.22000000000000008), ('wc_17', 0.6200000000000004), ('wc_9', 0.6200000000000004)]",0.8873680000000003,,,29.0,0.0058379999999999994,['Fail'],Fail,0.22000000000000008,-0.020000000000000073,0.0,0.0,0.2
604.0,17.0,wc_17,,0.0,,,,382.0,,,,Fail,,,,,
604.0,17.0,wc_17,wc_10,1.0,"[('wc_10', 0.7400000000000005), ('wc_17', 0.6200000000000004), ('wc_9', 0.6200000000000004), ('wc_15', 0.22000000000000008)]",0.9707156800000001,,,38.0,0.04964400000000001,['Fail'],Fail,0.7400000000000005,-0.2955555555555561,4.0,9.0,0.9
614.0,17.0,wc_17,,0.0,,,,182.0,,,,Pass,,,,,
614.0,17.0,wc_17,,0.0,,,52.0,,,,,Pass,,,,,
614.0,17.0,wc_17,,0.0,,,,0.0,,,,Pass,,,,,
614.0,17.0,wc_17,wc_17,0.0,"[('wc_17', 0.6200000000000004)]",0.6200000000000004,,,31.0,0.002531,['Pass'],Pass,0.6200000000000004,-0.12000000000000044,1.0,2.0,0.6
614.0,17.0,wc_17,,0.0,,,,342.0,,,,Pass,,,,,
614.0,17.0,wc_17,wc_10,0.0,"[('wc_10', 0.7400000000000005), ('wc_17', 0.6200000000000004)]",0.9012000000000003,,,35.0,0.003816,['Pass'],Pass,0.7400000000000005,-0.2955555555555561,4.0,9.0,0.9
614.0,17.0,wc_17,,0.0,,,,0.0,,,,Pass,,,,,
614.0,17.0,wc_17,wc_11,0.0,"[('wc_17', 0.6200000000000004), ('wc_10', 0.7400000000000005)]",0.9012000000000003,,,27.0,0.006946000000000001,['Pass'],Pass,0.3500000000000002,-0.2666666666666669,0.0,0.0,0.3
614.0,17.0,wc_17,,0.0,,,,83.0,,,,Pass,,,,,
614.0,17.0,wc_17,wc_9,1.0,"[('wc_9', 0.6200000000000004), ('wc_17', 0.6200000000000004), ('wc_10', 0.7400000000000005)]",0.9624560000000002,,,34.0,0.04481,['Pass'],Pass,0.6200000000000004,-0.37000000000000044,2.0,8.0,0.6
627.0,17.0,wc_17,,0.0,,,,202.0,,,,Fail,,,,,
627.0,17.0,wc_17,,0.0,,,64.0,,,,,Fail,,,,,
627.0,17.0,wc_17,,0.0,,,,0.0,,,,Fail,,,,,
627.0,17.0,wc_17,wc_17,0.0,"[('wc_17', 0.6300000000000004)]",0.6300000000000004,,,22.0,0.002093,['Fail'],Fail,0.6300000000000004,0.03666666666666618,2.0,3.0,0.6
627.0,17.0,wc_17,,0.0,,,,203.0,,,,Fail,,,,,
627.0,17.0,wc_17,wc_7,0.0,"[('wc_7', 0.4400000000000003), ('wc_17', 0.6300000000000004)]",0.7928000000000004,,,22.0,0.003995,['Fail'],Fail,0.4400000000000003,-0.24000000000000027,1.0,5.0,0.3
627.0,17.0,wc_17,,0.0,,,,321.0,,,,Fail,,,,,
627.0,17.0,wc_17,wc_4,0.0,"[('wc_4', 0.4500000000000003), ('wc_17', 0.6300000000000004), ('wc_7', 0.4400000000000003)]",0.8860400000000003,,,23.0,0.006087,['Fail'],Fail,0.4500000000000003,-0.3388888888888892,1.0,9.0,0.5
627.0,17.0,wc_17,,0.0,,,,182.0,,,,Fail,,,,,
627.0,17.0,wc_17,wc_15,1.0,"[('wc_15', 0.2300000000000001), ('wc_17', 0.6300000000000004), ('wc_7', 0.4400000000000003), ('wc_4', 0.4500000000000003)]",0.9122508000000003,,,29.0,0.05545,['Fail'],Fail,0.2400000000000001,0.4266666666666665,2.0,3.0,0.2
633.0,17.0,wc_17,,0.0,,,,0.0,,,,Pass,,,,,
633.0,17.0,wc_17,,0.0,,,71.0,,,,,Pass,,,,,
633.0,17.0,wc_17,,0.0,,,,0.0,,,,Pass,,,,,
633.0,17.0,wc_17,wc_17,0.0,"[('wc_17', 0.6400000000000005)]",0.6400000000000005,,,30.0,0.002488,['Pass'],Pass,0.6400000000000005,0.10999999999999954,3.0,4.0,0.6
633.0,17.0,wc_17,,0.0,,,,223.0,,,,Pass,,,,,
633.0,17.0,wc_17,wc_8,0.0,"[('wc_8', 0.7600000000000006)]",0.7600000000000006,,,27.0,0.003883,['Fail'],Pass,0.7600000000000006,-0.6690909090909096,0.0,0.0,1.0
633.0,17.0,wc_17,,0.0,,,,203.0,,,,Pass,,,,,
633.0,17.0,wc_17,wc_16,0.0,"[('wc_16', 0.7800000000000006), ('wc_17', 0.6400000000000005)]",0.9208000000000003,,,26.0,0.006152,['Pass'],Pass,0.7800000000000006,-0.44666666666666727,2.0,6.0,0.9
633.0,17.0,wc_17,,0.0,,,,362.0,,,,Pass,,,,,
633.0,17.0,wc_17,wc_10,1.0,"[('wc_10', 0.7400000000000005), ('wc_17', 0.6400000000000005), ('wc_16', 0.7800000000000006)]",0.9794080000000002,,,40.0,0.048576,['Pass'],Pass,0.7400000000000005,-0.24000000000000055,1.0,2.0,0.9
