mpecck/BCQC/bcqc_with_qdt/results/raw/input_10/independent_qc/training/20_workpiece/20200429_084438/wp_10_qc_majority_0.9.csv
production_index,step_idx,production_workcell,qc,consent,winner_qc_list,score,production_time,transport_time,inspection_time,network_time,qc_results,actual_quality,qc_score,score_error,in_winner_counter,in_qc_counter,qc_capability
30.0,1.0,wc_1,,0.0,,,72.0,,,,,Fail,,,,,
30.0,1.0,wc_1,,0.0,,,,0.0,,,,Fail,,,,,
30.0,1.0,wc_1,wc_1,0.0,"[('wc_1', 0.6200000000000004)]",0.6200000000000004,,,27.0,0.002174,['Fail'],Fail,0.6200000000000004,-0.5290909090909095,0.0,0.0,1.0
30.0,1.0,wc_1,,0.0,,,,243.0,,,,Fail,,,,,
30.0,1.0,wc_1,wc_11,0.0,"[('wc_11', 0.3600000000000002), ('wc_1', 0.6200000000000004)]",0.7568000000000004,,,25.0,0.0037819999999999998,['Fail'],Fail,0.3600000000000002,-0.2830769230769233,0.0,0.0,0.3
30.0,1.0,wc_1,,0.0,,,,61.0,,,,Fail,,,,,
30.0,1.0,wc_1,wc_12,0.0,"[('wc_1', 0.6200000000000004), ('wc_11', 0.3600000000000002)]",0.7568000000000004,,,32.0,0.005684,['Fail'],Fail,0.16000000000000003,-0.017142857142857182,1.0,7.0,0.2
30.0,1.0,wc_1,,0.0,,,,202.0,,,,Fail,,,,,
30.0,1.0,wc_1,wc_7,0.0,"[('wc_7', 0.2500000000000001), ('wc_1', 0.6200000000000004), ('wc_11', 0.3600000000000002)]",0.8176000000000003,,,32.0,0.008100000000000001,['Fail'],Fail,0.2500000000000001,-0.2500000000000001,0.0,9.0,0.3
30.0,1.0,wc_1,,0.0,,,,102.0,,,,Fail,,,,,
30.0,1.0,wc_1,wc_6,1.0,"[('wc_6', 0.7800000000000006), ('wc_1', 0.6200000000000004), ('wc_11', 0.3600000000000002), ('wc_7', 0.2500000000000001)]",0.9598720000000002,,,22.0,0.040873999999999994,['Fail'],Fail,0.7900000000000006,0.2099999999999994,1.0,1.0,0.8
104.0,1.0,wc_1,,0.0,,,,202.0,,,,Pass,,,,,
104.0,1.0,wc_1,,0.0,,,72.0,,,,,Pass,,,,,
104.0,1.0,wc_1,,0.0,,,,0.0,,,,Pass,,,,,
104.0,1.0,wc_1,wc_1,0.0,"[('wc_1', 0.6300000000000004)]",0.6300000000000004,,,25.0,0.002174,['Pass'],Pass,0.6300000000000004,0.36999999999999955,1.0,1.0,1.0
104.0,1.0,wc_1,,0.0,,,,0.0,,,,Pass,,,,,
104.0,1.0,wc_1,wc_3,0.0,"[('wc_3', 0.6800000000000005), ('wc_1', 0.6300000000000004)]",0.8816000000000004,,,36.0,0.003991,['Pass'],Pass,0.6800000000000005,-0.31636363636363685,0.0,0.0,1.0
104.0,1.0,wc_1,,0.0,,,,121.0,,,,Pass,,,,,
104.0,1.0,wc_1,wc_7,1.0,"[('wc_7', 0.2500000000000001), ('wc_1', 0.6300000000000004), ('wc_3', 0.6800000000000005)]",0.9112000000000002,,,20.0,0.037666,['Pass'],Pass,0.2600000000000001,0.7399999999999999,1.0,1.0,0.3
109.0,2.0,wc_2,,0.0,,,,202.0,,,,Fail,,,,,
109.0,2.0,wc_2,,0.0,,,68.0,,,,,Fail,,,,,
109.0,2.0,wc_2,,0.0,,,,0.0,,,,Fail,,,,,
109.0,2.0,wc_2,wc_2,0.0,"[('wc_2', 0.5300000000000004)]",0.5300000000000004,,,23.0,0.002395,['Fail'],Fail,0.5300000000000004,-0.36333333333333373,1.0,6.0,0.5
109.0,2.0,wc_2,,0.0,,,,102.0,,,,Fail,,,,,
109.0,2.0,wc_2,wc_1,0.0,"[('wc_1', 0.6400000000000005), ('wc_2', 0.5300000000000004)]",0.8308000000000003,,,20.0,0.004227,['Fail'],Fail,0.6400000000000005,0.35999999999999954,2.0,2.0,1.0
109.0,2.0,wc_2,,0.0,,,,142.0,,,,Fail,,,,,
109.0,2.0,wc_2,wc_6,1.0,"[('wc_6', 0.7900000000000006), ('wc_2', 0.5300000000000004), ('wc_1', 0.6400000000000005)]",0.9644680000000002,,,38.0,0.037169999999999995,['Fail'],Fail,0.7900000000000006,-0.12333333333333396,2.0,3.0,0.8
120.0,2.0,wc_2,,0.0,,,,222.0,,,,Fail,,,,,
120.0,2.0,wc_2,,0.0,,,77.0,,,,,Fail,,,,,
120.0,2.0,wc_2,,0.0,,,,0.0,,,,Fail,,,,,
120.0,2.0,wc_2,wc_2,0.0,"[('wc_2', 0.5300000000000004)]",0.5300000000000004,,,31.0,0.002305,['Pass'],Fail,0.5300000000000004,-0.24428571428571466,2.0,7.0,0.5
120.0,2.0,wc_2,,0.0,,,,122.0,,,,Fail,,,,,
120.0,2.0,wc_2,wc_6,0.0,"[('wc_6', 0.7900000000000006)]",0.7900000000000006,,,21.0,0.004005,['Fail'],Fail,0.7900000000000006,-0.12333333333333396,2.0,3.0,0.8
120.0,2.0,wc_2,,0.0,,,,0.0,,,,Fail,,,,,
120.0,2.0,wc_2,wc_10,0.0,"[('wc_10', 0.6300000000000004), ('wc_6', 0.7900000000000006)]",0.9223000000000003,,,34.0,0.005777,['Fail'],Fail,0.6300000000000004,-0.43000000000000044,0.0,0.0,0.9
120.0,2.0,wc_2,,0.0,,,,342.0,,,,Fail,,,,,
120.0,2.0,wc_2,wc_3,1.0,"[('wc_3', 0.6900000000000005), ('wc_6', 0.7900000000000006), ('wc_10', 0.6300000000000004)]",0.9759130000000001,,,39.0,0.043865,['Fail'],Fail,0.6900000000000005,-0.023333333333333872,2.0,3.0,1.0
135.0,3.0,wc_3,,0.0,,,,0.0,,,,Fail,,,,,
135.0,3.0,wc_3,,0.0,,,79.0,,,,,Fail,,,,,
135.0,3.0,wc_3,,0.0,,,,0.0,,,,Fail,,,,,
135.0,3.0,wc_3,wc_3,0.0,"[('wc_3', 0.6900000000000005)]",0.6900000000000005,,,25.0,0.001977,['Fail'],Fail,0.6900000000000005,-0.023333333333333872,2.0,3.0,1.0
135.0,3.0,wc_3,,0.0,,,,141.0,,,,Fail,,,,,
135.0,3.0,wc_3,wc_12,0.0,"[('wc_12', 0.15000000000000002), ('wc_3', 0.6900000000000005)]",0.7365000000000004,,,31.0,0.003875,['Fail'],Fail,0.15000000000000002,-0.05909090909090911,0.0,0.0,0.2
135.0,3.0,wc_3,,0.0,,,,401.0,,,,Fail,,,,,
135.0,3.0,wc_3,wc_5,0.0,"[('wc_5', 0.19000000000000006), ('wc_3', 0.6900000000000005), ('wc_12', 0.15000000000000002)]",0.7865650000000004,,,31.0,0.005788,['Fail'],Fail,0.19000000000000006,-0.09909090909090915,0.0,0.0,0.2
135.0,3.0,wc_3,,0.0,,,,103.0,,,,Fail,,,,,
135.0,3.0,wc_3,wc_4,0.0,"[('wc_4', 0.4600000000000003), ('wc_3', 0.6900000000000005), ('wc_12', 0.15000000000000002), ('wc_5', 0.19000000000000006)]",0.8847451000000003,,,25.0,0.007441,['Fail'],Fail,0.4600000000000003,-0.376666666666667,0.0,0.0,0.5
135.0,3.0,wc_3,,0.0,,,,182.0,,,,Fail,,,,,
135.0,3.0,wc_3,wc_11,0.0,"[('wc_3', 0.6900000000000005), ('wc_12', 0.15000000000000002), ('wc_5', 0.19000000000000006), ('wc_4', 0.4600000000000003)]",0.8847451000000003,,,26.0,0.009961,['Fail'],Fail,0.3700000000000002,-0.12000000000000022,1.0,4.0,0.3
135.0,3.0,wc_3,,0.0,,,,61.0,,,,Fail,,,,,
135.0,3.0,wc_3,wc_8,1.0,"[('wc_8', 0.7100000000000005), ('wc_3', 0.6900000000000005), ('wc_12', 0.15000000000000002), ('wc_5', 0.19000000000000006), ('wc_4', 0.4600000000000003)]",0.9665760790000001,,,33.0,0.052532,['Fail'],Fail,0.7100000000000005,-0.4600000000000005,2.0,8.0,1.0
145.0,2.0,wc_2,,0.0,,,,182.0,,,,Fail,,,,,
145.0,2.0,wc_2,,0.0,,,72.0,,,,,Fail,,,,,
145.0,2.0,wc_2,,0.0,,,,0.0,,,,Fail,,,,,
145.0,2.0,wc_2,wc_2,0.0,"[('wc_2', 0.5200000000000004)]",0.5200000000000004,,,21.0,0.002284,['Fail'],Fail,0.5200000000000004,-0.29777777777777814,2.0,9.0,0.5
145.0,2.0,wc_2,,0.0,,,,183.0,,,,Fail,,,,,
145.0,2.0,wc_2,wc_9,0.0,"[('wc_9', 0.5200000000000004), ('wc_2', 0.5200000000000004)]",0.7696000000000003,,,24.0,0.004236,['Fail'],Fail,0.5200000000000004,-0.40888888888888925,0.0,0.0,0.6
145.0,2.0,wc_2,,0.0,,,,101.0,,,,Fail,,,,,
145.0,2.0,wc_2,wc_8,1.0,"[('wc_8', 0.7100000000000005), ('wc_2', 0.5200000000000004), ('wc_9', 0.5200000000000004)]",0.9331840000000002,,,32.0,0.042272,['Fail'],Fail,0.7100000000000005,-0.3766666666666672,3.0,9.0,1.0
157.0,4.0,wc_4,,0.0,,,,301.0,,,,Pass,,,,,
157.0,4.0,wc_4,,0.0,,,74.0,,,,,Pass,,,,,
157.0,4.0,wc_4,,0.0,,,,0.0,,,,Pass,,,,,
157.0,4.0,wc_4,wc_4,0.0,"[('wc_4', 0.4700000000000003)]",0.4700000000000003,,,21.0,0.002257,['Fail'],Pass,0.4700000000000003,0.029999999999999694,1.0,2.0,0.5
157.0,4.0,wc_4,,0.0,,,,121.0,,,,Pass,,,,,
157.0,4.0,wc_4,wc_12,0.0,"[('wc_12', 0.16000000000000003), ('wc_4', 0.4700000000000003)]",0.5548000000000003,,,35.0,0.003952,['Fail'],Pass,0.16000000000000003,0.33999999999999997,1.0,2.0,0.2
157.0,4.0,wc_4,,0.0,,,,0.0,,,,Pass,,,,,
157.0,4.0,wc_4,wc_13,0.0,"[('wc_13', 0.6600000000000005)]",0.6600000000000005,,,25.0,0.005854,['Pass'],Pass,0.6600000000000005,-0.6600000000000005,0.0,9.0,0.7
157.0,4.0,wc_4,,0.0,,,,321.0,,,,Pass,,,,,
157.0,4.0,wc_4,wc_10,0.0,"[('wc_10', 0.6400000000000005), ('wc_13', 0.6600000000000005)]",0.8776000000000004,,,36.0,0.008552,['Pass'],Pass,0.6400000000000005,-0.30666666666666714,1.0,3.0,0.9
157.0,4.0,wc_4,,0.0,,,,121.0,,,,Pass,,,,,
157.0,4.0,wc_4,wc_14,1.0,"[('wc_14', 0.5800000000000004), ('wc_13', 0.6600000000000005), ('wc_10', 0.6400000000000005)]",0.9485920000000002,,,36.0,0.047932,['Pass'],Pass,0.5800000000000004,-0.5800000000000004,0.0,0.0,0.7
173.0,3.0,wc_3,,0.0,,,,321.0,,,,Fail,,,,,
173.0,3.0,wc_3,,0.0,,,65.0,,,,,Fail,,,,,
173.0,3.0,wc_3,,0.0,,,,0.0,,,,Fail,,,,,
173.0,3.0,wc_3,wc_3,0.0,"[('wc_3', 0.7000000000000005)]",0.7000000000000005,,,37.0,0.00215,['Fail'],Fail,0.7000000000000005,-0.2000000000000005,3.0,6.0,1.0
173.0,3.0,wc_3,,0.0,,,,242.0,,,,Fail,,,,,
173.0,3.0,wc_3,wc_17,0.0,"[('wc_3', 0.7000000000000005)]",0.7000000000000005,,,28.0,0.004122,['Fail'],Fail,0.5400000000000004,-0.35818181818181855,0.0,0.0,0.6
173.0,3.0,wc_3,,0.0,,,,243.0,,,,Fail,,,,,
173.0,3.0,wc_3,wc_1,0.0,"[('wc_1', 0.6500000000000005), ('wc_17', 0.5400000000000004)]",0.8390000000000004,,,27.0,0.007697999999999999,['Pass'],Fail,0.6500000000000005,-0.22142857142857192,3.0,7.0,1.0
173.0,3.0,wc_3,,0.0,,,,0.0,,,,Fail,,,,,
173.0,3.0,wc_3,wc_2,1.0,"[('wc_2', 0.5200000000000004), ('wc_17', 0.5400000000000004), ('wc_1', 0.6500000000000005)]",0.9227200000000002,,,34.0,0.042180999999999996,['Pass'],Fail,0.5200000000000004,-0.02000000000000035,1.0,2.0,0.5
201.0,2.0,wc_2,,0.0,,,,0.0,,,,Fail,,,,,
201.0,2.0,wc_2,,0.0,,,53.0,,,,,Fail,,,,,
201.0,2.0,wc_2,,0.0,,,,0.0,,,,Fail,,,,,
201.0,2.0,wc_2,wc_2,0.0,"[('wc_2', 0.5200000000000004)]",0.5200000000000004,,,33.0,0.002015,['Fail'],Fail,0.5200000000000004,-0.02000000000000035,1.0,2.0,0.5
201.0,2.0,wc_2,,0.0,,,,0.0,,,,Fail,,,,,
201.0,2.0,wc_2,wc_5,0.0,"[('wc_2', 0.5200000000000004)]",0.5200000000000004,,,25.0,0.00423,['Fail'],Fail,0.20000000000000007,0.04999999999999993,1.0,4.0,0.2
201.0,2.0,wc_2,,0.0,,,,103.0,,,,Fail,,,,,
201.0,2.0,wc_2,wc_4,0.0,"[('wc_4', 0.4600000000000003), ('wc_2', 0.5200000000000004)]",0.7408000000000003,,,32.0,0.005931,['Fail'],Fail,0.4600000000000003,-0.2100000000000003,1.0,4.0,0.5
201.0,2.0,wc_2,,0.0,,,,142.0,,,,Fail,,,,,
201.0,2.0,wc_2,wc_9,0.0,"[('wc_9', 0.5300000000000004), ('wc_2', 0.5200000000000004), ('wc_4', 0.4600000000000003)]",0.8781760000000003,,,21.0,0.011134,['Fail'],Fail,0.5300000000000004,-0.19666666666666704,1.0,3.0,0.6
201.0,2.0,wc_2,,0.0,,,,101.0,,,,Fail,,,,,
201.0,2.0,wc_2,wc_12,0.0,"[('wc_2', 0.5200000000000004), ('wc_4', 0.4600000000000003), ('wc_9', 0.5300000000000004)]",0.8781760000000003,,,34.0,0.009682000000000001,['Fail'],Fail,0.16000000000000003,0.08999999999999997,1.0,4.0,0.2
201.0,2.0,wc_2,,0.0,,,,0.0,,,,Fail,,,,,
201.0,2.0,wc_2,wc_13,1.0,"[('wc_13', 0.6600000000000005), ('wc_2', 0.5200000000000004), ('wc_4', 0.4600000000000003), ('wc_9', 0.5300000000000004)]",0.9585798400000002,,,25.0,0.045410000000000006,['Fail'],Fail,0.6600000000000005,-0.16000000000000048,1.0,2.0,0.7
219.0,3.0,wc_3,,0.0,,,,341.0,,,,Fail,,,,,
219.0,3.0,wc_3,,0.0,,,71.0,,,,,Fail,,,,,
219.0,3.0,wc_3,,0.0,,,,0.0,,,,Fail,,,,,
219.0,3.0,wc_3,wc_3,0.0,"[('wc_3', 0.6900000000000005)]",0.6900000000000005,,,30.0,0.00212,['Fail'],Fail,0.6900000000000005,-0.3150000000000005,3.0,8.0,1.0
219.0,3.0,wc_3,,0.0,,,,101.0,,,,Fail,,,,,
219.0,3.0,wc_3,wc_6,0.0,"[('wc_6', 0.7900000000000006), ('wc_3', 0.6900000000000005)]",0.9349000000000003,,,22.0,0.004037,['Fail'],Fail,0.7900000000000006,-0.4566666666666673,3.0,9.0,0.8
219.0,3.0,wc_3,,0.0,,,,0.0,,,,Fail,,,,,
219.0,3.0,wc_3,wc_8,1.0,"[('wc_8', 0.7100000000000005), ('wc_3', 0.6900000000000005), ('wc_6', 0.7900000000000006)]",0.9811210000000001,,,26.0,0.040707999999999994,['Fail'],Fail,0.7100000000000005,-0.7100000000000005,0.0,0.0,1.0
259.0,2.0,wc_2,,0.0,,,,182.0,,,,Fail,,,,,
259.0,2.0,wc_2,,0.0,,,53.0,,,,,Fail,,,,,
259.0,2.0,wc_2,,0.0,,,,0.0,,,,Fail,,,,,
259.0,2.0,wc_2,wc_2,0.0,"[('wc_2', 0.5300000000000004)]",0.5300000000000004,,,24.0,0.002042,['Fail'],Fail,0.5300000000000004,-0.03000000000000036,2.0,4.0,0.5
259.0,2.0,wc_2,,0.0,,,,183.0,,,,Fail,,,,,
259.0,2.0,wc_2,wc_9,0.0,"[('wc_9', 0.5300000000000004)]",0.5300000000000004,,,25.0,0.004383,['Pass'],Fail,0.5300000000000004,-0.13000000000000034,2.0,5.0,0.6
259.0,2.0,wc_2,,0.0,,,,362.0,,,,Fail,,,,,
259.0,2.0,wc_2,wc_3,0.0,"[('wc_3', 0.6900000000000005), ('wc_2', 0.5300000000000004)]",0.8543000000000003,,,32.0,0.006337000000000001,['Fail'],Fail,0.6900000000000005,-0.24555555555555608,4.0,9.0,1.0
259.0,2.0,wc_2,,0.0,,,,202.0,,,,Fail,,,,,
259.0,2.0,wc_2,wc_15,0.0,"[('wc_2', 0.5300000000000004), ('wc_3', 0.6900000000000005)]",0.8543000000000003,,,27.0,0.008039,['Fail'],Fail,0.27000000000000013,-0.11615384615384627,0.0,0.0,0.2
259.0,2.0,wc_2,,0.0,,,,81.0,,,,Fail,,,,,
259.0,2.0,wc_2,wc_13,1.0,"[('wc_13', 0.6600000000000005), ('wc_2', 0.5300000000000004), ('wc_3', 0.6900000000000005)]",0.9504620000000001,,,20.0,0.048088,['Fail'],Fail,0.6600000000000005,-0.16000000000000048,2.0,4.0,0.7
277.0,3.0,wc_3,,0.0,,,,341.0,,,,Fail,,,,,
277.0,3.0,wc_3,,0.0,,,57.0,,,,,Fail,,,,,
277.0,3.0,wc_3,,0.0,,,,0.0,,,,Fail,,,,,
277.0,3.0,wc_3,wc_3,0.0,"[('wc_3', 0.6900000000000005)]",0.6900000000000005,,,20.0,0.002229,['Fail'],Fail,0.6900000000000005,-0.6900000000000005,0.0,0.0,1.0
277.0,3.0,wc_3,,0.0,,,,202.0,,,,Fail,,,,,
277.0,3.0,wc_3,wc_11,0.0,"[('wc_11', 0.3600000000000002), ('wc_3', 0.6900000000000005)]",0.8016000000000004,,,39.0,0.004233,['Fail'],Fail,0.3600000000000002,-0.26909090909090927,0.0,0.0,0.3
277.0,3.0,wc_3,,0.0,,,,142.0,,,,Fail,,,,,
277.0,3.0,wc_3,wc_16,1.0,"[('wc_16', 0.7400000000000005), ('wc_3', 0.6900000000000005), ('wc_11', 0.3600000000000002)]",0.9484160000000003,,,22.0,0.043098,['Fail'],Fail,0.7400000000000005,-0.7400000000000005,0.0,0.0,0.9
297.0,3.0,wc_3,,0.0,,,,382.0,,,,Pass,,,,,
297.0,3.0,wc_3,,0.0,,,57.0,,,,,Pass,,,,,
297.0,3.0,wc_3,,0.0,,,,0.0,,,,Pass,,,,,
297.0,3.0,wc_3,wc_3,0.0,"[('wc_3', 0.7000000000000005)]",0.7000000000000005,,,36.0,0.002287,['Pass'],Pass,0.7000000000000005,0.2999999999999995,1.0,1.0,1.0
297.0,3.0,wc_3,,0.0,,,,0.0,,,,Pass,,,,,
297.0,3.0,wc_3,wc_4,0.0,"[('wc_3', 0.7000000000000005)]",0.7000000000000005,,,32.0,0.00526,['Pass'],Pass,0.4600000000000003,-0.2100000000000003,2.0,8.0,0.5
297.0,3.0,wc_3,,0.0,,,,0.0,,,,Pass,,,,,
297.0,3.0,wc_3,wc_5,0.0,"[('wc_5', 0.20000000000000007), ('wc_3', 0.7000000000000005)]",0.7600000000000005,,,34.0,0.006607,['Pass'],Pass,0.20000000000000007,-0.07500000000000007,1.0,8.0,0.2
297.0,3.0,wc_3,,0.0,,,,41.0,,,,Pass,,,,,
297.0,3.0,wc_3,wc_1,1.0,"[('wc_1', 0.6500000000000005), ('wc_3', 0.7000000000000005), ('wc_5', 0.20000000000000007)]",0.9160000000000003,,,30.0,0.037989,['Pass'],Pass,0.6500000000000005,-0.6500000000000005,0.0,0.0,1.0
307.0,2.0,wc_2,,0.0,,,,0.0,,,,Pass,,,,,
307.0,2.0,wc_2,,0.0,,,74.0,,,,,Pass,,,,,
307.0,2.0,wc_2,,0.0,,,,0.0,,,,Pass,,,,,
307.0,2.0,wc_2,wc_2,0.0,"[('wc_2', 0.5400000000000004)]",0.5400000000000004,,,27.0,0.002251,['Fail'],Pass,0.5400000000000004,-0.11142857142857182,3.0,7.0,0.5
307.0,2.0,wc_2,,0.0,,,,0.0,,,,Pass,,,,,
307.0,2.0,wc_2,wc_5,0.0,"[('wc_5', 0.21000000000000008), ('wc_2', 0.5400000000000004)]",0.6366000000000003,,,36.0,0.003837,['Fail'],Pass,0.21000000000000008,0.012222222222222134,2.0,9.0,0.2
307.0,2.0,wc_2,,0.0,,,,162.0,,,,Pass,,,,,
307.0,2.0,wc_2,wc_15,0.0,"[('wc_15', 0.2600000000000001), ('wc_2', 0.5400000000000004), ('wc_5', 0.21000000000000008)]",0.7310840000000003,,,21.0,0.006074999999999999,['Fail'],Pass,0.2600000000000001,-0.2600000000000001,0.0,3.0,0.2
307.0,2.0,wc_2,,0.0,,,,0.0,,,,Pass,,,,,
307.0,2.0,wc_2,wc_16,0.0,"[('wc_16', 0.7400000000000005)]",0.7400000000000005,,,24.0,0.008029999999999999,['Pass'],Pass,0.7400000000000005,-0.7400000000000005,0.0,1.0,0.9
307.0,2.0,wc_2,,0.0,,,,223.0,,,,Pass,,,,,
307.0,2.0,wc_2,wc_7,0.0,"[('wc_7', 0.2600000000000001), ('wc_2', 0.5400000000000004), ('wc_5', 0.21000000000000008), ('wc_15', 0.2600000000000001)]",0.8010021600000002,,,23.0,0.0125,['Fail'],Pass,0.2600000000000001,-0.1766666666666668,0.0,0.0,0.3
307.0,2.0,wc_2,,0.0,,,,182.0,,,,Pass,,,,,
307.0,2.0,wc_2,wc_1,0.0,"[('wc_1', 0.6500000000000005), ('wc_16', 0.7400000000000005)]",0.9090000000000003,,,35.0,0.013103,['Pass'],Pass,0.6500000000000005,-0.6500000000000005,0.0,0.0,1.0
307.0,2.0,wc_2,,0.0,,,,0.0,,,,Pass,,,,,
307.0,2.0,wc_2,wc_4,0.0,"[('wc_16', 0.7400000000000005), ('wc_1', 0.6500000000000005)]",0.9090000000000003,,,28.0,0.016046,['Pass'],Pass,0.4500000000000003,-0.22777777777777808,2.0,9.0,0.5
307.0,2.0,wc_2,,0.0,,,,121.0,,,,Pass,,,,,
307.0,2.0,wc_2,wc_12,0.0,"[('wc_16', 0.7400000000000005), ('wc_1', 0.6500000000000005)]",0.9090000000000003,,,36.0,0.015701,['Pass'],Pass,0.16000000000000003,-0.048888888888888926,1.0,9.0,0.2
307.0,2.0,wc_2,,0.0,,,,0.0,,,,Pass,,,,,
307.0,2.0,wc_2,wc_13,1.0,"[('wc_13', 0.6600000000000005), ('wc_2', 0.5400000000000004), ('wc_5', 0.21000000000000008), ('wc_15', 0.2600000000000001), ('wc_7', 0.2600000000000001), ('wc_4', 0.4500000000000003), ('wc_12', 0.16000000000000003)]",0.9687414192928001,,,37.0,0.049541,['Fail'],Pass,0.6600000000000005,-0.23142857142857193,3.0,7.0,0.7
342.0,5.0,wc_5,,0.0,,,,381.0,,,,Pass,,,,,
342.0,5.0,wc_5,,0.0,,,72.0,,,,,Pass,,,,,
342.0,5.0,wc_5,,0.0,,,,0.0,,,,Pass,,,,,
342.0,5.0,wc_5,wc_5,0.0,"[('wc_5', 0.22000000000000008)]",0.22000000000000008,,,34.0,0.002278,['Pass'],Pass,0.22000000000000008,-0.22000000000000008,0.0,0.0,0.2
342.0,5.0,wc_5,,0.0,,,,162.0,,,,Pass,,,,,
342.0,5.0,wc_5,wc_15,0.0,"[('wc_15', 0.2600000000000001)]",0.2600000000000001,,,29.0,0.004038,['Fail'],Pass,0.2600000000000001,-0.01000000000000012,1.0,4.0,0.2
342.0,5.0,wc_5,,0.0,,,,81.0,,,,Pass,,,,,
342.0,5.0,wc_5,wc_13,0.0,"[('wc_13', 0.6600000000000005), ('wc_5', 0.22000000000000008)]",0.7348000000000003,,,25.0,0.006406,['Pass'],Pass,0.6600000000000005,-0.23142857142857193,3.0,7.0,0.7
342.0,5.0,wc_5,,0.0,,,,102.0,,,,Pass,,,,,
342.0,5.0,wc_5,wc_12,0.0,"[('wc_12', 0.17000000000000004), ('wc_5', 0.22000000000000008), ('wc_13', 0.6600000000000005)]",0.7798840000000004,,,23.0,0.007757,['Pass'],Pass,0.17000000000000004,-0.17000000000000004,0.0,0.0,0.2
342.0,5.0,wc_5,,0.0,,,,0.0,,,,Pass,,,,,
342.0,5.0,wc_5,wc_17,1.0,"[('wc_17', 0.5500000000000004), ('wc_5', 0.22000000000000008), ('wc_13', 0.6600000000000005), ('wc_12', 0.17000000000000004)]",0.9009478000000002,,,22.0,0.044384999999999994,['Pass'],Pass,0.5500000000000004,-0.3000000000000004,2.0,8.0,0.6
367.0,6.0,wc_6,,0.0,,,,183.0,,,,Pass,,,,,
367.0,6.0,wc_6,,0.0,,,78.0,,,,,Pass,,,,,
367.0,6.0,wc_6,,0.0,,,,0.0,,,,Pass,,,,,
367.0,6.0,wc_6,wc_6,0.0,"[('wc_6', 0.7900000000000006)]",0.7900000000000006,,,37.0,0.002145,['Pass'],Pass,0.7900000000000006,-0.7900000000000006,0.0,5.0,0.8
367.0,6.0,wc_6,,0.0,,,,162.0,,,,Pass,,,,,
367.0,6.0,wc_6,wc_12,0.0,"[('wc_12', 0.18000000000000005), ('wc_6', 0.7900000000000006)]",0.8278000000000005,,,35.0,0.004267,['Pass'],Pass,0.18000000000000005,0.82,1.0,1.0,0.2
367.0,6.0,wc_6,,0.0,,,,361.0,,,,Pass,,,,,
367.0,6.0,wc_6,wc_3,1.0,"[('wc_3', 0.7100000000000005), ('wc_6', 0.7900000000000006), ('wc_12', 0.18000000000000005)]",0.9500620000000002,,,32.0,0.043753,['Pass'],Pass,0.7100000000000005,-0.11000000000000054,3.0,5.0,1.0
383.0,8.0,wc_8,,0.0,,,,141.0,,,,Pass,,,,,
383.0,8.0,wc_8,,0.0,,,78.0,,,,,Pass,,,,,
383.0,8.0,wc_8,,0.0,,,,0.0,,,,Pass,,,,,
383.0,8.0,wc_8,wc_8,0.0,"[('wc_8', 0.7100000000000005)]",0.7100000000000005,,,32.0,0.002121,['Pass'],Pass,0.7100000000000005,-0.7100000000000005,0.0,6.0,1.0
383.0,8.0,wc_8,,0.0,,,,82.0,,,,Pass,,,,,
383.0,8.0,wc_8,wc_6,0.0,"[('wc_6', 0.7900000000000006), ('wc_8', 0.7100000000000005)]",0.9391000000000003,,,34.0,0.003993,['Pass'],Pass,0.7900000000000006,-0.623333333333334,1.0,6.0,0.8
383.0,8.0,wc_8,,0.0,,,,202.0,,,,Pass,,,,,
383.0,8.0,wc_8,wc_1,1.0,"[('wc_1', 0.6400000000000005), ('wc_8', 0.7100000000000005), ('wc_6', 0.7900000000000006)]",0.9780760000000002,,,20.0,0.040936999999999994,['Pass'],Pass,0.6400000000000005,-0.39000000000000046,1.0,4.0,1.0
395.0,11.0,wc_11,,0.0,,,,243.0,,,,Pass,,,,,
395.0,11.0,wc_11,,0.0,,,67.0,,,,,Pass,,,,,
395.0,11.0,wc_11,,0.0,,,,0.0,,,,Pass,,,,,
395.0,11.0,wc_11,wc_11,0.0,"[('wc_11', 0.3700000000000002)]",0.3700000000000002,,,28.0,0.002008,['Pass'],Pass,0.3700000000000002,-0.20333333333333356,1.0,6.0,0.3
395.0,11.0,wc_11,,0.0,,,,342.0,,,,Pass,,,,,
395.0,11.0,wc_11,wc_4,0.0,"[('wc_4', 0.4500000000000003), ('wc_11', 0.3700000000000002)]",0.6535000000000003,,,37.0,0.003995,['Pass'],Pass,0.4500000000000003,-0.4500000000000003,0.0,3.0,0.5
395.0,11.0,wc_11,,0.0,,,,162.0,,,,Pass,,,,,
395.0,11.0,wc_11,wc_10,0.0,"[('wc_10', 0.6400000000000005), ('wc_11', 0.3700000000000002), ('wc_4', 0.4500000000000003)]",0.8752600000000003,,,30.0,0.005859,['Pass'],Pass,0.6400000000000005,-0.4971428571428576,0.0,0.0,0.9
395.0,11.0,wc_11,,0.0,,,,121.0,,,,Pass,,,,,
395.0,11.0,wc_11,wc_14,1.0,"[('wc_14', 0.5800000000000004), ('wc_11', 0.3700000000000002), ('wc_4', 0.4500000000000003), ('wc_10', 0.6400000000000005)]",0.9476092000000002,,,27.0,0.047625,['Pass'],Pass,0.5800000000000004,-0.5800000000000004,0.0,0.0,0.7
410.0,9.0,wc_9,,0.0,,,,281.0,,,,Fail,,,,,
410.0,9.0,wc_9,,0.0,,,61.0,,,,,Fail,,,,,
410.0,9.0,wc_9,,0.0,,,,0.0,,,,Fail,,,,,
410.0,9.0,wc_9,wc_9,0.0,"[('wc_9', 0.5200000000000004)]",0.5200000000000004,,,22.0,0.001994,['Fail'],Fail,0.5200000000000004,-0.3661538461538465,0.0,0.0,0.6
410.0,9.0,wc_9,,0.0,,,,0.0,,,,Fail,,,,,
410.0,9.0,wc_9,wc_11,0.0,"[('wc_9', 0.5200000000000004)]",0.5200000000000004,,,28.0,0.004156,['Fail'],Fail,0.3700000000000002,-0.08428571428571452,2.0,7.0,0.3
410.0,9.0,wc_9,,0.0,,,,223.0,,,,Fail,,,,,
410.0,9.0,wc_9,wc_2,0.0,"[('wc_2', 0.5400000000000004), ('wc_11', 0.3700000000000002)]",0.7102000000000004,,,28.0,0.013642999999999999,['Pass'],Fail,0.5400000000000004,-0.20666666666666705,0.0,0.0,0.5
410.0,9.0,wc_9,,0.0,,,,203.0,,,,Fail,,,,,
410.0,9.0,wc_9,wc_10,0.0,"[('wc_10', 0.6500000000000005), ('wc_9', 0.5200000000000004)]",0.8320000000000003,,,34.0,0.007226000000000001,['Fail'],Fail,0.6500000000000005,0.34999999999999953,1.0,1.0,0.9
410.0,9.0,wc_9,,0.0,,,,362.0,,,,Fail,,,,,
410.0,9.0,wc_9,wc_4,1.0,"[('wc_4', 0.4500000000000003), ('wc_9', 0.5200000000000004), ('wc_10', 0.6500000000000005)]",0.9076000000000002,,,34.0,0.04334299999999999,['Fail'],Fail,0.4500000000000003,-0.050000000000000266,2.0,5.0,0.5
422.0,7.0,wc_7,,0.0,,,,101.0,,,,Fail,,,,,
422.0,7.0,wc_7,,0.0,,,74.0,,,,,Fail,,,,,
422.0,7.0,wc_7,,0.0,,,,0.0,,,,Fail,,,,,
422.0,7.0,wc_7,wc_7,0.0,"[('wc_7', 0.27000000000000013)]",0.27000000000000013,,,22.0,0.002188,['Fail'],Fail,0.27000000000000013,-0.10333333333333347,1.0,6.0,0.3
422.0,7.0,wc_7,,0.0,,,,223.0,,,,Fail,,,,,
422.0,7.0,wc_7,wc_16,0.0,"[('wc_16', 0.7300000000000005), ('wc_7', 0.27000000000000013)]",0.8029000000000004,,,35.0,0.004155,['Fail'],Fail,0.7300000000000005,-0.7300000000000005,0.0,7.0,0.9
422.0,7.0,wc_7,,0.0,,,,263.0,,,,Fail,,,,,
422.0,7.0,wc_7,wc_1,1.0,"[('wc_1', 0.6400000000000005), ('wc_7', 0.27000000000000013), ('wc_16', 0.7300000000000005)]",0.9290440000000002,,,40.0,0.043223,['Fail'],Fail,0.6400000000000005,-0.35428571428571476,2.0,7.0,1.0
435.0,7.0,wc_7,,0.0,,,,162.0,,,,Fail,,,,,
435.0,7.0,wc_7,,0.0,,,76.0,,,,,Fail,,,,,
435.0,7.0,wc_7,,0.0,,,,0.0,,,,Fail,,,,,
435.0,7.0,wc_7,wc_7,0.0,"[('wc_7', 0.28000000000000014)]",0.28000000000000014,,,31.0,0.002096,['Pass'],Fail,0.28000000000000014,0.005714285714285561,2.0,7.0,0.3
435.0,7.0,wc_7,,0.0,,,,223.0,,,,Fail,,,,,
435.0,7.0,wc_7,wc_16,0.0,"[('wc_16', 0.7300000000000005)]",0.7300000000000005,,,40.0,0.0038989999999999997,['Fail'],Fail,0.7300000000000005,-0.6050000000000005,1.0,8.0,0.9
435.0,7.0,wc_7,,0.0,,,,41.0,,,,Fail,,,,,
435.0,7.0,wc_7,wc_12,0.0,"[('wc_12', 0.19000000000000006), ('wc_16', 0.7300000000000005)]",0.7813000000000004,,,24.0,0.006392,['Fail'],Fail,0.19000000000000006,0.14333333333333326,2.0,6.0,0.2
435.0,7.0,wc_7,,0.0,,,,401.0,,,,Fail,,,,,
435.0,7.0,wc_7,wc_5,0.0,"[('wc_16', 0.7300000000000005), ('wc_12', 0.19000000000000006)]",0.7813000000000004,,,27.0,0.007803000000000001,['Fail'],Fail,0.2300000000000001,-0.06333333333333344,1.0,6.0,0.2
435.0,7.0,wc_7,,0.0,,,,61.0,,,,Fail,,,,,
435.0,7.0,wc_7,wc_2,0.0,"[('wc_16', 0.7300000000000005), ('wc_12', 0.19000000000000006)]",0.7813000000000004,,,35.0,0.010153,['Fail'],Fail,0.5300000000000004,-0.5300000000000004,0.0,2.0,0.5
435.0,7.0,wc_7,,0.0,,,,182.0,,,,Fail,,,,,
435.0,7.0,wc_7,wc_13,1.0,"[('wc_13', 0.6600000000000005), ('wc_16', 0.7300000000000005), ('wc_12', 0.19000000000000006)]",0.9256420000000003,,,27.0,0.056001,['Fail'],Fail,0.6600000000000005,-0.6600000000000005,0.0,0.0,0.7
446.0,7.0,wc_7,,0.0,,,,182.0,,,,Fail,,,,,
446.0,7.0,wc_7,,0.0,,,74.0,,,,,Fail,,,,,
446.0,7.0,wc_7,,0.0,,,,0.0,,,,Fail,,,,,
446.0,7.0,wc_7,wc_7,0.0,"[('wc_7', 0.27000000000000013)]",0.27000000000000013,,,38.0,0.002377,['Fail'],Fail,0.27000000000000013,-0.02000000000000013,2.0,8.0,0.3
446.0,7.0,wc_7,,0.0,,,,301.0,,,,Fail,,,,,
446.0,7.0,wc_7,wc_3,0.0,"[('wc_3', 0.7100000000000005), ('wc_7', 0.27000000000000013)]",0.7883000000000004,,,21.0,0.0038120000000000003,['Fail'],Fail,0.7100000000000005,-0.41000000000000053,0.0,0.0,1.0
446.0,7.0,wc_7,,0.0,,,,162.0,,,,Fail,,,,,
446.0,7.0,wc_7,wc_9,1.0,"[('wc_9', 0.5300000000000004), ('wc_7', 0.27000000000000013), ('wc_3', 0.7100000000000005)]",0.9005010000000002,,,25.0,0.046060000000000004,['Fail'],Fail,0.5300000000000004,-0.03000000000000036,2.0,4.0,0.6
452.0,7.0,wc_7,,0.0,,,,81.0,,,,Fail,,,,,
452.0,7.0,wc_7,,0.0,,,56.0,,,,,Fail,,,,,
452.0,7.0,wc_7,,0.0,,,,0.0,,,,Fail,,,,,
452.0,7.0,wc_7,wc_7,0.0,"[('wc_7', 0.28000000000000014)]",0.28000000000000014,,,29.0,0.002114,['Fail'],Fail,0.28000000000000014,0.05333333333333318,3.0,9.0,0.3
452.0,7.0,wc_7,,0.0,,,,202.0,,,,Fail,,,,,
452.0,7.0,wc_7,wc_2,0.0,"[('wc_2', 0.5200000000000004), ('wc_7', 0.28000000000000014)]",0.6544000000000003,,,31.0,0.00397,['Fail'],Fail,0.5200000000000004,-0.5200000000000004,0.0,4.0,0.5
452.0,7.0,wc_7,,0.0,,,,102.0,,,,Fail,,,,,
452.0,7.0,wc_7,wc_1,0.0,"[('wc_1', 0.6400000000000005), ('wc_7', 0.28000000000000014), ('wc_2', 0.5200000000000004)]",0.8755840000000003,,,27.0,0.006392,['Fail'],Fail,0.6400000000000005,-0.41777777777777825,2.0,9.0,1.0
452.0,7.0,wc_7,,0.0,,,,182.0,,,,Fail,,,,,
452.0,7.0,wc_7,wc_12,0.0,"[('wc_7', 0.28000000000000014), ('wc_2', 0.5200000000000004), ('wc_1', 0.6400000000000005)]",0.8755840000000003,,,32.0,0.008076,['Fail'],Fail,0.20000000000000007,0.17499999999999993,3.0,8.0,0.2
452.0,7.0,wc_7,,0.0,,,,341.0,,,,Fail,,,,,
452.0,7.0,wc_7,wc_10,1.0,"[('wc_10', 0.6600000000000005), ('wc_7', 0.28000000000000014), ('wc_2', 0.5200000000000004), ('wc_1', 0.6400000000000005)]",0.9576985600000002,,,36.0,0.050747,['Fail'],Fail,0.6600000000000005,-0.16000000000000048,3.0,6.0,0.9
463.0,10.0,wc_10,,0.0,,,,0.0,,,,Fail,,,,,
463.0,10.0,wc_10,,0.0,,,59.0,,,,,Fail,,,,,
463.0,10.0,wc_10,,0.0,,,,0.0,,,,Fail,,,,,
463.0,10.0,wc_10,wc_10,0.0,"[('wc_10', 0.6600000000000005)]",0.6600000000000005,,,38.0,0.002237,['Fail'],Fail,0.6600000000000005,-0.16000000000000048,3.0,6.0,0.9
463.0,10.0,wc_10,,0.0,,,,182.0,,,,Fail,,,,,
463.0,10.0,wc_10,wc_17,0.0,"[('wc_17', 0.5500000000000004), ('wc_10', 0.6600000000000005)]",0.8470000000000003,,,32.0,0.004435,['Fail'],Fail,0.5500000000000004,-0.4250000000000004,0.0,0.0,0.6
463.0,10.0,wc_10,,0.0,,,,83.0,,,,Fail,,,,,
463.0,10.0,wc_10,wc_15,0.0,"[('wc_15', 0.2500000000000001), ('wc_10', 0.6600000000000005), ('wc_17', 0.5500000000000004)]",0.8852500000000003,,,31.0,0.005671,['Fail'],Fail,0.2500000000000001,-0.17307692307692318,0.0,0.0,0.2
463.0,10.0,wc_10,,0.0,,,,362.0,,,,Fail,,,,,
463.0,10.0,wc_10,wc_9,1.0,"[('wc_9', 0.5300000000000004), ('wc_10', 0.6600000000000005), ('wc_17', 0.5500000000000004), ('wc_15', 0.2500000000000001)]",0.9460675000000002,,,32.0,0.04244,['Fail'],Fail,0.5300000000000004,-0.03000000000000036,3.0,6.0,0.6
472.0,7.0,wc_7,,0.0,,,,81.0,,,,Fail,,,,,
472.0,7.0,wc_7,,0.0,,,61.0,,,,,Fail,,,,,
472.0,7.0,wc_7,,0.0,,,,0.0,,,,Fail,,,,,
472.0,7.0,wc_7,wc_7,0.0,"[('wc_7', 0.29000000000000015)]",0.29000000000000015,,,35.0,0.00194,['Pass'],Fail,0.29000000000000015,-0.29000000000000015,0.0,1.0,0.3
472.0,7.0,wc_7,,0.0,,,,182.0,,,,Fail,,,,,
472.0,7.0,wc_7,wc_14,0.0,"[('wc_14', 0.5800000000000004), ('wc_7', 0.29000000000000015)]",0.7018000000000004,,,25.0,0.004014,['Pass'],Fail,0.5800000000000004,-0.5800000000000004,0.0,6.0,0.7
472.0,7.0,wc_7,,0.0,,,,321.0,,,,Fail,,,,,
472.0,7.0,wc_7,wc_11,0.0,"[('wc_7', 0.29000000000000015), ('wc_14', 0.5800000000000004)]",0.7018000000000004,,,28.0,0.0063479999999999995,['Pass'],Fail,0.3600000000000002,-0.20615384615384635,0.0,0.0,0.3
472.0,7.0,wc_7,,0.0,,,,21.0,,,,Fail,,,,,
472.0,7.0,wc_7,wc_6,0.0,"[('wc_6', 0.7900000000000006), ('wc_11', 0.3600000000000002)]",0.8656000000000004,,,39.0,0.008186,['Fail'],Fail,0.7900000000000006,-0.6471428571428577,0.0,0.0,0.8
472.0,7.0,wc_7,,0.0,,,,361.0,,,,Fail,,,,,
472.0,7.0,wc_7,wc_5,0.0,"[('wc_11', 0.3600000000000002), ('wc_6', 0.7900000000000006)]",0.8656000000000004,,,26.0,0.009835000000000002,['Fail'],Fail,0.22000000000000008,-0.12000000000000008,0.0,0.0,0.2
472.0,7.0,wc_7,,0.0,,,,121.0,,,,Fail,,,,,
472.0,7.0,wc_7,wc_13,1.0,"[('wc_13', 0.6600000000000005), ('wc_11', 0.3600000000000002), ('wc_6', 0.7900000000000006)]",0.9543040000000003,,,36.0,0.04528,['Fail'],Fail,0.6600000000000005,-0.4100000000000005,1.0,4.0,0.7
482.0,10.0,wc_10,,0.0,,,,321.0,,,,Fail,,,,,
482.0,10.0,wc_10,,0.0,,,59.0,,,,,Fail,,,,,
482.0,10.0,wc_10,,0.0,,,,0.0,,,,Fail,,,,,
482.0,10.0,wc_10,wc_10,0.0,"[('wc_10', 0.6600000000000005)]",0.6600000000000005,,,20.0,0.001997,['Fail'],Fail,0.6600000000000005,-0.16000000000000048,4.0,8.0,0.9
482.0,10.0,wc_10,,0.0,,,,61.0,,,,Fail,,,,,
482.0,10.0,wc_10,wc_7,0.0,"[('wc_7', 0.28000000000000014), ('wc_10', 0.6600000000000005)]",0.7552000000000004,,,37.0,0.004359,['Fail'],Fail,0.28000000000000014,-0.28000000000000014,0.0,2.0,0.3
482.0,10.0,wc_10,,0.0,,,,182.0,,,,Fail,,,,,
482.0,10.0,wc_10,wc_1,1.0,"[('wc_1', 0.6400000000000005), ('wc_10', 0.6600000000000005), ('wc_7', 0.28000000000000014)]",0.9118720000000002,,,25.0,0.039779,['Fail'],Fail,0.6400000000000005,-0.30666666666666714,1.0,3.0,1.0
493.0,10.0,wc_10,,0.0,,,,223.0,,,,Pass,,,,,
493.0,10.0,wc_10,,0.0,,,75.0,,,,,Pass,,,,,
493.0,10.0,wc_10,,0.0,,,,0.0,,,,Pass,,,,,
493.0,10.0,wc_10,wc_10,0.0,"[('wc_10', 0.6600000000000005)]",0.6600000000000005,,,30.0,0.002177,['Pass'],Pass,0.6600000000000005,-0.1044444444444449,5.0,9.0,0.9
493.0,10.0,wc_10,,0.0,,,,243.0,,,,Pass,,,,,
493.0,10.0,wc_10,wc_2,0.0,"[('wc_2', 0.5200000000000004), ('wc_10', 0.6600000000000005)]",0.8368000000000003,,,28.0,0.004370000000000001,['Pass'],Pass,0.5200000000000004,-0.39500000000000035,1.0,8.0,0.5
493.0,10.0,wc_10,,0.0,,,,162.0,,,,Pass,,,,,
493.0,10.0,wc_10,wc_8,1.0,"[('wc_8', 0.7100000000000005), ('wc_10', 0.6600000000000005), ('wc_2', 0.5200000000000004)]",0.9526720000000002,,,32.0,0.040408,['Pass'],Pass,0.7100000000000005,-0.7100000000000005,0.0,0.0,1.0
504.0,7.0,wc_7,,0.0,,,,102.0,,,,Pass,,,,,
504.0,7.0,wc_7,,0.0,,,75.0,,,,,Pass,,,,,
504.0,7.0,wc_7,,0.0,,,,0.0,,,,Pass,,,,,
504.0,7.0,wc_7,wc_7,0.0,"[('wc_7', 0.29000000000000015)]",0.29000000000000015,,,34.0,0.002154,['Pass'],Pass,0.29000000000000015,-0.04000000000000015,1.0,4.0,0.3
504.0,7.0,wc_7,,0.0,,,,321.0,,,,Pass,,,,,
504.0,7.0,wc_7,wc_4,0.0,"[('wc_4', 0.4500000000000003), ('wc_7', 0.29000000000000015)]",0.6095000000000003,,,28.0,0.004136,['Pass'],Pass,0.4500000000000003,-0.29615384615384643,0.0,0.0,0.5
504.0,7.0,wc_7,,0.0,,,,142.0,,,,Pass,,,,,
504.0,7.0,wc_7,wc_9,0.0,"[('wc_9', 0.5300000000000004), ('wc_7', 0.29000000000000015), ('wc_4', 0.4500000000000003)]",0.8164650000000002,,,25.0,0.0056240000000000005,['Pass'],Pass,0.5300000000000004,-0.19666666666666704,3.0,9.0,0.6
504.0,7.0,wc_7,,0.0,,,,182.0,,,,Pass,,,,,
504.0,7.0,wc_7,wc_16,1.0,"[('wc_16', 0.7300000000000005), ('wc_7', 0.29000000000000015), ('wc_4', 0.4500000000000003), ('wc_9', 0.5300000000000004)]",0.9504455500000002,,,33.0,0.045692,['Pass'],Pass,0.7300000000000005,-0.7300000000000005,0.0,0.0,0.9
520.0,9.0,wc_9,,0.0,,,,342.0,,,,Fail,,,,,
520.0,9.0,wc_9,,0.0,,,66.0,,,,,Fail,,,,,
520.0,9.0,wc_9,,0.0,,,,0.0,,,,Fail,,,,,
520.0,9.0,wc_9,wc_9,0.0,"[('wc_9', 0.5300000000000004)]",0.5300000000000004,,,36.0,0.002267,['Fail'],Fail,0.5300000000000004,-0.5300000000000004,0.0,0.0,0.6
520.0,9.0,wc_9,,0.0,,,,81.0,,,,Fail,,,,,
520.0,9.0,wc_9,wc_7,0.0,"[('wc_7', 0.30000000000000016), ('wc_9', 0.5300000000000004)]",0.6710000000000003,,,39.0,0.004425,['Fail'],Fail,0.30000000000000016,0.09999999999999987,2.0,5.0,0.3
520.0,9.0,wc_9,,0.0,,,,243.0,,,,Fail,,,,,
520.0,9.0,wc_9,wc_17,0.0,"[('wc_17', 0.5600000000000004), ('wc_9', 0.5300000000000004), ('wc_7', 0.30000000000000016)]",0.8552400000000002,,,29.0,0.007275,['Fail'],Fail,0.5600000000000004,-0.3600000000000004,1.0,5.0,0.6
520.0,9.0,wc_9,,0.0,,,,183.0,,,,Fail,,,,,
520.0,9.0,wc_9,wc_6,1.0,"[('wc_6', 0.8000000000000006), ('wc_9', 0.5300000000000004), ('wc_7', 0.30000000000000016), ('wc_17', 0.5600000000000004)]",0.9710480000000001,,,27.0,0.067408,['Fail'],Fail,0.8000000000000006,-0.4000000000000006,2.0,5.0,0.8
531.0,9.0,wc_9,,0.0,,,,0.0,,,,Pass,,,,,
531.0,9.0,wc_9,,0.0,,,69.0,,,,,Pass,,,,,
531.0,9.0,wc_9,,0.0,,,,0.0,,,,Pass,,,,,
531.0,9.0,wc_9,wc_9,0.0,"[('wc_9', 0.5400000000000004)]",0.5400000000000004,,,23.0,0.002417,['Pass'],Pass,0.5400000000000004,0.45999999999999963,1.0,1.0,0.6
531.0,9.0,wc_9,,0.0,,,,121.0,,,,Pass,,,,,
531.0,9.0,wc_9,wc_13,0.0,"[('wc_13', 0.6600000000000005), ('wc_9', 0.5400000000000004)]",0.8436000000000003,,,20.0,0.004563,['Pass'],Pass,0.6600000000000005,-0.5350000000000005,1.0,8.0,0.7
531.0,9.0,wc_9,,0.0,,,,202.0,,,,Pass,,,,,
531.0,9.0,wc_9,wc_8,1.0,"[('wc_8', 0.7100000000000005), ('wc_9', 0.5400000000000004), ('wc_13', 0.6600000000000005)]",0.9546440000000002,,,31.0,0.041323,['Pass'],Pass,0.7100000000000005,-0.3766666666666672,1.0,3.0,1.0
541.0,12.0,wc_12,,0.0,,,,122.0,,,,Fail,,,,,
541.0,12.0,wc_12,,0.0,,,70.0,,,,,Fail,,,,,
541.0,12.0,wc_12,,0.0,,,,0.0,,,,Fail,,,,,
541.0,12.0,wc_12,wc_12,0.0,"[('wc_12', 0.20000000000000007)]",0.20000000000000007,,,25.0,0.002276,['Fail'],Fail,0.20000000000000007,-0.012500000000000067,0.0,0.0,0.2
541.0,12.0,wc_12,,0.0,,,,321.0,,,,Fail,,,,,
541.0,12.0,wc_12,wc_9,0.0,"[('wc_9', 0.5500000000000004), ('wc_12', 0.20000000000000007)]",0.6400000000000003,,,34.0,0.004257,['Fail'],Fail,0.5500000000000004,0.4499999999999996,2.0,2.0,0.6
541.0,12.0,wc_12,,0.0,,,,0.0,,,,Fail,,,,,
541.0,12.0,wc_12,wc_10,0.0,"[('wc_10', 0.6600000000000005), ('wc_12', 0.20000000000000007), ('wc_9', 0.5500000000000004)]",0.8776000000000003,,,35.0,0.0072840000000000005,['Fail'],Fail,0.6600000000000005,-0.6600000000000005,0.0,3.0,0.9
541.0,12.0,wc_12,,0.0,,,,142.0,,,,Fail,,,,,
541.0,12.0,wc_12,wc_15,1.0,"[('wc_15', 0.2600000000000001), ('wc_12', 0.20000000000000007), ('wc_9', 0.5500000000000004), ('wc_10', 0.6600000000000005)]",0.9094240000000002,,,26.0,0.04647799999999999,['Fail'],Fail,0.2600000000000001,-0.01000000000000012,2.0,8.0,0.2
566.0,12.0,wc_12,,0.0,,,,61.0,,,,Pass,,,,,
566.0,12.0,wc_12,,0.0,,,79.0,,,,,Pass,,,,,
566.0,12.0,wc_12,,0.0,,,,0.0,,,,Pass,,,,,
566.0,12.0,wc_12,wc_12,0.0,"[('wc_12', 0.21000000000000008)]",0.21000000000000008,,,23.0,0.002348,['Pass'],Pass,0.21000000000000008,0.7899999999999999,1.0,1.0,0.2
566.0,12.0,wc_12,,0.0,,,,361.0,,,,Pass,,,,,
566.0,12.0,wc_12,wc_3,0.0,"[('wc_3', 0.7200000000000005), ('wc_12', 0.21000000000000008)]",0.7788000000000004,,,36.0,0.006435,['Pass'],Pass,0.7200000000000005,-0.6200000000000006,0.0,0.0,1.0
566.0,12.0,wc_12,,0.0,,,,182.0,,,,Pass,,,,,
566.0,12.0,wc_12,wc_10,1.0,"[('wc_10', 0.6600000000000005), ('wc_12', 0.21000000000000008), ('wc_3', 0.7200000000000005)]",0.9247920000000003,,,26.0,0.043944,['Pass'],Pass,0.6600000000000005,-0.26000000000000045,2.0,5.0,0.9
583.0,13.0,wc_13,,0.0,,,,101.0,,,,Fail,,,,,
583.0,13.0,wc_13,,0.0,,,55.0,,,,,Fail,,,,,
583.0,13.0,wc_13,,0.0,,,,0.0,,,,Fail,,,,,
583.0,13.0,wc_13,wc_13,0.0,"[('wc_13', 0.6600000000000005)]",0.6600000000000005,,,30.0,0.002665,['Fail'],Fail,0.6600000000000005,-0.47818181818181865,0.0,0.0,0.7
583.0,13.0,wc_13,,0.0,,,,242.0,,,,Fail,,,,,
583.0,13.0,wc_13,wc_2,0.0,"[('wc_2', 0.5200000000000004), ('wc_13', 0.6600000000000005)]",0.8368000000000003,,,31.0,0.005600000000000001,['Fail'],Fail,0.5200000000000004,-0.3771428571428575,0.0,0.0,0.5
583.0,13.0,wc_13,,0.0,,,,0.0,,,,Fail,,,,,
583.0,13.0,wc_13,wc_3,1.0,"[('wc_3', 0.7300000000000005), ('wc_13', 0.6600000000000005), ('wc_2', 0.5200000000000004)]",0.9559360000000002,,,39.0,0.04474500000000001,['Fail'],Fail,0.7400000000000005,0.25999999999999945,2.0,2.0,1.0
610.0,13.0,wc_13,,0.0,,,,161.0,,,,Pass,,,,,
610.0,13.0,wc_13,,0.0,,,52.0,,,,,Pass,,,,,
610.0,13.0,wc_13,,0.0,,,,0.0,,,,Pass,,,,,
610.0,13.0,wc_13,wc_13,0.0,"[('wc_13', 0.6700000000000005)]",0.6700000000000005,,,35.0,0.002147,['Pass'],Pass,0.6700000000000005,0.3299999999999995,1.0,1.0,0.7
610.0,13.0,wc_13,,0.0,,,,341.0,,,,Pass,,,,,
610.0,13.0,wc_13,wc_3,0.0,"[('wc_3', 0.7400000000000005), ('wc_13', 0.6700000000000005)]",0.9142000000000003,,,20.0,0.003934,['Pass'],Pass,0.7400000000000005,0.25999999999999945,2.0,2.0,1.0
610.0,13.0,wc_13,,0.0,,,,242.0,,,,Pass,,,,,
610.0,13.0,wc_13,wc_17,1.0,"[('wc_17', 0.5600000000000004), ('wc_13', 0.6700000000000005), ('wc_3', 0.7400000000000005)]",0.9622480000000002,,,22.0,0.044084000000000005,['Pass'],Pass,0.5600000000000004,-0.5600000000000004,0.0,0.0,0.6
617.0,15.0,wc_15,,0.0,,,,83.0,,,,Pass,,,,,
617.0,15.0,wc_15,,0.0,,,52.0,,,,,Pass,,,,,
617.0,15.0,wc_15,,0.0,,,,0.0,,,,Pass,,,,,
617.0,15.0,wc_15,wc_15,0.0,"[('wc_15', 0.2600000000000001)]",0.2600000000000001,,,34.0,0.001968,['Fail'],Pass,0.2600000000000001,-0.0781818181818183,0.0,0.0,0.2
617.0,15.0,wc_15,,0.0,,,,0.0,,,,Pass,,,,,
617.0,15.0,wc_15,wc_17,0.0,"[('wc_17', 0.5600000000000004), ('wc_15', 0.2600000000000001)]",0.6744000000000003,,,34.0,0.004269,['Fail'],Pass,0.5600000000000004,-0.5600000000000004,0.0,0.0,0.6
617.0,15.0,wc_15,,0.0,,,,402.0,,,,Pass,,,,,
617.0,15.0,wc_15,wc_5,0.0,"[('wc_15', 0.2600000000000001), ('wc_17', 0.5600000000000004)]",0.6744000000000003,,,24.0,0.0058850000000000005,['Fail'],Pass,0.21000000000000008,-0.21000000000000008,0.0,0.0,0.2
617.0,15.0,wc_15,,0.0,,,,61.0,,,,Pass,,,,,
617.0,15.0,wc_15,wc_2,0.0,"[('wc_15', 0.2600000000000001), ('wc_17', 0.5600000000000004)]",0.6744000000000003,,,40.0,0.008055,['Fail'],Pass,0.5300000000000004,-0.03000000000000036,1.0,2.0,0.5
617.0,15.0,wc_15,,0.0,,,,142.0,,,,Pass,,,,,
617.0,15.0,wc_15,wc_7,0.0,"[('wc_7', 0.31000000000000016), ('wc_5', 0.21000000000000008), ('wc_2', 0.5300000000000004)]",0.7438030000000002,,,27.0,0.010752999999999999,['Pass'],Pass,0.31000000000000016,-0.03727272727272746,0.0,0.0,0.3
617.0,15.0,wc_15,,0.0,,,,0.0,,,,Pass,,,,,
617.0,15.0,wc_15,wc_10,1.0,"[('wc_10', 0.6600000000000005), ('wc_5', 0.21000000000000008), ('wc_2', 0.5300000000000004), ('wc_7', 0.31000000000000016)]",0.9128930200000003,,,22.0,0.05257399999999999,['Pass'],Pass,0.6600000000000005,-0.2850000000000005,3.0,8.0,0.9
623.0,14.0,wc_14,,0.0,,,,121.0,,,,Fail,,,,,
623.0,14.0,wc_14,,0.0,,,80.0,,,,,Fail,,,,,
623.0,14.0,wc_14,,0.0,,,,0.0,,,,Fail,,,,,
623.0,14.0,wc_14,wc_14,0.0,"[('wc_14', 0.5700000000000004)]",0.5700000000000004,,,34.0,0.002206,['Pass'],Fail,0.5700000000000004,-0.5700000000000004,0.0,0.0,0.7
623.0,14.0,wc_14,,0.0,,,,162.0,,,,Fail,,,,,
623.0,14.0,wc_14,wc_7,0.0,"[('wc_14', 0.5700000000000004)]",0.5700000000000004,,,40.0,0.004456,['Pass'],Fail,0.3200000000000002,0.6799999999999998,1.0,1.0,0.3
623.0,14.0,wc_14,,0.0,,,,0.0,,,,Fail,,,,,
623.0,14.0,wc_14,wc_9,0.0,"[('wc_9', 0.5600000000000004), ('wc_14', 0.5700000000000004)]",0.8108000000000004,,,20.0,0.005996,['Pass'],Fail,0.5600000000000004,-0.13142857142857184,3.0,7.0,0.6
623.0,14.0,wc_14,,0.0,,,,382.0,,,,Fail,,,,,
623.0,14.0,wc_14,wc_4,0.0,"[('wc_14', 0.5700000000000004), ('wc_9', 0.5600000000000004)]",0.8108000000000004,,,27.0,0.007758999999999999,['Pass'],Fail,0.4600000000000003,-0.3350000000000003,1.0,8.0,0.5
623.0,14.0,wc_14,,0.0,,,,121.0,,,,Fail,,,,,
623.0,14.0,wc_14,wc_8,0.0,"[('wc_8', 0.7100000000000005), ('wc_7', 0.3200000000000002), ('wc_4', 0.4600000000000003)]",0.8935120000000003,,,26.0,0.010234,['Fail'],Fail,0.7100000000000005,-0.5850000000000005,1.0,8.0,1.0
623.0,14.0,wc_14,,0.0,,,,162.0,,,,Fail,,,,,
623.0,14.0,wc_14,wc_1,1.0,"[('wc_1', 0.6400000000000005), ('wc_7', 0.3200000000000002), ('wc_4', 0.4600000000000003), ('wc_8', 0.7100000000000005)]",0.9616643200000001,,,22.0,0.053675,['Fail'],Fail,0.6400000000000005,-0.6400000000000005,0.0,0.0,1.0
631.0,16.0,wc_16,,0.0,,,,263.0,,,,Pass,,,,,
631.0,16.0,wc_16,,0.0,,,55.0,,,,,Pass,,,,,
631.0,16.0,wc_16,,0.0,,,,0.0,,,,Pass,,,,,
631.0,16.0,wc_16,wc_16,0.0,"[('wc_16', 0.7300000000000005)]",0.7300000000000005,,,36.0,0.002394,['Pass'],Pass,0.7300000000000005,-0.7300000000000005,0.0,8.0,0.9
631.0,16.0,wc_16,,0.0,,,,61.0,,,,Pass,,,,,
631.0,16.0,wc_16,wc_13,0.0,"[('wc_13', 0.6800000000000005), ('wc_16', 0.7300000000000005)]",0.9136000000000003,,,21.0,0.003938,['Pass'],Pass,0.6800000000000005,-0.1800000000000005,2.0,4.0,0.7
631.0,16.0,wc_16,,0.0,,,,381.0,,,,Pass,,,,,
631.0,16.0,wc_16,wc_5,1.0,"[('wc_5', 0.22000000000000008), ('wc_16', 0.7300000000000005), ('wc_13', 0.6800000000000005)]",0.9326080000000002,,,34.0,0.04302400000000001,['Pass'],Pass,0.2300000000000001,0.43666666666666654,2.0,3.0,0.2
644.0,14.0,wc_14,,0.0,,,,141.0,,,,Fail,,,,,
644.0,14.0,wc_14,,0.0,,,51.0,,,,,Fail,,,,,
644.0,14.0,wc_14,,0.0,,,,0.0,,,,Fail,,,,,
644.0,14.0,wc_14,wc_14,0.0,"[('wc_14', 0.5600000000000004)]",0.5600000000000004,,,29.0,0.002193,['Fail'],Fail,0.5600000000000004,-0.5600000000000004,0.0,2.0,0.7
644.0,14.0,wc_14,,0.0,,,,222.0,,,,Fail,,,,,
644.0,14.0,wc_14,wc_2,0.0,"[('wc_2', 0.5400000000000004), ('wc_14', 0.5600000000000004)]",0.7976000000000003,,,32.0,0.004387,['Fail'],Fail,0.5400000000000004,-0.14000000000000035,2.0,5.0,0.5
644.0,14.0,wc_14,,0.0,,,,0.0,,,,Fail,,,,,
644.0,14.0,wc_14,wc_5,0.0,"[('wc_5', 0.2300000000000001), ('wc_14', 0.5600000000000004), ('wc_2', 0.5400000000000004)]",0.8441520000000002,,,38.0,0.005683,['Fail'],Fail,0.2300000000000001,0.43666666666666654,2.0,3.0,0.2
644.0,14.0,wc_14,,0.0,,,,122.0,,,,Fail,,,,,
644.0,14.0,wc_14,wc_9,1.0,"[('wc_9', 0.5500000000000004), ('wc_14', 0.5600000000000004), ('wc_2', 0.5400000000000004), ('wc_5', 0.2300000000000001)]",0.9298684000000002,,,31.0,0.044801,['Fail'],Fail,0.5500000000000004,-0.5500000000000004,0.0,0.0,0.6
655.0,14.0,wc_14,,0.0,,,,141.0,,,,Pass,,,,,
655.0,14.0,wc_14,,0.0,,,51.0,,,,,Pass,,,,,
655.0,14.0,wc_14,,0.0,,,,0.0,,,,Pass,,,,,
655.0,14.0,wc_14,wc_14,0.0,"[('wc_14', 0.5600000000000004)]",0.5600000000000004,,,37.0,0.002096,['Pass'],Pass,0.5600000000000004,-0.22666666666666707,1.0,3.0,0.7
655.0,14.0,wc_14,,0.0,,,,82.0,,,,Pass,,,,,
655.0,14.0,wc_14,wc_12,0.0,"[('wc_12', 0.22000000000000008), ('wc_14', 0.5600000000000004)]",0.6568000000000003,,,33.0,0.006161,['Pass'],Pass,0.22000000000000008,0.029999999999999916,2.0,8.0,0.2
655.0,14.0,wc_14,,0.0,,,,321.0,,,,Pass,,,,,
655.0,14.0,wc_14,wc_9,0.0,"[('wc_9', 0.5500000000000004), ('wc_14', 0.5600000000000004), ('wc_12', 0.22000000000000008)]",0.8455600000000003,,,30.0,0.006006,['Pass'],Pass,0.5500000000000004,-0.5500000000000004,0.0,0.0,0.6
655.0,14.0,wc_14,,0.0,,,,402.0,,,,Pass,,,,,
655.0,14.0,wc_14,wc_5,0.0,"[('wc_5', 0.2400000000000001), ('wc_14', 0.5600000000000004), ('wc_12', 0.22000000000000008), ('wc_9', 0.5500000000000004)]",0.8826256000000002,,,37.0,0.0073560000000000006,['Pass'],Pass,0.2400000000000001,0.5099999999999999,3.0,4.0,0.2
655.0,14.0,wc_14,,0.0,,,,101.0,,,,Pass,,,,,
655.0,14.0,wc_14,wc_8,1.0,"[('wc_8', 0.7100000000000005), ('wc_14', 0.5600000000000004), ('wc_12', 0.22000000000000008), ('wc_9', 0.5500000000000004), ('wc_5', 0.2400000000000001)]",0.9659614240000002,,,24.0,0.045603,['Pass'],Pass,0.7100000000000005,-0.7100000000000005,0.0,0.0,1.0
659.0,17.0,wc_17,,0.0,,,,223.0,,,,Pass,,,,,
659.0,17.0,wc_17,,0.0,,,52.0,,,,,Pass,,,,,
659.0,17.0,wc_17,,0.0,,,,0.0,,,,Pass,,,,,
659.0,17.0,wc_17,wc_17,0.0,"[('wc_17', 0.5500000000000004)]",0.5500000000000004,,,26.0,0.002189,['Pass'],Pass,0.5500000000000004,-0.5500000000000004,0.0,5.0,0.6
659.0,17.0,wc_17,,0.0,,,,21.0,,,,Pass,,,,,
659.0,17.0,wc_17,wc_12,0.0,"[('wc_12', 0.2300000000000001), ('wc_17', 0.5500000000000004)]",0.6535000000000004,,,28.0,0.004025,['Pass'],Pass,0.2300000000000001,0.10333333333333322,3.0,9.0,0.2
659.0,17.0,wc_17,,0.0,,,,341.0,,,,Pass,,,,,
659.0,17.0,wc_17,wc_10,0.0,"[('wc_10', 0.6600000000000005), ('wc_17', 0.5500000000000004), ('wc_12', 0.2300000000000001)]",0.8821900000000003,,,35.0,0.005906000000000001,['Pass'],Pass,0.6600000000000005,-0.4100000000000005,0.0,0.0,0.9
659.0,17.0,wc_17,,0.0,,,,81.0,,,,Pass,,,,,
659.0,17.0,wc_17,wc_8,1.0,"[('wc_8', 0.7100000000000005), ('wc_17', 0.5500000000000004), ('wc_12', 0.2300000000000001), ('wc_10', 0.6600000000000005)]",0.9658351000000002,,,34.0,0.04474299999999999,['Pass'],Pass,0.7200000000000005,0.27999999999999947,1.0,1.0,1.0
