mpecck/BCQC/bcqc_with_qdt/results/raw/input_10/independent_qc/training/20_workpiece/20200429_084438/wp_11_qc_majority_0.9.csv
production_index,step_idx,production_workcell,qc,consent,winner_qc_list,score,production_time,transport_time,inspection_time,network_time,qc_results,actual_quality,qc_score,score_error,in_winner_counter,in_qc_counter,qc_capability
33.0,1.0,wc_1,,0.0,,,50.0,,,,,Fail,,,,,
33.0,1.0,wc_1,,0.0,,,,0.0,,,,Fail,,,,,
33.0,1.0,wc_1,wc_1,0.0,"[('wc_1', 0.6400000000000005)]",0.6400000000000005,,,40.0,0.002144,['Fail'],Fail,0.6400000000000005,-0.6400000000000005,0.0,4.0,1.0
33.0,1.0,wc_1,,0.0,,,,203.0,,,,Fail,,,,,
33.0,1.0,wc_1,wc_9,0.0,"[('wc_9', 0.5600000000000004), ('wc_1', 0.6400000000000005)]",0.8416000000000003,,,23.0,0.0051389999999999995,['Fail'],Fail,0.5600000000000004,-0.060000000000000386,1.0,2.0,0.6
33.0,1.0,wc_1,,0.0,,,,121.0,,,,Fail,,,,,
33.0,1.0,wc_1,wc_13,1.0,"[('wc_13', 0.6800000000000005), ('wc_1', 0.6400000000000005), ('wc_9', 0.5600000000000004)]",0.9493120000000002,,,39.0,0.040073,['Fail'],Fail,0.6800000000000005,-0.23555555555555607,4.0,9.0,0.7
112.0,1.0,wc_1,,0.0,,,,222.0,,,,Pass,,,,,
112.0,1.0,wc_1,,0.0,,,76.0,,,,,Pass,,,,,
112.0,1.0,wc_1,,0.0,,,,0.0,,,,Pass,,,,,
112.0,1.0,wc_1,wc_1,0.0,"[('wc_1', 0.6400000000000005)]",0.6400000000000005,,,20.0,0.002152,['Fail'],Pass,0.6400000000000005,-0.44000000000000045,1.0,5.0,1.0
112.0,1.0,wc_1,,0.0,,,,203.0,,,,Pass,,,,,
112.0,1.0,wc_1,wc_9,0.0,"[('wc_1', 0.6400000000000005)]",0.6400000000000005,,,40.0,0.003988,['Fail'],Pass,0.5700000000000004,0.09666666666666623,2.0,3.0,0.6
112.0,1.0,wc_1,,0.0,,,,182.0,,,,Pass,,,,,
112.0,1.0,wc_1,wc_16,0.0,"[('wc_16', 0.7300000000000005), ('wc_9', 0.5700000000000004)]",0.8839000000000004,,,24.0,0.006045,['Pass'],Pass,0.7300000000000005,-0.6530769230769236,0.0,0.0,0.9
112.0,1.0,wc_1,,0.0,,,,203.0,,,,Pass,,,,,
112.0,1.0,wc_1,wc_6,0.0,"[('wc_6', 0.8000000000000006), ('wc_1', 0.6400000000000005)]",0.9280000000000003,,,21.0,0.007429,['Fail'],Pass,0.8000000000000006,-0.6823529411764712,0.0,0.0,0.8
112.0,1.0,wc_1,,0.0,,,,222.0,,,,Pass,,,,,
112.0,1.0,wc_1,wc_2,1.0,"[('wc_2', 0.5400000000000004), ('wc_9', 0.5700000000000004), ('wc_16', 0.7300000000000005)]",0.9465940000000002,,,26.0,0.040249,['Pass'],Pass,0.5400000000000004,-0.5400000000000004,0.0,0.0,0.5
121.0,4.0,wc_4,,0.0,,,,0.0,,,,Fail,,,,,
121.0,4.0,wc_4,,0.0,,,60.0,,,,,Fail,,,,,
121.0,4.0,wc_4,,0.0,,,,0.0,,,,Fail,,,,,
121.0,4.0,wc_4,wc_4,0.0,"[('wc_4', 0.4600000000000003)]",0.4600000000000003,,,31.0,0.002097,['Pass'],Fail,0.4600000000000003,-0.326666666666667,0.0,0.0,0.5
121.0,4.0,wc_4,,0.0,,,,182.0,,,,Fail,,,,,
121.0,4.0,wc_4,wc_11,0.0,"[('wc_11', 0.3700000000000002), ('wc_4', 0.4600000000000003)]",0.6598000000000004,,,32.0,0.003863,['Pass'],Fail,0.3700000000000002,-0.31444444444444464,0.0,0.0,0.3
121.0,4.0,wc_4,,0.0,,,,162.0,,,,Fail,,,,,
121.0,4.0,wc_4,wc_17,0.0,"[('wc_17', 0.5500000000000004), ('wc_4', 0.4600000000000003), ('wc_11', 0.3700000000000002)]",0.8469100000000003,,,27.0,0.005991,['Pass'],Fail,0.5500000000000004,-0.4250000000000004,1.0,8.0,0.6
121.0,4.0,wc_4,,0.0,,,,223.0,,,,Fail,,,,,
121.0,4.0,wc_4,wc_8,0.0,"[('wc_4', 0.4600000000000003), ('wc_11', 0.3700000000000002), ('wc_17', 0.5500000000000004)]",0.8469100000000003,,,34.0,0.008428999999999999,['Pass'],Fail,0.7200000000000005,-0.3866666666666672,1.0,3.0,1.0
121.0,4.0,wc_4,,0.0,,,,281.0,,,,Fail,,,,,
121.0,4.0,wc_4,wc_3,0.0,"[('wc_3', 0.7500000000000006), ('wc_8', 0.7200000000000005)]",0.9300000000000003,,,39.0,0.010311,['Fail'],Fail,0.7500000000000006,-0.47727272727272785,0.0,0.0,1.0
121.0,4.0,wc_4,,0.0,,,,182.0,,,,Fail,,,,,
121.0,4.0,wc_4,wc_10,1.0,"[('wc_10', 0.6700000000000005), ('wc_8', 0.7200000000000005), ('wc_3', 0.7500000000000006)]",0.9769000000000001,,,24.0,0.041750999999999996,['Fail'],Fail,0.6700000000000005,-0.17000000000000048,2.0,4.0,0.9
136.0,2.0,wc_2,,0.0,,,,243.0,,,,Pass,,,,,
136.0,2.0,wc_2,,0.0,,,76.0,,,,,Pass,,,,,
136.0,2.0,wc_2,,0.0,,,,0.0,,,,Pass,,,,,
136.0,2.0,wc_2,wc_2,0.0,"[('wc_2', 0.5400000000000004)]",0.5400000000000004,,,29.0,0.002228,['Pass'],Pass,0.5400000000000004,-0.5400000000000004,0.0,1.0,0.5
136.0,2.0,wc_2,,0.0,,,,202.0,,,,Pass,,,,,
136.0,2.0,wc_2,wc_14,0.0,"[('wc_14', 0.5600000000000004), ('wc_2', 0.5400000000000004)]",0.7976000000000003,,,38.0,0.005056,['Pass'],Pass,0.5600000000000004,-0.3100000000000004,2.0,8.0,0.7
136.0,2.0,wc_2,,0.0,,,,102.0,,,,Pass,,,,,
136.0,2.0,wc_2,wc_13,0.0,"[('wc_2', 0.5400000000000004), ('wc_14', 0.5600000000000004)]",0.7976000000000003,,,22.0,0.007972,['Pass'],Pass,0.6800000000000005,-0.31636363636363685,0.0,0.0,0.7
136.0,2.0,wc_2,,0.0,,,,381.0,,,,Pass,,,,,
136.0,2.0,wc_2,wc_5,0.0,"[('wc_2', 0.5400000000000004), ('wc_14', 0.5600000000000004)]",0.7976000000000003,,,21.0,0.007705000000000001,['Pass'],Pass,0.2500000000000001,0.1944444444444443,4.0,9.0,0.2
136.0,2.0,wc_2,,0.0,,,,162.0,,,,Pass,,,,,
136.0,2.0,wc_2,wc_15,0.0,"[('wc_15', 0.2500000000000001), ('wc_13', 0.6800000000000005), ('wc_5', 0.2500000000000001)]",0.8200000000000003,,,27.0,0.009724,['Fail'],Pass,0.2500000000000001,-0.2500000000000001,0.0,9.0,0.2
136.0,2.0,wc_2,,0.0,,,,382.0,,,,Pass,,,,,
136.0,2.0,wc_2,wc_10,1.0,"[('wc_10', 0.6700000000000005), ('wc_2', 0.5400000000000004), ('wc_14', 0.5600000000000004)]",0.9332080000000003,,,23.0,0.045112,['Pass'],Pass,0.6700000000000005,-0.0700000000000005,3.0,5.0,0.9
169.0,4.0,wc_4,,0.0,,,,362.0,,,,Fail,,,,,
169.0,4.0,wc_4,,0.0,,,65.0,,,,,Fail,,,,,
169.0,4.0,wc_4,,0.0,,,,0.0,,,,Fail,,,,,
169.0,4.0,wc_4,wc_4,0.0,"[('wc_4', 0.4500000000000003)]",0.4500000000000003,,,33.0,0.00208,['Fail'],Fail,0.4500000000000003,-0.4500000000000003,0.0,2.0,0.5
169.0,4.0,wc_4,,0.0,,,,161.0,,,,Fail,,,,,
169.0,4.0,wc_4,wc_14,0.0,"[('wc_14', 0.5600000000000004), ('wc_4', 0.4500000000000003)]",0.7580000000000003,,,30.0,0.003817,['Fail'],Fail,0.5600000000000004,-0.22666666666666707,3.0,9.0,0.7
169.0,4.0,wc_4,,0.0,,,,0.0,,,,Fail,,,,,
169.0,4.0,wc_4,wc_17,0.0,"[('wc_17', 0.5400000000000004), ('wc_4', 0.4500000000000003), ('wc_14', 0.5600000000000004)]",0.8886800000000002,,,37.0,0.006088,['Fail'],Fail,0.5400000000000004,-0.4400000000000004,0.0,0.0,0.6
169.0,4.0,wc_4,,0.0,,,,223.0,,,,Fail,,,,,
169.0,4.0,wc_4,wc_8,1.0,"[('wc_8', 0.7200000000000005), ('wc_4', 0.4500000000000003), ('wc_14', 0.5600000000000004), ('wc_17', 0.5400000000000004)]",0.9688304000000001,,,33.0,0.047045000000000003,['Fail'],Fail,0.7200000000000005,-0.22000000000000053,3.0,6.0,1.0
186.0,3.0,wc_3,,0.0,,,,281.0,,,,Fail,,,,,
186.0,3.0,wc_3,,0.0,,,74.0,,,,,Fail,,,,,
186.0,3.0,wc_3,,0.0,,,,0.0,,,,Fail,,,,,
186.0,3.0,wc_3,wc_3,0.0,"[('wc_3', 0.7600000000000006)]",0.7600000000000006,,,40.0,0.002478,['Fail'],Fail,0.7600000000000006,-0.42666666666666725,1.0,3.0,1.0
186.0,3.0,wc_3,,0.0,,,,162.0,,,,Fail,,,,,
186.0,3.0,wc_3,wc_9,0.0,"[('wc_9', 0.5800000000000004), ('wc_3', 0.7600000000000006)]",0.8992000000000003,,,38.0,0.00417,['Fail'],Fail,0.5800000000000004,-0.15142857142857186,3.0,7.0,0.6
186.0,3.0,wc_3,,0.0,,,,0.0,,,,Fail,,,,,
186.0,3.0,wc_3,wc_10,1.0,"[('wc_10', 0.6700000000000005), ('wc_3', 0.7600000000000006), ('wc_9', 0.5800000000000004)]",0.9667360000000002,,,34.0,0.042087999999999993,['Fail'],Fail,0.6700000000000005,-0.09857142857142909,4.0,7.0,0.9
230.0,3.0,wc_3,,0.0,,,,342.0,,,,Fail,,,,,
230.0,3.0,wc_3,,0.0,,,68.0,,,,,Fail,,,,,
230.0,3.0,wc_3,,0.0,,,,0.0,,,,Fail,,,,,
230.0,3.0,wc_3,wc_3,0.0,"[('wc_3', 0.7600000000000006)]",0.7600000000000006,,,39.0,0.002265,['Fail'],Fail,0.7600000000000006,-0.26000000000000056,2.0,4.0,1.0
230.0,3.0,wc_3,,0.0,,,,161.0,,,,Fail,,,,,
230.0,3.0,wc_3,wc_13,0.0,"[('wc_13', 0.6700000000000005), ('wc_3', 0.7600000000000006)]",0.9208000000000003,,,35.0,0.004237,['Fail'],Fail,0.6700000000000005,-0.6700000000000005,0.0,3.0,0.7
230.0,3.0,wc_3,,0.0,,,,162.0,,,,Fail,,,,,
230.0,3.0,wc_3,wc_6,1.0,"[('wc_6', 0.7900000000000006), ('wc_3', 0.7600000000000006), ('wc_13', 0.6700000000000005)]",0.9833680000000001,,,28.0,0.036637,['Fail'],Fail,0.7900000000000006,-0.623333333333334,1.0,6.0,0.8
264.0,4.0,wc_4,,0.0,,,,341.0,,,,Pass,,,,,
264.0,4.0,wc_4,,0.0,,,54.0,,,,,Pass,,,,,
264.0,4.0,wc_4,,0.0,,,,0.0,,,,Pass,,,,,
264.0,4.0,wc_4,wc_4,0.0,"[('wc_4', 0.4500000000000003)]",0.4500000000000003,,,32.0,0.002287,['Pass'],Pass,0.4500000000000003,-0.2500000000000003,1.0,5.0,0.5
264.0,4.0,wc_4,,0.0,,,,0.0,,,,Pass,,,,,
264.0,4.0,wc_4,wc_5,0.0,"[('wc_4', 0.4500000000000003)]",0.4500000000000003,,,25.0,0.004111999999999999,['Pass'],Pass,0.2500000000000001,-0.2500000000000001,0.0,3.0,0.2
264.0,4.0,wc_4,,0.0,,,,61.0,,,,Pass,,,,,
264.0,4.0,wc_4,wc_6,0.0,"[('wc_6', 0.7900000000000006), ('wc_4', 0.4500000000000003)]",0.8845000000000004,,,23.0,0.006095999999999999,['Pass'],Pass,0.7900000000000006,-0.623333333333334,1.0,6.0,0.8
264.0,4.0,wc_4,,0.0,,,,162.0,,,,Pass,,,,,
264.0,4.0,wc_4,wc_12,1.0,"[('wc_12', 0.2400000000000001), ('wc_4', 0.4500000000000003), ('wc_6', 0.7900000000000006)]",0.9122200000000003,,,34.0,0.04035299999999999,['Pass'],Pass,0.2400000000000001,-0.1150000000000001,1.0,8.0,0.2
286.0,3.0,wc_3,,0.0,,,,361.0,,,,Fail,,,,,
286.0,3.0,wc_3,,0.0,,,62.0,,,,,Fail,,,,,
286.0,3.0,wc_3,,0.0,,,,0.0,,,,Fail,,,,,
286.0,3.0,wc_3,wc_3,0.0,"[('wc_3', 0.7600000000000006)]",0.7600000000000006,,,30.0,0.002134,['Fail'],Fail,0.7600000000000006,-0.26000000000000056,3.0,6.0,1.0
286.0,3.0,wc_3,,0.0,,,,101.0,,,,Fail,,,,,
286.0,3.0,wc_3,wc_2,0.0,"[('wc_2', 0.5400000000000004), ('wc_3', 0.7600000000000006)]",0.8896000000000004,,,38.0,0.004182,['Fail'],Fail,0.5400000000000004,-0.37333333333333374,1.0,6.0,0.5
286.0,3.0,wc_3,,0.0,,,,122.0,,,,Fail,,,,,
286.0,3.0,wc_3,wc_6,1.0,"[('wc_6', 0.7900000000000006), ('wc_3', 0.7600000000000006), ('wc_2', 0.5400000000000004)]",0.9768160000000001,,,36.0,0.036011,['Fail'],Fail,0.7900000000000006,-0.4150000000000006,3.0,8.0,0.8
306.0,3.0,wc_3,,0.0,,,,321.0,,,,Pass,,,,,
306.0,3.0,wc_3,,0.0,,,68.0,,,,,Pass,,,,,
306.0,3.0,wc_3,,0.0,,,,0.0,,,,Pass,,,,,
306.0,3.0,wc_3,wc_3,0.0,"[('wc_3', 0.7600000000000006)]",0.7600000000000006,,,25.0,0.002176,['Pass'],Pass,0.7600000000000006,-0.18857142857142917,4.0,7.0,1.0
306.0,3.0,wc_3,,0.0,,,,101.0,,,,Pass,,,,,
306.0,3.0,wc_3,wc_6,0.0,"[('wc_6', 0.7900000000000006), ('wc_3', 0.7600000000000006)]",0.9496000000000002,,,36.0,0.004518,['Pass'],Pass,0.7900000000000006,-0.4150000000000006,3.0,8.0,0.8
306.0,3.0,wc_3,,0.0,,,,0.0,,,,Pass,,,,,
306.0,3.0,wc_3,wc_9,1.0,"[('wc_9', 0.5800000000000004), ('wc_3', 0.7600000000000006), ('wc_6', 0.7900000000000006)]",0.9788320000000001,,,24.0,0.043806000000000005,['Pass'],Pass,0.5800000000000004,-0.5800000000000004,0.0,0.0,0.6
321.0,5.0,wc_5,,0.0,,,,402.0,,,,Fail,,,,,
321.0,5.0,wc_5,,0.0,,,75.0,,,,,Fail,,,,,
321.0,5.0,wc_5,,0.0,,,,0.0,,,,Fail,,,,,
321.0,5.0,wc_5,wc_5,0.0,"[('wc_5', 0.2400000000000001)]",0.2400000000000001,,,33.0,0.002233,['Fail'],Fail,0.2400000000000001,-0.2400000000000001,0.0,6.0,0.2
321.0,5.0,wc_5,,0.0,,,,142.0,,,,Fail,,,,,
321.0,5.0,wc_5,wc_10,0.0,"[('wc_10', 0.6700000000000005), ('wc_5', 0.2400000000000001)]",0.7492000000000004,,,23.0,0.005577,['Fail'],Fail,0.6700000000000005,-0.30636363636363684,0.0,0.0,0.9
321.0,5.0,wc_5,,0.0,,,,142.0,,,,Fail,,,,,
321.0,5.0,wc_5,wc_15,0.0,"[('wc_5', 0.2400000000000001), ('wc_10', 0.6700000000000005)]",0.7492000000000004,,,24.0,0.0057020000000000005,['Fail'],Fail,0.2400000000000001,-0.2400000000000001,0.0,6.0,0.2
321.0,5.0,wc_5,,0.0,,,,243.0,,,,Fail,,,,,
321.0,5.0,wc_5,wc_7,0.0,"[('wc_7', 0.3300000000000002), ('wc_5', 0.2400000000000001), ('wc_10', 0.6700000000000005)]",0.8319640000000004,,,26.0,0.008166,['Fail'],Fail,0.3300000000000002,-0.20500000000000018,0.0,0.0,0.3
321.0,5.0,wc_5,,0.0,,,,162.0,,,,Fail,,,,,
321.0,5.0,wc_5,wc_13,0.0,"[('wc_5', 0.2400000000000001), ('wc_10', 0.6700000000000005), ('wc_7', 0.3300000000000002)]",0.8319640000000004,,,33.0,0.010573,['Fail'],Fail,0.6700000000000005,-0.5271428571428576,1.0,7.0,0.7
321.0,5.0,wc_5,,0.0,,,,341.0,,,,Fail,,,,,
321.0,5.0,wc_5,wc_11,0.0,"[('wc_11', 0.3600000000000002), ('wc_15', 0.2400000000000001), ('wc_13', 0.6700000000000005)]",0.8394880000000003,,,28.0,0.011961999999999999,['Pass'],Fail,0.3600000000000002,-0.3600000000000002,0.0,8.0,0.3
321.0,5.0,wc_5,,0.0,,,,162.0,,,,Fail,,,,,
321.0,5.0,wc_5,wc_17,1.0,"[('wc_17', 0.5500000000000004), ('wc_5', 0.2400000000000001), ('wc_10', 0.6700000000000005), ('wc_7', 0.3300000000000002)]",0.9243838000000002,,,37.0,0.047908000000000006,['Fail'],Fail,0.5500000000000004,-0.2642857142857147,2.0,7.0,0.6
354.0,5.0,wc_5,,0.0,,,,402.0,,,,Fail,,,,,
354.0,5.0,wc_5,,0.0,,,63.0,,,,,Fail,,,,,
354.0,5.0,wc_5,,0.0,,,,0.0,,,,Fail,,,,,
354.0,5.0,wc_5,wc_5,0.0,"[('wc_5', 0.2400000000000001)]",0.2400000000000001,,,21.0,0.002185,['Pass'],Fail,0.2400000000000001,-0.09714285714285725,1.0,7.0,0.2
354.0,5.0,wc_5,,0.0,,,,61.0,,,,Fail,,,,,
354.0,5.0,wc_5,wc_6,0.0,"[('wc_6', 0.7900000000000006)]",0.7900000000000006,,,21.0,0.004228,['Fail'],Fail,0.7900000000000006,-0.39000000000000057,0.0,0.0,0.8
354.0,5.0,wc_5,,0.0,,,,341.0,,,,Fail,,,,,
354.0,5.0,wc_5,wc_4,0.0,"[('wc_4', 0.4500000000000003), ('wc_6', 0.7900000000000006)]",0.8845000000000004,,,20.0,0.006284,['Fail'],Fail,0.4500000000000003,-0.22777777777777808,2.0,9.0,0.5
354.0,5.0,wc_5,,0.0,,,,101.0,,,,Fail,,,,,
354.0,5.0,wc_5,wc_7,0.0,"[('wc_6', 0.7900000000000006), ('wc_4', 0.4500000000000003)]",0.8845000000000004,,,25.0,0.010434,['Fail'],Fail,0.3400000000000002,0.6599999999999998,1.0,1.0,0.3
354.0,5.0,wc_5,,0.0,,,,182.0,,,,Fail,,,,,
354.0,5.0,wc_5,wc_1,1.0,"[('wc_1', 0.6300000000000004), ('wc_6', 0.7900000000000006), ('wc_4', 0.4500000000000003)]",0.9572650000000001,,,20.0,0.041299999999999996,['Fail'],Fail,0.6300000000000004,-0.6300000000000004,0.0,0.0,1.0
387.0,5.0,wc_5,,0.0,,,,0.0,,,,Pass,,,,,
387.0,5.0,wc_5,,0.0,,,53.0,,,,,Pass,,,,,
387.0,5.0,wc_5,,0.0,,,,0.0,,,,Pass,,,,,
387.0,5.0,wc_5,wc_5,0.0,"[('wc_5', 0.2300000000000001)]",0.2300000000000001,,,36.0,0.002014,['Pass'],Pass,0.2300000000000001,-0.1050000000000001,1.0,8.0,0.2
387.0,5.0,wc_5,,0.0,,,,142.0,,,,Pass,,,,,
387.0,5.0,wc_5,wc_10,0.0,"[('wc_10', 0.6800000000000005), ('wc_5', 0.2300000000000001)]",0.7536000000000004,,,32.0,0.004723,['Pass'],Pass,0.6800000000000005,-0.1800000000000005,1.0,2.0,0.9
387.0,5.0,wc_5,,0.0,,,,182.0,,,,Pass,,,,,
387.0,5.0,wc_5,wc_17,0.0,"[('wc_17', 0.5500000000000004), ('wc_5', 0.2300000000000001), ('wc_10', 0.6800000000000005)]",0.8891200000000002,,,37.0,0.0060209999999999994,['Pass'],Pass,0.5500000000000004,-0.3000000000000004,2.0,8.0,0.6
387.0,5.0,wc_5,,0.0,,,,41.0,,,,Pass,,,,,
387.0,5.0,wc_5,wc_13,1.0,"[('wc_13', 0.6600000000000005), ('wc_5', 0.2300000000000001), ('wc_10', 0.6800000000000005), ('wc_17', 0.5500000000000004)]",0.9623008000000002,,,23.0,0.039552000000000004,['Pass'],Pass,0.6600000000000005,-0.6600000000000005,0.0,0.0,0.7
415.0,6.0,wc_6,,0.0,,,,162.0,,,,Fail,,,,,
415.0,6.0,wc_6,,0.0,,,67.0,,,,,Fail,,,,,
415.0,6.0,wc_6,,0.0,,,,0.0,,,,Fail,,,,,
415.0,6.0,wc_6,wc_6,0.0,"[('wc_6', 0.8000000000000006)]",0.8000000000000006,,,28.0,0.002004,['Fail'],Fail,0.8000000000000006,-0.3000000000000006,1.0,2.0,0.8
415.0,6.0,wc_6,,0.0,,,,182.0,,,,Fail,,,,,
415.0,6.0,wc_6,wc_13,0.0,"[('wc_13', 0.6600000000000005), ('wc_6', 0.8000000000000006)]",0.9320000000000003,,,34.0,0.004073,['Fail'],Fail,0.6600000000000005,-0.6600000000000005,0.0,0.0,0.7
415.0,6.0,wc_6,,0.0,,,,242.0,,,,Fail,,,,,
415.0,6.0,wc_6,wc_2,1.0,"[('wc_2', 0.5400000000000004), ('wc_6', 0.8000000000000006), ('wc_13', 0.6600000000000005)]",0.9687200000000001,,,29.0,0.038496,['Fail'],Fail,0.5400000000000004,-0.5400000000000004,0.0,0.0,0.5
449.0,6.0,wc_6,,0.0,,,,122.0,,,,Pass,,,,,
449.0,6.0,wc_6,,0.0,,,60.0,,,,,Pass,,,,,
449.0,6.0,wc_6,,0.0,,,,0.0,,,,Pass,,,,,
449.0,6.0,wc_6,wc_6,0.0,"[('wc_6', 0.8000000000000006)]",0.8000000000000006,,,39.0,0.001939,['Pass'],Pass,0.8000000000000006,-0.13333333333333397,2.0,3.0,0.8
449.0,6.0,wc_6,,0.0,,,,263.0,,,,Pass,,,,,
449.0,6.0,wc_6,wc_17,0.0,"[('wc_17', 0.5500000000000004), ('wc_6', 0.8000000000000006)]",0.9100000000000004,,,34.0,0.005431,['Pass'],Pass,0.5500000000000004,-0.2500000000000004,0.0,0.0,0.6
449.0,6.0,wc_6,,0.0,,,,203.0,,,,Pass,,,,,
449.0,6.0,wc_6,wc_7,1.0,"[('wc_7', 0.3400000000000002), ('wc_6', 0.8000000000000006), ('wc_17', 0.5500000000000004)]",0.9406000000000002,,,23.0,0.039978,['Pass'],Pass,0.3500000000000002,0.04999999999999982,2.0,5.0,0.3
461.0,8.0,wc_8,,0.0,,,,0.0,,,,Fail,,,,,
461.0,8.0,wc_8,,0.0,,,79.0,,,,,Fail,,,,,
461.0,8.0,wc_8,,0.0,,,,0.0,,,,Fail,,,,,
461.0,8.0,wc_8,wc_8,0.0,"[('wc_8', 0.7200000000000005)]",0.7200000000000005,,,39.0,0.002497,['Fail'],Fail,0.7200000000000005,-0.5325000000000005,0.0,0.0,1.0
461.0,8.0,wc_8,,0.0,,,,301.0,,,,Fail,,,,,
461.0,8.0,wc_8,wc_4,0.0,"[('wc_4', 0.4500000000000003), ('wc_8', 0.7200000000000005)]",0.8460000000000003,,,34.0,0.0040869999999999995,['Fail'],Fail,0.4500000000000003,-0.4500000000000003,0.0,3.0,0.5
461.0,8.0,wc_8,,0.0,,,,162.0,,,,Fail,,,,,
461.0,8.0,wc_8,wc_10,1.0,"[('wc_10', 0.6800000000000005), ('wc_8', 0.7200000000000005), ('wc_4', 0.4500000000000003)]",0.9507200000000002,,,31.0,0.039758,['Fail'],Fail,0.6800000000000005,-0.1800000000000005,3.0,6.0,0.9
471.0,8.0,wc_8,,0.0,,,,81.0,,,,Fail,,,,,
471.0,8.0,wc_8,,0.0,,,70.0,,,,,Fail,,,,,
471.0,8.0,wc_8,,0.0,,,,0.0,,,,Fail,,,,,
471.0,8.0,wc_8,wc_8,0.0,"[('wc_8', 0.7300000000000005)]",0.7300000000000005,,,37.0,0.002313,['Fail'],Fail,0.7300000000000005,0.26999999999999946,1.0,1.0,1.0
471.0,8.0,wc_8,,0.0,,,,0.0,,,,Fail,,,,,
471.0,8.0,wc_8,wc_11,0.0,"[('wc_11', 0.3500000000000002), ('wc_8', 0.7300000000000005)]",0.8245000000000005,,,36.0,0.004089,['Fail'],Fail,0.3500000000000002,-0.3500000000000002,0.0,0.0,0.3
471.0,8.0,wc_8,,0.0,,,,21.0,,,,Fail,,,,,
471.0,8.0,wc_8,wc_6,1.0,"[('wc_6', 0.8000000000000006), ('wc_8', 0.7300000000000005), ('wc_11', 0.3500000000000002)]",0.9649000000000002,,,31.0,0.039577,['Fail'],Fail,0.8000000000000006,-0.13333333333333397,4.0,6.0,0.8
484.0,7.0,wc_7,,0.0,,,,0.0,,,,Pass,,,,,
484.0,7.0,wc_7,,0.0,,,80.0,,,,,Pass,,,,,
484.0,7.0,wc_7,,0.0,,,,0.0,,,,Pass,,,,,
484.0,7.0,wc_7,wc_7,0.0,"[('wc_7', 0.3500000000000002)]",0.3500000000000002,,,29.0,0.002037,['Fail'],Pass,0.3500000000000002,-0.0642857142857145,2.0,7.0,0.3
484.0,7.0,wc_7,,0.0,,,,0.0,,,,Pass,,,,,
484.0,7.0,wc_7,wc_9,0.0,"[('wc_9', 0.5800000000000004), ('wc_7', 0.3500000000000002)]",0.7270000000000003,,,29.0,0.004046,['Fail'],Pass,0.5800000000000004,-0.5800000000000004,0.0,7.0,0.6
484.0,7.0,wc_7,,0.0,,,,402.0,,,,Pass,,,,,
484.0,7.0,wc_7,wc_5,0.0,"[('wc_7', 0.3500000000000002), ('wc_9', 0.5800000000000004)]",0.7270000000000003,,,27.0,0.00644,['Fail'],Pass,0.2300000000000001,-0.07615384615384624,0.0,0.0,0.2
484.0,7.0,wc_7,,0.0,,,,202.0,,,,Pass,,,,,
484.0,7.0,wc_7,wc_17,0.0,"[('wc_17', 0.5600000000000004), ('wc_7', 0.3500000000000002), ('wc_9', 0.5800000000000004)]",0.8798800000000002,,,37.0,0.007776999999999999,['Fail'],Pass,0.5600000000000004,-0.22666666666666707,1.0,3.0,0.6
484.0,7.0,wc_7,,0.0,,,,21.0,,,,Pass,,,,,
484.0,7.0,wc_7,wc_12,1.0,"[('wc_12', 0.2400000000000001), ('wc_7', 0.3500000000000002), ('wc_9', 0.5800000000000004), ('wc_17', 0.5600000000000004)]",0.9087088000000002,,,34.0,0.042747,['Fail'],Pass,0.2400000000000001,-0.2400000000000001,0.0,0.0,0.2
496.0,9.0,wc_9,,0.0,,,,321.0,,,,Fail,,,,,
496.0,9.0,wc_9,,0.0,,,71.0,,,,,Fail,,,,,
496.0,9.0,wc_9,,0.0,,,,0.0,,,,Fail,,,,,
496.0,9.0,wc_9,wc_9,0.0,"[('wc_9', 0.5800000000000004)]",0.5800000000000004,,,21.0,0.002294,['Fail'],Fail,0.5800000000000004,-0.4550000000000004,1.0,8.0,0.6
496.0,9.0,wc_9,,0.0,,,,362.0,,,,Fail,,,,,
496.0,9.0,wc_9,wc_3,0.0,"[('wc_3', 0.7600000000000006), ('wc_9', 0.5800000000000004)]",0.8992000000000003,,,34.0,0.003857,['Fail'],Fail,0.7600000000000006,-0.44750000000000056,0.0,0.0,1.0
496.0,9.0,wc_9,,0.0,,,,222.0,,,,Fail,,,,,
496.0,9.0,wc_9,wc_16,1.0,"[('wc_16', 0.7400000000000005), ('wc_9', 0.5800000000000004), ('wc_3', 0.7600000000000006)]",0.9737920000000001,,,40.0,0.039526,['Fail'],Fail,0.7400000000000005,-0.7400000000000005,0.0,0.0,0.9
505.0,11.0,wc_11,,0.0,,,,382.0,,,,Pass,,,,,
505.0,11.0,wc_11,,0.0,,,68.0,,,,,Pass,,,,,
505.0,11.0,wc_11,,0.0,,,,0.0,,,,Pass,,,,,
505.0,11.0,wc_11,wc_11,0.0,"[('wc_11', 0.3600000000000002)]",0.3600000000000002,,,24.0,0.002238,['Pass'],Pass,0.3600000000000002,-0.026666666666666894,1.0,3.0,0.3
505.0,11.0,wc_11,,0.0,,,,101.0,,,,Pass,,,,,
505.0,11.0,wc_11,wc_14,0.0,"[('wc_14', 0.5600000000000004), ('wc_11', 0.3600000000000002)]",0.7184000000000004,,,39.0,0.0040230000000000005,['Pass'],Pass,0.5600000000000004,-0.5600000000000004,0.0,0.0,0.7
505.0,11.0,wc_11,,0.0,,,,142.0,,,,Pass,,,,,
505.0,11.0,wc_11,wc_6,1.0,"[('wc_6', 0.8000000000000006), ('wc_11', 0.3600000000000002), ('wc_14', 0.5600000000000004)]",0.9436800000000002,,,22.0,0.040022999999999996,['Pass'],Pass,0.8000000000000006,-0.24444444444444502,5.0,9.0,0.8
512.0,10.0,wc_10,,0.0,,,,0.0,,,,Pass,,,,,
512.0,10.0,wc_10,,0.0,,,54.0,,,,,Pass,,,,,
512.0,10.0,wc_10,,0.0,,,,0.0,,,,Pass,,,,,
512.0,10.0,wc_10,wc_10,0.0,"[('wc_10', 0.6800000000000005)]",0.6800000000000005,,,27.0,0.002204,['Pass'],Pass,0.6800000000000005,-0.3800000000000005,0.0,0.0,0.9
512.0,10.0,wc_10,,0.0,,,,0.0,,,,Pass,,,,,
512.0,10.0,wc_10,wc_11,0.0,"[('wc_11', 0.3700000000000002), ('wc_10', 0.6800000000000005)]",0.7984000000000004,,,26.0,0.004535,['Pass'],Pass,0.3700000000000002,0.12999999999999978,2.0,4.0,0.3
512.0,10.0,wc_10,,0.0,,,,21.0,,,,Pass,,,,,
512.0,10.0,wc_10,wc_6,1.0,"[('wc_6', 0.8000000000000006), ('wc_10', 0.6800000000000005), ('wc_11', 0.3700000000000002)]",0.9596800000000002,,,24.0,0.038770000000000006,['Pass'],Pass,0.8000000000000006,-0.8000000000000006,0.0,0.0,0.8
524.0,8.0,wc_8,,0.0,,,,0.0,,,,Pass,,,,,
524.0,8.0,wc_8,,0.0,,,71.0,,,,,Pass,,,,,
524.0,8.0,wc_8,,0.0,,,,0.0,,,,Pass,,,,,
524.0,8.0,wc_8,wc_8,0.0,"[('wc_8', 0.7400000000000005)]",0.7400000000000005,,,26.0,0.002396,['Pass'],Pass,0.7400000000000005,-0.40666666666666723,2.0,6.0,1.0
524.0,8.0,wc_8,,0.0,,,,162.0,,,,Pass,,,,,
524.0,8.0,wc_8,wc_14,0.0,"[('wc_8', 0.7400000000000005)]",0.7400000000000005,,,37.0,0.004274,['Pass'],Pass,0.5700000000000004,-0.0700000000000004,1.0,2.0,0.7
524.0,8.0,wc_8,,0.0,,,,0.0,,,,Pass,,,,,
524.0,8.0,wc_8,wc_15,0.0,"[('wc_8', 0.7400000000000005)]",0.7400000000000005,,,24.0,0.006791999999999999,['Pass'],Pass,0.2300000000000001,-0.2300000000000001,0.0,0.0,0.2
524.0,8.0,wc_8,,0.0,,,,402.0,,,,Pass,,,,,
524.0,8.0,wc_8,wc_11,0.0,"[('wc_11', 0.3800000000000002), ('wc_14', 0.5700000000000004), ('wc_15', 0.2300000000000001)]",0.7947180000000003,,,25.0,0.007807,['Fail'],Pass,0.3800000000000002,0.21999999999999975,3.0,5.0,0.3
524.0,8.0,wc_8,,0.0,,,,322.0,,,,Pass,,,,,
524.0,8.0,wc_8,wc_3,0.0,"[('wc_3', 0.7700000000000006), ('wc_8', 0.7400000000000005)]",0.9402000000000003,,,29.0,0.009893,['Pass'],Pass,0.7700000000000006,-0.43666666666666726,1.0,3.0,1.0
524.0,8.0,wc_8,,0.0,,,,0.0,,,,Pass,,,,,
524.0,8.0,wc_8,wc_4,0.0,"[('wc_8', 0.7400000000000005), ('wc_3', 0.7700000000000006)]",0.9402000000000003,,,20.0,0.011223,['Pass'],Pass,0.4500000000000003,-0.3388888888888892,1.0,9.0,0.5
524.0,8.0,wc_8,,0.0,,,,202.0,,,,Pass,,,,,
524.0,8.0,wc_8,wc_16,1.0,"[('wc_16', 0.7400000000000005), ('wc_8', 0.7400000000000005), ('wc_3', 0.7700000000000006)]",0.9844520000000001,,,32.0,0.052578999999999994,['Pass'],Pass,0.7400000000000005,-0.40666666666666723,1.0,3.0,0.9
539.0,9.0,wc_9,,0.0,,,,342.0,,,,Pass,,,,,
539.0,9.0,wc_9,,0.0,,,68.0,,,,,Pass,,,,,
539.0,9.0,wc_9,,0.0,,,,0.0,,,,Pass,,,,,
539.0,9.0,wc_9,wc_9,0.0,"[('wc_9', 0.5800000000000004)]",0.5800000000000004,,,22.0,0.002134,['Pass'],Pass,0.5800000000000004,-0.4133333333333338,0.0,0.0,0.6
539.0,9.0,wc_9,,0.0,,,,182.0,,,,Pass,,,,,
539.0,9.0,wc_9,wc_16,0.0,"[('wc_16', 0.7400000000000005), ('wc_9', 0.5800000000000004)]",0.8908000000000004,,,38.0,0.004337,['Pass'],Pass,0.7400000000000005,-0.40666666666666723,1.0,3.0,0.9
539.0,9.0,wc_9,,0.0,,,,263.0,,,,Pass,,,,,
539.0,9.0,wc_9,wc_1,1.0,"[('wc_1', 0.6300000000000004), ('wc_9', 0.5800000000000004), ('wc_16', 0.7400000000000005)]",0.9595960000000002,,,26.0,0.04174799999999999,['Pass'],Pass,0.6300000000000004,-0.6300000000000004,0.0,0.0,1.0
549.0,12.0,wc_12,,0.0,,,,182.0,,,,Pass,,,,,
549.0,12.0,wc_12,,0.0,,,77.0,,,,,Pass,,,,,
549.0,12.0,wc_12,,0.0,,,,0.0,,,,Pass,,,,,
549.0,12.0,wc_12,wc_12,0.0,"[('wc_12', 0.2400000000000001)]",0.2400000000000001,,,33.0,0.002263,['Pass'],Pass,0.2400000000000001,-0.2400000000000001,0.0,5.0,0.2
549.0,12.0,wc_12,,0.0,,,,182.0,,,,Pass,,,,,
549.0,12.0,wc_12,wc_6,0.0,"[('wc_6', 0.8000000000000006), ('wc_12', 0.2400000000000001)]",0.8480000000000005,,,35.0,0.004471,['Pass'],Pass,0.8000000000000006,-0.8000000000000006,0.0,2.0,0.8
549.0,12.0,wc_12,,0.0,,,,222.0,,,,Pass,,,,,
549.0,12.0,wc_12,wc_2,0.0,"[('wc_12', 0.2400000000000001), ('wc_6', 0.8000000000000006)]",0.8480000000000005,,,37.0,0.006033999999999999,['Pass'],Pass,0.5400000000000004,-0.5400000000000004,0.0,9.0,0.5
549.0,12.0,wc_12,,0.0,,,,142.0,,,,Pass,,,,,
549.0,12.0,wc_12,wc_7,1.0,"[('wc_7', 0.3600000000000002), ('wc_12', 0.2400000000000001), ('wc_6', 0.8000000000000006)]",0.9027200000000003,,,26.0,0.047771999999999995,['Pass'],Pass,0.3600000000000002,-0.3600000000000002,0.0,0.0,0.3
565.0,13.0,wc_13,,0.0,,,,162.0,,,,Fail,,,,,
565.0,13.0,wc_13,,0.0,,,69.0,,,,,Fail,,,,,
565.0,13.0,wc_13,,0.0,,,,0.0,,,,Fail,,,,,
565.0,13.0,wc_13,wc_13,0.0,"[('wc_13', 0.6700000000000005)]",0.6700000000000005,,,40.0,0.002,['Fail'],Fail,0.6700000000000005,-0.5790909090909095,0.0,0.0,0.7
565.0,13.0,wc_13,,0.0,,,,162.0,,,,Fail,,,,,
565.0,13.0,wc_13,wc_6,0.0,"[('wc_6', 0.8000000000000006), ('wc_13', 0.6700000000000005)]",0.9340000000000003,,,28.0,0.0038780000000000004,['Fail'],Fail,0.8000000000000006,-0.4666666666666673,1.0,3.0,0.8
565.0,13.0,wc_13,,0.0,,,,162.0,,,,Fail,,,,,
565.0,13.0,wc_13,wc_12,0.0,"[('wc_13', 0.6700000000000005), ('wc_6', 0.8000000000000006)]",0.9340000000000003,,,23.0,0.007461,['Fail'],Fail,0.2400000000000001,-0.07333333333333344,1.0,6.0,0.2
565.0,13.0,wc_13,,0.0,,,,401.0,,,,Fail,,,,,
565.0,13.0,wc_13,wc_5,1.0,"[('wc_5', 0.22000000000000008), ('wc_13', 0.6700000000000005), ('wc_6', 0.8000000000000006)]",0.9485200000000003,,,32.0,0.041790999999999995,['Fail'],Fail,0.22000000000000008,-0.09500000000000008,1.0,8.0,0.2
589.0,13.0,wc_13,,0.0,,,,121.0,,,,Pass,,,,,
589.0,13.0,wc_13,,0.0,,,77.0,,,,,Pass,,,,,
589.0,13.0,wc_13,,0.0,,,,0.0,,,,Pass,,,,,
589.0,13.0,wc_13,wc_13,0.0,"[('wc_13', 0.6800000000000005)]",0.6800000000000005,,,32.0,0.002384,['Pass'],Pass,0.6800000000000005,0.3199999999999995,1.0,1.0,0.7
589.0,13.0,wc_13,,0.0,,,,381.0,,,,Pass,,,,,
589.0,13.0,wc_13,wc_5,0.0,"[('wc_5', 0.22000000000000008), ('wc_13', 0.6800000000000005)]",0.7504000000000004,,,32.0,0.004099,['Pass'],Pass,0.22000000000000008,-0.09500000000000008,1.0,8.0,0.2
589.0,13.0,wc_13,,0.0,,,,61.0,,,,Pass,,,,,
589.0,13.0,wc_13,wc_2,0.0,"[('wc_13', 0.6800000000000005), ('wc_5', 0.22000000000000008)]",0.7504000000000004,,,33.0,0.005816,['Pass'],Pass,0.5300000000000004,-0.5300000000000004,0.0,1.0,0.5
589.0,13.0,wc_13,,0.0,,,,243.0,,,,Pass,,,,,
589.0,13.0,wc_13,wc_16,0.0,"[('wc_16', 0.7400000000000005), ('wc_2', 0.5300000000000004)]",0.8778000000000004,,,21.0,0.008754000000000001,['Fail'],Pass,0.7400000000000005,-0.40666666666666723,2.0,6.0,0.9
589.0,13.0,wc_13,,0.0,,,,223.0,,,,Pass,,,,,
589.0,13.0,wc_13,wc_7,1.0,"[('wc_7', 0.3600000000000002), ('wc_2', 0.5300000000000004), ('wc_16', 0.7400000000000005)]",0.9217920000000003,,,24.0,0.04762499999999999,['Fail'],Pass,0.3700000000000002,0.12999999999999978,1.0,2.0,0.3
595.0,16.0,wc_16,,0.0,,,,223.0,,,,Fail,,,,,
595.0,16.0,wc_16,,0.0,,,62.0,,,,,Fail,,,,,
595.0,16.0,wc_16,,0.0,,,,0.0,,,,Fail,,,,,
595.0,16.0,wc_16,wc_16,0.0,"[('wc_16', 0.7400000000000005)]",0.7400000000000005,,,38.0,0.002088,['Fail'],Fail,0.7400000000000005,-0.311428571428572,3.0,7.0,0.9
595.0,16.0,wc_16,,0.0,,,,382.0,,,,Fail,,,,,
595.0,16.0,wc_16,wc_11,0.0,"[('wc_16', 0.7400000000000005)]",0.7400000000000005,,,39.0,0.0041600000000000005,['Fail'],Fail,0.3800000000000002,-0.08000000000000024,0.0,0.0,0.3
595.0,16.0,wc_16,,0.0,,,,223.0,,,,Fail,,,,,
595.0,16.0,wc_16,wc_2,0.0,"[('wc_2', 0.5300000000000004), ('wc_16', 0.7400000000000005)]",0.8778000000000004,,,30.0,0.006964,['Fail'],Fail,0.5300000000000004,-0.03000000000000036,1.0,2.0,0.5
595.0,16.0,wc_16,,0.0,,,,102.0,,,,Fail,,,,,
595.0,16.0,wc_16,wc_1,1.0,"[('wc_1', 0.6300000000000004), ('wc_16', 0.7400000000000005), ('wc_2', 0.5300000000000004)]",0.9547860000000001,,,23.0,0.044753999999999995,['Fail'],Fail,0.6300000000000004,-0.38000000000000045,1.0,4.0,1.0
598.0,16.0,wc_16,,0.0,,,,263.0,,,,Pass,,,,,
598.0,16.0,wc_16,,0.0,,,52.0,,,,,Pass,,,,,
598.0,16.0,wc_16,,0.0,,,,0.0,,,,Pass,,,,,
598.0,16.0,wc_16,wc_16,0.0,"[('wc_16', 0.7400000000000005)]",0.7400000000000005,,,21.0,0.002155,['Pass'],Pass,0.7400000000000005,-0.24000000000000055,4.0,8.0,0.9
598.0,16.0,wc_16,,0.0,,,,382.0,,,,Pass,,,,,
598.0,16.0,wc_16,wc_11,0.0,"[('wc_11', 0.3700000000000002), ('wc_16', 0.7400000000000005)]",0.8362000000000004,,,24.0,0.003955,['Pass'],Pass,0.3700000000000002,-0.3700000000000002,0.0,1.0,0.3
598.0,16.0,wc_16,,0.0,,,,101.0,,,,Pass,,,,,
598.0,16.0,wc_16,wc_14,1.0,"[('wc_14', 0.5600000000000004), ('wc_16', 0.7400000000000005), ('wc_11', 0.3700000000000002)]",0.9279280000000002,,,31.0,0.04559099999999999,['Pass'],Pass,0.5600000000000004,-0.3377777777777782,2.0,9.0,0.7
605.0,15.0,wc_15,,0.0,,,,0.0,,,,Pass,,,,,
605.0,15.0,wc_15,,0.0,,,53.0,,,,,Pass,,,,,
605.0,15.0,wc_15,,0.0,,,,0.0,,,,Pass,,,,,
605.0,15.0,wc_15,wc_15,0.0,"[('wc_15', 0.22000000000000008)]",0.22000000000000008,,,38.0,0.002252,['Pass'],Pass,0.22000000000000008,-0.22000000000000008,0.0,7.0,0.2
605.0,15.0,wc_15,,0.0,,,,442.0,,,,Pass,,,,,
605.0,15.0,wc_15,wc_5,0.0,"[('wc_5', 0.21000000000000008), ('wc_15', 0.22000000000000008)]",0.38380000000000014,,,23.0,0.004002,['Pass'],Pass,0.21000000000000008,-0.11909090909090916,0.0,0.0,0.2
605.0,15.0,wc_15,,0.0,,,,41.0,,,,Pass,,,,,
605.0,15.0,wc_15,wc_1,0.0,"[('wc_1', 0.6300000000000004), ('wc_15', 0.22000000000000008), ('wc_5', 0.21000000000000008)]",0.7720060000000003,,,27.0,0.0058850000000000005,['Pass'],Pass,0.6300000000000004,-0.43000000000000044,1.0,5.0,1.0
605.0,15.0,wc_15,,0.0,,,,222.0,,,,Pass,,,,,
605.0,15.0,wc_15,wc_14,0.0,"[('wc_14', 0.5600000000000004), ('wc_15', 0.22000000000000008), ('wc_5', 0.21000000000000008), ('wc_1', 0.6300000000000004)]",0.8996826400000002,,,21.0,0.007575999999999999,['Pass'],Pass,0.5600000000000004,-0.3377777777777782,2.0,9.0,0.7
605.0,15.0,wc_15,,0.0,,,,182.0,,,,Pass,,,,,
605.0,15.0,wc_15,wc_8,1.0,"[('wc_8', 0.7400000000000005), ('wc_15', 0.22000000000000008), ('wc_5', 0.21000000000000008), ('wc_1', 0.6300000000000004), ('wc_14', 0.5600000000000004)]",0.9739174864000001,,,35.0,0.047184,['Pass'],Pass,0.7400000000000005,-0.7400000000000005,0.0,0.0,1.0
629.0,14.0,wc_14,,0.0,,,,162.0,,,,Pass,,,,,
629.0,14.0,wc_14,,0.0,,,77.0,,,,,Pass,,,,,
629.0,14.0,wc_14,,0.0,,,,0.0,,,,Pass,,,,,
629.0,14.0,wc_14,wc_14,0.0,"[('wc_14', 0.5600000000000004)]",0.5600000000000004,,,38.0,0.002969,['Pass'],Pass,0.5600000000000004,-0.5600000000000004,0.0,0.0,0.7
629.0,14.0,wc_14,,0.0,,,,321.0,,,,Pass,,,,,
629.0,14.0,wc_14,wc_3,0.0,"[('wc_3', 0.7700000000000006), ('wc_14', 0.5600000000000004)]",0.8988000000000004,,,22.0,0.004137,['Pass'],Pass,0.7700000000000006,-0.5881818181818188,0.0,0.0,1.0
629.0,14.0,wc_14,,0.0,,,,0.0,,,,Pass,,,,,
629.0,14.0,wc_14,wc_4,0.0,"[('wc_14', 0.5600000000000004), ('wc_3', 0.7700000000000006)]",0.8988000000000004,,,34.0,0.0056430000000000004,['Pass'],Pass,0.4400000000000003,-0.4400000000000003,0.0,7.0,0.5
629.0,14.0,wc_14,,0.0,,,,81.0,,,,Pass,,,,,
629.0,14.0,wc_14,wc_6,1.0,"[('wc_6', 0.8000000000000006), ('wc_14', 0.5600000000000004), ('wc_3', 0.7700000000000006)]",0.9797600000000001,,,30.0,0.045814,['Pass'],Pass,0.8000000000000006,-0.4666666666666673,3.0,9.0,0.8
637.0,17.0,wc_17,,0.0,,,,263.0,,,,Pass,,,,,
637.0,17.0,wc_17,,0.0,,,72.0,,,,,Pass,,,,,
637.0,17.0,wc_17,,0.0,,,,0.0,,,,Pass,,,,,
637.0,17.0,wc_17,wc_17,0.0,"[('wc_17', 0.5600000000000004)]",0.5600000000000004,,,27.0,0.001977,['Pass'],Pass,0.5600000000000004,-0.4350000000000004,0.0,0.0,0.6
637.0,17.0,wc_17,,0.0,,,,342.0,,,,Pass,,,,,
637.0,17.0,wc_17,wc_10,0.0,"[('wc_10', 0.6900000000000005), ('wc_17', 0.5600000000000004)]",0.8636000000000004,,,31.0,0.0046960000000000005,['Pass'],Pass,0.6900000000000005,-0.5900000000000005,0.0,0.0,0.9
637.0,17.0,wc_17,,0.0,,,,81.0,,,,Pass,,,,,
637.0,17.0,wc_17,wc_8,1.0,"[('wc_8', 0.7400000000000005), ('wc_17', 0.5600000000000004), ('wc_10', 0.6900000000000005)]",0.9645360000000002,,,23.0,0.045855,['Pass'],Pass,0.7400000000000005,-0.24000000000000055,1.0,2.0,1.0
