mpecck/BCQC/bcqc_with_qdt/results/raw/input_10/independent_qc/training/20_workpiece/20200429_084438/wp_3_qc_majority_0.9.csv
production_index,step_idx,production_workcell,qc,consent,winner_qc_list,score,production_time,transport_time,inspection_time,network_time,qc_results,actual_quality,qc_score,score_error,in_winner_counter,in_qc_counter,qc_capability
4.0,1.0,wc_1,,0.0,,,64.0,,,,,Fail,,,,,
4.0,1.0,wc_1,,0.0,,,,0.0,,,,Fail,,,,,
4.0,1.0,wc_1,wc_1,0.0,"[('wc_1', 0.4700000000000003)]",0.4700000000000003,,,37.0,0.002051,['Fail'],Fail,0.4700000000000003,-0.0950000000000003,3.0,8.0,1.0
4.0,1.0,wc_1,,0.0,,,,162.0,,,,Fail,,,,,
4.0,1.0,wc_1,wc_7,0.0,"[('wc_7', 0.19000000000000006), ('wc_1', 0.4700000000000003)]",0.5707000000000002,,,34.0,0.003866,['Fail'],Fail,0.19000000000000006,-0.06500000000000006,1.0,8.0,0.3
4.0,1.0,wc_1,,0.0,,,,0.0,,,,Fail,,,,,
4.0,1.0,wc_1,wc_9,0.0,"[('wc_9', 0.40000000000000024), ('wc_1', 0.4700000000000003), ('wc_7', 0.19000000000000006)]",0.7424200000000003,,,21.0,0.005997000000000001,['Fail'],Fail,0.40000000000000024,-0.28888888888888914,1.0,9.0,0.6
4.0,1.0,wc_1,,0.0,,,,162.0,,,,Fail,,,,,
4.0,1.0,wc_1,wc_15,0.0,"[('wc_1', 0.4700000000000003), ('wc_7', 0.19000000000000006), ('wc_9', 0.40000000000000024)]",0.7424200000000003,,,32.0,0.007751999999999999,['Fail'],Fail,0.2600000000000001,0.0733333333333332,1.0,3.0,0.2
4.0,1.0,wc_1,,0.0,,,,61.0,,,,Fail,,,,,
4.0,1.0,wc_1,wc_12,0.0,"[('wc_1', 0.4700000000000003), ('wc_7', 0.19000000000000006), ('wc_9', 0.40000000000000024)]",0.7424200000000003,,,20.0,0.011227000000000001,['Fail'],Fail,0.30000000000000016,-0.1333333333333335,0.0,0.0,0.2
4.0,1.0,wc_1,,0.0,,,,0.0,,,,Fail,,,,,
4.0,1.0,wc_1,wc_16,0.0,"[('wc_16', 0.4700000000000003), ('wc_1', 0.4700000000000003), ('wc_7', 0.19000000000000006), ('wc_9', 0.40000000000000024)]",0.8634826000000002,,,25.0,0.011819999999999999,['Fail'],Fail,0.4700000000000003,-0.1842857142857146,2.0,7.0,0.9
4.0,1.0,wc_1,,0.0,,,,382.0,,,,Fail,,,,,
4.0,1.0,wc_1,wc_3,1.0,"[('wc_3', 0.43000000000000027), ('wc_1', 0.4700000000000003), ('wc_7', 0.19000000000000006), ('wc_9', 0.40000000000000024), ('wc_16', 0.4700000000000003)]",0.9221850820000002,,,38.0,0.055072,['Fail'],Fail,0.4400000000000003,0.1155555555555553,5.0,9.0,1.0
82.0,1.0,wc_1,,0.0,,,,81.0,,,,Pass,,,,,
82.0,1.0,wc_1,,0.0,,,60.0,,,,,Pass,,,,,
82.0,1.0,wc_1,,0.0,,,,0.0,,,,Pass,,,,,
82.0,1.0,wc_1,wc_1,0.0,"[('wc_1', 0.4700000000000003)]",0.4700000000000003,,,33.0,0.002154,['Pass'],Pass,0.4700000000000003,-0.025555555555555887,4.0,9.0,1.0
82.0,1.0,wc_1,,0.0,,,,203.0,,,,Pass,,,,,
82.0,1.0,wc_1,wc_9,0.0,"[('wc_9', 0.40000000000000024), ('wc_1', 0.4700000000000003)]",0.6820000000000004,,,28.0,0.004209,['Pass'],Pass,0.40000000000000024,-0.40000000000000024,0.0,0.0,0.6
82.0,1.0,wc_1,,0.0,,,,0.0,,,,Pass,,,,,
82.0,1.0,wc_1,wc_10,0.0,"[('wc_10', 0.4900000000000003), ('wc_1', 0.4700000000000003), ('wc_9', 0.40000000000000024)]",0.8378200000000002,,,24.0,0.006195000000000001,['Pass'],Pass,0.4900000000000003,-0.2677777777777781,2.0,9.0,0.9
82.0,1.0,wc_1,,0.0,,,,243.0,,,,Pass,,,,,
82.0,1.0,wc_1,wc_2,0.0,"[('wc_1', 0.4700000000000003), ('wc_9', 0.40000000000000024), ('wc_10', 0.4900000000000003)]",0.8378200000000002,,,25.0,0.008118,['Pass'],Pass,0.3500000000000002,-0.3500000000000002,0.0,4.0,0.5
82.0,1.0,wc_1,,0.0,,,,162.0,,,,Pass,,,,,
82.0,1.0,wc_1,wc_8,1.0,"[('wc_8', 0.4500000000000003), ('wc_1', 0.4700000000000003), ('wc_9', 0.40000000000000024), ('wc_10', 0.4900000000000003)]",0.9108010000000002,,,28.0,0.043234999999999996,['Pass'],Pass,0.4600000000000003,0.1649999999999997,5.0,8.0,1.0
88.0,4.0,wc_4,,0.0,,,,301.0,,,,Fail,,,,,
88.0,4.0,wc_4,,0.0,,,68.0,,,,,Fail,,,,,
88.0,4.0,wc_4,,0.0,,,,0.0,,,,Fail,,,,,
88.0,4.0,wc_4,wc_4,0.0,"[('wc_4', 0.2600000000000001)]",0.2600000000000001,,,39.0,0.002255,['Fail'],Fail,0.2600000000000001,-0.03777777777777791,2.0,9.0,0.5
88.0,4.0,wc_4,,0.0,,,,121.0,,,,Fail,,,,,
88.0,4.0,wc_4,wc_8,0.0,"[('wc_8', 0.4600000000000003), ('wc_4', 0.2600000000000001)]",0.6004000000000003,,,30.0,0.00402,['Fail'],Fail,0.4600000000000003,0.1649999999999997,5.0,8.0,1.0
88.0,4.0,wc_4,,0.0,,,,102.0,,,,Fail,,,,,
88.0,4.0,wc_4,wc_7,0.0,"[('wc_7', 0.20000000000000007), ('wc_4', 0.2600000000000001), ('wc_8', 0.4600000000000003)]",0.6803200000000003,,,25.0,0.006514,['Fail'],Fail,0.20000000000000007,-5.551115123125783e-17,0.0,0.0,0.3
88.0,4.0,wc_4,,0.0,,,,162.0,,,,Fail,,,,,
88.0,4.0,wc_4,wc_13,0.0,"[('wc_13', 0.43000000000000027), ('wc_4', 0.2600000000000001), ('wc_8', 0.4600000000000003), ('wc_7', 0.20000000000000007)]",0.8177824000000002,,,38.0,0.007719,['Fail'],Fail,0.43000000000000027,-0.06636363636363662,0.0,0.0,0.7
88.0,4.0,wc_4,,0.0,,,,0.0,,,,Fail,,,,,
88.0,4.0,wc_4,wc_15,0.0,"[('wc_15', 0.2500000000000001), ('wc_4', 0.2600000000000001), ('wc_8', 0.4600000000000003), ('wc_7', 0.20000000000000007), ('wc_13', 0.43000000000000027)]",0.8633368000000001,,,27.0,0.009680999999999999,['Fail'],Fail,0.2500000000000001,-0.0500000000000001,1.0,5.0,0.2
88.0,4.0,wc_4,,0.0,,,,0.0,,,,Fail,,,,,
88.0,4.0,wc_4,wc_17,1.0,"[('wc_17', 0.42000000000000026), ('wc_4', 0.2600000000000001), ('wc_8', 0.4600000000000003), ('wc_7', 0.20000000000000007), ('wc_13', 0.43000000000000027), ('wc_15', 0.2500000000000001)]",0.9207353440000001,,,27.0,0.047581,['Fail'],Fail,0.42000000000000026,-0.42000000000000026,0.0,0.0,0.6
95.0,3.0,wc_3,,0.0,,,,362.0,,,,Fail,,,,,
95.0,3.0,wc_3,,0.0,,,69.0,,,,,Fail,,,,,
95.0,3.0,wc_3,,0.0,,,,0.0,,,,Fail,,,,,
95.0,3.0,wc_3,wc_3,0.0,"[('wc_3', 0.4400000000000003)]",0.4400000000000003,,,31.0,0.002474,['Fail'],Fail,0.4400000000000003,0.01454545454545425,0.0,0.0,1.0
95.0,3.0,wc_3,,0.0,,,,0.0,,,,Fail,,,,,
95.0,3.0,wc_3,wc_5,0.0,"[('wc_5', 0.28000000000000014), ('wc_3', 0.4400000000000003)]",0.5968000000000002,,,37.0,0.004239,['Fail'],Fail,0.28000000000000014,-0.28000000000000014,0.0,9.0,0.2
95.0,3.0,wc_3,,0.0,,,,121.0,,,,Fail,,,,,
95.0,3.0,wc_3,wc_13,0.0,"[('wc_13', 0.4400000000000003), ('wc_3', 0.4400000000000003), ('wc_5', 0.28000000000000014)]",0.7742080000000002,,,40.0,0.005995,['Fail'],Fail,0.4400000000000003,0.5599999999999997,1.0,1.0,0.7
95.0,3.0,wc_3,,0.0,,,,0.0,,,,Fail,,,,,
95.0,3.0,wc_3,wc_14,0.0,"[('wc_14', 0.42000000000000026), ('wc_3', 0.4400000000000003), ('wc_5', 0.28000000000000014), ('wc_13', 0.4400000000000003)]",0.8690406400000003,,,40.0,0.009824,['Fail'],Fail,0.42000000000000026,-0.08666666666666695,3.0,9.0,0.7
95.0,3.0,wc_3,,0.0,,,,341.0,,,,Fail,,,,,
95.0,3.0,wc_3,wc_4,1.0,"[('wc_4', 0.27000000000000013), ('wc_3', 0.4400000000000003), ('wc_5', 0.28000000000000014), ('wc_13', 0.4400000000000003), ('wc_14', 0.42000000000000026)]",0.9043996672000002,,,37.0,0.045145000000000005,['Fail'],Fail,0.28000000000000014,0.7199999999999999,1.0,1.0,0.5
99.0,4.0,wc_4,,0.0,,,,0.0,,,,Fail,,,,,
99.0,4.0,wc_4,,0.0,,,53.0,,,,,Fail,,,,,
99.0,4.0,wc_4,,0.0,,,,0.0,,,,Fail,,,,,
99.0,4.0,wc_4,wc_4,0.0,"[('wc_4', 0.28000000000000014)]",0.28000000000000014,,,35.0,0.002496,['Fail'],Fail,0.28000000000000014,0.7199999999999999,1.0,1.0,0.5
99.0,4.0,wc_4,,0.0,,,,202.0,,,,Fail,,,,,
99.0,4.0,wc_4,wc_16,0.0,"[('wc_16', 0.4700000000000003), ('wc_4', 0.28000000000000014)]",0.6184000000000003,,,27.0,0.004626999999999999,['Fail'],Fail,0.4700000000000003,-0.1972727272727276,0.0,0.0,0.9
99.0,4.0,wc_4,,0.0,,,,103.0,,,,Fail,,,,,
99.0,4.0,wc_4,wc_15,0.0,"[('wc_15', 0.2600000000000001), ('wc_4', 0.28000000000000014), ('wc_16', 0.4700000000000003)]",0.7176160000000003,,,30.0,0.006453,['Fail'],Fail,0.2600000000000001,0.02571428571428558,2.0,7.0,0.2
99.0,4.0,wc_4,,0.0,,,,223.0,,,,Fail,,,,,
99.0,4.0,wc_4,wc_6,0.0,"[('wc_6', 0.4600000000000003), ('wc_4', 0.28000000000000014), ('wc_16', 0.4700000000000003), ('wc_15', 0.2600000000000001)]",0.8475126400000003,,,38.0,0.008704000000000002,['Fail'],Fail,0.4600000000000003,-0.1742857142857146,2.0,7.0,0.8
99.0,4.0,wc_4,,0.0,,,,361.0,,,,Fail,,,,,
99.0,4.0,wc_4,wc_5,0.0,"[('wc_5', 0.28000000000000014), ('wc_4', 0.28000000000000014), ('wc_16', 0.4700000000000003), ('wc_15', 0.2600000000000001), ('wc_6', 0.4600000000000003)]",0.8902091008000002,,,26.0,0.011679000000000002,['Fail'],Fail,0.28000000000000014,-0.28000000000000014,0.0,0.0,0.2
99.0,4.0,wc_4,,0.0,,,,202.0,,,,Fail,,,,,
99.0,4.0,wc_4,wc_17,1.0,"[('wc_17', 0.42000000000000026), ('wc_4', 0.28000000000000014), ('wc_16', 0.4700000000000003), ('wc_15', 0.2600000000000001), ('wc_6', 0.4600000000000003), ('wc_5', 0.28000000000000014)]",0.9363212784640002,,,35.0,0.061041000000000005,['Fail'],Fail,0.43000000000000027,0.06999999999999973,1.0,2.0,0.6
106.0,4.0,wc_4,,0.0,,,,382.0,,,,Fail,,,,,
106.0,4.0,wc_4,,0.0,,,56.0,,,,,Fail,,,,,
106.0,4.0,wc_4,,0.0,,,,0.0,,,,Fail,,,,,
106.0,4.0,wc_4,wc_4,0.0,"[('wc_4', 0.29000000000000015)]",0.29000000000000015,,,33.0,0.001997,['Fail'],Fail,0.29000000000000015,0.7099999999999999,2.0,2.0,0.5
106.0,4.0,wc_4,,0.0,,,,202.0,,,,Fail,,,,,
106.0,4.0,wc_4,wc_16,0.0,"[('wc_16', 0.4800000000000003), ('wc_4', 0.29000000000000015)]",0.6308000000000002,,,36.0,0.004725999999999999,['Fail'],Fail,0.4800000000000003,0.5199999999999997,1.0,1.0,0.9
106.0,4.0,wc_4,,0.0,,,,382.0,,,,Fail,,,,,
106.0,4.0,wc_4,wc_11,0.0,"[('wc_11', 0.29000000000000015), ('wc_4', 0.29000000000000015), ('wc_16', 0.4800000000000003)]",0.7378680000000003,,,21.0,0.006575,['Fail'],Fail,0.29000000000000015,-0.19909090909090923,0.0,0.0,0.3
106.0,4.0,wc_4,,0.0,,,,203.0,,,,Fail,,,,,
106.0,4.0,wc_4,wc_1,0.0,"[('wc_1', 0.4800000000000003), ('wc_4', 0.29000000000000015), ('wc_16', 0.4800000000000003), ('wc_11', 0.29000000000000015)]",0.8636913600000002,,,39.0,0.00833,['Fail'],Fail,0.4800000000000003,-0.4800000000000003,0.0,3.0,1.0
106.0,4.0,wc_4,,0.0,,,,203.0,,,,Fail,,,,,
106.0,4.0,wc_4,wc_9,1.0,"[('wc_9', 0.41000000000000025), ('wc_4', 0.29000000000000015), ('wc_16', 0.4800000000000003), ('wc_11', 0.29000000000000015), ('wc_1', 0.4800000000000003)]",0.9195779024000001,,,38.0,0.048948,['Fail'],Fail,0.41000000000000025,-0.010000000000000231,2.0,5.0,0.6
113.0,4.0,wc_4,,0.0,,,,382.0,,,,Fail,,,,,
113.0,4.0,wc_4,,0.0,,,70.0,,,,,Fail,,,,,
113.0,4.0,wc_4,,0.0,,,,0.0,,,,Fail,,,,,
113.0,4.0,wc_4,wc_4,0.0,"[('wc_4', 0.30000000000000016)]",0.30000000000000016,,,37.0,0.002276,['Fail'],Fail,0.30000000000000016,0.6999999999999998,3.0,3.0,0.5
113.0,4.0,wc_4,,0.0,,,,141.0,,,,Fail,,,,,
113.0,4.0,wc_4,wc_13,0.0,"[('wc_13', 0.4500000000000003), ('wc_4', 0.30000000000000016)]",0.6150000000000002,,,33.0,0.003852,['Fail'],Fail,0.4500000000000003,0.04999999999999971,2.0,4.0,0.7
113.0,4.0,wc_4,,0.0,,,,242.0,,,,Fail,,,,,
113.0,4.0,wc_4,wc_2,0.0,"[('wc_2', 0.3400000000000002), ('wc_4', 0.30000000000000016), ('wc_13', 0.4500000000000003)]",0.7459000000000002,,,39.0,0.005747,['Fail'],Fail,0.3400000000000002,-0.3400000000000002,0.0,9.0,0.5
113.0,4.0,wc_4,,0.0,,,,243.0,,,,Fail,,,,,
113.0,4.0,wc_4,wc_16,0.0,"[('wc_16', 0.4900000000000003), ('wc_4', 0.30000000000000016), ('wc_13', 0.4500000000000003), ('wc_2', 0.3400000000000002)]",0.8704090000000002,,,37.0,0.008801,['Fail'],Fail,0.4900000000000003,0.5099999999999997,2.0,2.0,0.9
113.0,4.0,wc_4,,0.0,,,,422.0,,,,Fail,,,,,
113.0,4.0,wc_4,wc_5,0.0,"[('wc_4', 0.30000000000000016), ('wc_13', 0.4500000000000003), ('wc_2', 0.3400000000000002), ('wc_16', 0.4900000000000003)]",0.8704090000000002,,,29.0,0.009684,['Fail'],Fail,0.29000000000000015,0.20999999999999985,1.0,2.0,0.2
113.0,4.0,wc_4,,0.0,,,,162.0,,,,Fail,,,,,
113.0,4.0,wc_4,wc_11,1.0,"[('wc_11', 0.30000000000000016), ('wc_4', 0.30000000000000016), ('wc_13', 0.4500000000000003), ('wc_2', 0.3400000000000002), ('wc_16', 0.4900000000000003)]",0.9092863000000002,,,29.0,0.05277799999999999,['Fail'],Fail,0.31000000000000016,0.6899999999999998,2.0,2.0,0.3
128.0,2.0,wc_2,,0.0,,,,223.0,,,,Pass,,,,,
128.0,2.0,wc_2,,0.0,,,62.0,,,,,Pass,,,,,
128.0,2.0,wc_2,,0.0,,,,0.0,,,,Pass,,,,,
128.0,2.0,wc_2,wc_2,0.0,"[('wc_2', 0.3400000000000002)]",0.3400000000000002,,,39.0,0.002173,['Fail'],Pass,0.3400000000000002,-0.3400000000000002,0.0,0.0,0.5
128.0,2.0,wc_2,,0.0,,,,183.0,,,,Pass,,,,,
128.0,2.0,wc_2,wc_9,0.0,"[('wc_9', 0.41000000000000025)]",0.41000000000000025,,,32.0,0.003971000000000001,['Pass'],Pass,0.41000000000000025,-0.07666666666666694,2.0,6.0,0.6
128.0,2.0,wc_2,,0.0,,,,182.0,,,,Pass,,,,,
128.0,2.0,wc_2,wc_16,0.0,"[('wc_16', 0.5000000000000003), ('wc_9', 0.41000000000000025)]",0.7050000000000003,,,21.0,0.006003,['Pass'],Pass,0.5000000000000003,0.49999999999999967,3.0,3.0,0.9
128.0,2.0,wc_2,,0.0,,,,203.0,,,,Pass,,,,,
128.0,2.0,wc_2,wc_6,0.0,"[('wc_6', 0.4600000000000003), ('wc_9', 0.41000000000000025), ('wc_16', 0.5000000000000003)]",0.8407000000000002,,,29.0,0.008782,['Pass'],Pass,0.4600000000000003,-0.1600000000000003,0.0,0.0,0.8
128.0,2.0,wc_2,,0.0,,,,321.0,,,,Pass,,,,,
128.0,2.0,wc_2,wc_3,1.0,"[('wc_3', 0.4500000000000003), ('wc_9', 0.41000000000000025), ('wc_16', 0.5000000000000003), ('wc_6', 0.4600000000000003)]",0.9123850000000002,,,27.0,0.045019,['Pass'],Pass,0.4500000000000003,-0.050000000000000266,2.0,5.0,1.0
146.0,4.0,wc_4,,0.0,,,,0.0,,,,Fail,,,,,
146.0,4.0,wc_4,,0.0,,,68.0,,,,,Fail,,,,,
146.0,4.0,wc_4,,0.0,,,,0.0,,,,Fail,,,,,
146.0,4.0,wc_4,wc_4,0.0,"[('wc_4', 0.31000000000000016)]",0.31000000000000016,,,39.0,0.002119,['Fail'],Fail,0.31000000000000016,0.4899999999999999,4.0,5.0,0.5
146.0,4.0,wc_4,,0.0,,,,182.0,,,,Fail,,,,,
146.0,4.0,wc_4,wc_15,0.0,"[('wc_15', 0.27000000000000013), ('wc_4', 0.31000000000000016)]",0.4963000000000002,,,21.0,0.004235,['Fail'],Fail,0.27000000000000013,0.0027272727272725783,0.0,0.0,0.2
146.0,4.0,wc_4,,0.0,,,,263.0,,,,Fail,,,,,
146.0,4.0,wc_4,wc_8,0.0,"[('wc_8', 0.4700000000000003), ('wc_4', 0.31000000000000016), ('wc_15', 0.27000000000000013)]",0.7330390000000002,,,28.0,0.006912,['Fail'],Fail,0.4700000000000003,-0.04142857142857176,0.0,0.0,1.0
146.0,4.0,wc_4,,0.0,,,,162.0,,,,Fail,,,,,
146.0,4.0,wc_4,wc_14,0.0,"[('wc_14', 0.42000000000000026), ('wc_4', 0.31000000000000016), ('wc_15', 0.27000000000000013), ('wc_8', 0.4700000000000003)]",0.8451626200000002,,,22.0,0.009225,['Fail'],Fail,0.42000000000000026,-0.42000000000000026,0.0,4.0,0.7
146.0,4.0,wc_4,,0.0,,,,142.0,,,,Fail,,,,,
146.0,4.0,wc_4,wc_6,1.0,"[('wc_6', 0.4700000000000003), ('wc_4', 0.31000000000000016), ('wc_15', 0.27000000000000013), ('wc_8', 0.4700000000000003), ('wc_14', 0.42000000000000026)]",0.9179361886000001,,,34.0,0.054126999999999995,['Fail'],Fail,0.4800000000000003,0.5199999999999997,2.0,2.0,0.8
162.0,3.0,wc_3,,0.0,,,,321.0,,,,Pass,,,,,
162.0,3.0,wc_3,,0.0,,,64.0,,,,,Pass,,,,,
162.0,3.0,wc_3,,0.0,,,,0.0,,,,Pass,,,,,
162.0,3.0,wc_3,wc_3,0.0,"[('wc_3', 0.4500000000000003)]",0.4500000000000003,,,32.0,0.002222,['Pass'],Pass,0.4500000000000003,-0.11666666666666697,2.0,6.0,1.0
162.0,3.0,wc_3,,0.0,,,,202.0,,,,Pass,,,,,
162.0,3.0,wc_3,wc_15,0.0,"[('wc_3', 0.4500000000000003)]",0.4500000000000003,,,26.0,0.004229,['Pass'],Pass,0.28000000000000014,0.7199999999999999,1.0,1.0,0.2
162.0,3.0,wc_3,,0.0,,,,0.0,,,,Pass,,,,,
162.0,3.0,wc_3,wc_17,0.0,"[('wc_17', 0.43000000000000027), ('wc_3', 0.4500000000000003)]",0.6865000000000003,,,35.0,0.007866999999999999,['Pass'],Pass,0.43000000000000027,-0.26333333333333364,1.0,6.0,0.6
162.0,3.0,wc_3,,0.0,,,,243.0,,,,Pass,,,,,
162.0,3.0,wc_3,wc_1,0.0,"[('wc_1', 0.4800000000000003), ('wc_3', 0.4500000000000003), ('wc_17', 0.43000000000000027)]",0.8369800000000003,,,27.0,0.009761,['Pass'],Pass,0.4800000000000003,-0.33714285714285747,1.0,7.0,1.0
162.0,3.0,wc_3,,0.0,,,,0.0,,,,Pass,,,,,
162.0,3.0,wc_3,wc_5,0.0,"[('wc_5', 0.29000000000000015), ('wc_3', 0.4500000000000003), ('wc_17', 0.43000000000000027), ('wc_1', 0.4800000000000003)]",0.8842558000000003,,,20.0,0.010517,['Pass'],Pass,0.29000000000000015,-0.09000000000000014,1.0,5.0,0.2
162.0,3.0,wc_3,,0.0,,,,81.0,,,,Pass,,,,,
162.0,3.0,wc_3,wc_7,1.0,"[('wc_7', 0.21000000000000008), ('wc_3', 0.4500000000000003), ('wc_17', 0.43000000000000027), ('wc_1', 0.4800000000000003), ('wc_5', 0.29000000000000015)]",0.9085620820000002,,,39.0,0.05234699999999999,['Pass'],Pass,0.22000000000000008,0.029999999999999916,2.0,8.0,0.3
214.0,4.0,wc_4,,0.0,,,,321.0,,,,Fail,,,,,
214.0,4.0,wc_4,,0.0,,,61.0,,,,,Fail,,,,,
214.0,4.0,wc_4,,0.0,,,,0.0,,,,Fail,,,,,
214.0,4.0,wc_4,wc_4,0.0,"[('wc_4', 0.3200000000000002)]",0.3200000000000002,,,37.0,0.002293,['Fail'],Fail,0.3200000000000002,0.39428571428571413,5.0,7.0,0.5
214.0,4.0,wc_4,,0.0,,,,162.0,,,,Fail,,,,,
214.0,4.0,wc_4,wc_10,0.0,"[('wc_10', 0.4900000000000003), ('wc_4', 0.3200000000000002)]",0.6532000000000003,,,21.0,0.003918,['Fail'],Fail,0.4900000000000003,-0.4900000000000003,0.0,8.0,0.9
214.0,4.0,wc_4,,0.0,,,,41.0,,,,Fail,,,,,
214.0,4.0,wc_4,wc_6,0.0,"[('wc_6', 0.4800000000000003), ('wc_4', 0.3200000000000002), ('wc_10', 0.4900000000000003)]",0.8196640000000003,,,38.0,0.005953,['Fail'],Fail,0.4800000000000003,0.18666666666666631,2.0,3.0,0.8
214.0,4.0,wc_4,,0.0,,,,222.0,,,,Fail,,,,,
214.0,4.0,wc_4,wc_2,0.0,"[('wc_2', 0.3300000000000002), ('wc_4', 0.3200000000000002), ('wc_10', 0.4900000000000003), ('wc_6', 0.4800000000000003)]",0.8791748800000002,,,22.0,0.008097,['Fail'],Fail,0.3300000000000002,-0.3300000000000002,0.0,3.0,0.5
214.0,4.0,wc_4,,0.0,,,,0.0,,,,Fail,,,,,
214.0,4.0,wc_4,wc_5,1.0,"[('wc_5', 0.30000000000000016), ('wc_4', 0.3200000000000002), ('wc_10', 0.4900000000000003), ('wc_6', 0.4800000000000003), ('wc_2', 0.3300000000000002)]",0.9154224160000002,,,29.0,0.050964999999999996,['Fail'],Fail,0.31000000000000016,0.11857142857142838,3.0,7.0,0.2
257.0,4.0,wc_4,,0.0,,,,103.0,,,,Pass,,,,,
257.0,4.0,wc_4,,0.0,,,69.0,,,,,Pass,,,,,
257.0,4.0,wc_4,,0.0,,,,0.0,,,,Pass,,,,,
257.0,4.0,wc_4,wc_4,0.0,"[('wc_4', 0.3300000000000002)]",0.3300000000000002,,,24.0,0.002065,['Pass'],Pass,0.3300000000000002,0.4199999999999998,6.0,8.0,0.5
257.0,4.0,wc_4,,0.0,,,,162.0,,,,Pass,,,,,
257.0,4.0,wc_4,wc_10,0.0,"[('wc_10', 0.4900000000000003), ('wc_4', 0.3300000000000002)]",0.6583000000000003,,,33.0,0.004129000000000001,['Pass'],Pass,0.4900000000000003,-0.3788888888888892,1.0,9.0,0.9
257.0,4.0,wc_4,,0.0,,,,382.0,,,,Pass,,,,,
257.0,4.0,wc_4,wc_5,0.0,"[('wc_5', 0.31000000000000016), ('wc_4', 0.3300000000000002), ('wc_10', 0.4900000000000003)]",0.7642270000000002,,,25.0,0.006778,['Pass'],Pass,0.31000000000000016,0.11857142857142838,3.0,7.0,0.2
257.0,4.0,wc_4,,0.0,,,,122.0,,,,Pass,,,,,
257.0,4.0,wc_4,wc_9,0.0,"[('wc_9', 0.42000000000000026), ('wc_4', 0.3300000000000002), ('wc_10', 0.4900000000000003), ('wc_5', 0.31000000000000016)]",0.8632516600000002,,,34.0,0.008929,['Pass'],Pass,0.42000000000000026,-0.12000000000000027,0.0,0.0,0.6
257.0,4.0,wc_4,,0.0,,,,162.0,,,,Pass,,,,,
257.0,4.0,wc_4,wc_15,1.0,"[('wc_15', 0.28000000000000014), ('wc_4', 0.3300000000000002), ('wc_10', 0.4900000000000003), ('wc_5', 0.31000000000000016), ('wc_9', 0.42000000000000026)]",0.9015411952000002,,,37.0,0.056119999999999996,['Pass'],Pass,0.29000000000000015,0.20999999999999985,2.0,4.0,0.2
281.0,5.0,wc_5,,0.0,,,,442.0,,,,Pass,,,,,
281.0,5.0,wc_5,,0.0,,,74.0,,,,,Pass,,,,,
281.0,5.0,wc_5,,0.0,,,,0.0,,,,Pass,,,,,
281.0,5.0,wc_5,wc_5,0.0,"[('wc_5', 0.3200000000000002)]",0.3200000000000002,,,28.0,0.00209,['Pass'],Pass,0.3200000000000002,0.17999999999999983,4.0,8.0,0.2
281.0,5.0,wc_5,,0.0,,,,121.0,,,,Pass,,,,,
281.0,5.0,wc_5,wc_13,0.0,"[('wc_13', 0.4600000000000003), ('wc_5', 0.3200000000000002)]",0.6328000000000003,,,23.0,0.004335,['Pass'],Pass,0.4600000000000003,-0.1600000000000003,0.0,0.0,0.7
281.0,5.0,wc_5,,0.0,,,,242.0,,,,Pass,,,,,
281.0,5.0,wc_5,wc_2,0.0,"[('wc_2', 0.3300000000000002), ('wc_5', 0.3200000000000002), ('wc_13', 0.4600000000000003)]",0.7539760000000002,,,24.0,0.006535000000000001,['Pass'],Pass,0.3300000000000002,-0.13000000000000017,1.0,5.0,0.5
281.0,5.0,wc_5,,0.0,,,,142.0,,,,Pass,,,,,
281.0,5.0,wc_5,wc_7,0.0,"[('wc_7', 0.22000000000000008), ('wc_5', 0.3200000000000002), ('wc_13', 0.4600000000000003), ('wc_2', 0.3300000000000002)]",0.8081012800000003,,,37.0,0.008385,['Pass'],Pass,0.22000000000000008,-0.020000000000000073,0.0,0.0,0.3
281.0,5.0,wc_5,,0.0,,,,102.0,,,,Pass,,,,,
281.0,5.0,wc_5,wc_6,1.0,"[('wc_6', 0.4900000000000003), ('wc_5', 0.3200000000000002), ('wc_13', 0.4600000000000003), ('wc_2', 0.3300000000000002), ('wc_7', 0.22000000000000008)]",0.9021316528000002,,,37.0,0.049885000000000006,['Pass'],Pass,0.5000000000000003,0.1666666666666663,4.0,6.0,0.8
301.0,6.0,wc_6,,0.0,,,,0.0,,,,Fail,,,,,
301.0,6.0,wc_6,,0.0,,,68.0,,,,,Fail,,,,,
301.0,6.0,wc_6,,0.0,,,,0.0,,,,Fail,,,,,
301.0,6.0,wc_6,wc_6,0.0,"[('wc_6', 0.5000000000000003)]",0.5000000000000003,,,32.0,0.002626,['Fail'],Fail,0.5000000000000003,0.1666666666666663,4.0,6.0,0.8
301.0,6.0,wc_6,,0.0,,,,361.0,,,,Fail,,,,,
301.0,6.0,wc_6,wc_5,0.0,"[('wc_5', 0.3300000000000002), ('wc_6', 0.5000000000000003)]",0.6650000000000003,,,20.0,0.004203,['Fail'],Fail,0.3300000000000002,0.2255555555555554,5.0,9.0,0.2
301.0,6.0,wc_6,,0.0,,,,83.0,,,,Fail,,,,,
301.0,6.0,wc_6,wc_3,0.0,"[('wc_3', 0.4500000000000003), ('wc_6', 0.5000000000000003), ('wc_5', 0.3300000000000002)]",0.8157500000000002,,,22.0,0.006729,['Fail'],Fail,0.4500000000000003,-0.1500000000000003,0.0,0.0,1.0
301.0,6.0,wc_6,,0.0,,,,141.0,,,,Fail,,,,,
301.0,6.0,wc_6,wc_8,1.0,"[('wc_8', 0.4800000000000003), ('wc_6', 0.5000000000000003), ('wc_5', 0.3300000000000002), ('wc_3', 0.4500000000000003)]",0.9041900000000002,,,37.0,0.043008,['Fail'],Fail,0.4800000000000003,-0.146666666666667,2.0,6.0,1.0
338.0,6.0,wc_6,,0.0,,,,82.0,,,,Pass,,,,,
338.0,6.0,wc_6,,0.0,,,72.0,,,,,Pass,,,,,
338.0,6.0,wc_6,,0.0,,,,0.0,,,,Pass,,,,,
338.0,6.0,wc_6,wc_6,0.0,"[('wc_6', 0.5100000000000003)]",0.5100000000000003,,,35.0,0.002467,['Pass'],Pass,0.5100000000000003,0.20428571428571396,5.0,7.0,0.8
338.0,6.0,wc_6,,0.0,,,,202.0,,,,Pass,,,,,
338.0,6.0,wc_6,wc_1,0.0,"[('wc_1', 0.4800000000000003), ('wc_6', 0.5100000000000003)]",0.7452000000000003,,,36.0,0.004119,['Pass'],Pass,0.4800000000000003,-0.3133333333333337,0.0,0.0,1.0
338.0,6.0,wc_6,,0.0,,,,0.0,,,,Pass,,,,,
338.0,6.0,wc_6,wc_2,0.0,"[('wc_2', 0.3300000000000002), ('wc_6', 0.5100000000000003), ('wc_1', 0.4800000000000003)]",0.8292840000000002,,,26.0,0.0064930000000000005,['Pass'],Pass,0.3300000000000002,-0.044285714285714484,2.0,7.0,0.5
338.0,6.0,wc_6,,0.0,,,,263.0,,,,Pass,,,,,
338.0,6.0,wc_6,wc_17,1.0,"[('wc_17', 0.43000000000000027), ('wc_6', 0.5100000000000003), ('wc_1', 0.4800000000000003), ('wc_2', 0.3300000000000002)]",0.9026918800000002,,,27.0,0.044564000000000006,['Pass'],Pass,0.43000000000000027,-0.43000000000000027,0.0,0.0,0.6
351.0,11.0,wc_11,,0.0,,,,362.0,,,,Pass,,,,,
351.0,11.0,wc_11,,0.0,,,61.0,,,,,Pass,,,,,
351.0,11.0,wc_11,,0.0,,,,0.0,,,,Pass,,,,,
351.0,11.0,wc_11,wc_11,0.0,"[('wc_11', 0.31000000000000016)]",0.31000000000000016,,,35.0,0.002072,['Fail'],Pass,0.31000000000000016,-0.11000000000000015,0.0,0.0,0.3
351.0,11.0,wc_11,,0.0,,,,223.0,,,,Pass,,,,,
351.0,11.0,wc_11,wc_2,0.0,"[('wc_2', 0.3400000000000002), ('wc_11', 0.31000000000000016)]",0.5446000000000002,,,37.0,0.00392,['Fail'],Pass,0.3400000000000002,0.03499999999999981,3.0,8.0,0.5
351.0,11.0,wc_11,,0.0,,,,183.0,,,,Pass,,,,,
351.0,11.0,wc_11,wc_9,0.0,"[('wc_11', 0.31000000000000016), ('wc_2', 0.3400000000000002)]",0.5446000000000002,,,38.0,0.007896,['Fail'],Pass,0.43000000000000027,-0.18000000000000027,1.0,4.0,0.6
351.0,11.0,wc_11,,0.0,,,,121.0,,,,Pass,,,,,
351.0,11.0,wc_11,wc_13,0.0,"[('wc_13', 0.4700000000000003), ('wc_9', 0.43000000000000027)]",0.6979000000000003,,,26.0,0.008291,['Pass'],Pass,0.4700000000000003,-0.136666666666667,1.0,3.0,0.7
351.0,11.0,wc_11,,0.0,,,,0.0,,,,Pass,,,,,
351.0,11.0,wc_11,wc_16,0.0,"[('wc_16', 0.5100000000000003), ('wc_9', 0.43000000000000027), ('wc_13', 0.4700000000000003)]",0.8519710000000003,,,24.0,0.009725000000000001,['Pass'],Pass,0.5100000000000003,-0.1463636363636367,0.0,0.0,0.9
351.0,11.0,wc_11,,0.0,,,,422.0,,,,Pass,,,,,
351.0,11.0,wc_11,wc_5,0.0,"[('wc_9', 0.43000000000000027), ('wc_13', 0.4700000000000003), ('wc_16', 0.5100000000000003)]",0.8519710000000003,,,33.0,0.012242999999999999,['Pass'],Pass,0.3400000000000002,-0.3400000000000002,0.0,1.0,0.2
351.0,11.0,wc_11,,0.0,,,,162.0,,,,Pass,,,,,
351.0,11.0,wc_11,wc_15,0.0,"[('wc_9', 0.43000000000000027), ('wc_13', 0.4700000000000003), ('wc_16', 0.5100000000000003)]",0.8519710000000003,,,24.0,0.015267999999999999,['Pass'],Pass,0.29000000000000015,-0.004285714285714448,2.0,7.0,0.2
351.0,11.0,wc_11,,0.0,,,,61.0,,,,Pass,,,,,
351.0,11.0,wc_11,wc_12,0.0,"[('wc_9', 0.43000000000000027), ('wc_13', 0.4700000000000003), ('wc_16', 0.5100000000000003)]",0.8519710000000003,,,21.0,0.017802000000000002,['Pass'],Pass,0.29000000000000015,-0.29000000000000015,0.0,0.0,0.2
351.0,11.0,wc_11,,0.0,,,,242.0,,,,Pass,,,,,
351.0,11.0,wc_11,wc_1,1.0,"[('wc_1', 0.4900000000000003), ('wc_9', 0.43000000000000027), ('wc_13', 0.4700000000000003), ('wc_16', 0.5100000000000003)]",0.9245052100000002,,,25.0,0.052117000000000004,['Pass'],Pass,0.5000000000000003,0.49999999999999967,2.0,2.0,1.0
366.0,8.0,wc_8,,0.0,,,,182.0,,,,Pass,,,,,
366.0,8.0,wc_8,,0.0,,,78.0,,,,,Pass,,,,,
366.0,8.0,wc_8,,0.0,,,,0.0,,,,Pass,,,,,
366.0,8.0,wc_8,wc_8,0.0,"[('wc_8', 0.4800000000000003)]",0.4800000000000003,,,35.0,0.00234,['Pass'],Pass,0.4800000000000003,-0.23000000000000032,2.0,8.0,1.0
366.0,8.0,wc_8,,0.0,,,,183.0,,,,Pass,,,,,
366.0,8.0,wc_8,wc_15,0.0,"[('wc_8', 0.4800000000000003)]",0.4800000000000003,,,32.0,0.004487,['Pass'],Pass,0.28000000000000014,-0.030000000000000138,2.0,8.0,0.2
366.0,8.0,wc_8,,0.0,,,,442.0,,,,Pass,,,,,
366.0,8.0,wc_8,wc_5,0.0,"[('wc_5', 0.3300000000000002), ('wc_15', 0.28000000000000014)]",0.5176000000000003,,,29.0,0.006631,['Fail'],Pass,0.3300000000000002,-0.3300000000000002,0.0,2.0,0.2
366.0,8.0,wc_8,,0.0,,,,61.0,,,,Pass,,,,,
366.0,8.0,wc_8,wc_2,0.0,"[('wc_2', 0.3400000000000002), ('wc_8', 0.4800000000000003)]",0.6568000000000003,,,23.0,0.008566,['Pass'],Pass,0.3400000000000002,-0.006666666666666876,3.0,9.0,0.5
366.0,8.0,wc_8,,0.0,,,,223.0,,,,Pass,,,,,
366.0,8.0,wc_8,wc_11,0.0,"[('wc_11', 0.30000000000000016), ('wc_8', 0.4800000000000003), ('wc_2', 0.3400000000000002)]",0.7597600000000002,,,36.0,0.010883,['Pass'],Pass,0.30000000000000016,-0.30000000000000016,0.0,1.0,0.3
366.0,8.0,wc_8,,0.0,,,,41.0,,,,Pass,,,,,
366.0,8.0,wc_8,wc_7,0.0,"[('wc_7', 0.2300000000000001), ('wc_8', 0.4800000000000003), ('wc_2', 0.3400000000000002), ('wc_11', 0.30000000000000016)]",0.8150152000000003,,,25.0,0.011622,['Pass'],Pass,0.2300000000000001,0.019999999999999907,1.0,4.0,0.3
366.0,8.0,wc_8,,0.0,,,,102.0,,,,Pass,,,,,
366.0,8.0,wc_8,wc_6,1.0,"[('wc_6', 0.5200000000000004), ('wc_8', 0.4800000000000003), ('wc_2', 0.3400000000000002), ('wc_11', 0.30000000000000016), ('wc_7', 0.2300000000000001)]",0.9112072960000002,,,28.0,0.049551,['Pass'],Pass,0.5300000000000004,-0.5300000000000004,0.0,0.0,0.8
376.0,10.0,wc_10,,0.0,,,,0.0,,,,Fail,,,,,
376.0,10.0,wc_10,,0.0,,,56.0,,,,,Fail,,,,,
376.0,10.0,wc_10,,0.0,,,,0.0,,,,Fail,,,,,
376.0,10.0,wc_10,wc_10,0.0,"[('wc_10', 0.4900000000000003)]",0.4900000000000003,,,37.0,0.002098,['Fail'],Fail,0.4900000000000003,-0.4900000000000003,0.0,5.0,0.9
376.0,10.0,wc_10,,0.0,,,,342.0,,,,Fail,,,,,
376.0,10.0,wc_10,wc_3,0.0,"[('wc_3', 0.4600000000000003), ('wc_10', 0.4900000000000003)]",0.7246000000000004,,,31.0,0.004618000000000001,['Fail'],Fail,0.4600000000000003,-0.2100000000000003,1.0,4.0,1.0
376.0,10.0,wc_10,,0.0,,,,202.0,,,,Fail,,,,,
376.0,10.0,wc_10,wc_15,0.0,"[('wc_10', 0.4900000000000003), ('wc_3', 0.4600000000000003)]",0.7246000000000004,,,24.0,0.0066960000000000006,['Fail'],Fail,0.27000000000000013,-0.04777777777777792,2.0,9.0,0.2
376.0,10.0,wc_10,,0.0,,,,81.0,,,,Fail,,,,,
376.0,10.0,wc_10,wc_13,0.0,"[('wc_13', 0.4800000000000003), ('wc_10', 0.4900000000000003), ('wc_3', 0.4600000000000003)]",0.8567920000000002,,,33.0,0.00834,['Fail'],Fail,0.4800000000000003,-0.0800000000000003,2.0,5.0,0.7
376.0,10.0,wc_10,,0.0,,,,0.0,,,,Fail,,,,,
376.0,10.0,wc_10,wc_17,1.0,"[('wc_17', 0.43000000000000027), ('wc_10', 0.4900000000000003), ('wc_3', 0.4600000000000003), ('wc_13', 0.4800000000000003)]",0.9183714400000001,,,23.0,0.049490000000000006,['Fail'],Fail,0.43000000000000027,-0.09666666666666696,1.0,3.0,0.6
389.0,10.0,wc_10,,0.0,,,,342.0,,,,Pass,,,,,
389.0,10.0,wc_10,,0.0,,,75.0,,,,,Pass,,,,,
389.0,10.0,wc_10,,0.0,,,,0.0,,,,Pass,,,,,
389.0,10.0,wc_10,wc_10,0.0,"[('wc_10', 0.4900000000000003)]",0.4900000000000003,,,36.0,0.002039,['Pass'],Pass,0.4900000000000003,-0.3233333333333337,1.0,6.0,0.9
389.0,10.0,wc_10,,0.0,,,,223.0,,,,Pass,,,,,
389.0,10.0,wc_10,wc_1,0.0,"[('wc_1', 0.5000000000000003), ('wc_10', 0.4900000000000003)]",0.7450000000000003,,,22.0,0.004146,['Pass'],Pass,0.5000000000000003,-3.3306690738754696e-16,2.0,4.0,1.0
389.0,10.0,wc_10,,0.0,,,,142.0,,,,Pass,,,,,
389.0,10.0,wc_10,wc_6,0.0,"[('wc_6', 0.5300000000000004), ('wc_10', 0.4900000000000003), ('wc_1', 0.5000000000000003)]",0.8801500000000002,,,38.0,0.006435,['Pass'],Pass,0.5300000000000004,-0.5300000000000004,0.0,1.0,0.8
389.0,10.0,wc_10,,0.0,,,,202.0,,,,Pass,,,,,
389.0,10.0,wc_10,wc_14,1.0,"[('wc_14', 0.42000000000000026), ('wc_10', 0.4900000000000003), ('wc_1', 0.5000000000000003), ('wc_6', 0.5300000000000004)]",0.9304870000000002,,,38.0,0.056281,['Pass'],Pass,0.42000000000000026,-0.42000000000000026,0.0,0.0,0.7
408.0,7.0,wc_7,,0.0,,,,162.0,,,,Pass,,,,,
408.0,7.0,wc_7,,0.0,,,67.0,,,,,Pass,,,,,
408.0,7.0,wc_7,,0.0,,,,0.0,,,,Pass,,,,,
408.0,7.0,wc_7,wc_7,0.0,"[('wc_7', 0.2400000000000001)]",0.2400000000000001,,,21.0,0.002098,['Fail'],Pass,0.2400000000000001,0.045714285714285596,2.0,7.0,0.3
408.0,7.0,wc_7,,0.0,,,,202.0,,,,Pass,,,,,
408.0,7.0,wc_7,wc_2,0.0,"[('wc_2', 0.3500000000000002)]",0.3500000000000002,,,37.0,0.00411,['Pass'],Pass,0.3500000000000002,-0.3500000000000002,0.0,2.0,0.5
408.0,7.0,wc_7,,0.0,,,,0.0,,,,Pass,,,,,
408.0,7.0,wc_7,wc_4,0.0,"[('wc_4', 0.3400000000000002), ('wc_7', 0.2400000000000001)]",0.4984000000000002,,,21.0,0.005906,['Fail'],Pass,0.3400000000000002,0.09749999999999981,0.0,0.0,0.5
408.0,7.0,wc_7,,0.0,,,,182.0,,,,Pass,,,,,
408.0,7.0,wc_7,wc_15,0.0,"[('wc_15', 0.2600000000000001), ('wc_7', 0.2400000000000001), ('wc_4', 0.3400000000000002)]",0.6288160000000003,,,37.0,0.009266,['Fail'],Pass,0.2600000000000001,-0.2600000000000001,0.0,1.0,0.2
408.0,7.0,wc_7,,0.0,,,,382.0,,,,Pass,,,,,
408.0,7.0,wc_7,wc_10,0.0,"[('wc_10', 0.4900000000000003), ('wc_2', 0.3500000000000002)]",0.6685000000000003,,,25.0,0.009898,['Pass'],Pass,0.4900000000000003,-0.20428571428571463,2.0,7.0,0.9
408.0,7.0,wc_7,,0.0,,,,41.0,,,,Pass,,,,,
408.0,7.0,wc_7,wc_6,0.0,"[('wc_6', 0.5300000000000004), ('wc_2', 0.3500000000000002), ('wc_10', 0.4900000000000003)]",0.8441950000000003,,,34.0,0.012443999999999998,['Pass'],Pass,0.5300000000000004,-0.03000000000000036,1.0,2.0,0.8
408.0,7.0,wc_7,,0.0,,,,202.0,,,,Pass,,,,,
408.0,7.0,wc_7,wc_1,1.0,"[('wc_1', 0.5100000000000003), ('wc_2', 0.3500000000000002), ('wc_10', 0.4900000000000003), ('wc_6', 0.5300000000000004)]",0.9236555500000002,,,32.0,0.051690999999999994,['Pass'],Pass,0.5200000000000004,0.14666666666666628,4.0,6.0,1.0
429.0,9.0,wc_9,,0.0,,,,203.0,,,,Fail,,,,,
429.0,9.0,wc_9,,0.0,,,59.0,,,,,Fail,,,,,
429.0,9.0,wc_9,,0.0,,,,0.0,,,,Fail,,,,,
429.0,9.0,wc_9,wc_9,0.0,"[('wc_9', 0.43000000000000027)]",0.43000000000000027,,,32.0,0.002253,['Pass'],Fail,0.43000000000000027,-0.20777777777777806,2.0,9.0,0.6
429.0,9.0,wc_9,,0.0,,,,121.0,,,,Fail,,,,,
429.0,9.0,wc_9,wc_13,0.0,"[('wc_13', 0.4900000000000003)]",0.4900000000000003,,,37.0,0.003996,['Fail'],Fail,0.4900000000000003,-0.11500000000000032,3.0,8.0,0.7
429.0,9.0,wc_9,,0.0,,,,0.0,,,,Fail,,,,,
429.0,9.0,wc_9,wc_14,0.0,"[('wc_14', 0.42000000000000026), ('wc_13', 0.4900000000000003)]",0.7042000000000004,,,27.0,0.009323000000000001,['Fail'],Fail,0.42000000000000026,-0.42000000000000026,0.0,1.0,0.7
429.0,9.0,wc_9,,0.0,,,,182.0,,,,Fail,,,,,
429.0,9.0,wc_9,wc_8,0.0,"[('wc_8', 0.4800000000000003), ('wc_13', 0.4900000000000003), ('wc_14', 0.42000000000000026)]",0.8461840000000003,,,25.0,0.008596,['Fail'],Fail,0.4800000000000003,-0.23000000000000032,0.0,0.0,1.0
429.0,9.0,wc_9,,0.0,,,,203.0,,,,Fail,,,,,
429.0,9.0,wc_9,wc_16,1.0,"[('wc_16', 0.5200000000000004), ('wc_13', 0.4900000000000003), ('wc_14', 0.42000000000000026), ('wc_8', 0.4800000000000003)]",0.9261683200000002,,,39.0,0.049366,['Fail'],Fail,0.5200000000000004,-0.18666666666666704,2.0,6.0,0.9
441.0,9.0,wc_9,,0.0,,,,342.0,,,,Fail,,,,,
441.0,9.0,wc_9,,0.0,,,77.0,,,,,Fail,,,,,
441.0,9.0,wc_9,,0.0,,,,0.0,,,,Fail,,,,,
441.0,9.0,wc_9,wc_9,0.0,"[('wc_9', 0.42000000000000026)]",0.42000000000000026,,,20.0,0.002216,['Fail'],Fail,0.42000000000000026,-0.42000000000000026,0.0,0.0,0.6
441.0,9.0,wc_9,,0.0,,,,101.0,,,,Fail,,,,,
441.0,9.0,wc_9,wc_12,0.0,"[('wc_12', 0.28000000000000014), ('wc_9', 0.42000000000000026)]",0.5824000000000003,,,39.0,0.003828,['Fail'],Fail,0.28000000000000014,-0.28000000000000014,0.0,6.0,0.2
441.0,9.0,wc_9,,0.0,,,,361.0,,,,Fail,,,,,
441.0,9.0,wc_9,wc_11,0.0,"[('wc_9', 0.42000000000000026), ('wc_12', 0.28000000000000014)]",0.5824000000000003,,,29.0,0.0061059999999999994,['Fail'],Fail,0.31000000000000016,-0.1433333333333335,1.0,6.0,0.3
441.0,9.0,wc_9,,0.0,,,,162.0,,,,Fail,,,,,
441.0,9.0,wc_9,wc_17,0.0,"[('wc_17', 0.43000000000000027), ('wc_9', 0.42000000000000026), ('wc_12', 0.28000000000000014)]",0.7619680000000003,,,29.0,0.008249,['Fail'],Fail,0.43000000000000027,-0.26333333333333364,1.0,6.0,0.6
441.0,9.0,wc_9,,0.0,,,,342.0,,,,Fail,,,,,
441.0,9.0,wc_9,wc_10,0.0,"[('wc_9', 0.42000000000000026), ('wc_12', 0.28000000000000014), ('wc_17', 0.43000000000000027)]",0.7619680000000002,,,34.0,0.010619,['Fail'],Fail,0.4900000000000003,-0.156666666666667,3.0,9.0,0.9
441.0,9.0,wc_9,,0.0,,,,121.0,,,,Fail,,,,,
441.0,9.0,wc_9,wc_14,0.0,"[('wc_14', 0.43000000000000027), ('wc_9', 0.42000000000000026), ('wc_12', 0.28000000000000014), ('wc_17', 0.43000000000000027)]",0.8643217600000002,,,24.0,0.011568,['Fail'],Fail,0.43000000000000027,0.06999999999999973,1.0,2.0,0.7
441.0,9.0,wc_9,,0.0,,,,341.0,,,,Fail,,,,,
441.0,9.0,wc_9,wc_4,0.0,"[('wc_9', 0.42000000000000026), ('wc_12', 0.28000000000000014), ('wc_17', 0.43000000000000027), ('wc_14', 0.43000000000000027)]",0.8643217600000002,,,38.0,0.013628,['Fail'],Fail,0.3300000000000002,-0.3300000000000002,0.0,2.0,0.5
441.0,9.0,wc_9,,0.0,,,,103.0,,,,Fail,,,,,
441.0,9.0,wc_9,wc_3,1.0,"[('wc_3', 0.4600000000000003), ('wc_9', 0.42000000000000026), ('wc_12', 0.28000000000000014), ('wc_17', 0.43000000000000027), ('wc_14', 0.43000000000000027)]",0.9267337504000002,,,20.0,0.050997999999999995,['Fail'],Fail,0.4600000000000003,-0.12666666666666698,3.0,9.0,1.0
459.0,9.0,wc_9,,0.0,,,,162.0,,,,Fail,,,,,
459.0,9.0,wc_9,,0.0,,,65.0,,,,,Fail,,,,,
459.0,9.0,wc_9,,0.0,,,,0.0,,,,Fail,,,,,
459.0,9.0,wc_9,wc_9,0.0,"[('wc_9', 0.43000000000000027)]",0.43000000000000027,,,28.0,0.002048,['Pass'],Fail,0.43000000000000027,0.5699999999999997,1.0,1.0,0.6
459.0,9.0,wc_9,,0.0,,,,121.0,,,,Fail,,,,,
459.0,9.0,wc_9,wc_13,0.0,"[('wc_13', 0.4900000000000003)]",0.4900000000000003,,,33.0,0.004173,['Fail'],Fail,0.4900000000000003,-0.0900000000000003,0.0,0.0,0.7
459.0,9.0,wc_9,,0.0,,,,381.0,,,,Fail,,,,,
459.0,9.0,wc_9,wc_5,0.0,"[('wc_5', 0.3200000000000002), ('wc_9', 0.43000000000000027)]",0.6124000000000003,,,27.0,0.005937,['Pass'],Fail,0.3200000000000002,-0.3200000000000002,0.0,8.0,0.2
459.0,9.0,wc_9,,0.0,,,,61.0,,,,Fail,,,,,
459.0,9.0,wc_9,wc_6,0.0,"[('wc_6', 0.5400000000000004), ('wc_13', 0.4900000000000003)]",0.7654000000000003,,,35.0,0.009966000000000001,['Fail'],Fail,0.5400000000000004,-0.14000000000000035,2.0,5.0,0.8
459.0,9.0,wc_9,,0.0,,,,321.0,,,,Fail,,,,,
459.0,9.0,wc_9,wc_3,0.0,"[('wc_3', 0.4600000000000003), ('wc_13', 0.4900000000000003), ('wc_6', 0.5400000000000004)]",0.8733160000000002,,,26.0,0.020047,['Fail'],Fail,0.4600000000000003,-0.12666666666666698,3.0,9.0,1.0
459.0,9.0,wc_9,,0.0,,,,141.0,,,,Fail,,,,,
459.0,9.0,wc_9,wc_12,1.0,"[('wc_12', 0.28000000000000014), ('wc_13', 0.4900000000000003), ('wc_6', 0.5400000000000004), ('wc_3', 0.4600000000000003)]",0.9087875200000002,,,34.0,0.059393999999999995,['Fail'],Fail,0.28000000000000014,-0.030000000000000138,2.0,8.0,0.2
477.0,9.0,wc_9,,0.0,,,,321.0,,,,Fail,,,,,
477.0,9.0,wc_9,,0.0,,,53.0,,,,,Fail,,,,,
477.0,9.0,wc_9,,0.0,,,,0.0,,,,Fail,,,,,
477.0,9.0,wc_9,wc_9,0.0,"[('wc_9', 0.43000000000000027)]",0.43000000000000027,,,35.0,0.002151,['Fail'],Fail,0.43000000000000027,0.06999999999999973,1.0,2.0,0.6
477.0,9.0,wc_9,,0.0,,,,263.0,,,,Fail,,,,,
477.0,9.0,wc_9,wc_2,0.0,"[('wc_2', 0.3500000000000002), ('wc_9', 0.43000000000000027)]",0.6295000000000003,,,26.0,0.00418,['Fail'],Fail,0.3500000000000002,-0.18333333333333354,1.0,6.0,0.5
477.0,9.0,wc_9,,0.0,,,,122.0,,,,Fail,,,,,
477.0,9.0,wc_9,wc_6,0.0,"[('wc_6', 0.5400000000000004), ('wc_9', 0.43000000000000027), ('wc_2', 0.3500000000000002)]",0.8295700000000003,,,34.0,0.006345,['Fail'],Fail,0.5400000000000004,-0.04000000000000037,3.0,6.0,0.8
477.0,9.0,wc_9,,0.0,,,,361.0,,,,Fail,,,,,
477.0,9.0,wc_9,wc_5,0.0,"[('wc_9', 0.43000000000000027), ('wc_2', 0.3500000000000002), ('wc_6', 0.5400000000000004)]",0.8295700000000003,,,26.0,0.010054,['Fail'],Fail,0.31000000000000016,-0.31000000000000016,0.0,9.0,0.2
477.0,9.0,wc_9,,0.0,,,,81.0,,,,Fail,,,,,
477.0,9.0,wc_9,wc_7,0.0,"[('wc_7', 0.2400000000000001), ('wc_9', 0.43000000000000027), ('wc_2', 0.3500000000000002), ('wc_6', 0.5400000000000004)]",0.8704732000000002,,,33.0,0.009609,['Fail'],Fail,0.2400000000000001,-0.05818181818181828,0.0,0.0,0.3
477.0,9.0,wc_9,,0.0,,,,203.0,,,,Fail,,,,,
477.0,9.0,wc_9,wc_15,0.0,"[('wc_9', 0.43000000000000027), ('wc_2', 0.3500000000000002), ('wc_6', 0.5400000000000004), ('wc_7', 0.2400000000000001)]",0.8704732000000002,,,29.0,0.011795,['Fail'],Fail,0.2500000000000001,-0.2500000000000001,0.0,5.0,0.2
477.0,9.0,wc_9,,0.0,,,,81.0,,,,Fail,,,,,
477.0,9.0,wc_9,wc_13,1.0,"[('wc_13', 0.5000000000000003), ('wc_9', 0.43000000000000027), ('wc_2', 0.3500000000000002), ('wc_6', 0.5400000000000004), ('wc_7', 0.2400000000000001)]",0.9352366000000001,,,30.0,0.053147,['Fail'],Fail,0.5100000000000003,0.48999999999999966,2.0,2.0,0.7
485.0,9.0,wc_9,,0.0,,,,301.0,,,,Pass,,,,,
485.0,9.0,wc_9,,0.0,,,60.0,,,,,Pass,,,,,
485.0,9.0,wc_9,,0.0,,,,0.0,,,,Pass,,,,,
485.0,9.0,wc_9,wc_9,0.0,"[('wc_9', 0.4400000000000003)]",0.4400000000000003,,,20.0,0.002275,['Pass'],Pass,0.4400000000000003,0.22666666666666635,2.0,3.0,0.6
485.0,9.0,wc_9,,0.0,,,,243.0,,,,Pass,,,,,
485.0,9.0,wc_9,wc_1,0.0,"[('wc_1', 0.5200000000000004), ('wc_9', 0.4400000000000003)]",0.7312000000000003,,,34.0,0.0040820000000000006,['Pass'],Pass,0.5200000000000004,-0.12000000000000033,0.0,0.0,1.0
485.0,9.0,wc_9,,0.0,,,,263.0,,,,Pass,,,,,
485.0,9.0,wc_9,wc_16,0.0,"[('wc_16', 0.5200000000000004), ('wc_9', 0.4400000000000003), ('wc_1', 0.5200000000000004)]",0.8709760000000002,,,24.0,0.006442,['Pass'],Pass,0.5200000000000004,-0.29777777777777814,2.0,9.0,0.9
485.0,9.0,wc_9,,0.0,,,,382.0,,,,Pass,,,,,
485.0,9.0,wc_9,wc_3,1.0,"[('wc_3', 0.4600000000000003), ('wc_9', 0.4400000000000003), ('wc_1', 0.5200000000000004), ('wc_16', 0.5200000000000004)]",0.9303270400000002,,,22.0,0.044574,['Pass'],Pass,0.4700000000000003,0.029999999999999694,1.0,2.0,1.0
501.0,12.0,wc_12,,0.0,,,,141.0,,,,Pass,,,,,
501.0,12.0,wc_12,,0.0,,,68.0,,,,,Pass,,,,,
501.0,12.0,wc_12,,0.0,,,,0.0,,,,Pass,,,,,
501.0,12.0,wc_12,wc_12,0.0,"[('wc_12', 0.28000000000000014)]",0.28000000000000014,,,35.0,0.002274,['Fail'],Pass,0.28000000000000014,-0.08000000000000013,0.0,0.0,0.2
501.0,12.0,wc_12,,0.0,,,,0.0,,,,Pass,,,,,
501.0,12.0,wc_12,wc_16,0.0,"[('wc_16', 0.5200000000000004)]",0.5200000000000004,,,36.0,0.004973,['Pass'],Pass,0.5200000000000004,-0.5200000000000004,0.0,0.0,0.9
501.0,12.0,wc_12,,0.0,,,,422.0,,,,Pass,,,,,
501.0,12.0,wc_12,wc_5,0.0,"[('wc_5', 0.30000000000000016), ('wc_16', 0.5200000000000004)]",0.6640000000000004,,,25.0,0.005837,['Pass'],Pass,0.30000000000000016,-0.30000000000000016,0.0,1.0,0.2
501.0,12.0,wc_12,,0.0,,,,103.0,,,,Pass,,,,,
501.0,12.0,wc_12,wc_4,0.0,"[('wc_4', 0.3200000000000002), ('wc_16', 0.5200000000000004), ('wc_5', 0.30000000000000016)]",0.7715200000000002,,,26.0,0.008756,['Pass'],Pass,0.3200000000000002,-0.3200000000000002,0.0,6.0,0.5
501.0,12.0,wc_12,,0.0,,,,81.0,,,,Pass,,,,,
501.0,12.0,wc_12,wc_6,0.0,"[('wc_6', 0.5500000000000004), ('wc_16', 0.5200000000000004), ('wc_5', 0.30000000000000016), ('wc_4', 0.3200000000000002)]",0.8971840000000002,,,37.0,0.011094000000000001,['Pass'],Pass,0.5500000000000004,-0.05000000000000038,4.0,8.0,0.8
501.0,12.0,wc_12,,0.0,,,,0.0,,,,Pass,,,,,
501.0,12.0,wc_12,wc_9,1.0,"[('wc_9', 0.4500000000000003), ('wc_16', 0.5200000000000004), ('wc_5', 0.30000000000000016), ('wc_4', 0.3200000000000002), ('wc_6', 0.5500000000000004)]",0.9434512000000002,,,39.0,0.04947700000000001,['Pass'],Pass,0.4600000000000003,0.33999999999999975,4.0,5.0,0.6
515.0,13.0,wc_13,,0.0,,,,121.0,,,,Pass,,,,,
515.0,13.0,wc_13,,0.0,,,52.0,,,,,Pass,,,,,
515.0,13.0,wc_13,,0.0,,,,0.0,,,,Pass,,,,,
515.0,13.0,wc_13,wc_13,0.0,"[('wc_13', 0.5100000000000003)]",0.5100000000000003,,,34.0,0.002573,['Pass'],Pass,0.5100000000000003,-0.010000000000000342,2.0,4.0,0.7
515.0,13.0,wc_13,,0.0,,,,0.0,,,,Pass,,,,,
515.0,13.0,wc_13,wc_15,0.0,"[('wc_13', 0.5100000000000003)]",0.5100000000000003,,,27.0,0.004368,['Pass'],Pass,0.2400000000000001,-0.2400000000000001,0.0,8.0,0.2
515.0,13.0,wc_13,,0.0,,,,283.0,,,,Pass,,,,,
515.0,13.0,wc_13,wc_1,0.0,"[('wc_1', 0.5300000000000004), ('wc_13', 0.5100000000000003)]",0.7697000000000003,,,36.0,0.007161000000000001,['Pass'],Pass,0.5300000000000004,-0.03000000000000036,1.0,2.0,1.0
515.0,13.0,wc_13,,0.0,,,,182.0,,,,Pass,,,,,
515.0,13.0,wc_13,wc_12,0.0,"[('wc_13', 0.5100000000000003), ('wc_1', 0.5300000000000004)]",0.7697000000000003,,,23.0,0.008230999999999999,['Pass'],Pass,0.27000000000000013,-0.27000000000000013,0.0,1.0,0.2
515.0,13.0,wc_13,,0.0,,,,0.0,,,,Pass,,,,,
515.0,13.0,wc_13,wc_14,0.0,"[('wc_14', 0.4400000000000003), ('wc_13', 0.5100000000000003), ('wc_1', 0.5300000000000004)]",0.8710320000000003,,,26.0,0.010863999999999999,['Pass'],Pass,0.4400000000000003,-0.15428571428571458,2.0,7.0,0.7
515.0,13.0,wc_13,,0.0,,,,321.0,,,,Pass,,,,,
515.0,13.0,wc_13,wc_11,1.0,"[('wc_11', 0.30000000000000016), ('wc_13', 0.5100000000000003), ('wc_1', 0.5300000000000004), ('wc_14', 0.4400000000000003)]",0.9097224000000002,,,25.0,0.053155,['Pass'],Pass,0.30000000000000016,-0.30000000000000016,0.0,0.0,0.3
526.0,15.0,wc_15,,0.0,,,,122.0,,,,Fail,,,,,
526.0,15.0,wc_15,,0.0,,,71.0,,,,,Fail,,,,,
526.0,15.0,wc_15,,0.0,,,,0.0,,,,Fail,,,,,
526.0,15.0,wc_15,wc_15,0.0,"[('wc_15', 0.2300000000000001)]",0.2300000000000001,,,28.0,0.002259,['Pass'],Fail,0.2300000000000001,-0.2300000000000001,0.0,9.0,0.2
526.0,15.0,wc_15,,0.0,,,,362.0,,,,Fail,,,,,
526.0,15.0,wc_15,wc_9,0.0,"[('wc_9', 0.4600000000000003)]",0.4600000000000003,,,28.0,0.004034,['Fail'],Fail,0.4600000000000003,0.20666666666666633,4.0,6.0,0.6
526.0,15.0,wc_15,,0.0,,,,382.0,,,,Fail,,,,,
526.0,15.0,wc_15,wc_4,0.0,"[('wc_4', 0.3200000000000002), ('wc_15', 0.2300000000000001)]",0.47640000000000016,,,31.0,0.006501,['Pass'],Fail,0.3200000000000002,-0.19500000000000017,1.0,8.0,0.5
526.0,15.0,wc_15,,0.0,,,,202.0,,,,Fail,,,,,
526.0,15.0,wc_15,wc_16,0.0,"[('wc_16', 0.5300000000000004), ('wc_15', 0.2300000000000001), ('wc_4', 0.3200000000000002)]",0.7539080000000002,,,23.0,0.007916,['Pass'],Fail,0.5300000000000004,-0.03000000000000036,1.0,2.0,0.9
526.0,15.0,wc_15,,0.0,,,,41.0,,,,Fail,,,,,
526.0,15.0,wc_15,wc_12,0.0,"[('wc_12', 0.2600000000000001), ('wc_15', 0.2300000000000001), ('wc_4', 0.3200000000000002), ('wc_16', 0.5300000000000004)]",0.8178919200000002,,,34.0,0.009470000000000001,['Pass'],Fail,0.2600000000000001,-0.2600000000000001,0.0,2.0,0.2
526.0,15.0,wc_15,,0.0,,,,0.0,,,,Fail,,,,,
526.0,15.0,wc_15,wc_17,0.0,"[('wc_17', 0.43000000000000027), ('wc_15', 0.2300000000000001), ('wc_4', 0.3200000000000002), ('wc_16', 0.5300000000000004), ('wc_12', 0.2600000000000001)]",0.8961983944000003,,,37.0,0.011665,['Pass'],Fail,0.43000000000000027,-0.26333333333333364,0.0,0.0,0.6
526.0,15.0,wc_15,,0.0,,,,183.0,,,,Fail,,,,,
526.0,15.0,wc_15,wc_6,1.0,"[('wc_6', 0.5500000000000004), ('wc_15', 0.2300000000000001), ('wc_4', 0.3200000000000002), ('wc_16', 0.5300000000000004), ('wc_12', 0.2600000000000001), ('wc_17', 0.43000000000000027)]",0.9532892774800001,,,32.0,0.050953,['Pass'],Fail,0.5500000000000004,-0.5500000000000004,0.0,0.0,0.8
534.0,16.0,wc_16,,0.0,,,,243.0,,,,Fail,,,,,
534.0,16.0,wc_16,,0.0,,,58.0,,,,,Fail,,,,,
534.0,16.0,wc_16,,0.0,,,,0.0,,,,Fail,,,,,
534.0,16.0,wc_16,wc_16,0.0,"[('wc_16', 0.5400000000000004)]",0.5400000000000004,,,25.0,0.002167,['Fail'],Fail,0.5400000000000004,0.12666666666666626,2.0,3.0,0.9
534.0,16.0,wc_16,,0.0,,,,41.0,,,,Fail,,,,,
534.0,16.0,wc_16,wc_12,0.0,"[('wc_12', 0.27000000000000013), ('wc_16', 0.5400000000000004)]",0.6642000000000003,,,38.0,0.004105,['Fail'],Fail,0.27000000000000013,0.06333333333333319,1.0,3.0,0.2
534.0,16.0,wc_16,,0.0,,,,321.0,,,,Fail,,,,,
534.0,16.0,wc_16,wc_9,0.0,"[('wc_16', 0.5400000000000004), ('wc_12', 0.27000000000000013)]",0.6642000000000003,,,32.0,0.006011,['Fail'],Fail,0.4600000000000003,0.1114285714285711,4.0,7.0,0.6
534.0,16.0,wc_16,,0.0,,,,263.0,,,,Fail,,,,,
534.0,16.0,wc_16,wc_2,0.0,"[('wc_2', 0.3500000000000002), ('wc_16', 0.5400000000000004), ('wc_12', 0.27000000000000013)]",0.7817300000000003,,,22.0,0.008179,['Fail'],Fail,0.3500000000000002,-0.16818181818181838,0.0,0.0,0.5
534.0,16.0,wc_16,,0.0,,,,142.0,,,,Fail,,,,,
534.0,16.0,wc_16,wc_7,0.0,"[('wc_7', 0.2500000000000001), ('wc_16', 0.5400000000000004), ('wc_12', 0.27000000000000013), ('wc_2', 0.3500000000000002)]",0.8362975000000002,,,24.0,0.009425000000000001,['Fail'],Fail,0.2500000000000001,-0.0500000000000001,1.0,5.0,0.3
534.0,16.0,wc_16,,0.0,,,,0.0,,,,Fail,,,,,
534.0,16.0,wc_16,wc_10,1.0,"[('wc_10', 0.4800000000000003), ('wc_16', 0.5400000000000004), ('wc_12', 0.27000000000000013), ('wc_2', 0.3500000000000002), ('wc_7', 0.2500000000000001)]",0.9148747000000002,,,40.0,0.049865,['Fail'],Fail,0.4800000000000003,-0.33714285714285747,1.0,7.0,0.9
545.0,14.0,wc_14,,0.0,,,,121.0,,,,Fail,,,,,
545.0,14.0,wc_14,,0.0,,,59.0,,,,,Fail,,,,,
545.0,14.0,wc_14,,0.0,,,,0.0,,,,Fail,,,,,
545.0,14.0,wc_14,wc_14,0.0,"[('wc_14', 0.4400000000000003)]",0.4400000000000003,,,36.0,0.00212,['Fail'],Fail,0.4400000000000003,-0.1400000000000003,0.0,0.0,0.7
545.0,14.0,wc_14,,0.0,,,,82.0,,,,Fail,,,,,
545.0,14.0,wc_14,wc_12,0.0,"[('wc_12', 0.28000000000000014), ('wc_14', 0.4400000000000003)]",0.5968000000000002,,,32.0,0.0040230000000000005,['Fail'],Fail,0.28000000000000014,0.21999999999999986,2.0,4.0,0.2
545.0,14.0,wc_14,,0.0,,,,341.0,,,,Fail,,,,,
545.0,14.0,wc_14,wc_10,0.0,"[('wc_10', 0.4800000000000003), ('wc_14', 0.4400000000000003), ('wc_12', 0.28000000000000014)]",0.7903360000000003,,,35.0,0.0064139999999999996,['Fail'],Fail,0.4800000000000003,-0.33714285714285747,1.0,7.0,0.9
545.0,14.0,wc_14,,0.0,,,,243.0,,,,Fail,,,,,
545.0,14.0,wc_14,wc_2,0.0,"[('wc_14', 0.4400000000000003), ('wc_12', 0.28000000000000014), ('wc_10', 0.4800000000000003)]",0.7903360000000003,,,30.0,0.007954000000000001,['Fail'],Fail,0.3600000000000002,0.6399999999999998,1.0,1.0,0.5
545.0,14.0,wc_14,,0.0,,,,223.0,,,,Fail,,,,,
545.0,14.0,wc_14,wc_15,0.0,"[('wc_14', 0.4400000000000003), ('wc_12', 0.28000000000000014), ('wc_10', 0.4800000000000003)]",0.7903360000000003,,,40.0,0.009930999999999999,['Fail'],Fail,0.2300000000000001,-0.2300000000000001,0.0,1.0,0.2
545.0,14.0,wc_14,,0.0,,,,263.0,,,,Fail,,,,,
545.0,14.0,wc_14,wc_8,0.0,"[('wc_8', 0.4900000000000003), ('wc_14', 0.4400000000000003), ('wc_12', 0.28000000000000014), ('wc_10', 0.4800000000000003)]",0.8930713600000002,,,22.0,0.011300999999999999,['Fail'],Fail,0.4900000000000003,-0.3788888888888892,1.0,9.0,1.0
545.0,14.0,wc_14,,0.0,,,,301.0,,,,Fail,,,,,
545.0,14.0,wc_14,wc_4,1.0,"[('wc_4', 0.3200000000000002), ('wc_14', 0.4400000000000003), ('wc_12', 0.28000000000000014), ('wc_10', 0.4800000000000003), ('wc_8', 0.4900000000000003)]",0.9272885248000001,,,40.0,0.049617,['Fail'],Fail,0.3200000000000002,-0.3200000000000002,0.0,0.0,0.5
555.0,16.0,wc_16,,0.0,,,,202.0,,,,Pass,,,,,
555.0,16.0,wc_16,,0.0,,,50.0,,,,,Pass,,,,,
555.0,16.0,wc_16,,0.0,,,,0.0,,,,Pass,,,,,
555.0,16.0,wc_16,wc_16,0.0,"[('wc_16', 0.5500000000000004)]",0.5500000000000004,,,28.0,0.002396,['Fail'],Pass,0.5500000000000004,0.0499999999999996,3.0,5.0,0.9
555.0,16.0,wc_16,,0.0,,,,283.0,,,,Pass,,,,,
555.0,16.0,wc_16,wc_2,0.0,"[('wc_16', 0.5500000000000004)]",0.5500000000000004,,,30.0,0.004633,['Fail'],Pass,0.3600000000000002,0.1399999999999998,1.0,2.0,0.5
555.0,16.0,wc_16,,0.0,,,,162.0,,,,Pass,,,,,
555.0,16.0,wc_16,wc_8,0.0,"[('wc_8', 0.4900000000000003), ('wc_2', 0.3600000000000002)]",0.6736000000000003,,,22.0,0.006368,['Pass'],Pass,0.4900000000000003,-0.4900000000000003,0.0,0.0,1.0
555.0,16.0,wc_16,,0.0,,,,281.0,,,,Pass,,,,,
555.0,16.0,wc_16,wc_3,0.0,"[('wc_3', 0.4700000000000003), ('wc_2', 0.3600000000000002), ('wc_8', 0.4900000000000003)]",0.8270080000000003,,,30.0,0.008648,['Pass'],Pass,0.4700000000000003,-0.32714285714285746,1.0,7.0,1.0
555.0,16.0,wc_16,,0.0,,,,0.0,,,,Pass,,,,,
555.0,16.0,wc_16,wc_5,0.0,"[('wc_2', 0.3600000000000002), ('wc_8', 0.4900000000000003), ('wc_3', 0.4700000000000003)]",0.8270080000000003,,,23.0,0.010459999999999999,['Pass'],Pass,0.31000000000000016,-0.1433333333333335,1.0,6.0,0.2
555.0,16.0,wc_16,,0.0,,,,142.0,,,,Pass,,,,,
555.0,16.0,wc_16,wc_10,1.0,"[('wc_10', 0.4800000000000003), ('wc_2', 0.3600000000000002), ('wc_8', 0.4900000000000003), ('wc_3', 0.4700000000000003)]",0.9100441600000002,,,39.0,0.050347,['Pass'],Pass,0.4800000000000003,-0.146666666666667,3.0,9.0,0.9
567.0,15.0,wc_15,,0.0,,,,142.0,,,,Fail,,,,,
567.0,15.0,wc_15,,0.0,,,72.0,,,,,Fail,,,,,
567.0,15.0,wc_15,,0.0,,,,0.0,,,,Fail,,,,,
567.0,15.0,wc_15,wc_15,0.0,"[('wc_15', 0.22000000000000008)]",0.22000000000000008,,,38.0,0.002718,['Fail'],Fail,0.22000000000000008,-0.22000000000000008,0.0,3.0,0.2
567.0,15.0,wc_15,,0.0,,,,402.0,,,,Fail,,,,,
567.0,15.0,wc_15,wc_3,0.0,"[('wc_3', 0.4700000000000003), ('wc_15', 0.22000000000000008)]",0.5866000000000002,,,31.0,0.005016,['Fail'],Fail,0.4700000000000003,-0.2200000000000003,2.0,8.0,1.0
567.0,15.0,wc_15,,0.0,,,,0.0,,,,Fail,,,,,
567.0,15.0,wc_15,wc_5,0.0,"[('wc_15', 0.22000000000000008), ('wc_3', 0.4700000000000003)]",0.5866000000000002,,,26.0,0.006096000000000001,['Fail'],Fail,0.30000000000000016,-0.1571428571428573,1.0,7.0,0.2
567.0,15.0,wc_15,,0.0,,,,101.0,,,,Fail,,,,,
567.0,15.0,wc_15,wc_12,0.0,"[('wc_12', 0.29000000000000015), ('wc_15', 0.22000000000000008), ('wc_3', 0.4700000000000003)]",0.7064860000000002,,,39.0,0.008941,['Fail'],Fail,0.29000000000000015,0.20999999999999985,3.0,6.0,0.2
567.0,15.0,wc_15,,0.0,,,,202.0,,,,Fail,,,,,
567.0,15.0,wc_15,wc_7,0.0,"[('wc_7', 0.2600000000000001), ('wc_15', 0.22000000000000008), ('wc_3', 0.4700000000000003), ('wc_12', 0.29000000000000015)]",0.7827996400000002,,,28.0,0.009805000000000001,['Fail'],Fail,0.2600000000000001,-0.01000000000000012,2.0,8.0,0.3
567.0,15.0,wc_15,,0.0,,,,182.0,,,,Fail,,,,,
567.0,15.0,wc_15,wc_1,1.0,"[('wc_1', 0.5400000000000004), ('wc_15', 0.22000000000000008), ('wc_3', 0.4700000000000003), ('wc_12', 0.29000000000000015), ('wc_7', 0.2600000000000001)]",0.9000878344000002,,,27.0,0.048782,['Fail'],Fail,0.5400000000000004,-0.16500000000000037,3.0,8.0,1.0
576.0,14.0,wc_14,,0.0,,,,222.0,,,,Fail,,,,,
576.0,14.0,wc_14,,0.0,,,78.0,,,,,Fail,,,,,
576.0,14.0,wc_14,,0.0,,,,0.0,,,,Fail,,,,,
576.0,14.0,wc_14,wc_14,0.0,"[('wc_14', 0.4500000000000003)]",0.4500000000000003,,,38.0,0.002862,['Fail'],Fail,0.4500000000000003,-0.11666666666666697,1.0,3.0,0.7
576.0,14.0,wc_14,,0.0,,,,202.0,,,,Fail,,,,,
576.0,14.0,wc_14,wc_1,0.0,"[('wc_1', 0.5400000000000004)]",0.5400000000000004,,,31.0,0.005349,['Pass'],Fail,0.5400000000000004,-0.16500000000000037,3.0,8.0,1.0
576.0,14.0,wc_14,,0.0,,,,182.0,,,,Fail,,,,,
576.0,14.0,wc_14,wc_12,0.0,"[('wc_12', 0.30000000000000016), ('wc_14', 0.4500000000000003)]",0.6150000000000002,,,27.0,0.005863999999999999,['Fail'],Fail,0.30000000000000016,0.27142857142857124,4.0,7.0,0.2
576.0,14.0,wc_14,,0.0,,,,341.0,,,,Fail,,,,,
576.0,14.0,wc_14,wc_10,0.0,"[('wc_10', 0.4800000000000003), ('wc_14', 0.4500000000000003), ('wc_12', 0.30000000000000016)]",0.7998000000000003,,,32.0,0.009309,['Fail'],Fail,0.4800000000000003,-0.18000000000000033,0.0,0.0,0.9
576.0,14.0,wc_14,,0.0,,,,61.0,,,,Fail,,,,,
576.0,14.0,wc_14,wc_7,0.0,"[('wc_14', 0.4500000000000003), ('wc_12', 0.30000000000000016), ('wc_10', 0.4800000000000003)]",0.7998000000000003,,,29.0,0.009548,['Fail'],Fail,0.27000000000000013,0.06333333333333319,3.0,9.0,0.3
576.0,14.0,wc_14,,0.0,,,,0.0,,,,Fail,,,,,
576.0,14.0,wc_14,wc_11,0.0,"[('wc_14', 0.4500000000000003), ('wc_12', 0.30000000000000016), ('wc_10', 0.4800000000000003)]",0.7998000000000003,,,37.0,0.013326000000000001,['Fail'],Fail,0.30000000000000016,-0.30000000000000016,0.0,5.0,0.3
576.0,14.0,wc_14,,0.0,,,,322.0,,,,Fail,,,,,
576.0,14.0,wc_14,wc_3,0.0,"[('wc_3', 0.4700000000000003), ('wc_14', 0.4500000000000003), ('wc_12', 0.30000000000000016), ('wc_10', 0.4800000000000003)]",0.8938940000000002,,,33.0,0.013500000000000002,['Fail'],Fail,0.4700000000000003,-0.136666666666667,3.0,9.0,1.0
576.0,14.0,wc_14,,0.0,,,,0.0,,,,Fail,,,,,
576.0,14.0,wc_14,wc_4,0.0,"[('wc_14', 0.4500000000000003), ('wc_12', 0.30000000000000016), ('wc_10', 0.4800000000000003), ('wc_3', 0.4700000000000003)]",0.8938940000000002,,,36.0,0.014657,['Fail'],Fail,0.3200000000000002,-0.3200000000000002,0.0,2.0,0.5
576.0,14.0,wc_14,,0.0,,,,222.0,,,,Fail,,,,,
576.0,14.0,wc_14,wc_17,1.0,"[('wc_17', 0.4400000000000003), ('wc_1', 0.5400000000000004), ('wc_7', 0.27000000000000013), ('wc_11', 0.30000000000000016), ('wc_4', 0.3200000000000002)]",0.9104891520000001,,,32.0,0.057929,['Pass'],Fail,0.4400000000000003,-0.10666666666666696,2.0,6.0,0.6
586.0,15.0,wc_15,,0.0,,,,83.0,,,,Pass,,,,,
586.0,15.0,wc_15,,0.0,,,79.0,,,,,Pass,,,,,
586.0,15.0,wc_15,,0.0,,,,0.0,,,,Pass,,,,,
586.0,15.0,wc_15,wc_15,0.0,"[('wc_15', 0.2300000000000001)]",0.2300000000000001,,,30.0,0.002224,['Pass'],Pass,0.2300000000000001,-0.030000000000000082,1.0,5.0,0.2
586.0,15.0,wc_15,,0.0,,,,0.0,,,,Pass,,,,,
586.0,15.0,wc_15,wc_17,0.0,"[('wc_17', 0.4400000000000003), ('wc_15', 0.2300000000000001)]",0.5688000000000002,,,29.0,0.004759,['Pass'],Pass,0.4400000000000003,-0.10666666666666696,2.0,6.0,0.6
586.0,15.0,wc_15,,0.0,,,,103.0,,,,Pass,,,,,
586.0,15.0,wc_15,wc_16,0.0,"[('wc_16', 0.5400000000000004), ('wc_15', 0.2300000000000001), ('wc_17', 0.4400000000000003)]",0.8016480000000002,,,35.0,0.0065910000000000005,['Pass'],Pass,0.5400000000000004,-0.16500000000000037,3.0,8.0,0.9
586.0,15.0,wc_15,,0.0,,,,243.0,,,,Pass,,,,,
586.0,15.0,wc_15,wc_8,1.0,"[('wc_8', 0.5000000000000003), ('wc_15', 0.2300000000000001), ('wc_17', 0.4400000000000003), ('wc_16', 0.5400000000000004)]",0.9008240000000002,,,24.0,0.047906000000000004,['Pass'],Pass,0.5000000000000003,-3.3306690738754696e-16,2.0,4.0,1.0
607.0,14.0,wc_14,,0.0,,,,162.0,,,,Fail,,,,,
607.0,14.0,wc_14,,0.0,,,74.0,,,,,Fail,,,,,
607.0,14.0,wc_14,,0.0,,,,0.0,,,,Fail,,,,,
607.0,14.0,wc_14,wc_14,0.0,"[('wc_14', 0.4400000000000003)]",0.4400000000000003,,,36.0,0.002258,['Fail'],Fail,0.4400000000000003,-0.24000000000000027,1.0,5.0,0.7
607.0,14.0,wc_14,,0.0,,,,162.0,,,,Fail,,,,,
607.0,14.0,wc_14,wc_7,0.0,"[('wc_7', 0.28000000000000014), ('wc_14', 0.4400000000000003)]",0.5968000000000002,,,33.0,0.003817,['Fail'],Fail,0.28000000000000014,-0.28000000000000014,0.0,1.0,0.3
607.0,14.0,wc_14,,0.0,,,,0.0,,,,Fail,,,,,
607.0,14.0,wc_14,wc_9,0.0,"[('wc_9', 0.4600000000000003), ('wc_14', 0.4400000000000003), ('wc_7', 0.28000000000000014)]",0.7822720000000003,,,22.0,0.006137,['Fail'],Fail,0.4600000000000003,-0.1523076923076926,0.0,0.0,0.6
607.0,14.0,wc_14,,0.0,,,,101.0,,,,Fail,,,,,
607.0,14.0,wc_14,wc_8,0.0,"[('wc_8', 0.5000000000000003), ('wc_14', 0.4400000000000003), ('wc_7', 0.28000000000000014), ('wc_9', 0.4600000000000003)]",0.8911360000000002,,,21.0,0.008838,['Fail'],Fail,0.5000000000000003,-3.3306690738754696e-16,2.0,4.0,1.0
607.0,14.0,wc_14,,0.0,,,,281.0,,,,Fail,,,,,
607.0,14.0,wc_14,wc_3,0.0,"[('wc_14', 0.4400000000000003), ('wc_7', 0.28000000000000014), ('wc_9', 0.4600000000000003), ('wc_8', 0.5000000000000003)]",0.8911360000000002,,,36.0,0.010815000000000002,['Fail'],Fail,0.4600000000000003,-0.4600000000000003,0.0,1.0,1.0
607.0,14.0,wc_14,,0.0,,,,101.0,,,,Fail,,,,,
607.0,14.0,wc_14,wc_6,1.0,"[('wc_6', 0.5500000000000004), ('wc_14', 0.4400000000000003), ('wc_7', 0.28000000000000014), ('wc_9', 0.4600000000000003), ('wc_8', 0.5000000000000003)]",0.9510112000000002,,,30.0,0.05319,['Fail'],Fail,0.5500000000000004,-0.40714285714285753,1.0,7.0,0.8
642.0,14.0,wc_14,,0.0,,,,202.0,,,,Pass,,,,,
642.0,14.0,wc_14,,0.0,,,69.0,,,,,Pass,,,,,
642.0,14.0,wc_14,,0.0,,,,0.0,,,,Pass,,,,,
642.0,14.0,wc_14,wc_14,0.0,"[('wc_14', 0.4400000000000003)]",0.4400000000000003,,,40.0,0.002439,['Pass'],Pass,0.4400000000000003,-0.10666666666666696,2.0,6.0,0.7
642.0,14.0,wc_14,,0.0,,,,82.0,,,,Pass,,,,,
642.0,14.0,wc_14,wc_12,0.0,"[('wc_12', 0.30000000000000016), ('wc_14', 0.4400000000000003)]",0.6080000000000003,,,21.0,0.004308,['Pass'],Pass,0.30000000000000016,0.09999999999999987,0.0,0.0,0.2
642.0,14.0,wc_14,,0.0,,,,0.0,,,,Pass,,,,,
642.0,14.0,wc_14,wc_15,0.0,"[('wc_15', 0.2400000000000001), ('wc_14', 0.4400000000000003), ('wc_12', 0.30000000000000016)]",0.7020800000000003,,,35.0,0.006582,['Pass'],Pass,0.2400000000000001,0.045714285714285596,2.0,7.0,0.2
642.0,14.0,wc_14,,0.0,,,,382.0,,,,Pass,,,,,
642.0,14.0,wc_14,wc_10,0.0,"[('wc_10', 0.4700000000000003), ('wc_14', 0.4400000000000003), ('wc_12', 0.30000000000000016), ('wc_15', 0.2400000000000001)]",0.8421024000000003,,,40.0,0.008502000000000001,['Pass'],Pass,0.4700000000000003,-0.4700000000000003,0.0,3.0,0.9
642.0,14.0,wc_14,,0.0,,,,81.0,,,,Pass,,,,,
642.0,14.0,wc_14,wc_8,1.0,"[('wc_8', 0.5100000000000003), ('wc_14', 0.4400000000000003), ('wc_12', 0.30000000000000016), ('wc_15', 0.2400000000000001), ('wc_10', 0.4700000000000003)]",0.9226301760000002,,,34.0,0.053392,['Pass'],Pass,0.5200000000000004,0.14666666666666628,4.0,6.0,1.0
645.0,17.0,wc_17,,0.0,,,,223.0,,,,Fail,,,,,
645.0,17.0,wc_17,,0.0,,,51.0,,,,,Fail,,,,,
645.0,17.0,wc_17,,0.0,,,,0.0,,,,Fail,,,,,
645.0,17.0,wc_17,wc_17,0.0,"[('wc_17', 0.4400000000000003)]",0.4400000000000003,,,29.0,0.002382,['Fail'],Fail,0.4400000000000003,-0.10666666666666696,3.0,9.0,0.6
645.0,17.0,wc_17,,0.0,,,,203.0,,,,Fail,,,,,
645.0,17.0,wc_17,wc_7,0.0,"[('wc_17', 0.4400000000000003)]",0.4400000000000003,,,30.0,0.004625000000000001,['Fail'],Fail,0.29000000000000015,0.04333333333333317,1.0,3.0,0.3
645.0,17.0,wc_17,,0.0,,,,341.0,,,,Fail,,,,,
645.0,17.0,wc_17,wc_5,0.0,"[('wc_5', 0.29000000000000015), ('wc_7', 0.29000000000000015)]",0.49590000000000023,,,34.0,0.00586,['Pass'],Fail,0.29000000000000015,-0.20666666666666683,0.0,0.0,0.2
645.0,17.0,wc_17,,0.0,,,,141.0,,,,Fail,,,,,
645.0,17.0,wc_17,wc_14,0.0,"[('wc_14', 0.4400000000000003), ('wc_17', 0.4400000000000003)]",0.6864000000000003,,,27.0,0.009285999999999999,['Fail'],Fail,0.4400000000000003,-0.011428571428571732,3.0,7.0,0.7
645.0,17.0,wc_17,,0.0,,,,102.0,,,,Fail,,,,,
645.0,17.0,wc_17,wc_13,0.0,"[('wc_13', 0.5200000000000004), ('wc_17', 0.4400000000000003), ('wc_14', 0.4400000000000003)]",0.8494720000000002,,,35.0,0.01214,['Fail'],Fail,0.5200000000000004,-0.30571428571428605,0.0,0.0,0.7
645.0,17.0,wc_17,,0.0,,,,321.0,,,,Fail,,,,,
645.0,17.0,wc_17,wc_10,1.0,"[('wc_10', 0.4700000000000003), ('wc_17', 0.4400000000000003), ('wc_14', 0.4400000000000003), ('wc_13', 0.5200000000000004)]",0.9202201600000002,,,30.0,0.05570200000000001,['Fail'],Fail,0.4700000000000003,-0.07000000000000028,2.0,5.0,0.9
648.0,17.0,wc_17,,0.0,,,,182.0,,,,Pass,,,,,
648.0,17.0,wc_17,,0.0,,,65.0,,,,,Pass,,,,,
648.0,17.0,wc_17,,0.0,,,,0.0,,,,Pass,,,,,
648.0,17.0,wc_17,wc_17,0.0,"[('wc_17', 0.4400000000000003)]",0.4400000000000003,,,20.0,0.001971,['Pass'],Pass,0.4400000000000003,-0.4400000000000003,0.0,0.0,0.6
648.0,17.0,wc_17,,0.0,,,,382.0,,,,Pass,,,,,
648.0,17.0,wc_17,wc_4,0.0,"[('wc_17', 0.4400000000000003)]",0.4400000000000003,,,27.0,0.0042970000000000005,['Pass'],Pass,0.3300000000000002,-0.18714285714285733,1.0,7.0,0.5
648.0,17.0,wc_17,,0.0,,,,101.0,,,,Pass,,,,,
648.0,17.0,wc_17,wc_7,0.0,"[('wc_7', 0.28000000000000014), ('wc_17', 0.4400000000000003)]",0.5968000000000002,,,40.0,0.006650999999999999,['Pass'],Pass,0.28000000000000014,-0.030000000000000138,1.0,4.0,0.3
648.0,17.0,wc_17,,0.0,,,,0.0,,,,Pass,,,,,
648.0,17.0,wc_17,wc_9,0.0,"[('wc_9', 0.4700000000000003), ('wc_4', 0.3300000000000002)]",0.6449000000000003,,,30.0,0.008301,['Fail'],Pass,0.4700000000000003,-0.136666666666667,1.0,3.0,0.6
648.0,17.0,wc_17,,0.0,,,,182.0,,,,Pass,,,,,
648.0,17.0,wc_17,wc_16,0.0,"[('wc_16', 0.5400000000000004), ('wc_17', 0.4400000000000003), ('wc_7', 0.28000000000000014)]",0.8145280000000003,,,33.0,0.013341,['Pass'],Pass,0.5400000000000004,-0.20666666666666705,0.0,0.0,0.9
648.0,17.0,wc_17,,0.0,,,,81.0,,,,Pass,,,,,
648.0,17.0,wc_17,wc_14,0.0,"[('wc_17', 0.4400000000000003), ('wc_7', 0.28000000000000014), ('wc_16', 0.5400000000000004)]",0.8145280000000003,,,38.0,0.013767,['Pass'],Pass,0.4500000000000003,0.04999999999999971,4.0,8.0,0.7
648.0,17.0,wc_17,,0.0,,,,321.0,,,,Pass,,,,,
648.0,17.0,wc_17,wc_11,0.0,"[('wc_11', 0.30000000000000016), ('wc_17', 0.4400000000000003), ('wc_7', 0.28000000000000014), ('wc_16', 0.5400000000000004)]",0.8701696000000002,,,26.0,0.01696,['Pass'],Pass,0.30000000000000016,-0.20000000000000015,0.0,0.0,0.3
648.0,17.0,wc_17,,0.0,,,,61.0,,,,Pass,,,,,
648.0,17.0,wc_17,wc_8,1.0,"[('wc_8', 0.5200000000000004), ('wc_17', 0.4400000000000003), ('wc_7', 0.28000000000000014), ('wc_16', 0.5400000000000004), ('wc_11', 0.30000000000000016)]",0.9376814080000001,,,40.0,0.05759500000000001,['Pass'],Pass,0.5300000000000004,0.09499999999999964,5.0,8.0,1.0
