mpecck/BCQC/bcqc_with_qdt/results/raw/input_10/independent_qc/training/20_workpiece/20200429_084438/wp_5_qc_majority_0.9.csv
production_index,step_idx,production_workcell,qc,consent,winner_qc_list,score,production_time,transport_time,inspection_time,network_time,qc_results,actual_quality,qc_score,score_error,in_winner_counter,in_qc_counter,qc_capability
10.0,1.0,wc_1,,0.0,,,62.0,,,,,Pass,,,,,
10.0,1.0,wc_1,,0.0,,,,0.0,,,,Pass,,,,,
10.0,1.0,wc_1,wc_1,0.0,"[('wc_1', 0.6000000000000004)]",0.6000000000000004,,,20.0,0.002218,['Fail'],Pass,0.6000000000000004,-0.2000000000000004,2.0,5.0,1.0
10.0,1.0,wc_1,,0.0,,,,223.0,,,,Pass,,,,,
10.0,1.0,wc_1,wc_10,0.0,"[('wc_1', 0.6000000000000004)]",0.6000000000000004,,,37.0,0.0040680000000000004,['Fail'],Pass,0.5100000000000003,-0.5100000000000003,0.0,2.0,0.9
10.0,1.0,wc_1,,0.0,,,,0.0,,,,Pass,,,,,
10.0,1.0,wc_1,wc_11,0.0,"[('wc_11', 0.3600000000000002), ('wc_1', 0.6000000000000004)]",0.7440000000000003,,,36.0,0.006144,['Fail'],Pass,0.3600000000000002,-0.137777777777778,2.0,9.0,0.3
10.0,1.0,wc_1,,0.0,,,,223.0,,,,Pass,,,,,
10.0,1.0,wc_1,wc_2,0.0,"[('wc_1', 0.6000000000000004), ('wc_11', 0.3600000000000002)]",0.7440000000000003,,,37.0,0.00775,['Fail'],Pass,0.42000000000000026,0.008571428571428286,3.0,7.0,0.5
10.0,1.0,wc_1,,0.0,,,,183.0,,,,Pass,,,,,
10.0,1.0,wc_1,wc_9,0.0,"[('wc_9', 0.4700000000000003), ('wc_10', 0.5100000000000003), ('wc_2', 0.42000000000000026)]",0.8493740000000003,,,32.0,0.010936000000000001,['Pass'],Pass,0.4700000000000003,-0.2200000000000003,1.0,4.0,0.6
10.0,1.0,wc_1,,0.0,,,,162.0,,,,Pass,,,,,
10.0,1.0,wc_1,wc_15,0.0,"[('wc_10', 0.5100000000000003), ('wc_2', 0.42000000000000026), ('wc_9', 0.4700000000000003)]",0.8493740000000003,,,29.0,0.011449,['Pass'],Pass,0.2300000000000001,0.055714285714285605,2.0,7.0,0.2
10.0,1.0,wc_1,,0.0,,,,0.0,,,,Pass,,,,,
10.0,1.0,wc_1,wc_16,1.0,"[('wc_16', 0.6000000000000004), ('wc_10', 0.5100000000000003), ('wc_2', 0.42000000000000026), ('wc_9', 0.4700000000000003)]",0.9397496000000002,,,27.0,0.048723,['Pass'],Pass,0.6100000000000004,0.0566666666666662,2.0,3.0,0.9
89.0,1.0,wc_1,,0.0,,,,263.0,,,,Fail,,,,,
89.0,1.0,wc_1,,0.0,,,69.0,,,,,Fail,,,,,
89.0,1.0,wc_1,,0.0,,,,0.0,,,,Fail,,,,,
89.0,1.0,wc_1,wc_1,0.0,"[('wc_1', 0.5900000000000004)]",0.5900000000000004,,,30.0,0.002112,['Fail'],Fail,0.5900000000000004,-0.2566666666666671,2.0,6.0,1.0
89.0,1.0,wc_1,,0.0,,,,243.0,,,,Fail,,,,,
89.0,1.0,wc_1,wc_15,0.0,"[('wc_1', 0.5900000000000004)]",0.5900000000000004,,,40.0,0.004118,['Fail'],Fail,0.2300000000000001,0.019999999999999907,2.0,8.0,0.2
89.0,1.0,wc_1,,0.0,,,,0.0,,,,Fail,,,,,
89.0,1.0,wc_1,wc_16,0.0,"[('wc_16', 0.6100000000000004), ('wc_1', 0.5900000000000004)]",0.8401000000000003,,,20.0,0.0063690000000000005,['Fail'],Fail,0.6100000000000004,0.0566666666666662,2.0,3.0,0.9
89.0,1.0,wc_1,,0.0,,,,402.0,,,,Fail,,,,,
89.0,1.0,wc_1,wc_4,0.0,"[('wc_1', 0.5900000000000004), ('wc_16', 0.6100000000000004)]",0.8401000000000003,,,40.0,0.009828,['Fail'],Fail,0.3600000000000002,-0.2350000000000002,1.0,8.0,0.5
89.0,1.0,wc_1,,0.0,,,,121.0,,,,Fail,,,,,
89.0,1.0,wc_1,wc_8,1.0,"[('wc_8', 0.5700000000000004), ('wc_1', 0.5900000000000004), ('wc_16', 0.6100000000000004)]",0.9312430000000003,,,23.0,0.045292,['Fail'],Fail,0.5700000000000004,-0.3200000000000004,2.0,8.0,1.0
164.0,1.0,wc_1,,0.0,,,,162.0,,,,Pass,,,,,
164.0,1.0,wc_1,,0.0,,,79.0,,,,,Pass,,,,,
164.0,1.0,wc_1,,0.0,,,,0.0,,,,Pass,,,,,
164.0,1.0,wc_1,wc_1,0.0,"[('wc_1', 0.5900000000000004)]",0.5900000000000004,,,20.0,0.0021,['Pass'],Pass,0.5900000000000004,-0.16142857142857187,3.0,7.0,1.0
164.0,1.0,wc_1,,0.0,,,,0.0,,,,Pass,,,,,
164.0,1.0,wc_1,wc_5,0.0,"[('wc_5', 0.30000000000000016), ('wc_1', 0.5900000000000004)]",0.7130000000000003,,,32.0,0.004069,['Pass'],Pass,0.30000000000000016,-0.1461538461538463,0.0,0.0,0.2
164.0,1.0,wc_1,,0.0,,,,83.0,,,,Pass,,,,,
164.0,1.0,wc_1,wc_3,0.0,"[('wc_3', 0.5000000000000003), ('wc_1', 0.5900000000000004), ('wc_5', 0.30000000000000016)]",0.8565000000000003,,,31.0,0.00582,['Pass'],Pass,0.5000000000000003,-0.40000000000000036,0.0,0.0,1.0
164.0,1.0,wc_1,,0.0,,,,101.0,,,,Pass,,,,,
164.0,1.0,wc_1,wc_2,1.0,"[('wc_2', 0.43000000000000027), ('wc_1', 0.5900000000000004), ('wc_5', 0.30000000000000016), ('wc_3', 0.5000000000000003)]",0.9182050000000002,,,25.0,0.04087999999999999,['Pass'],Pass,0.4400000000000003,-0.4400000000000003,0.0,0.0,0.5
191.0,2.0,wc_2,,0.0,,,,0.0,,,,Fail,,,,,
191.0,2.0,wc_2,,0.0,,,80.0,,,,,Fail,,,,,
191.0,2.0,wc_2,,0.0,,,,0.0,,,,Fail,,,,,
191.0,2.0,wc_2,wc_2,0.0,"[('wc_2', 0.4400000000000003)]",0.4400000000000003,,,23.0,0.002334,['Fail'],Fail,0.4400000000000003,-0.4400000000000003,0.0,0.0,0.5
191.0,2.0,wc_2,,0.0,,,,243.0,,,,Fail,,,,,
191.0,2.0,wc_2,wc_16,0.0,"[('wc_16', 0.6200000000000004), ('wc_2', 0.4400000000000003)]",0.7872000000000003,,,31.0,0.004263,['Fail'],Fail,0.6200000000000004,-0.020000000000000462,3.0,5.0,0.9
191.0,2.0,wc_2,,0.0,,,,422.0,,,,Fail,,,,,
191.0,2.0,wc_2,wc_5,0.0,"[('wc_2', 0.4400000000000003), ('wc_16', 0.6200000000000004)]",0.7872000000000003,,,35.0,0.006185,['Fail'],Fail,0.31000000000000016,0.6899999999999998,1.0,1.0,0.2
191.0,2.0,wc_2,,0.0,,,,41.0,,,,Fail,,,,,
191.0,2.0,wc_2,wc_1,1.0,"[('wc_1', 0.5900000000000004), ('wc_2', 0.4400000000000003), ('wc_16', 0.6200000000000004)]",0.9127520000000002,,,24.0,0.041016000000000004,['Fail'],Fail,0.5900000000000004,-0.03444444444444483,5.0,9.0,1.0
208.0,3.0,wc_3,,0.0,,,,0.0,,,,Fail,,,,,
208.0,3.0,wc_3,,0.0,,,64.0,,,,,Fail,,,,,
208.0,3.0,wc_3,,0.0,,,,0.0,,,,Fail,,,,,
208.0,3.0,wc_3,wc_3,0.0,"[('wc_3', 0.5100000000000003)]",0.5100000000000003,,,39.0,0.002134,['Fail'],Fail,0.5100000000000003,-0.010000000000000342,1.0,2.0,1.0
208.0,3.0,wc_3,,0.0,,,,101.0,,,,Fail,,,,,
208.0,3.0,wc_3,wc_6,0.0,"[('wc_6', 0.6100000000000004), ('wc_3', 0.5100000000000003)]",0.8089000000000004,,,38.0,0.003898,['Fail'],Fail,0.6100000000000004,-0.32428571428571473,0.0,0.0,0.8
208.0,3.0,wc_3,,0.0,,,,341.0,,,,Fail,,,,,
208.0,3.0,wc_3,wc_4,0.0,"[('wc_4', 0.3500000000000002), ('wc_3', 0.5100000000000003), ('wc_6', 0.6100000000000004)]",0.8757850000000003,,,33.0,0.0062889999999999995,['Fail'],Fail,0.3500000000000002,-0.25909090909090926,0.0,0.0,0.5
208.0,3.0,wc_3,,0.0,,,,141.0,,,,Fail,,,,,
208.0,3.0,wc_3,wc_13,1.0,"[('wc_13', 0.5300000000000004), ('wc_3', 0.5100000000000003), ('wc_6', 0.6100000000000004), ('wc_4', 0.3500000000000002)]",0.9416189500000002,,,22.0,0.042395,['Fail'],Fail,0.5300000000000004,-0.5300000000000004,0.0,0.0,0.7
224.0,4.0,wc_4,,0.0,,,,361.0,,,,Fail,,,,,
224.0,4.0,wc_4,,0.0,,,64.0,,,,,Fail,,,,,
224.0,4.0,wc_4,,0.0,,,,0.0,,,,Fail,,,,,
224.0,4.0,wc_4,wc_4,0.0,"[('wc_4', 0.3600000000000002)]",0.3600000000000002,,,37.0,0.002325,['Fail'],Fail,0.3600000000000002,0.6399999999999998,1.0,1.0,0.5
224.0,4.0,wc_4,,0.0,,,,121.0,,,,Fail,,,,,
224.0,4.0,wc_4,wc_8,0.0,"[('wc_8', 0.5700000000000004), ('wc_4', 0.3600000000000002)]",0.7248000000000003,,,26.0,0.00395,['Fail'],Fail,0.5700000000000004,-0.38818181818181857,0.0,0.0,1.0
224.0,4.0,wc_4,,0.0,,,,82.0,,,,Fail,,,,,
224.0,4.0,wc_4,wc_6,0.0,"[('wc_4', 0.3600000000000002), ('wc_8', 0.5700000000000004)]",0.7248000000000003,,,23.0,0.005863,['Fail'],Fail,0.6200000000000004,0.37999999999999956,1.0,1.0,0.8
224.0,4.0,wc_4,,0.0,,,,361.0,,,,Fail,,,,,
224.0,4.0,wc_4,wc_5,0.0,"[('wc_5', 0.31000000000000016), ('wc_6', 0.6200000000000004)]",0.7378000000000003,,,20.0,0.007541,['Pass'],Fail,0.31000000000000016,0.02333333333333315,1.0,3.0,0.2
224.0,4.0,wc_4,,0.0,,,,141.0,,,,Fail,,,,,
224.0,4.0,wc_4,wc_14,0.0,"[('wc_14', 0.4800000000000003), ('wc_4', 0.3600000000000002), ('wc_8', 0.5700000000000004)]",0.8568960000000003,,,40.0,0.011016,['Fail'],Fail,0.4800000000000003,-0.23000000000000032,0.0,0.0,0.7
224.0,4.0,wc_4,,0.0,,,,0.0,,,,Fail,,,,,
224.0,4.0,wc_4,wc_17,1.0,"[('wc_17', 0.4800000000000003), ('wc_4', 0.3600000000000002), ('wc_8', 0.5700000000000004), ('wc_14', 0.4800000000000003)]",0.9255859200000002,,,32.0,0.041577,['Fail'],Fail,0.4800000000000003,-0.4800000000000003,0.0,0.0,0.6
250.0,2.0,wc_2,,0.0,,,,263.0,,,,Pass,,,,,
250.0,2.0,wc_2,,0.0,,,77.0,,,,,Pass,,,,,
250.0,2.0,wc_2,,0.0,,,,0.0,,,,Pass,,,,,
250.0,2.0,wc_2,wc_2,0.0,"[('wc_2', 0.4500000000000003)]",0.4500000000000003,,,38.0,0.002301,['Pass'],Pass,0.4500000000000003,-0.11666666666666697,1.0,3.0,0.5
250.0,2.0,wc_2,,0.0,,,,223.0,,,,Pass,,,,,
250.0,2.0,wc_2,wc_11,0.0,"[('wc_11', 0.3500000000000002), ('wc_2', 0.4500000000000003)]",0.6425000000000003,,,38.0,0.004213,['Pass'],Pass,0.3500000000000002,-0.3500000000000002,0.0,5.0,0.3
250.0,2.0,wc_2,,0.0,,,,362.0,,,,Pass,,,,,
250.0,2.0,wc_2,wc_5,0.0,"[('wc_2', 0.4500000000000003), ('wc_11', 0.3500000000000002)]",0.6425000000000003,,,35.0,0.00547,['Pass'],Pass,0.30000000000000016,-0.050000000000000155,1.0,4.0,0.2
250.0,2.0,wc_2,,0.0,,,,141.0,,,,Pass,,,,,
250.0,2.0,wc_2,wc_14,0.0,"[('wc_14', 0.4900000000000003), ('wc_5', 0.30000000000000016)]",0.6430000000000002,,,25.0,0.007996,['Fail'],Pass,0.4900000000000003,0.5099999999999997,1.0,1.0,0.7
250.0,2.0,wc_2,,0.0,,,,301.0,,,,Pass,,,,,
250.0,2.0,wc_2,wc_10,0.0,"[('wc_10', 0.5100000000000003), ('wc_2', 0.4500000000000003), ('wc_11', 0.3500000000000002)]",0.8248250000000003,,,26.0,0.010264,['Pass'],Pass,0.5100000000000003,-0.38500000000000034,1.0,8.0,0.9
250.0,2.0,wc_2,,0.0,,,,182.0,,,,Pass,,,,,
250.0,2.0,wc_2,wc_17,1.0,"[('wc_17', 0.4800000000000003), ('wc_2', 0.4500000000000003), ('wc_11', 0.3500000000000002), ('wc_10', 0.5100000000000003)]",0.9089090000000002,,,26.0,0.04564,['Pass'],Pass,0.4900000000000003,0.5099999999999997,1.0,1.0,0.6
266.0,3.0,wc_3,,0.0,,,,362.0,,,,Fail,,,,,
266.0,3.0,wc_3,,0.0,,,68.0,,,,,Fail,,,,,
266.0,3.0,wc_3,,0.0,,,,0.0,,,,Fail,,,,,
266.0,3.0,wc_3,wc_3,0.0,"[('wc_3', 0.5200000000000004)]",0.5200000000000004,,,25.0,0.002101,['Fail'],Fail,0.5200000000000004,-0.12000000000000033,2.0,5.0,1.0
266.0,3.0,wc_3,,0.0,,,,161.0,,,,Fail,,,,,
266.0,3.0,wc_3,wc_13,0.0,"[('wc_13', 0.5300000000000004), ('wc_3', 0.5200000000000004)]",0.7744000000000003,,,26.0,0.003827,['Fail'],Fail,0.5300000000000004,-0.5300000000000004,0.0,2.0,0.7
266.0,3.0,wc_3,,0.0,,,,242.0,,,,Fail,,,,,
266.0,3.0,wc_3,wc_2,0.0,"[('wc_2', 0.4600000000000003), ('wc_3', 0.5200000000000004), ('wc_13', 0.5300000000000004)]",0.8781760000000003,,,32.0,0.006454,['Fail'],Fail,0.4600000000000003,0.0399999999999997,2.0,4.0,0.5
266.0,3.0,wc_3,,0.0,,,,102.0,,,,Fail,,,,,
266.0,3.0,wc_3,wc_1,1.0,"[('wc_1', 0.5900000000000004), ('wc_3', 0.5200000000000004), ('wc_13', 0.5300000000000004), ('wc_2', 0.4600000000000003)]",0.9500521600000001,,,36.0,0.039701,['Fail'],Fail,0.5900000000000004,-0.5900000000000004,0.0,0.0,1.0
294.0,4.0,wc_4,,0.0,,,,0.0,,,,Pass,,,,,
294.0,4.0,wc_4,,0.0,,,56.0,,,,,Pass,,,,,
294.0,4.0,wc_4,,0.0,,,,0.0,,,,Pass,,,,,
294.0,4.0,wc_4,wc_4,0.0,"[('wc_4', 0.3700000000000002)]",0.3700000000000002,,,23.0,0.002192,['Fail'],Pass,0.3700000000000002,0.12999999999999978,2.0,4.0,0.5
294.0,4.0,wc_4,,0.0,,,,142.0,,,,Pass,,,,,
294.0,4.0,wc_4,wc_9,0.0,"[('wc_9', 0.4700000000000003)]",0.4700000000000003,,,25.0,0.004203,['Pass'],Pass,0.4700000000000003,-0.3033333333333337,0.0,0.0,0.6
294.0,4.0,wc_4,,0.0,,,,162.0,,,,Pass,,,,,
294.0,4.0,wc_4,wc_15,0.0,"[('wc_15', 0.2300000000000001), ('wc_4', 0.3700000000000002)]",0.5149000000000002,,,23.0,0.005889,['Fail'],Pass,0.2300000000000001,-0.09666666666666676,0.0,0.0,0.2
294.0,4.0,wc_4,,0.0,,,,402.0,,,,Pass,,,,,
294.0,4.0,wc_4,wc_11,0.0,"[('wc_11', 0.3500000000000002), ('wc_9', 0.4700000000000003)]",0.6555000000000003,,,24.0,0.007881,['Pass'],Pass,0.3500000000000002,-0.20714285714285735,1.0,7.0,0.3
294.0,4.0,wc_4,,0.0,,,,162.0,,,,Pass,,,,,
294.0,4.0,wc_4,wc_17,0.0,"[('wc_17', 0.4900000000000003), ('wc_9', 0.4700000000000003), ('wc_11', 0.3500000000000002)]",0.8243050000000003,,,32.0,0.010268,['Pass'],Pass,0.4900000000000003,0.009999999999999676,1.0,2.0,0.6
294.0,4.0,wc_4,,0.0,,,,61.0,,,,Pass,,,,,
294.0,4.0,wc_4,wc_14,1.0,"[('wc_14', 0.4900000000000003), ('wc_9', 0.4700000000000003), ('wc_11', 0.3500000000000002), ('wc_17', 0.4900000000000003)]",0.9103955500000002,,,21.0,0.047817,['Pass'],Pass,0.4900000000000003,0.009999999999999676,2.0,4.0,0.7
317.0,3.0,wc_3,,0.0,,,,321.0,,,,Pass,,,,,
317.0,3.0,wc_3,,0.0,,,70.0,,,,,Pass,,,,,
317.0,3.0,wc_3,,0.0,,,,0.0,,,,Pass,,,,,
317.0,3.0,wc_3,wc_3,0.0,"[('wc_3', 0.5200000000000004)]",0.5200000000000004,,,21.0,0.002423,['Fail'],Pass,0.5200000000000004,-0.0914285714285718,3.0,7.0,1.0
317.0,3.0,wc_3,,0.0,,,,121.0,,,,Pass,,,,,
317.0,3.0,wc_3,wc_7,0.0,"[('wc_7', 0.2600000000000001), ('wc_3', 0.5200000000000004)]",0.6448000000000003,,,31.0,0.003983,['Fail'],Pass,0.2600000000000001,-0.2600000000000001,0.0,0.0,0.3
317.0,3.0,wc_3,,0.0,,,,162.0,,,,Pass,,,,,
317.0,3.0,wc_3,wc_13,0.0,"[('wc_3', 0.5200000000000004), ('wc_7', 0.2600000000000001)]",0.6448000000000003,,,39.0,0.00553,['Fail'],Pass,0.5300000000000004,-0.28000000000000036,1.0,4.0,0.7
317.0,3.0,wc_3,,0.0,,,,341.0,,,,Pass,,,,,
317.0,3.0,wc_3,wc_11,0.0,"[('wc_11', 0.3500000000000002), ('wc_13', 0.5300000000000004)]",0.6945000000000003,,,23.0,0.008188,['Pass'],Pass,0.3500000000000002,-0.1000000000000002,2.0,8.0,0.3
317.0,3.0,wc_3,,0.0,,,,122.0,,,,Pass,,,,,
317.0,3.0,wc_3,wc_15,0.0,"[('wc_15', 0.22000000000000008), ('wc_13', 0.5300000000000004), ('wc_11', 0.3500000000000002)]",0.7617100000000003,,,35.0,0.010870000000000001,['Pass'],Pass,0.22000000000000008,-0.22000000000000008,0.0,1.0,0.2
317.0,3.0,wc_3,,0.0,,,,382.0,,,,Pass,,,,,
317.0,3.0,wc_3,wc_10,0.0,"[('wc_10', 0.5100000000000003), ('wc_13', 0.5300000000000004), ('wc_11', 0.3500000000000002), ('wc_15', 0.22000000000000008)]",0.8832379000000002,,,31.0,0.01165,['Pass'],Pass,0.5100000000000003,-0.3281818181818185,0.0,0.0,0.9
317.0,3.0,wc_3,,0.0,,,,81.0,,,,Pass,,,,,
317.0,3.0,wc_3,wc_12,0.0,"[('wc_13', 0.5300000000000004), ('wc_11', 0.3500000000000002), ('wc_15', 0.22000000000000008), ('wc_10', 0.5100000000000003)]",0.8832379000000002,,,22.0,0.013496000000000001,['Pass'],Pass,0.22000000000000008,-0.22000000000000008,0.0,0.0,0.2
317.0,3.0,wc_3,,0.0,,,,401.0,,,,Pass,,,,,
317.0,3.0,wc_3,wc_5,1.0,"[('wc_5', 0.29000000000000015), ('wc_13', 0.5300000000000004), ('wc_11', 0.3500000000000002), ('wc_15', 0.22000000000000008), ('wc_10', 0.5100000000000003)]",0.9170989090000001,,,20.0,0.049464,['Pass'],Pass,0.29000000000000015,-0.04000000000000015,2.0,8.0,0.2
330.0,5.0,wc_5,,0.0,,,,0.0,,,,Pass,,,,,
330.0,5.0,wc_5,,0.0,,,53.0,,,,,Pass,,,,,
330.0,5.0,wc_5,,0.0,,,,0.0,,,,Pass,,,,,
330.0,5.0,wc_5,wc_5,0.0,"[('wc_5', 0.29000000000000015)]",0.29000000000000015,,,26.0,0.002133,['Pass'],Pass,0.29000000000000015,-0.04000000000000015,2.0,8.0,0.2
330.0,5.0,wc_5,,0.0,,,,141.0,,,,Pass,,,,,
330.0,5.0,wc_5,wc_14,0.0,"[('wc_14', 0.4900000000000003), ('wc_5', 0.29000000000000015)]",0.6379000000000004,,,34.0,0.004423,['Pass'],Pass,0.4900000000000003,-0.0900000000000003,2.0,5.0,0.7
330.0,5.0,wc_5,,0.0,,,,0.0,,,,Pass,,,,,
330.0,5.0,wc_5,wc_15,0.0,"[('wc_15', 0.2300000000000001), ('wc_5', 0.29000000000000015), ('wc_14', 0.4900000000000003)]",0.7211830000000002,,,30.0,0.005586,['Pass'],Pass,0.2300000000000001,0.2699999999999999,1.0,2.0,0.2
330.0,5.0,wc_5,,0.0,,,,283.0,,,,Pass,,,,,
330.0,5.0,wc_5,wc_1,0.0,"[('wc_1', 0.5900000000000004), ('wc_5', 0.29000000000000015), ('wc_14', 0.4900000000000003), ('wc_15', 0.2300000000000001)]",0.8856850300000002,,,36.0,0.007980999999999999,['Pass'],Pass,0.5900000000000004,-0.5900000000000004,0.0,2.0,1.0
330.0,5.0,wc_5,,0.0,,,,162.0,,,,Pass,,,,,
330.0,5.0,wc_5,wc_7,1.0,"[('wc_7', 0.2500000000000001), ('wc_5', 0.29000000000000015), ('wc_14', 0.4900000000000003), ('wc_15', 0.2300000000000001), ('wc_1', 0.5900000000000004)]",0.9142637725000002,,,20.0,0.06362,['Pass'],Pass,0.2600000000000001,0.23999999999999988,1.0,2.0,0.3
352.0,6.0,wc_6,,0.0,,,,102.0,,,,Fail,,,,,
352.0,6.0,wc_6,,0.0,,,73.0,,,,,Fail,,,,,
352.0,6.0,wc_6,,0.0,,,,0.0,,,,Fail,,,,,
352.0,6.0,wc_6,wc_6,0.0,"[('wc_6', 0.6100000000000004)]",0.6100000000000004,,,40.0,0.002493,['Fail'],Fail,0.6100000000000004,-0.4671428571428576,1.0,7.0,0.8
352.0,6.0,wc_6,,0.0,,,,0.0,,,,Fail,,,,,
352.0,6.0,wc_6,wc_8,0.0,"[('wc_8', 0.5800000000000004), ('wc_6', 0.6100000000000004)]",0.8362000000000003,,,22.0,0.0043809999999999995,['Fail'],Fail,0.5800000000000004,-0.4133333333333338,1.0,6.0,1.0
352.0,6.0,wc_6,,0.0,,,,162.0,,,,Fail,,,,,
352.0,6.0,wc_6,wc_14,1.0,"[('wc_14', 0.4900000000000003), ('wc_6', 0.6100000000000004), ('wc_8', 0.5800000000000004)]",0.9164620000000002,,,30.0,0.041951,['Fail'],Fail,0.5000000000000003,0.07142857142857106,4.0,7.0,0.7
378.0,6.0,wc_6,,0.0,,,,142.0,,,,Fail,,,,,
378.0,6.0,wc_6,,0.0,,,58.0,,,,,Fail,,,,,
378.0,6.0,wc_6,,0.0,,,,0.0,,,,Fail,,,,,
378.0,6.0,wc_6,wc_6,0.0,"[('wc_6', 0.6100000000000004)]",0.6100000000000004,,,22.0,0.002411,['Fail'],Fail,0.6100000000000004,-0.36000000000000043,2.0,8.0,0.8
378.0,6.0,wc_6,,0.0,,,,182.0,,,,Fail,,,,,
378.0,6.0,wc_6,wc_13,0.0,"[('wc_6', 0.6100000000000004)]",0.6100000000000004,,,24.0,0.004215,['Fail'],Fail,0.5300000000000004,-0.24428571428571466,2.0,7.0,0.7
378.0,6.0,wc_6,,0.0,,,,102.0,,,,Fail,,,,,
378.0,6.0,wc_6,wc_12,0.0,"[('wc_12', 0.21000000000000008), ('wc_6', 0.6100000000000004)]",0.6919000000000004,,,27.0,0.006994,['Fail'],Fail,0.21000000000000008,-0.21000000000000008,0.0,3.0,0.2
378.0,6.0,wc_6,,0.0,,,,361.0,,,,Fail,,,,,
378.0,6.0,wc_6,wc_3,0.0,"[('wc_3', 0.5100000000000003), ('wc_6', 0.6100000000000004), ('wc_12', 0.21000000000000008)]",0.8490310000000003,,,36.0,0.007957,['Fail'],Fail,0.5100000000000003,-0.21000000000000035,0.0,0.0,1.0
378.0,6.0,wc_6,,0.0,,,,202.0,,,,Fail,,,,,
378.0,6.0,wc_6,wc_11,1.0,"[('wc_11', 0.3500000000000002), ('wc_6', 0.6100000000000004), ('wc_12', 0.21000000000000008), ('wc_3', 0.5100000000000003)]",0.9018701500000003,,,22.0,0.04798499999999999,['Fail'],Fail,0.3500000000000002,-0.3500000000000002,0.0,0.0,0.3
404.0,6.0,wc_6,,0.0,,,,21.0,,,,Fail,,,,,
404.0,6.0,wc_6,,0.0,,,65.0,,,,,Fail,,,,,
404.0,6.0,wc_6,,0.0,,,,0.0,,,,Fail,,,,,
404.0,6.0,wc_6,wc_6,0.0,"[('wc_6', 0.6100000000000004)]",0.6100000000000004,,,38.0,0.002298,['Fail'],Fail,0.6100000000000004,-0.2766666666666671,3.0,9.0,0.8
404.0,6.0,wc_6,,0.0,,,,0.0,,,,Fail,,,,,
404.0,6.0,wc_6,wc_9,0.0,"[('wc_9', 0.4800000000000003), ('wc_6', 0.6100000000000004)]",0.7972000000000004,,,35.0,0.004387,['Fail'],Fail,0.4800000000000003,-0.2800000000000003,1.0,5.0,0.6
404.0,6.0,wc_6,,0.0,,,,101.0,,,,Fail,,,,,
404.0,6.0,wc_6,wc_12,0.0,"[('wc_12', 0.22000000000000008), ('wc_6', 0.6100000000000004), ('wc_9', 0.4800000000000003)]",0.8418160000000003,,,27.0,0.005778,['Fail'],Fail,0.22000000000000008,0.029999999999999916,1.0,4.0,0.2
404.0,6.0,wc_6,,0.0,,,,401.0,,,,Fail,,,,,
404.0,6.0,wc_6,wc_5,0.0,"[('wc_6', 0.6100000000000004), ('wc_9', 0.4800000000000003), ('wc_12', 0.22000000000000008)]",0.8418160000000003,,,31.0,0.007469999999999999,['Fail'],Fail,0.30000000000000016,-0.02727272727272745,0.0,0.0,0.2
404.0,6.0,wc_6,,0.0,,,,162.0,,,,Fail,,,,,
404.0,6.0,wc_6,wc_15,0.0,"[('wc_6', 0.6100000000000004), ('wc_9', 0.4800000000000003), ('wc_12', 0.22000000000000008)]",0.8418160000000003,,,34.0,0.00937,['Fail'],Fail,0.2400000000000001,0.15999999999999992,2.0,5.0,0.2
404.0,6.0,wc_6,,0.0,,,,283.0,,,,Fail,,,,,
404.0,6.0,wc_6,wc_1,1.0,"[('wc_1', 0.5900000000000004), ('wc_6', 0.6100000000000004), ('wc_9', 0.4800000000000003), ('wc_12', 0.22000000000000008)]",0.9351445600000002,,,21.0,0.047881,['Fail'],Fail,0.5900000000000004,-0.2566666666666671,2.0,6.0,1.0
440.0,6.0,wc_6,,0.0,,,,142.0,,,,Fail,,,,,
440.0,6.0,wc_6,,0.0,,,54.0,,,,,Fail,,,,,
440.0,6.0,wc_6,,0.0,,,,0.0,,,,Fail,,,,,
440.0,6.0,wc_6,wc_6,0.0,"[('wc_6', 0.6100000000000004)]",0.6100000000000004,,,29.0,0.002101,['Fail'],Fail,0.6100000000000004,-0.6100000000000004,0.0,0.0,0.8
440.0,6.0,wc_6,,0.0,,,,202.0,,,,Fail,,,,,
440.0,6.0,wc_6,wc_14,0.0,"[('wc_14', 0.5000000000000003), ('wc_6', 0.6100000000000004)]",0.8050000000000004,,,28.0,0.0038780000000000004,['Fail'],Fail,0.5000000000000003,-0.05555555555555591,4.0,9.0,0.7
440.0,6.0,wc_6,,0.0,,,,102.0,,,,Fail,,,,,
440.0,6.0,wc_6,wc_13,1.0,"[('wc_13', 0.5200000000000004), ('wc_6', 0.6100000000000004), ('wc_14', 0.5000000000000003)]",0.9064000000000002,,,32.0,0.041011,['Fail'],Fail,0.5200000000000004,-0.5200000000000004,0.0,0.0,0.7
476.0,6.0,wc_6,,0.0,,,,162.0,,,,Fail,,,,,
476.0,6.0,wc_6,,0.0,,,52.0,,,,,Fail,,,,,
476.0,6.0,wc_6,,0.0,,,,0.0,,,,Fail,,,,,
476.0,6.0,wc_6,wc_6,0.0,"[('wc_6', 0.6200000000000004)]",0.6200000000000004,,,36.0,0.003234,['Fail'],Fail,0.6200000000000004,0.37999999999999956,1.0,1.0,0.8
476.0,6.0,wc_6,,0.0,,,,202.0,,,,Fail,,,,,
476.0,6.0,wc_6,wc_14,0.0,"[('wc_14', 0.5000000000000003), ('wc_6', 0.6200000000000004)]",0.8100000000000004,,,32.0,0.003952000000000001,['Fail'],Fail,0.5000000000000003,-0.5000000000000003,0.0,0.0,0.7
476.0,6.0,wc_6,,0.0,,,,361.0,,,,Fail,,,,,
476.0,6.0,wc_6,wc_5,0.0,"[('wc_5', 0.29000000000000015), ('wc_6', 0.6200000000000004), ('wc_14', 0.5000000000000003)]",0.8651000000000002,,,25.0,0.005725,['Fail'],Fail,0.29000000000000015,-0.29000000000000015,0.0,2.0,0.2
476.0,6.0,wc_6,,0.0,,,,83.0,,,,Fail,,,,,
476.0,6.0,wc_6,wc_3,1.0,"[('wc_3', 0.5200000000000004), ('wc_6', 0.6200000000000004), ('wc_14', 0.5000000000000003), ('wc_5', 0.29000000000000015)]",0.9352480000000002,,,36.0,0.044206999999999996,['Fail'],Fail,0.5200000000000004,-0.02000000000000035,2.0,4.0,1.0
503.0,6.0,wc_6,,0.0,,,,101.0,,,,Pass,,,,,
503.0,6.0,wc_6,,0.0,,,60.0,,,,,Pass,,,,,
503.0,6.0,wc_6,,0.0,,,,0.0,,,,Pass,,,,,
503.0,6.0,wc_6,wc_6,0.0,"[('wc_6', 0.6300000000000004)]",0.6300000000000004,,,35.0,0.003278,['Pass'],Pass,0.6300000000000004,0.36999999999999955,2.0,2.0,0.8
503.0,6.0,wc_6,,0.0,,,,321.0,,,,Pass,,,,,
503.0,6.0,wc_6,wc_3,0.0,"[('wc_3', 0.5200000000000004), ('wc_6', 0.6300000000000004)]",0.8224000000000004,,,28.0,0.005431,['Pass'],Pass,0.5200000000000004,-0.02000000000000035,2.0,4.0,1.0
503.0,6.0,wc_6,,0.0,,,,182.0,,,,Pass,,,,,
503.0,6.0,wc_6,wc_10,1.0,"[('wc_10', 0.5200000000000004), ('wc_6', 0.6300000000000004), ('wc_3', 0.5200000000000004)]",0.9147520000000002,,,29.0,0.04618699999999999,['Pass'],Pass,0.5200000000000004,-0.27000000000000035,2.0,8.0,0.9
514.0,8.0,wc_8,,0.0,,,,81.0,,,,Pass,,,,,
514.0,8.0,wc_8,,0.0,,,79.0,,,,,Pass,,,,,
514.0,8.0,wc_8,,0.0,,,,0.0,,,,Pass,,,,,
514.0,8.0,wc_8,wc_8,0.0,"[('wc_8', 0.5800000000000004)]",0.5800000000000004,,,37.0,0.002191,['Pass'],Pass,0.5800000000000004,-0.4133333333333338,0.0,0.0,1.0
514.0,8.0,wc_8,,0.0,,,,0.0,,,,Pass,,,,,
514.0,8.0,wc_8,wc_11,0.0,"[('wc_8', 0.5800000000000004)]",0.5800000000000004,,,33.0,0.004252000000000001,['Pass'],Pass,0.3500000000000002,-0.3500000000000002,0.0,4.0,0.3
514.0,8.0,wc_8,,0.0,,,,41.0,,,,Pass,,,,,
514.0,8.0,wc_8,wc_7,0.0,"[('wc_7', 0.2600000000000001), ('wc_8', 0.5800000000000004)]",0.6892000000000004,,,33.0,0.006583,['Pass'],Pass,0.2600000000000001,-0.13500000000000012,1.0,8.0,0.3
514.0,8.0,wc_8,,0.0,,,,243.0,,,,Pass,,,,,
514.0,8.0,wc_8,wc_17,0.0,"[('wc_8', 0.5800000000000004), ('wc_7', 0.2600000000000001)]",0.6892000000000004,,,26.0,0.007816,['Pass'],Pass,0.5000000000000003,-0.3181818181818185,0.0,0.0,0.6
514.0,8.0,wc_8,,0.0,,,,243.0,,,,Pass,,,,,
514.0,8.0,wc_8,wc_1,0.0,"[('wc_1', 0.5900000000000004), ('wc_8', 0.5800000000000004), ('wc_7', 0.2600000000000001)]",0.8725720000000002,,,34.0,0.009529000000000001,['Pass'],Pass,0.5900000000000004,-0.3677777777777782,2.0,9.0,1.0
514.0,8.0,wc_8,,0.0,,,,0.0,,,,Pass,,,,,
514.0,8.0,wc_8,wc_2,0.0,"[('wc_8', 0.5800000000000004), ('wc_7', 0.2600000000000001), ('wc_1', 0.5900000000000004)]",0.8725720000000003,,,39.0,0.012009,['Pass'],Pass,0.4700000000000003,-0.255714285714286,0.0,0.0,0.5
514.0,8.0,wc_8,,0.0,,,,243.0,,,,Pass,,,,,
514.0,8.0,wc_8,wc_16,1.0,"[('wc_16', 0.6300000000000004), ('wc_8', 0.5800000000000004), ('wc_7', 0.2600000000000001), ('wc_1', 0.5900000000000004)]",0.9528516400000001,,,30.0,0.049985,['Pass'],Pass,0.6300000000000004,-0.6300000000000004,0.0,0.0,0.9
523.0,10.0,wc_10,,0.0,,,,362.0,,,,Pass,,,,,
523.0,10.0,wc_10,,0.0,,,70.0,,,,,Pass,,,,,
523.0,10.0,wc_10,,0.0,,,,0.0,,,,Pass,,,,,
523.0,10.0,wc_10,wc_10,0.0,"[('wc_10', 0.5200000000000004)]",0.5200000000000004,,,32.0,0.002182,['Fail'],Pass,0.5200000000000004,-0.29777777777777814,2.0,9.0,0.9
523.0,10.0,wc_10,,0.0,,,,142.0,,,,Pass,,,,,
523.0,10.0,wc_10,wc_15,0.0,"[('wc_15', 0.2400000000000001), ('wc_10', 0.5200000000000004)]",0.6352000000000003,,,39.0,0.00395,['Fail'],Pass,0.2400000000000001,-0.04000000000000009,0.0,0.0,0.2
523.0,10.0,wc_10,,0.0,,,,101.0,,,,Pass,,,,,
523.0,10.0,wc_10,wc_14,0.0,"[('wc_10', 0.5200000000000004), ('wc_15', 0.2400000000000001)]",0.6352000000000003,,,40.0,0.005849,['Fail'],Pass,0.5100000000000003,-0.17666666666666703,1.0,3.0,0.7
523.0,10.0,wc_10,,0.0,,,,0.0,,,,Pass,,,,,
523.0,10.0,wc_10,wc_17,0.0,"[('wc_17', 0.4900000000000003), ('wc_14', 0.5100000000000003)]",0.7501000000000003,,,23.0,0.008445999999999999,['Pass'],Pass,0.4900000000000003,-0.4900000000000003,0.0,1.0,0.6
523.0,10.0,wc_10,,0.0,,,,203.0,,,,Pass,,,,,
523.0,10.0,wc_10,wc_7,0.0,"[('wc_7', 0.2600000000000001), ('wc_14', 0.5100000000000003), ('wc_17', 0.4900000000000003)]",0.8150740000000003,,,35.0,0.009529000000000001,['Pass'],Pass,0.2600000000000001,-0.03777777777777791,2.0,9.0,0.3
523.0,10.0,wc_10,,0.0,,,,162.0,,,,Pass,,,,,
523.0,10.0,wc_10,wc_13,0.0,"[('wc_13', 0.5200000000000004), ('wc_10', 0.5200000000000004), ('wc_15', 0.2400000000000001)]",0.8248960000000003,,,25.0,0.011578,['Fail'],Pass,0.5200000000000004,-0.5200000000000004,0.0,3.0,0.7
523.0,10.0,wc_10,,0.0,,,,341.0,,,,Pass,,,,,
523.0,10.0,wc_10,wc_3,1.0,"[('wc_3', 0.5300000000000004), ('wc_14', 0.5100000000000003), ('wc_17', 0.4900000000000003), ('wc_7', 0.2600000000000001)]",0.9130847800000002,,,24.0,0.048127,['Pass'],Pass,0.5400000000000004,0.03142857142857103,4.0,7.0,1.0
532.0,7.0,wc_7,,0.0,,,,121.0,,,,Pass,,,,,
532.0,7.0,wc_7,,0.0,,,64.0,,,,,Pass,,,,,
532.0,7.0,wc_7,,0.0,,,,0.0,,,,Pass,,,,,
532.0,7.0,wc_7,wc_7,0.0,"[('wc_7', 0.27000000000000013)]",0.27000000000000013,,,29.0,0.002218,['Fail'],Pass,0.27000000000000013,-0.27000000000000013,0.0,0.0,0.3
532.0,7.0,wc_7,,0.0,,,,203.0,,,,Pass,,,,,
532.0,7.0,wc_7,wc_15,0.0,"[('wc_7', 0.27000000000000013)]",0.27000000000000013,,,22.0,0.004454,['Fail'],Pass,0.2300000000000001,-0.2300000000000001,0.0,1.0,0.2
532.0,7.0,wc_7,,0.0,,,,0.0,,,,Pass,,,,,
532.0,7.0,wc_7,wc_17,0.0,"[('wc_17', 0.4900000000000003), ('wc_15', 0.2300000000000001)]",0.6073000000000003,,,26.0,0.005679,['Pass'],Pass,0.4900000000000003,0.009999999999999676,1.0,2.0,0.6
532.0,7.0,wc_7,,0.0,,,,382.0,,,,Pass,,,,,
532.0,7.0,wc_7,wc_4,0.0,"[('wc_15', 0.2300000000000001), ('wc_17', 0.4900000000000003)]",0.6073000000000003,,,36.0,0.008077,['Pass'],Pass,0.3700000000000002,-0.23666666666666689,0.0,0.0,0.5
532.0,7.0,wc_7,,0.0,,,,121.0,,,,Pass,,,,,
532.0,7.0,wc_7,wc_8,0.0,"[('wc_8', 0.5900000000000004), ('wc_15', 0.2300000000000001), ('wc_17', 0.4900000000000003)]",0.8389930000000003,,,36.0,0.009763,['Pass'],Pass,0.5900000000000004,-0.09000000000000041,1.0,2.0,1.0
532.0,7.0,wc_7,,0.0,,,,122.0,,,,Pass,,,,,
532.0,7.0,wc_7,wc_12,0.0,"[('wc_15', 0.2300000000000001), ('wc_17', 0.4900000000000003), ('wc_8', 0.5900000000000004)]",0.8389930000000003,,,29.0,0.021359,['Pass'],Pass,0.2300000000000001,-0.030000000000000082,0.0,0.0,0.2
532.0,7.0,wc_7,,0.0,,,,0.0,,,,Pass,,,,,
532.0,7.0,wc_7,wc_14,1.0,"[('wc_14', 0.5100000000000003), ('wc_15', 0.2300000000000001), ('wc_17', 0.4900000000000003), ('wc_8', 0.5900000000000004)]",0.9211065700000002,,,27.0,0.049476,['Pass'],Pass,0.5200000000000004,0.07999999999999963,3.0,5.0,0.7
547.0,11.0,wc_11,,0.0,,,,321.0,,,,Fail,,,,,
547.0,11.0,wc_11,,0.0,,,69.0,,,,,Fail,,,,,
547.0,11.0,wc_11,,0.0,,,,0.0,,,,Fail,,,,,
547.0,11.0,wc_11,wc_11,0.0,"[('wc_11', 0.3400000000000002)]",0.3400000000000002,,,30.0,0.002018,['Fail'],Fail,0.3400000000000002,-0.3400000000000002,0.0,7.0,0.3
547.0,11.0,wc_11,,0.0,,,,103.0,,,,Fail,,,,,
547.0,11.0,wc_11,wc_10,0.0,"[('wc_10', 0.5100000000000003), ('wc_11', 0.3400000000000002)]",0.6766000000000003,,,26.0,0.004416,['Fail'],Fail,0.5100000000000003,-0.5100000000000003,0.0,1.0,0.9
547.0,11.0,wc_11,,0.0,,,,342.0,,,,Fail,,,,,
547.0,11.0,wc_11,wc_3,0.0,"[('wc_3', 0.5400000000000004), ('wc_11', 0.3400000000000002), ('wc_10', 0.5100000000000003)]",0.8512360000000003,,,32.0,0.005953999999999999,['Fail'],Fail,0.5400000000000004,-0.04000000000000037,4.0,8.0,1.0
547.0,11.0,wc_11,,0.0,,,,81.0,,,,Fail,,,,,
547.0,11.0,wc_11,wc_1,1.0,"[('wc_1', 0.5900000000000004), ('wc_11', 0.3400000000000002), ('wc_10', 0.5100000000000003), ('wc_3', 0.5400000000000004)]",0.9390067600000002,,,30.0,0.044963,['Fail'],Fail,0.5900000000000004,-0.2566666666666671,1.0,3.0,1.0
556.0,11.0,wc_11,,0.0,,,,243.0,,,,Pass,,,,,
556.0,11.0,wc_11,,0.0,,,56.0,,,,,Pass,,,,,
556.0,11.0,wc_11,,0.0,,,,0.0,,,,Pass,,,,,
556.0,11.0,wc_11,wc_11,0.0,"[('wc_11', 0.3400000000000002)]",0.3400000000000002,,,31.0,0.002711,['Fail'],Pass,0.3400000000000002,-0.2150000000000002,1.0,8.0,0.3
556.0,11.0,wc_11,,0.0,,,,322.0,,,,Pass,,,,,
556.0,11.0,wc_11,wc_3,0.0,"[('wc_3', 0.5500000000000004)]",0.5500000000000004,,,20.0,0.005253000000000001,['Pass'],Pass,0.5500000000000004,0.005555555555555203,5.0,9.0,1.0
556.0,11.0,wc_11,,0.0,,,,161.0,,,,Pass,,,,,
556.0,11.0,wc_11,wc_13,0.0,"[('wc_13', 0.5100000000000003), ('wc_11', 0.3400000000000002)]",0.6766000000000003,,,22.0,0.00624,['Fail'],Pass,0.5100000000000003,-0.5100000000000003,0.0,6.0,0.7
556.0,11.0,wc_11,,0.0,,,,301.0,,,,Pass,,,,,
556.0,11.0,wc_11,wc_9,0.0,"[('wc_9', 0.4800000000000003), ('wc_3', 0.5500000000000004)]",0.7660000000000003,,,21.0,0.007153,['Pass'],Pass,0.4800000000000003,-0.32615384615384646,0.0,0.0,0.6
556.0,11.0,wc_11,,0.0,,,,0.0,,,,Pass,,,,,
556.0,11.0,wc_11,wc_10,0.0,"[('wc_10', 0.5100000000000003), ('wc_3', 0.5500000000000004), ('wc_9', 0.4800000000000003)]",0.8853400000000002,,,28.0,0.009242,['Pass'],Pass,0.5100000000000003,-0.010000000000000342,1.0,2.0,0.9
556.0,11.0,wc_11,,0.0,,,,243.0,,,,Pass,,,,,
556.0,11.0,wc_11,wc_2,1.0,"[('wc_2', 0.4600000000000003), ('wc_3', 0.5500000000000004), ('wc_9', 0.4800000000000003), ('wc_10', 0.5100000000000003)]",0.9380836000000001,,,24.0,0.046702999999999995,['Pass'],Pass,0.4600000000000003,-0.2600000000000003,1.0,5.0,0.5
564.0,9.0,wc_9,,0.0,,,,183.0,,,,Fail,,,,,
564.0,9.0,wc_9,,0.0,,,68.0,,,,,Fail,,,,,
564.0,9.0,wc_9,,0.0,,,,0.0,,,,Fail,,,,,
564.0,9.0,wc_9,wc_9,0.0,"[('wc_9', 0.4900000000000003)]",0.4900000000000003,,,36.0,0.001995,['Pass'],Fail,0.4900000000000003,0.5099999999999997,1.0,1.0,0.6
564.0,9.0,wc_9,,0.0,,,,0.0,,,,Fail,,,,,
564.0,9.0,wc_9,wc_11,0.0,"[('wc_11', 0.3300000000000002), ('wc_9', 0.4900000000000003)]",0.6583000000000003,,,37.0,0.0037660000000000003,['Pass'],Fail,0.3300000000000002,-0.21888888888888908,1.0,9.0,0.3
564.0,9.0,wc_9,,0.0,,,,203.0,,,,Fail,,,,,
564.0,9.0,wc_9,wc_1,0.0,"[('wc_9', 0.4900000000000003), ('wc_11', 0.3300000000000002)]",0.6583000000000003,,,26.0,0.006332000000000001,['Pass'],Fail,0.5900000000000004,-0.3400000000000004,1.0,4.0,1.0
564.0,9.0,wc_9,,0.0,,,,263.0,,,,Fail,,,,,
564.0,9.0,wc_9,wc_16,0.0,"[('wc_16', 0.6300000000000004), ('wc_1', 0.5900000000000004)]",0.8483000000000003,,,29.0,0.007796,['Fail'],Fail,0.6300000000000004,-0.6300000000000004,0.0,4.0,0.9
564.0,9.0,wc_9,,0.0,,,,243.0,,,,Fail,,,,,
564.0,9.0,wc_9,wc_8,1.0,"[('wc_8', 0.6000000000000004), ('wc_1', 0.5900000000000004), ('wc_16', 0.6300000000000004)]",0.9393200000000002,,,20.0,0.046708,['Fail'],Fail,0.6000000000000004,-0.10000000000000042,3.0,6.0,1.0
571.0,9.0,wc_9,,0.0,,,,0.0,,,,Pass,,,,,
571.0,9.0,wc_9,,0.0,,,77.0,,,,,Pass,,,,,
571.0,9.0,wc_9,,0.0,,,,0.0,,,,Pass,,,,,
571.0,9.0,wc_9,wc_9,0.0,"[('wc_9', 0.4900000000000003)]",0.4900000000000003,,,34.0,0.0025,['Fail'],Pass,0.4900000000000003,0.009999999999999676,1.0,2.0,0.6
571.0,9.0,wc_9,,0.0,,,,402.0,,,,Pass,,,,,
571.0,9.0,wc_9,wc_5,0.0,"[('wc_5', 0.30000000000000016), ('wc_9', 0.4900000000000003)]",0.6430000000000002,,,26.0,0.004318,['Fail'],Pass,0.30000000000000016,-0.20000000000000015,0.0,0.0,0.2
571.0,9.0,wc_9,,0.0,,,,61.0,,,,Pass,,,,,
571.0,9.0,wc_9,wc_6,0.0,"[('wc_9', 0.4900000000000003), ('wc_5', 0.30000000000000016)]",0.6430000000000002,,,38.0,0.005911,['Fail'],Pass,0.6400000000000005,-0.30666666666666714,3.0,9.0,0.8
571.0,9.0,wc_9,,0.0,,,,202.0,,,,Pass,,,,,
571.0,9.0,wc_9,wc_1,0.0,"[('wc_1', 0.5900000000000004), ('wc_6', 0.6400000000000005)]",0.8524000000000003,,,35.0,0.00813,['Pass'],Pass,0.5900000000000004,-0.1900000000000004,2.0,5.0,1.0
571.0,9.0,wc_9,,0.0,,,,0.0,,,,Pass,,,,,
571.0,9.0,wc_9,wc_4,1.0,"[('wc_4', 0.3600000000000002), ('wc_6', 0.6400000000000005), ('wc_1', 0.5900000000000004)]",0.9055360000000002,,,36.0,0.046858,['Pass'],Pass,0.3600000000000002,-0.1600000000000002,1.0,5.0,0.5
581.0,12.0,wc_12,,0.0,,,,121.0,,,,Pass,,,,,
581.0,12.0,wc_12,,0.0,,,69.0,,,,,Pass,,,,,
581.0,12.0,wc_12,,0.0,,,,0.0,,,,Pass,,,,,
581.0,12.0,wc_12,wc_12,0.0,"[('wc_12', 0.22000000000000008)]",0.22000000000000008,,,21.0,0.002372,['Pass'],Pass,0.22000000000000008,-0.22000000000000008,0.0,5.0,0.2
581.0,12.0,wc_12,,0.0,,,,0.0,,,,Pass,,,,,
581.0,12.0,wc_12,wc_14,0.0,"[('wc_14', 0.5200000000000004), ('wc_12', 0.22000000000000008)]",0.6256000000000004,,,36.0,0.004752,['Pass'],Pass,0.5200000000000004,-0.18666666666666704,3.0,9.0,0.7
581.0,12.0,wc_12,,0.0,,,,341.0,,,,Pass,,,,,
581.0,12.0,wc_12,wc_4,0.0,"[('wc_4', 0.3600000000000002), ('wc_12', 0.22000000000000008), ('wc_14', 0.5200000000000004)]",0.7603840000000003,,,31.0,0.006030000000000001,['Pass'],Pass,0.3600000000000002,-0.1600000000000002,1.0,5.0,0.5
581.0,12.0,wc_12,,0.0,,,,182.0,,,,Pass,,,,,
581.0,12.0,wc_12,wc_11,0.0,"[('wc_11', 0.3200000000000002), ('wc_12', 0.22000000000000008), ('wc_14', 0.5200000000000004), ('wc_4', 0.3600000000000002)]",0.8370611200000002,,,35.0,0.007906,['Pass'],Pass,0.3200000000000002,-0.3200000000000002,0.0,1.0,0.3
581.0,12.0,wc_12,,0.0,,,,142.0,,,,Pass,,,,,
581.0,12.0,wc_12,wc_16,1.0,"[('wc_16', 0.6300000000000004), ('wc_12', 0.22000000000000008), ('wc_14', 0.5200000000000004), ('wc_4', 0.3600000000000002), ('wc_11', 0.3200000000000002)]",0.9397126144000001,,,33.0,0.047370999999999996,['Pass'],Pass,0.6300000000000004,-0.34428571428571475,2.0,7.0,0.9
606.0,13.0,wc_13,,0.0,,,,61.0,,,,Pass,,,,,
606.0,13.0,wc_13,,0.0,,,71.0,,,,,Pass,,,,,
606.0,13.0,wc_13,,0.0,,,,0.0,,,,Pass,,,,,
606.0,13.0,wc_13,wc_13,0.0,"[('wc_13', 0.5000000000000003)]",0.5000000000000003,,,38.0,0.002338,['Pass'],Pass,0.5000000000000003,-0.5000000000000003,0.0,0.0,0.7
606.0,13.0,wc_13,,0.0,,,,222.0,,,,Pass,,,,,
606.0,13.0,wc_13,wc_1,0.0,"[('wc_1', 0.5900000000000004), ('wc_13', 0.5000000000000003)]",0.7950000000000004,,,21.0,0.004141000000000001,['Pass'],Pass,0.5900000000000004,-0.16142857142857187,3.0,7.0,1.0
606.0,13.0,wc_13,,0.0,,,,182.0,,,,Pass,,,,,
606.0,13.0,wc_13,wc_12,0.0,"[('wc_12', 0.22000000000000008), ('wc_13', 0.5000000000000003), ('wc_1', 0.5900000000000004)]",0.8401000000000003,,,22.0,0.006357,['Pass'],Pass,0.22000000000000008,-0.05333333333333343,1.0,6.0,0.2
606.0,13.0,wc_13,,0.0,,,,361.0,,,,Pass,,,,,
606.0,13.0,wc_13,wc_3,1.0,"[('wc_3', 0.5600000000000004), ('wc_13', 0.5000000000000003), ('wc_1', 0.5900000000000004), ('wc_12', 0.22000000000000008)]",0.9296440000000001,,,31.0,0.044888,['Pass'],Pass,0.5600000000000004,-0.3100000000000004,1.0,4.0,1.0
611.0,14.0,wc_14,,0.0,,,,181.0,,,,Fail,,,,,
611.0,14.0,wc_14,,0.0,,,53.0,,,,,Fail,,,,,
611.0,14.0,wc_14,,0.0,,,,0.0,,,,Fail,,,,,
611.0,14.0,wc_14,wc_14,0.0,"[('wc_14', 0.5200000000000004)]",0.5200000000000004,,,31.0,0.002259,['Fail'],Fail,0.5200000000000004,-0.5200000000000004,0.0,1.0,0.7
611.0,14.0,wc_14,,0.0,,,,162.0,,,,Fail,,,,,
611.0,14.0,wc_14,wc_7,0.0,"[('wc_7', 0.2600000000000001), ('wc_14', 0.5200000000000004)]",0.6448000000000003,,,38.0,0.004056000000000001,['Fail'],Fail,0.2600000000000001,-0.2600000000000001,0.0,7.0,0.3
611.0,14.0,wc_14,,0.0,,,,0.0,,,,Fail,,,,,
611.0,14.0,wc_14,wc_11,0.0,"[('wc_11', 0.3300000000000002), ('wc_14', 0.5200000000000004), ('wc_7', 0.2600000000000001)]",0.7620160000000002,,,26.0,0.006182999999999999,['Fail'],Fail,0.3300000000000002,0.0033333333333331328,1.0,3.0,0.3
611.0,14.0,wc_14,,0.0,,,,223.0,,,,Fail,,,,,
611.0,14.0,wc_14,wc_2,0.0,"[('wc_2', 0.4600000000000003), ('wc_14', 0.5200000000000004), ('wc_7', 0.2600000000000001), ('wc_11', 0.3300000000000002)]",0.8714886400000003,,,32.0,0.008887,['Fail'],Fail,0.4600000000000003,-0.3488888888888892,1.0,9.0,0.5
611.0,14.0,wc_14,,0.0,,,,0.0,,,,Fail,,,,,
611.0,14.0,wc_14,wc_3,1.0,"[('wc_3', 0.5600000000000004), ('wc_14', 0.5200000000000004), ('wc_7', 0.2600000000000001), ('wc_11', 0.3300000000000002), ('wc_2', 0.4600000000000003)]",0.9434550016000002,,,30.0,0.050235999999999996,['Fail'],Fail,0.5600000000000004,-0.16000000000000036,2.0,5.0,1.0
619.0,16.0,wc_16,,0.0,,,,222.0,,,,Fail,,,,,
619.0,16.0,wc_16,,0.0,,,78.0,,,,,Fail,,,,,
619.0,16.0,wc_16,,0.0,,,,0.0,,,,Fail,,,,,
619.0,16.0,wc_16,wc_16,0.0,"[('wc_16', 0.6300000000000004)]",0.6300000000000004,,,25.0,0.002499,['Fail'],Fail,0.6300000000000004,-0.40777777777777824,2.0,9.0,0.9
619.0,16.0,wc_16,,0.0,,,,422.0,,,,Fail,,,,,
619.0,16.0,wc_16,wc_5,0.0,"[('wc_5', 0.29000000000000015), ('wc_16', 0.6300000000000004)]",0.7373000000000004,,,24.0,0.004318,['Fail'],Fail,0.29000000000000015,-0.29000000000000015,0.0,4.0,0.2
619.0,16.0,wc_16,,0.0,,,,101.0,,,,Fail,,,,,
619.0,16.0,wc_16,wc_8,0.0,"[('wc_8', 0.6000000000000004), ('wc_16', 0.6300000000000004), ('wc_5', 0.29000000000000015)]",0.8949200000000003,,,33.0,0.0073360000000000005,['Fail'],Fail,0.6000000000000004,-0.30000000000000043,0.0,0.0,1.0
619.0,16.0,wc_16,,0.0,,,,301.0,,,,Fail,,,,,
619.0,16.0,wc_16,wc_4,1.0,"[('wc_4', 0.3600000000000002), ('wc_16', 0.6300000000000004), ('wc_5', 0.29000000000000015), ('wc_8', 0.6000000000000004)]",0.9327488000000002,,,27.0,0.046914000000000004,['Fail'],Fail,0.3600000000000002,-0.026666666666666894,3.0,9.0,0.5
628.0,16.0,wc_16,,0.0,,,,202.0,,,,Fail,,,,,
628.0,16.0,wc_16,,0.0,,,56.0,,,,,Fail,,,,,
628.0,16.0,wc_16,,0.0,,,,0.0,,,,Fail,,,,,
628.0,16.0,wc_16,wc_16,0.0,"[('wc_16', 0.6300000000000004)]",0.6300000000000004,,,39.0,0.002367,['Fail'],Fail,0.6300000000000004,-0.6300000000000004,0.0,0.0,0.9
628.0,16.0,wc_16,,0.0,,,,422.0,,,,Fail,,,,,
628.0,16.0,wc_16,wc_5,0.0,"[('wc_5', 0.29000000000000015), ('wc_16', 0.6300000000000004)]",0.7373000000000004,,,30.0,0.004543,['Fail'],Fail,0.29000000000000015,-0.09000000000000014,1.0,5.0,0.2
628.0,16.0,wc_16,,0.0,,,,101.0,,,,Fail,,,,,
628.0,16.0,wc_16,wc_8,0.0,"[('wc_8', 0.6100000000000004), ('wc_16', 0.6300000000000004), ('wc_5', 0.29000000000000015)]",0.8975470000000002,,,31.0,0.0066029999999999995,['Fail'],Fail,0.6100000000000004,0.38999999999999957,1.0,1.0,1.0
628.0,16.0,wc_16,,0.0,,,,162.0,,,,Fail,,,,,
628.0,16.0,wc_16,wc_1,1.0,"[('wc_1', 0.5900000000000004), ('wc_16', 0.6300000000000004), ('wc_5', 0.29000000000000015), ('wc_8', 0.6100000000000004)]",0.9579942700000001,,,36.0,0.046724999999999996,['Fail'],Fail,0.5900000000000004,-0.5900000000000004,0.0,0.0,1.0
636.0,16.0,wc_16,,0.0,,,,263.0,,,,Pass,,,,,
636.0,16.0,wc_16,,0.0,,,79.0,,,,,Pass,,,,,
636.0,16.0,wc_16,,0.0,,,,0.0,,,,Pass,,,,,
636.0,16.0,wc_16,wc_16,0.0,"[('wc_16', 0.6400000000000005)]",0.6400000000000005,,,21.0,0.002138,['Pass'],Pass,0.6400000000000005,0.35999999999999954,1.0,1.0,0.9
636.0,16.0,wc_16,,0.0,,,,103.0,,,,Pass,,,,,
636.0,16.0,wc_16,wc_15,0.0,"[('wc_16', 0.6400000000000005)]",0.6400000000000005,,,25.0,0.004246,['Pass'],Pass,0.2400000000000001,-0.1490909090909092,0.0,0.0,0.2
636.0,16.0,wc_16,,0.0,,,,243.0,,,,Pass,,,,,
636.0,16.0,wc_16,wc_7,0.0,"[('wc_16', 0.6400000000000005)]",0.6400000000000005,,,35.0,0.0061010000000000005,['Pass'],Pass,0.2600000000000001,-0.16000000000000011,0.0,0.0,0.3
636.0,16.0,wc_16,,0.0,,,,301.0,,,,Pass,,,,,
636.0,16.0,wc_16,wc_3,0.0,"[('wc_3', 0.5600000000000004), ('wc_16', 0.6400000000000005)]",0.8416000000000003,,,24.0,0.008652,['Pass'],Pass,0.5600000000000004,-0.2742857142857147,2.0,7.0,1.0
636.0,16.0,wc_16,,0.0,,,,162.0,,,,Pass,,,,,
636.0,16.0,wc_16,wc_9,0.0,"[('wc_16', 0.6400000000000005), ('wc_3', 0.5600000000000004)]",0.8416000000000003,,,34.0,0.009829000000000001,['Pass'],Pass,0.4800000000000003,-0.3550000000000003,1.0,8.0,0.6
636.0,16.0,wc_16,,0.0,,,,0.0,,,,Pass,,,,,
636.0,16.0,wc_16,wc_10,1.0,"[('wc_10', 0.5200000000000004), ('wc_16', 0.6400000000000005), ('wc_3', 0.5600000000000004)]",0.9239680000000002,,,36.0,0.048077999999999996,['Pass'],Pass,0.5200000000000004,-0.5200000000000004,0.0,0.0,0.9
646.0,15.0,wc_15,,0.0,,,,142.0,,,,Fail,,,,,
646.0,15.0,wc_15,,0.0,,,80.0,,,,,Fail,,,,,
646.0,15.0,wc_15,,0.0,,,,0.0,,,,Fail,,,,,
646.0,15.0,wc_15,wc_15,0.0,"[('wc_15', 0.2300000000000001)]",0.2300000000000001,,,23.0,0.001997,['Fail'],Fail,0.2300000000000001,-0.2300000000000001,0.0,1.0,0.2
646.0,15.0,wc_15,,0.0,,,,61.0,,,,Fail,,,,,
646.0,15.0,wc_15,wc_12,0.0,"[('wc_12', 0.2300000000000001), ('wc_15', 0.2300000000000001)]",0.40710000000000013,,,24.0,0.004421,['Fail'],Fail,0.2300000000000001,-0.04818181818181827,0.0,0.0,0.2
646.0,15.0,wc_15,,0.0,,,,341.0,,,,Fail,,,,,
646.0,15.0,wc_15,wc_10,0.0,"[('wc_10', 0.5200000000000004), ('wc_15', 0.2300000000000001), ('wc_12', 0.2300000000000001)]",0.7154080000000003,,,30.0,0.006864,['Fail'],Fail,0.5200000000000004,-0.5200000000000004,0.0,0.0,0.9
646.0,15.0,wc_15,,0.0,,,,103.0,,,,Fail,,,,,
646.0,15.0,wc_15,wc_9,0.0,"[('wc_9', 0.4700000000000003), ('wc_15', 0.2300000000000001), ('wc_12', 0.2300000000000001), ('wc_10', 0.5200000000000004)]",0.8491662400000002,,,22.0,0.008105,['Fail'],Fail,0.4700000000000003,-0.3588888888888892,1.0,9.0,0.6
646.0,15.0,wc_15,,0.0,,,,402.0,,,,Fail,,,,,
646.0,15.0,wc_15,wc_5,0.0,"[('wc_15', 0.2300000000000001), ('wc_12', 0.2300000000000001), ('wc_10', 0.5200000000000004), ('wc_9', 0.4700000000000003)]",0.8491662400000002,,,38.0,0.009927,['Fail'],Fail,0.30000000000000016,-0.014285714285714457,2.0,7.0,0.2
646.0,15.0,wc_15,,0.0,,,,83.0,,,,Fail,,,,,
646.0,15.0,wc_15,wc_3,1.0,"[('wc_3', 0.5600000000000004), ('wc_15', 0.2300000000000001), ('wc_12', 0.2300000000000001), ('wc_10', 0.5200000000000004), ('wc_9', 0.4700000000000003)]",0.9336331456000002,,,29.0,0.051348,['Fail'],Fail,0.5600000000000004,-0.11555555555555597,4.0,9.0,1.0
653.0,14.0,wc_14,,0.0,,,,181.0,,,,Fail,,,,,
653.0,14.0,wc_14,,0.0,,,74.0,,,,,Fail,,,,,
653.0,14.0,wc_14,,0.0,,,,0.0,,,,Fail,,,,,
653.0,14.0,wc_14,wc_14,0.0,"[('wc_14', 0.5200000000000004)]",0.5200000000000004,,,25.0,0.002113,['Pass'],Fail,0.5200000000000004,-0.3533333333333337,1.0,6.0,0.7
653.0,14.0,wc_14,,0.0,,,,82.0,,,,Fail,,,,,
653.0,14.0,wc_14,wc_12,0.0,"[('wc_12', 0.2400000000000001), ('wc_14', 0.5200000000000004)]",0.6352000000000003,,,21.0,0.004113,['Pass'],Fail,0.2400000000000001,0.7599999999999999,1.0,1.0,0.2
653.0,14.0,wc_14,,0.0,,,,0.0,,,,Fail,,,,,
653.0,14.0,wc_14,wc_13,0.0,"[('wc_14', 0.5200000000000004), ('wc_12', 0.2400000000000001)]",0.6352000000000003,,,37.0,0.007503,['Pass'],Fail,0.5100000000000003,-0.3433333333333337,1.0,6.0,0.7
653.0,14.0,wc_14,,0.0,,,,0.0,,,,Fail,,,,,
653.0,14.0,wc_14,wc_16,0.0,"[('wc_16', 0.6500000000000005), ('wc_13', 0.5100000000000003)]",0.8285000000000003,,,35.0,0.008362,['Fail'],Fail,0.6500000000000005,0.016666666666666163,2.0,3.0,0.9
653.0,14.0,wc_14,,0.0,,,,263.0,,,,Fail,,,,,
653.0,14.0,wc_14,wc_1,1.0,"[('wc_1', 0.5900000000000004), ('wc_13', 0.5100000000000003), ('wc_16', 0.6500000000000005)]",0.9296850000000002,,,40.0,0.05145600000000001,['Fail'],Fail,0.5900000000000004,-0.2566666666666671,1.0,3.0,1.0
657.0,15.0,wc_15,,0.0,,,,243.0,,,,Pass,,,,,
657.0,15.0,wc_15,,0.0,,,71.0,,,,,Pass,,,,,
657.0,15.0,wc_15,,0.0,,,,0.0,,,,Pass,,,,,
657.0,15.0,wc_15,wc_15,0.0,"[('wc_15', 0.2400000000000001)]",0.2400000000000001,,,38.0,0.001997,['Fail'],Pass,0.2400000000000001,0.09333333333333321,1.0,3.0,0.2
657.0,15.0,wc_15,,0.0,,,,61.0,,,,Pass,,,,,
657.0,15.0,wc_15,wc_12,0.0,"[('wc_12', 0.2400000000000001)]",0.2400000000000001,,,25.0,0.0043230000000000005,['Pass'],Pass,0.2400000000000001,0.2599999999999999,1.0,2.0,0.2
657.0,15.0,wc_15,,0.0,,,,0.0,,,,Pass,,,,,
657.0,15.0,wc_15,wc_13,0.0,"[('wc_13', 0.5100000000000003), ('wc_12', 0.2400000000000001)]",0.6276000000000004,,,38.0,0.006673999999999999,['Pass'],Pass,0.5100000000000003,-0.22428571428571464,2.0,7.0,0.7
657.0,15.0,wc_15,,0.0,,,,242.0,,,,Pass,,,,,
657.0,15.0,wc_15,wc_2,0.0,"[('wc_12', 0.2400000000000001), ('wc_13', 0.5100000000000003)]",0.6276000000000004,,,31.0,0.008431000000000001,['Pass'],Pass,0.4600000000000003,-0.4600000000000003,0.0,5.0,0.5
657.0,15.0,wc_15,,0.0,,,,263.0,,,,Pass,,,,,
657.0,15.0,wc_15,wc_17,0.0,"[('wc_17', 0.5000000000000003), ('wc_12', 0.2400000000000001), ('wc_13', 0.5100000000000003)]",0.8138000000000003,,,39.0,0.009918,['Pass'],Pass,0.5000000000000003,-0.36666666666666703,0.0,0.0,0.6
657.0,15.0,wc_15,,0.0,,,,223.0,,,,Pass,,,,,
657.0,15.0,wc_15,wc_8,1.0,"[('wc_8', 0.6200000000000004), ('wc_12', 0.2400000000000001), ('wc_13', 0.5100000000000003), ('wc_17', 0.5000000000000003)]",0.9292440000000002,,,34.0,0.050951,['Pass'],Pass,0.6200000000000004,-0.12000000000000044,3.0,6.0,1.0
664.0,14.0,wc_14,,0.0,,,,162.0,,,,Pass,,,,,
664.0,14.0,wc_14,,0.0,,,70.0,,,,,Pass,,,,,
664.0,14.0,wc_14,,0.0,,,,0.0,,,,Pass,,,,,
664.0,14.0,wc_14,wc_14,0.0,"[('wc_14', 0.5100000000000003)]",0.5100000000000003,,,39.0,0.002222,['Pass'],Pass,0.5100000000000003,-0.38500000000000034,1.0,8.0,0.7
664.0,14.0,wc_14,,0.0,,,,222.0,,,,Pass,,,,,
664.0,14.0,wc_14,wc_2,0.0,"[('wc_2', 0.4500000000000003), ('wc_14', 0.5100000000000003)]",0.7305000000000004,,,36.0,0.005143999999999999,['Pass'],Pass,0.4500000000000003,-0.4500000000000003,0.0,6.0,0.5
664.0,14.0,wc_14,,0.0,,,,223.0,,,,Pass,,,,,
664.0,14.0,wc_14,wc_11,0.0,"[('wc_11', 0.3400000000000002), ('wc_14', 0.5100000000000003), ('wc_2', 0.4500000000000003)]",0.8221300000000002,,,26.0,0.006013999999999999,['Pass'],Pass,0.3400000000000002,-0.14000000000000018,0.0,0.0,0.3
664.0,14.0,wc_14,,0.0,,,,83.0,,,,Pass,,,,,
664.0,14.0,wc_14,wc_9,1.0,"[('wc_9', 0.4700000000000003), ('wc_14', 0.5100000000000003), ('wc_2', 0.4500000000000003), ('wc_11', 0.3400000000000002)]",0.9057289000000002,,,31.0,0.04717299999999999,['Pass'],Pass,0.4700000000000003,-0.136666666666667,1.0,3.0,0.6
667.0,17.0,wc_17,,0.0,,,,202.0,,,,Fail,,,,,
667.0,17.0,wc_17,,0.0,,,60.0,,,,,Fail,,,,,
667.0,17.0,wc_17,,0.0,,,,0.0,,,,Fail,,,,,
667.0,17.0,wc_17,wc_17,0.0,"[('wc_17', 0.5100000000000003)]",0.5100000000000003,,,21.0,0.002091,['Pass'],Fail,0.5100000000000003,-0.010000000000000342,1.0,2.0,0.6
667.0,17.0,wc_17,,0.0,,,,83.0,,,,Fail,,,,,
667.0,17.0,wc_17,wc_15,0.0,"[('wc_15', 0.2400000000000001), ('wc_17', 0.5100000000000003)]",0.6276000000000004,,,40.0,0.004271,['Pass'],Fail,0.2400000000000001,-0.04000000000000009,1.0,5.0,0.2
667.0,17.0,wc_17,,0.0,,,,442.0,,,,Fail,,,,,
667.0,17.0,wc_17,wc_5,0.0,"[('wc_5', 0.29000000000000015), ('wc_17', 0.5100000000000003), ('wc_15', 0.2400000000000001)]",0.7355960000000002,,,34.0,0.005797,['Pass'],Fail,0.29000000000000015,-0.10818181818181832,0.0,0.0,0.2
667.0,17.0,wc_17,,0.0,,,,61.0,,,,Fail,,,,,
667.0,17.0,wc_17,wc_6,0.0,"[('wc_17', 0.5100000000000003), ('wc_15', 0.2400000000000001), ('wc_5', 0.29000000000000015)]",0.7355960000000004,,,26.0,0.008096,['Pass'],Fail,0.6400000000000005,-0.6400000000000005,0.0,0.0,0.8
667.0,17.0,wc_17,,0.0,,,,202.0,,,,Fail,,,,,
667.0,17.0,wc_17,wc_14,0.0,"[('wc_14', 0.5100000000000003), ('wc_17', 0.5100000000000003), ('wc_15', 0.2400000000000001), ('wc_5', 0.29000000000000015)]",0.8704420400000003,,,34.0,0.011565,['Pass'],Fail,0.5100000000000003,-0.28777777777777813,2.0,9.0,0.7
667.0,17.0,wc_17,,0.0,,,,202.0,,,,Fail,,,,,
667.0,17.0,wc_17,wc_1,0.0,"[('wc_17', 0.5100000000000003), ('wc_15', 0.2400000000000001), ('wc_5', 0.29000000000000015), ('wc_14', 0.5100000000000003)]",0.8704420400000003,,,30.0,0.011356999999999999,['Pass'],Fail,0.5900000000000004,-0.3900000000000004,1.0,5.0,1.0
667.0,17.0,wc_17,,0.0,,,,263.0,,,,Fail,,,,,
667.0,17.0,wc_17,wc_16,1.0,"[('wc_16', 0.6600000000000005), ('wc_17', 0.5100000000000003), ('wc_15', 0.2400000000000001), ('wc_5', 0.29000000000000015), ('wc_14', 0.5100000000000003)]",0.9559502936000002,,,36.0,0.056612,['Pass'],Fail,0.6600000000000005,-0.08857142857142908,4.0,7.0,0.9
672.0,17.0,wc_17,,0.0,,,,0.0,,,,Fail,,,,,
672.0,17.0,wc_17,,0.0,,,60.0,,,,,Fail,,,,,
672.0,17.0,wc_17,,0.0,,,,0.0,,,,Fail,,,,,
672.0,17.0,wc_17,wc_17,0.0,"[('wc_17', 0.5200000000000004)]",0.5200000000000004,,,30.0,0.002177,['Fail'],Fail,0.5200000000000004,0.14666666666666628,2.0,3.0,0.6
672.0,17.0,wc_17,,0.0,,,,322.0,,,,Fail,,,,,
672.0,17.0,wc_17,wc_9,0.0,"[('wc_9', 0.4700000000000003), ('wc_17', 0.5200000000000004)]",0.7456000000000003,,,28.0,0.00396,['Fail'],Fail,0.4700000000000003,-0.2200000000000003,1.0,4.0,0.6
672.0,17.0,wc_17,,0.0,,,,0.0,,,,Fail,,,,,
672.0,17.0,wc_17,wc_10,0.0,"[('wc_10', 0.5300000000000004), ('wc_17', 0.5200000000000004), ('wc_9', 0.4700000000000003)]",0.8804320000000002,,,35.0,0.006149,['Fail'],Fail,0.5300000000000004,-0.33000000000000035,1.0,5.0,0.9
672.0,17.0,wc_17,,0.0,,,,342.0,,,,Fail,,,,,
672.0,17.0,wc_17,wc_3,1.0,"[('wc_3', 0.5600000000000004), ('wc_17', 0.5200000000000004), ('wc_9', 0.4700000000000003), ('wc_10', 0.5300000000000004)]",0.9473900800000001,,,33.0,0.045803,['Fail'],Fail,0.5600000000000004,-0.5600000000000004,0.0,0.0,1.0
674.0,17.0,wc_17,,0.0,,,,242.0,,,,Pass,,,,,
674.0,17.0,wc_17,,0.0,,,71.0,,,,,Pass,,,,,
674.0,17.0,wc_17,,0.0,,,,0.0,,,,Pass,,,,,
674.0,17.0,wc_17,wc_17,0.0,"[('wc_17', 0.5300000000000004)]",0.5300000000000004,,,35.0,0.002226,['Fail'],Pass,0.5300000000000004,0.21999999999999964,3.0,4.0,0.6
674.0,17.0,wc_17,,0.0,,,,83.0,,,,Pass,,,,,
674.0,17.0,wc_17,wc_15,0.0,"[('wc_17', 0.5300000000000004)]",0.5300000000000004,,,21.0,0.003986,['Fail'],Pass,0.2500000000000001,0.03571428571428559,2.0,7.0,0.2
674.0,17.0,wc_17,,0.0,,,,442.0,,,,Pass,,,,,
674.0,17.0,wc_17,wc_5,0.0,"[('wc_5', 0.30000000000000016), ('wc_17', 0.5300000000000004)]",0.6710000000000003,,,32.0,0.00695,['Fail'],Pass,0.30000000000000016,0.19999999999999984,1.0,2.0,0.2
674.0,17.0,wc_17,,0.0,,,,141.0,,,,Pass,,,,,
674.0,17.0,wc_17,wc_14,0.0,"[('wc_17', 0.5300000000000004), ('wc_5', 0.30000000000000016)]",0.6710000000000003,,,26.0,0.008042,['Fail'],Pass,0.5100000000000003,-0.5100000000000003,0.0,1.0,0.7
674.0,17.0,wc_17,,0.0,,,,341.0,,,,Pass,,,,,
674.0,17.0,wc_17,wc_4,0.0,"[('wc_4', 0.3600000000000002), ('wc_15', 0.2500000000000001), ('wc_14', 0.5100000000000003)]",0.7648000000000003,,,38.0,0.009907000000000001,['Pass'],Pass,0.3600000000000002,-0.18352941176470608,0.0,0.0,0.5
674.0,17.0,wc_17,,0.0,,,,202.0,,,,Pass,,,,,
674.0,17.0,wc_17,wc_16,1.0,"[('wc_16', 0.6600000000000005), ('wc_15', 0.2500000000000001), ('wc_14', 0.5100000000000003), ('wc_4', 0.3600000000000002)]",0.9200320000000002,,,40.0,0.061266,['Pass'],Pass,0.6600000000000005,-0.1044444444444449,5.0,9.0,0.9
