mpecck/BCQC/bcqc_with_qdt/results/raw/input_10/independent_qc/training/20_workpiece/20200429_084438/wp_9_qc_majority_0.9.csv
production_index,step_idx,production_workcell,qc,consent,winner_qc_list,score,production_time,transport_time,inspection_time,network_time,qc_results,actual_quality,qc_score,score_error,in_winner_counter,in_qc_counter,qc_capability
26.0,1.0,wc_1,,0.0,,,77.0,,,,,Pass,,,,,
26.0,1.0,wc_1,,0.0,,,,0.0,,,,Pass,,,,,
26.0,1.0,wc_1,wc_1,0.0,"[('wc_1', 0.6200000000000004)]",0.6200000000000004,,,31.0,0.002438,['Pass'],Pass,0.6200000000000004,-0.6200000000000004,0.0,3.0,1.0
26.0,1.0,wc_1,,0.0,,,,0.0,,,,Pass,,,,,
26.0,1.0,wc_1,wc_4,0.0,"[('wc_4', 0.4700000000000003), ('wc_1', 0.6200000000000004)]",0.7986000000000003,,,23.0,0.004251,['Pass'],Pass,0.4700000000000003,-0.04142857142857176,3.0,7.0,0.5
26.0,1.0,wc_1,,0.0,,,,103.0,,,,Pass,,,,,
26.0,1.0,wc_1,wc_3,1.0,"[('wc_3', 0.6800000000000005), ('wc_1', 0.6200000000000004), ('wc_4', 0.4700000000000003)]",0.9355520000000002,,,28.0,0.037412999999999995,['Pass'],Pass,0.6800000000000005,-0.6800000000000005,0.0,0.0,1.0
29.0,2.0,wc_2,,0.0,,,,101.0,,,,Fail,,,,,
29.0,2.0,wc_2,,0.0,,,51.0,,,,,Fail,,,,,
29.0,2.0,wc_2,,0.0,,,,0.0,,,,Fail,,,,,
29.0,2.0,wc_2,wc_2,0.0,"[('wc_2', 0.5300000000000004)]",0.5300000000000004,,,21.0,0.002423,['Fail'],Fail,0.5300000000000004,-0.44666666666666704,0.0,0.0,0.5
29.0,2.0,wc_2,,0.0,,,,182.0,,,,Fail,,,,,
29.0,2.0,wc_2,wc_13,0.0,"[('wc_13', 0.6600000000000005), ('wc_2', 0.5300000000000004)]",0.8402000000000003,,,40.0,0.004243,['Fail'],Fail,0.6600000000000005,-0.5171428571428576,1.0,7.0,0.7
29.0,2.0,wc_2,,0.0,,,,162.0,,,,Fail,,,,,
29.0,2.0,wc_2,wc_6,1.0,"[('wc_6', 0.7700000000000006), ('wc_2', 0.5300000000000004), ('wc_13', 0.6600000000000005)]",0.9632460000000002,,,39.0,0.043031999999999994,['Fail'],Fail,0.7700000000000006,-0.2700000000000006,2.0,4.0,0.8
37.0,4.0,wc_4,,0.0,,,,341.0,,,,Pass,,,,,
37.0,4.0,wc_4,,0.0,,,74.0,,,,,Pass,,,,,
37.0,4.0,wc_4,,0.0,,,,0.0,,,,Pass,,,,,
37.0,4.0,wc_4,wc_4,0.0,"[('wc_4', 0.4800000000000003)]",0.4800000000000003,,,35.0,0.00238,['Fail'],Pass,0.4800000000000003,-0.035555555555555896,4.0,9.0,0.5
37.0,4.0,wc_4,,0.0,,,,0.0,,,,Pass,,,,,
37.0,4.0,wc_4,wc_5,0.0,"[('wc_5', 0.2500000000000001), ('wc_4', 0.4800000000000003)]",0.6100000000000003,,,40.0,0.0040999999999999995,['Fail'],Pass,0.2500000000000001,-0.1250000000000001,0.0,0.0,0.2
37.0,4.0,wc_4,,0.0,,,,141.0,,,,Pass,,,,,
37.0,4.0,wc_4,wc_14,0.0,"[('wc_14', 0.5400000000000004), ('wc_4', 0.4800000000000003), ('wc_5', 0.2500000000000001)]",0.8206000000000002,,,30.0,0.00681,['Fail'],Pass,0.5400000000000004,-0.11142857142857182,3.0,7.0,0.7
37.0,4.0,wc_4,,0.0,,,,202.0,,,,Pass,,,,,
37.0,4.0,wc_4,wc_1,0.0,"[('wc_4', 0.4800000000000003), ('wc_5', 0.2500000000000001), ('wc_14', 0.5400000000000004)]",0.8206000000000003,,,23.0,0.008725,['Fail'],Pass,0.6200000000000004,-0.42000000000000043,1.0,5.0,1.0
37.0,4.0,wc_4,,0.0,,,,182.0,,,,Pass,,,,,
37.0,4.0,wc_4,wc_12,0.0,"[('wc_4', 0.4800000000000003), ('wc_5', 0.2500000000000001), ('wc_14', 0.5400000000000004)]",0.8206000000000003,,,23.0,0.01034,['Fail'],Pass,0.22000000000000008,-0.07714285714285724,0.0,0.0,0.2
37.0,4.0,wc_4,,0.0,,,,202.0,,,,Pass,,,,,
37.0,4.0,wc_4,wc_7,0.0,"[('wc_7', 0.27000000000000013), ('wc_4', 0.4800000000000003), ('wc_5', 0.2500000000000001), ('wc_14', 0.5400000000000004)]",0.8690380000000002,,,23.0,0.01212,['Fail'],Pass,0.27000000000000013,-0.27000000000000013,0.0,0.0,0.3
37.0,4.0,wc_4,,0.0,,,,301.0,,,,Pass,,,,,
37.0,4.0,wc_4,wc_3,1.0,"[('wc_3', 0.6800000000000005), ('wc_1', 0.6200000000000004), ('wc_12', 0.22000000000000008)]",0.9051520000000003,,,40.0,0.042505,['Pass'],Pass,0.6800000000000005,-0.1800000000000005,1.0,2.0,1.0
41.0,3.0,wc_3,,0.0,,,,0.0,,,,Fail,,,,,
41.0,3.0,wc_3,,0.0,,,58.0,,,,,Fail,,,,,
41.0,3.0,wc_3,,0.0,,,,0.0,,,,Fail,,,,,
41.0,3.0,wc_3,wc_3,0.0,"[('wc_3', 0.6800000000000005)]",0.6800000000000005,,,21.0,0.002225,['Fail'],Fail,0.6800000000000005,-0.1800000000000005,1.0,2.0,1.0
41.0,3.0,wc_3,,0.0,,,,81.0,,,,Fail,,,,,
41.0,3.0,wc_3,wc_1,0.0,"[('wc_1', 0.6200000000000004), ('wc_3', 0.6800000000000005)]",0.8784000000000003,,,39.0,0.004132,['Fail'],Fail,0.6200000000000004,-0.2866666666666671,2.0,6.0,1.0
41.0,3.0,wc_3,,0.0,,,,182.0,,,,Fail,,,,,
41.0,3.0,wc_3,wc_8,1.0,"[('wc_8', 0.6800000000000005), ('wc_3', 0.6800000000000005), ('wc_1', 0.6200000000000004)]",0.9610880000000002,,,29.0,0.03673799999999999,['Fail'],Fail,0.6800000000000005,-0.6800000000000005,0.0,0.0,1.0
49.0,2.0,wc_2,,0.0,,,,182.0,,,,Fail,,,,,
49.0,2.0,wc_2,,0.0,,,72.0,,,,,Fail,,,,,
49.0,2.0,wc_2,,0.0,,,,0.0,,,,Fail,,,,,
49.0,2.0,wc_2,wc_2,0.0,"[('wc_2', 0.5400000000000004)]",0.5400000000000004,,,38.0,0.00222,['Pass'],Fail,0.5400000000000004,-0.20666666666666705,1.0,3.0,0.5
49.0,2.0,wc_2,,0.0,,,,223.0,,,,Fail,,,,,
49.0,2.0,wc_2,wc_11,0.0,"[('wc_11', 0.3800000000000002), ('wc_2', 0.5400000000000004)]",0.7148000000000003,,,38.0,0.004092,['Pass'],Fail,0.3800000000000002,-0.2688888888888891,1.0,9.0,0.3
49.0,2.0,wc_2,,0.0,,,,81.0,,,,Fail,,,,,
49.0,2.0,wc_2,wc_13,0.0,"[('wc_2', 0.5400000000000004), ('wc_11', 0.3800000000000002)]",0.7148000000000003,,,32.0,0.0060290000000000005,['Pass'],Fail,0.6600000000000005,-0.46000000000000046,0.0,0.0,0.7
49.0,2.0,wc_2,,0.0,,,,381.0,,,,Fail,,,,,
49.0,2.0,wc_2,wc_5,0.0,"[('wc_5', 0.2400000000000001), ('wc_2', 0.5400000000000004), ('wc_11', 0.3800000000000002)]",0.7832480000000003,,,39.0,0.007879,['Pass'],Fail,0.2400000000000001,-0.2400000000000001,0.0,2.0,0.2
49.0,2.0,wc_2,,0.0,,,,101.0,,,,Fail,,,,,
49.0,2.0,wc_2,wc_8,0.0,"[('wc_8', 0.6800000000000005), ('wc_13', 0.6600000000000005)]",0.8912000000000003,,,30.0,0.009441,['Fail'],Fail,0.6800000000000005,-0.6800000000000005,0.0,0.0,1.0
49.0,2.0,wc_2,,0.0,,,,0.0,,,,Fail,,,,,
49.0,2.0,wc_2,wc_10,1.0,"[('wc_10', 0.6100000000000004), ('wc_13', 0.6600000000000005), ('wc_8', 0.6800000000000005)]",0.9575680000000002,,,34.0,0.043272000000000005,['Fail'],Fail,0.6100000000000004,-0.6100000000000004,0.0,0.0,0.9
55.0,2.0,wc_2,,0.0,,,,243.0,,,,Pass,,,,,
55.0,2.0,wc_2,,0.0,,,68.0,,,,,Pass,,,,,
55.0,2.0,wc_2,,0.0,,,,0.0,,,,Pass,,,,,
55.0,2.0,wc_2,wc_2,0.0,"[('wc_2', 0.5300000000000004)]",0.5300000000000004,,,29.0,0.002312,['Pass'],Pass,0.5300000000000004,-0.28000000000000036,1.0,4.0,0.5
55.0,2.0,wc_2,,0.0,,,,142.0,,,,Pass,,,,,
55.0,2.0,wc_2,wc_7,0.0,"[('wc_7', 0.2600000000000001), ('wc_2', 0.5300000000000004)]",0.6522000000000003,,,33.0,0.004638,['Pass'],Pass,0.2600000000000001,-0.2600000000000001,0.0,3.0,0.3
55.0,2.0,wc_2,,0.0,,,,341.0,,,,Pass,,,,,
55.0,2.0,wc_2,wc_5,0.0,"[('wc_5', 0.2300000000000001), ('wc_2', 0.5300000000000004), ('wc_7', 0.2600000000000001)]",0.7321940000000002,,,30.0,0.0058909999999999995,['Pass'],Pass,0.2300000000000001,-0.2300000000000001,0.0,3.0,0.2
55.0,2.0,wc_2,,0.0,,,,141.0,,,,Pass,,,,,
55.0,2.0,wc_2,wc_14,0.0,"[('wc_14', 0.5300000000000004), ('wc_2', 0.5300000000000004), ('wc_7', 0.2600000000000001), ('wc_5', 0.2300000000000001)]",0.8741311800000002,,,23.0,0.0077280000000000005,['Pass'],Pass,0.5300000000000004,-0.23000000000000037,0.0,0.0,0.7
55.0,2.0,wc_2,,0.0,,,,142.0,,,,Pass,,,,,
55.0,2.0,wc_2,wc_6,1.0,"[('wc_6', 0.7700000000000006), ('wc_2', 0.5300000000000004), ('wc_7', 0.2600000000000001), ('wc_5', 0.2300000000000001), ('wc_14', 0.5300000000000004)]",0.9710501714000002,,,36.0,0.046839,['Pass'],Pass,0.7700000000000006,-0.3950000000000006,3.0,8.0,0.8
60.0,3.0,wc_3,,0.0,,,,321.0,,,,Pass,,,,,
60.0,3.0,wc_3,,0.0,,,67.0,,,,,Pass,,,,,
60.0,3.0,wc_3,,0.0,,,,0.0,,,,Pass,,,,,
60.0,3.0,wc_3,wc_3,0.0,"[('wc_3', 0.6800000000000005)]",0.6800000000000005,,,27.0,0.002428,['Pass'],Pass,0.6800000000000005,-0.28000000000000047,2.0,5.0,1.0
60.0,3.0,wc_3,,0.0,,,,141.0,,,,Pass,,,,,
60.0,3.0,wc_3,wc_12,0.0,"[('wc_12', 0.2300000000000001), ('wc_3', 0.6800000000000005)]",0.7536000000000004,,,30.0,0.003956,['Pass'],Pass,0.2300000000000001,0.019999999999999907,1.0,4.0,0.2
60.0,3.0,wc_3,,0.0,,,,202.0,,,,Pass,,,,,
60.0,3.0,wc_3,wc_7,0.0,"[('wc_7', 0.2600000000000001), ('wc_3', 0.6800000000000005), ('wc_12', 0.2300000000000001)]",0.8176640000000004,,,31.0,0.006585,['Pass'],Pass,0.2600000000000001,-0.01000000000000012,1.0,4.0,0.3
60.0,3.0,wc_3,,0.0,,,,341.0,,,,Pass,,,,,
60.0,3.0,wc_3,wc_5,0.0,"[('wc_3', 0.6800000000000005), ('wc_12', 0.2300000000000001), ('wc_7', 0.2600000000000001)]",0.8176640000000004,,,26.0,0.007847,['Pass'],Pass,0.2400000000000001,0.009999999999999898,1.0,4.0,0.2
60.0,3.0,wc_3,,0.0,,,,41.0,,,,Pass,,,,,
60.0,3.0,wc_3,wc_1,1.0,"[('wc_1', 0.6200000000000004), ('wc_3', 0.6800000000000005), ('wc_12', 0.2300000000000001), ('wc_7', 0.2600000000000001)]",0.9307123200000003,,,22.0,0.041245000000000004,['Pass'],Pass,0.6200000000000004,-0.6200000000000004,0.0,0.0,1.0
66.0,4.0,wc_4,,0.0,,,,0.0,,,,Pass,,,,,
66.0,4.0,wc_4,,0.0,,,78.0,,,,,Pass,,,,,
66.0,4.0,wc_4,,0.0,,,,0.0,,,,Pass,,,,,
66.0,4.0,wc_4,wc_4,0.0,"[('wc_4', 0.4700000000000003)]",0.4700000000000003,,,36.0,0.002016,['Pass'],Pass,0.4700000000000003,-0.4700000000000003,0.0,4.0,0.5
66.0,4.0,wc_4,,0.0,,,,121.0,,,,Pass,,,,,
66.0,4.0,wc_4,wc_12,0.0,"[('wc_4', 0.4700000000000003)]",0.4700000000000003,,,28.0,0.003888,['Pass'],Pass,0.2400000000000001,0.15999999999999992,2.0,5.0,0.2
66.0,4.0,wc_4,,0.0,,,,361.0,,,,Pass,,,,,
66.0,4.0,wc_4,wc_3,0.0,"[('wc_3', 0.6800000000000005), ('wc_12', 0.2400000000000001)]",0.7568000000000004,,,32.0,0.005689,['Fail'],Pass,0.6800000000000005,-0.1800000000000005,3.0,6.0,1.0
66.0,4.0,wc_4,,0.0,,,,182.0,,,,Pass,,,,,
66.0,4.0,wc_4,wc_10,0.0,"[('wc_10', 0.6100000000000004), ('wc_4', 0.4700000000000003)]",0.7933000000000003,,,20.0,0.007553,['Pass'],Pass,0.6100000000000004,-0.6100000000000004,0.0,2.0,0.9
66.0,4.0,wc_4,,0.0,,,,142.0,,,,Pass,,,,,
66.0,4.0,wc_4,wc_15,0.0,"[('wc_15', 0.29000000000000015), ('wc_12', 0.2400000000000001), ('wc_3', 0.6800000000000005)]",0.8273280000000003,,,36.0,0.009744000000000001,['Fail'],Pass,0.29000000000000015,-0.19000000000000014,0.0,0.0,0.2
66.0,4.0,wc_4,,0.0,,,,442.0,,,,Pass,,,,,
66.0,4.0,wc_4,wc_5,0.0,"[('wc_5', 0.2300000000000001), ('wc_12', 0.2400000000000001), ('wc_3', 0.6800000000000005), ('wc_15', 0.29000000000000015)]",0.8670425600000002,,,34.0,0.012475,['Fail'],Pass,0.2300000000000001,-0.030000000000000082,1.0,5.0,0.2
66.0,4.0,wc_4,,0.0,,,,162.0,,,,Pass,,,,,
66.0,4.0,wc_4,wc_11,0.0,"[('wc_11', 0.3700000000000002), ('wc_4', 0.4700000000000003), ('wc_10', 0.6100000000000004)]",0.8697790000000003,,,33.0,0.018113,['Pass'],Pass,0.3700000000000002,-0.3700000000000002,0.0,2.0,0.3
66.0,4.0,wc_4,,0.0,,,,41.0,,,,Pass,,,,,
66.0,4.0,wc_4,wc_7,1.0,"[('wc_7', 0.27000000000000013), ('wc_4', 0.4700000000000003), ('wc_10', 0.6100000000000004), ('wc_11', 0.3700000000000002)]",0.9049386700000002,,,32.0,0.048114,['Pass'],Pass,0.28000000000000014,0.21999999999999986,3.0,6.0,0.3
80.0,5.0,wc_5,,0.0,,,,341.0,,,,Pass,,,,,
80.0,5.0,wc_5,,0.0,,,80.0,,,,,Pass,,,,,
80.0,5.0,wc_5,,0.0,,,,0.0,,,,Pass,,,,,
80.0,5.0,wc_5,wc_5,0.0,"[('wc_5', 0.22000000000000008)]",0.22000000000000008,,,32.0,0.002435,['Fail'],Pass,0.22000000000000008,-0.05333333333333343,1.0,6.0,0.2
80.0,5.0,wc_5,,0.0,,,,122.0,,,,Pass,,,,,
80.0,5.0,wc_5,wc_9,0.0,"[('wc_9', 0.4800000000000003)]",0.4800000000000003,,,38.0,0.004124,['Pass'],Pass,0.4800000000000003,-0.4211764705882356,0.0,0.0,0.6
80.0,5.0,wc_5,,0.0,,,,121.0,,,,Pass,,,,,
80.0,5.0,wc_5,wc_13,0.0,"[('wc_13', 0.6700000000000005), ('wc_9', 0.4800000000000003)]",0.8284000000000004,,,23.0,0.005581,['Pass'],Pass,0.6700000000000005,-0.4200000000000005,1.0,4.0,0.7
80.0,5.0,wc_5,,0.0,,,,182.0,,,,Pass,,,,,
80.0,5.0,wc_5,wc_7,0.0,"[('wc_7', 0.28000000000000014), ('wc_9', 0.4800000000000003), ('wc_13', 0.6700000000000005)]",0.8764480000000003,,,20.0,0.007751,['Pass'],Pass,0.28000000000000014,0.21999999999999986,3.0,6.0,0.3
80.0,5.0,wc_5,,0.0,,,,182.0,,,,Pass,,,,,
80.0,5.0,wc_5,wc_1,1.0,"[('wc_1', 0.6200000000000004), ('wc_9', 0.4800000000000003), ('wc_13', 0.6700000000000005), ('wc_7', 0.28000000000000014)]",0.9530502400000002,,,27.0,0.040736999999999995,['Pass'],Pass,0.6200000000000004,-0.12000000000000044,1.0,2.0,1.0
85.0,6.0,wc_6,,0.0,,,,142.0,,,,Pass,,,,,
85.0,6.0,wc_6,,0.0,,,51.0,,,,,Pass,,,,,
85.0,6.0,wc_6,,0.0,,,,0.0,,,,Pass,,,,,
85.0,6.0,wc_6,wc_6,0.0,"[('wc_6', 0.7700000000000006)]",0.7700000000000006,,,30.0,0.002273,['Pass'],Pass,0.7700000000000006,-0.49727272727272787,0.0,0.0,0.8
85.0,6.0,wc_6,,0.0,,,,0.0,,,,Pass,,,,,
85.0,6.0,wc_6,wc_11,0.0,"[('wc_6', 0.7700000000000006)]",0.7700000000000006,,,30.0,0.004007999999999999,['Pass'],Pass,0.3700000000000002,-0.12000000000000022,1.0,4.0,0.3
85.0,6.0,wc_6,,0.0,,,,83.0,,,,Pass,,,,,
85.0,6.0,wc_6,wc_9,0.0,"[('wc_9', 0.4900000000000003), ('wc_6', 0.7700000000000006)]",0.8827000000000004,,,31.0,0.0063560000000000005,['Pass'],Pass,0.4900000000000003,0.5099999999999997,1.0,1.0,0.6
85.0,6.0,wc_6,,0.0,,,,182.0,,,,Pass,,,,,
85.0,6.0,wc_6,wc_16,0.0,"[('wc_6', 0.7700000000000006), ('wc_9', 0.4900000000000003)]",0.8827000000000004,,,33.0,0.007616999999999999,['Pass'],Pass,0.7600000000000006,-0.5600000000000005,0.0,0.0,0.9
85.0,6.0,wc_6,,0.0,,,,402.0,,,,Pass,,,,,
85.0,6.0,wc_6,wc_4,1.0,"[('wc_4', 0.4700000000000003), ('wc_6', 0.7700000000000006), ('wc_9', 0.4900000000000003)]",0.9378310000000002,,,28.0,0.040668,['Pass'],Pass,0.4700000000000003,-0.1842857142857146,2.0,7.0,0.5
91.0,8.0,wc_8,,0.0,,,,121.0,,,,Pass,,,,,
91.0,8.0,wc_8,,0.0,,,55.0,,,,,Pass,,,,,
91.0,8.0,wc_8,,0.0,,,,0.0,,,,Pass,,,,,
91.0,8.0,wc_8,wc_8,0.0,"[('wc_8', 0.6900000000000005)]",0.6900000000000005,,,40.0,0.002246,['Pass'],Pass,0.6900000000000005,-0.5233333333333339,1.0,6.0,1.0
91.0,8.0,wc_8,,0.0,,,,301.0,,,,Pass,,,,,
91.0,8.0,wc_8,wc_4,0.0,"[('wc_4', 0.4700000000000003), ('wc_8', 0.6900000000000005)]",0.8357000000000003,,,34.0,0.004088,['Pass'],Pass,0.4700000000000003,-0.1842857142857146,2.0,7.0,0.5
91.0,8.0,wc_8,,0.0,,,,222.0,,,,Pass,,,,,
91.0,8.0,wc_8,wc_17,1.0,"[('wc_17', 0.5400000000000004), ('wc_8', 0.6900000000000005), ('wc_4', 0.4700000000000003)]",0.9244220000000002,,,26.0,0.03900699999999999,['Pass'],Pass,0.5400000000000004,-0.5400000000000004,0.0,0.0,0.6
97.0,11.0,wc_11,,0.0,,,,362.0,,,,Pass,,,,,
97.0,11.0,wc_11,,0.0,,,53.0,,,,,Pass,,,,,
97.0,11.0,wc_11,,0.0,,,,0.0,,,,Pass,,,,,
97.0,11.0,wc_11,wc_11,0.0,"[('wc_11', 0.3600000000000002)]",0.3600000000000002,,,24.0,0.0022,['Fail'],Pass,0.3600000000000002,-0.19333333333333355,1.0,6.0,0.3
97.0,11.0,wc_11,,0.0,,,,41.0,,,,Pass,,,,,
97.0,11.0,wc_11,wc_7,0.0,"[('wc_7', 0.29000000000000015), ('wc_11', 0.3600000000000002)]",0.5456000000000003,,,36.0,0.004464,['Fail'],Pass,0.29000000000000015,0.15444444444444427,4.0,9.0,0.3
97.0,11.0,wc_11,,0.0,,,,182.0,,,,Pass,,,,,
97.0,11.0,wc_11,wc_1,0.0,"[('wc_1', 0.6200000000000004)]",0.6200000000000004,,,40.0,0.0062120000000000005,['Pass'],Pass,0.6200000000000004,-0.37000000000000044,1.0,4.0,1.0
97.0,11.0,wc_11,,0.0,,,,182.0,,,,Pass,,,,,
97.0,11.0,wc_11,wc_12,0.0,"[('wc_12', 0.2400000000000001), ('wc_11', 0.3600000000000002), ('wc_7', 0.29000000000000015)]",0.6546560000000002,,,40.0,0.007488,['Fail'],Pass,0.2400000000000001,-0.017777777777777892,2.0,9.0,0.2
97.0,11.0,wc_11,,0.0,,,,361.0,,,,Pass,,,,,
97.0,11.0,wc_11,wc_3,0.0,"[('wc_3', 0.6700000000000005), ('wc_1', 0.6200000000000004)]",0.8746000000000003,,,37.0,0.010001000000000001,['Pass'],Pass,0.6700000000000005,-0.3700000000000005,0.0,0.0,1.0
97.0,11.0,wc_11,,0.0,,,,161.0,,,,Pass,,,,,
97.0,11.0,wc_11,wc_13,0.0,"[('wc_13', 0.6700000000000005), ('wc_11', 0.3600000000000002), ('wc_7', 0.29000000000000015), ('wc_12', 0.2400000000000001)]",0.8860364800000002,,,25.0,0.011272,['Fail'],Pass,0.6700000000000005,-0.3842857142857148,2.0,7.0,0.7
97.0,11.0,wc_11,,0.0,,,,242.0,,,,Pass,,,,,
97.0,11.0,wc_11,wc_2,1.0,"[('wc_2', 0.5300000000000004), ('wc_1', 0.6200000000000004), ('wc_3', 0.6700000000000005)]",0.9410620000000002,,,36.0,0.04481,['Pass'],Pass,0.5300000000000004,-0.5300000000000004,0.0,0.0,0.5
105.0,7.0,wc_7,,0.0,,,,142.0,,,,Pass,,,,,
105.0,7.0,wc_7,,0.0,,,76.0,,,,,Pass,,,,,
105.0,7.0,wc_7,,0.0,,,,0.0,,,,Pass,,,,,
105.0,7.0,wc_7,wc_7,0.0,"[('wc_7', 0.29000000000000015)]",0.29000000000000015,,,20.0,0.002125,['Fail'],Pass,0.29000000000000015,-0.29000000000000015,0.0,0.0,0.3
105.0,7.0,wc_7,,0.0,,,,182.0,,,,Pass,,,,,
105.0,7.0,wc_7,wc_1,0.0,"[('wc_1', 0.6200000000000004)]",0.6200000000000004,,,22.0,0.0041670000000000006,['Pass'],Pass,0.6200000000000004,-0.22000000000000042,2.0,5.0,1.0
105.0,7.0,wc_7,,0.0,,,,142.0,,,,Pass,,,,,
105.0,7.0,wc_7,wc_6,0.0,"[('wc_6', 0.7800000000000006), ('wc_1', 0.6200000000000004)]",0.9164000000000003,,,39.0,0.00622,['Pass'],Pass,0.7800000000000006,-0.44666666666666727,1.0,3.0,0.8
105.0,7.0,wc_7,,0.0,,,,202.0,,,,Pass,,,,,
105.0,7.0,wc_7,wc_14,1.0,"[('wc_14', 0.5400000000000004), ('wc_1', 0.6200000000000004), ('wc_6', 0.7800000000000006)]",0.9615440000000002,,,39.0,0.042626,['Pass'],Pass,0.5400000000000004,-0.29000000000000037,2.0,8.0,0.7
111.0,10.0,wc_10,,0.0,,,,301.0,,,,Pass,,,,,
111.0,10.0,wc_10,,0.0,,,56.0,,,,,Pass,,,,,
111.0,10.0,wc_10,,0.0,,,,0.0,,,,Pass,,,,,
111.0,10.0,wc_10,wc_10,0.0,"[('wc_10', 0.6100000000000004)]",0.6100000000000004,,,27.0,0.002177,['Pass'],Pass,0.6100000000000004,-0.48500000000000043,1.0,8.0,0.9
111.0,10.0,wc_10,,0.0,,,,362.0,,,,Pass,,,,,
111.0,10.0,wc_10,wc_4,0.0,"[('wc_10', 0.6100000000000004)]",0.6100000000000004,,,23.0,0.00394,['Pass'],Pass,0.4700000000000003,-0.17000000000000032,0.0,0.0,0.5
111.0,10.0,wc_10,,0.0,,,,141.0,,,,Pass,,,,,
111.0,10.0,wc_10,wc_13,0.0,"[('wc_13', 0.6600000000000005), ('wc_10', 0.6100000000000004)]",0.8674000000000004,,,23.0,0.005690000000000001,['Pass'],Pass,0.6600000000000005,-0.43777777777777827,2.0,9.0,0.7
111.0,10.0,wc_10,,0.0,,,,301.0,,,,Pass,,,,,
111.0,10.0,wc_10,wc_9,1.0,"[('wc_9', 0.5000000000000003), ('wc_10', 0.6100000000000004), ('wc_13', 0.6600000000000005)]",0.9337000000000002,,,23.0,0.040533000000000007,['Pass'],Pass,0.5000000000000003,-3.3306690738754696e-16,3.0,6.0,0.6
118.0,9.0,wc_9,,0.0,,,,0.0,,,,Pass,,,,,
118.0,9.0,wc_9,,0.0,,,69.0,,,,,Pass,,,,,
118.0,9.0,wc_9,,0.0,,,,0.0,,,,Pass,,,,,
118.0,9.0,wc_9,wc_9,0.0,"[('wc_9', 0.5000000000000003)]",0.5000000000000003,,,20.0,0.002113,['Pass'],Pass,0.5000000000000003,-3.3306690738754696e-16,3.0,6.0,0.6
118.0,9.0,wc_9,,0.0,,,,402.0,,,,Pass,,,,,
118.0,9.0,wc_9,wc_5,0.0,"[('wc_9', 0.5000000000000003)]",0.5000000000000003,,,28.0,0.0040149999999999995,['Pass'],Pass,0.21000000000000008,-0.12666666666666676,0.0,0.0,0.2
118.0,9.0,wc_9,,0.0,,,,61.0,,,,Pass,,,,,
118.0,9.0,wc_9,wc_6,0.0,"[('wc_6', 0.7800000000000006), ('wc_9', 0.5000000000000003)]",0.8900000000000003,,,28.0,0.006553999999999999,['Pass'],Pass,0.7800000000000006,-0.38000000000000056,2.0,5.0,0.8
118.0,9.0,wc_9,,0.0,,,,202.0,,,,Pass,,,,,
118.0,9.0,wc_9,wc_1,1.0,"[('wc_1', 0.6200000000000004), ('wc_9', 0.5000000000000003), ('wc_6', 0.7800000000000006)]",0.9582000000000002,,,27.0,0.044647000000000006,['Pass'],Pass,0.6200000000000004,-0.12000000000000044,4.0,8.0,1.0
127.0,12.0,wc_12,,0.0,,,,182.0,,,,Fail,,,,,
127.0,12.0,wc_12,,0.0,,,62.0,,,,,Fail,,,,,
127.0,12.0,wc_12,,0.0,,,,0.0,,,,Fail,,,,,
127.0,12.0,wc_12,wc_12,0.0,"[('wc_12', 0.2300000000000001)]",0.2300000000000001,,,37.0,0.002003,['Pass'],Fail,0.2300000000000001,-0.2300000000000001,0.0,3.0,0.2
127.0,12.0,wc_12,,0.0,,,,0.0,,,,Fail,,,,,
127.0,12.0,wc_12,wc_16,0.0,"[('wc_16', 0.7500000000000006)]",0.7500000000000006,,,22.0,0.00423,['Fail'],Fail,0.7500000000000006,-0.7500000000000006,0.0,6.0,0.9
127.0,12.0,wc_12,,0.0,,,,81.0,,,,Fail,,,,,
127.0,12.0,wc_12,wc_14,0.0,"[('wc_14', 0.5400000000000004), ('wc_16', 0.7500000000000006)]",0.8850000000000003,,,26.0,0.005889,['Fail'],Fail,0.5400000000000004,-0.34000000000000036,0.0,0.0,0.7
127.0,12.0,wc_12,,0.0,,,,202.0,,,,Fail,,,,,
127.0,12.0,wc_12,wc_1,1.0,"[('wc_1', 0.6200000000000004), ('wc_16', 0.7500000000000006), ('wc_14', 0.5400000000000004)]",0.9563000000000001,,,24.0,0.044317999999999996,['Fail'],Fail,0.6200000000000004,-0.06444444444444486,5.0,9.0,1.0
131.0,12.0,wc_12,,0.0,,,,182.0,,,,Fail,,,,,
131.0,12.0,wc_12,,0.0,,,52.0,,,,,Fail,,,,,
131.0,12.0,wc_12,,0.0,,,,0.0,,,,Fail,,,,,
131.0,12.0,wc_12,wc_12,0.0,"[('wc_12', 0.22000000000000008)]",0.22000000000000008,,,23.0,0.002163,['Pass'],Fail,0.22000000000000008,-0.22000000000000008,0.0,4.0,0.2
131.0,12.0,wc_12,,0.0,,,,0.0,,,,Fail,,,,,
131.0,12.0,wc_12,wc_15,0.0,"[('wc_15', 0.28000000000000014), ('wc_12', 0.22000000000000008)]",0.4384000000000001,,,39.0,0.003919,['Pass'],Fail,0.28000000000000014,-0.28000000000000014,0.0,9.0,0.2
131.0,12.0,wc_12,,0.0,,,,223.0,,,,Fail,,,,,
131.0,12.0,wc_12,wc_6,0.0,"[('wc_6', 0.7800000000000006)]",0.7800000000000006,,,34.0,0.006384,['Fail'],Fail,0.7800000000000006,-0.35142857142857203,3.0,7.0,0.8
131.0,12.0,wc_12,,0.0,,,,263.0,,,,Fail,,,,,
131.0,12.0,wc_12,wc_17,0.0,"[('wc_17', 0.5400000000000004), ('wc_6', 0.7800000000000006)]",0.8988000000000004,,,25.0,0.008265,['Fail'],Fail,0.5400000000000004,-0.5400000000000004,0.0,5.0,0.6
131.0,12.0,wc_12,,0.0,,,,382.0,,,,Fail,,,,,
131.0,12.0,wc_12,wc_4,1.0,"[('wc_4', 0.4600000000000003), ('wc_6', 0.7800000000000006), ('wc_17', 0.5400000000000004)]",0.9453520000000002,,,29.0,0.046675999999999995,['Fail'],Fail,0.4600000000000003,-0.2100000000000003,1.0,4.0,0.5
142.0,12.0,wc_12,,0.0,,,,121.0,,,,Fail,,,,,
142.0,12.0,wc_12,,0.0,,,70.0,,,,,Fail,,,,,
142.0,12.0,wc_12,,0.0,,,,0.0,,,,Fail,,,,,
142.0,12.0,wc_12,wc_12,0.0,"[('wc_12', 0.21000000000000008)]",0.21000000000000008,,,27.0,0.002342,['Pass'],Fail,0.21000000000000008,-0.21000000000000008,0.0,5.0,0.2
142.0,12.0,wc_12,,0.0,,,,222.0,,,,Fail,,,,,
142.0,12.0,wc_12,wc_8,0.0,"[('wc_8', 0.6900000000000005)]",0.6900000000000005,,,21.0,0.004179,['Fail'],Fail,0.6900000000000005,-0.5361538461538466,0.0,0.0,1.0
142.0,12.0,wc_12,,0.0,,,,321.0,,,,Fail,,,,,
142.0,12.0,wc_12,wc_5,0.0,"[('wc_8', 0.6900000000000005)]",0.6900000000000005,,,31.0,0.00562,['Fail'],Fail,0.20000000000000007,-0.20000000000000007,0.0,3.0,0.2
142.0,12.0,wc_12,,0.0,,,,81.0,,,,Fail,,,,,
142.0,12.0,wc_12,wc_7,0.0,"[('wc_7', 0.28000000000000014), ('wc_8', 0.6900000000000005)]",0.7768000000000004,,,27.0,0.007745,['Fail'],Fail,0.28000000000000014,-0.28000000000000014,0.0,5.0,0.3
142.0,12.0,wc_12,,0.0,,,,243.0,,,,Fail,,,,,
142.0,12.0,wc_12,wc_17,0.0,"[('wc_17', 0.5400000000000004), ('wc_8', 0.6900000000000005), ('wc_7', 0.28000000000000014)]",0.8973280000000002,,,29.0,0.00898,['Fail'],Fail,0.5400000000000004,-0.37333333333333374,1.0,6.0,0.6
142.0,12.0,wc_12,,0.0,,,,322.0,,,,Fail,,,,,
142.0,12.0,wc_12,wc_9,1.0,"[('wc_9', 0.5100000000000003), ('wc_8', 0.6900000000000005), ('wc_7', 0.28000000000000014), ('wc_17', 0.5400000000000004)]",0.9496907200000002,,,26.0,0.052403,['Fail'],Fail,0.5100000000000003,-0.5100000000000003,0.0,0.0,0.6
150.0,12.0,wc_12,,0.0,,,,101.0,,,,Fail,,,,,
150.0,12.0,wc_12,,0.0,,,52.0,,,,,Fail,,,,,
150.0,12.0,wc_12,,0.0,,,,0.0,,,,Fail,,,,,
150.0,12.0,wc_12,wc_12,0.0,"[('wc_12', 0.20000000000000007)]",0.20000000000000007,,,26.0,0.002211,['Pass'],Fail,0.20000000000000007,-0.20000000000000007,0.0,6.0,0.2
150.0,12.0,wc_12,,0.0,,,,381.0,,,,Fail,,,,,
150.0,12.0,wc_12,wc_4,0.0,"[('wc_4', 0.4600000000000003), ('wc_12', 0.20000000000000007)]",0.5680000000000003,,,40.0,0.0038339999999999997,['Pass'],Fail,0.4600000000000003,-0.2600000000000003,1.0,5.0,0.5
150.0,12.0,wc_12,,0.0,,,,222.0,,,,Fail,,,,,
150.0,12.0,wc_12,wc_17,0.0,"[('wc_12', 0.20000000000000007), ('wc_4', 0.4600000000000003)]",0.5680000000000003,,,25.0,0.005652000000000001,['Pass'],Fail,0.5400000000000004,-0.25428571428571467,2.0,7.0,0.6
150.0,12.0,wc_12,,0.0,,,,322.0,,,,Fail,,,,,
150.0,12.0,wc_12,wc_9,0.0,"[('wc_9', 0.5100000000000003), ('wc_17', 0.5400000000000004)]",0.7746000000000004,,,20.0,0.008514,['Fail'],Fail,0.5100000000000003,-0.5100000000000003,0.0,0.0,0.6
150.0,12.0,wc_12,,0.0,,,,0.0,,,,Fail,,,,,
150.0,12.0,wc_12,wc_11,0.0,"[('wc_11', 0.3500000000000002), ('wc_17', 0.5400000000000004), ('wc_9', 0.5100000000000003)]",0.8534900000000003,,,30.0,0.009901,['Fail'],Fail,0.3500000000000002,-0.2730769230769233,0.0,0.0,0.3
150.0,12.0,wc_12,,0.0,,,,21.0,,,,Fail,,,,,
150.0,12.0,wc_12,wc_6,1.0,"[('wc_6', 0.7800000000000006), ('wc_17', 0.5400000000000004), ('wc_9', 0.5100000000000003), ('wc_11', 0.3500000000000002)]",0.9677678000000002,,,34.0,0.044834,['Fail'],Fail,0.7800000000000006,-0.7800000000000006,0.0,0.0,0.8
160.0,12.0,wc_12,,0.0,,,,162.0,,,,Pass,,,,,
160.0,12.0,wc_12,,0.0,,,63.0,,,,,Pass,,,,,
160.0,12.0,wc_12,,0.0,,,,0.0,,,,Pass,,,,,
160.0,12.0,wc_12,wc_12,0.0,"[('wc_12', 0.19000000000000006)]",0.19000000000000006,,,26.0,0.002079,['Fail'],Pass,0.19000000000000006,-0.19000000000000006,0.0,7.0,0.2
160.0,12.0,wc_12,,0.0,,,,0.0,,,,Pass,,,,,
160.0,12.0,wc_12,wc_14,0.0,"[('wc_14', 0.5500000000000004)]",0.5500000000000004,,,20.0,0.005481,['Pass'],Pass,0.5500000000000004,-0.3000000000000004,1.0,4.0,0.7
160.0,12.0,wc_12,,0.0,,,,301.0,,,,Pass,,,,,
160.0,12.0,wc_12,wc_10,0.0,"[('wc_10', 0.6100000000000004), ('wc_14', 0.5500000000000004)]",0.8245000000000003,,,30.0,0.006432,['Pass'],Pass,0.6100000000000004,-0.4671428571428576,0.0,0.0,0.9
160.0,12.0,wc_12,,0.0,,,,223.0,,,,Pass,,,,,
160.0,12.0,wc_12,wc_1,1.0,"[('wc_1', 0.6200000000000004), ('wc_14', 0.5500000000000004), ('wc_10', 0.6100000000000004)]",0.9333100000000002,,,34.0,0.041814000000000004,['Pass'],Pass,0.6200000000000004,-0.6200000000000004,0.0,0.0,1.0
172.0,13.0,wc_13,,0.0,,,,202.0,,,,Pass,,,,,
172.0,13.0,wc_13,,0.0,,,74.0,,,,,Pass,,,,,
172.0,13.0,wc_13,,0.0,,,,0.0,,,,Pass,,,,,
172.0,13.0,wc_13,wc_13,0.0,"[('wc_13', 0.6600000000000005)]",0.6600000000000005,,,28.0,0.002298,['Pass'],Pass,0.6600000000000005,-0.6600000000000005,0.0,6.0,0.7
172.0,13.0,wc_13,,0.0,,,,0.0,,,,Pass,,,,,
172.0,13.0,wc_13,wc_15,0.0,"[('wc_15', 0.27000000000000013), ('wc_13', 0.6600000000000005)]",0.7518000000000004,,,30.0,0.0045000000000000005,['Pass'],Pass,0.27000000000000013,-0.27000000000000013,0.0,3.0,0.2
172.0,13.0,wc_13,,0.0,,,,422.0,,,,Pass,,,,,
172.0,13.0,wc_13,wc_4,0.0,"[('wc_4', 0.4500000000000003), ('wc_13', 0.6600000000000005), ('wc_15', 0.27000000000000013)]",0.8634900000000003,,,25.0,0.006104999999999999,['Pass'],Pass,0.4500000000000003,-0.30714285714285744,1.0,7.0,0.5
172.0,13.0,wc_13,,0.0,,,,121.0,,,,Pass,,,,,
172.0,13.0,wc_13,wc_12,0.0,"[('wc_13', 0.6600000000000005), ('wc_15', 0.27000000000000013), ('wc_4', 0.4500000000000003)]",0.8634900000000003,,,28.0,0.00898,['Pass'],Pass,0.18000000000000005,-0.18000000000000005,0.0,8.0,0.2
172.0,13.0,wc_13,,0.0,,,,202.0,,,,Pass,,,,,
172.0,13.0,wc_13,wc_7,0.0,"[('wc_13', 0.6600000000000005), ('wc_15', 0.27000000000000013), ('wc_4', 0.4500000000000003)]",0.8634900000000003,,,39.0,0.010284,['Pass'],Pass,0.28000000000000014,-0.15500000000000014,1.0,8.0,0.3
172.0,13.0,wc_13,,0.0,,,,223.0,,,,Pass,,,,,
172.0,13.0,wc_13,wc_16,0.0,"[('wc_13', 0.6600000000000005), ('wc_15', 0.27000000000000013), ('wc_4', 0.4500000000000003)]",0.8634900000000003,,,34.0,0.011877,['Pass'],Pass,0.7500000000000006,-0.6590909090909096,0.0,0.0,0.9
172.0,13.0,wc_13,,0.0,,,,362.0,,,,Pass,,,,,
172.0,13.0,wc_13,wc_10,1.0,"[('wc_10', 0.6200000000000004), ('wc_13', 0.6600000000000005), ('wc_15', 0.27000000000000013), ('wc_4', 0.4500000000000003)]",0.9481262000000001,,,30.0,0.049520999999999996,['Pass'],Pass,0.6300000000000004,0.36999999999999955,2.0,2.0,0.9
181.0,14.0,wc_14,,0.0,,,,121.0,,,,Fail,,,,,
181.0,14.0,wc_14,,0.0,,,54.0,,,,,Fail,,,,,
181.0,14.0,wc_14,,0.0,,,,0.0,,,,Fail,,,,,
181.0,14.0,wc_14,wc_14,0.0,"[('wc_14', 0.5500000000000004)]",0.5500000000000004,,,25.0,0.002236,['Fail'],Fail,0.5500000000000004,-0.21666666666666706,2.0,6.0,0.7
181.0,14.0,wc_14,,0.0,,,,321.0,,,,Fail,,,,,
181.0,14.0,wc_14,wc_3,0.0,"[('wc_3', 0.6800000000000005), ('wc_14', 0.5500000000000004)]",0.8560000000000003,,,23.0,0.003965,['Fail'],Fail,0.6800000000000005,-0.5800000000000005,0.0,0.0,1.0
181.0,14.0,wc_14,,0.0,,,,162.0,,,,Fail,,,,,
181.0,14.0,wc_14,wc_9,1.0,"[('wc_9', 0.5200000000000004), ('wc_14', 0.5500000000000004), ('wc_3', 0.6800000000000005)]",0.9308800000000002,,,20.0,0.042775,['Fail'],Fail,0.5200000000000004,-0.02000000000000035,2.0,4.0,0.6
190.0,15.0,wc_15,,0.0,,,,162.0,,,,Pass,,,,,
190.0,15.0,wc_15,,0.0,,,56.0,,,,,Pass,,,,,
190.0,15.0,wc_15,,0.0,,,,0.0,,,,Pass,,,,,
190.0,15.0,wc_15,wc_15,0.0,"[('wc_15', 0.27000000000000013)]",0.27000000000000013,,,26.0,0.002132,['Fail'],Pass,0.27000000000000013,-0.07000000000000012,1.0,5.0,0.2
190.0,15.0,wc_15,,0.0,,,,243.0,,,,Pass,,,,,
190.0,15.0,wc_15,wc_7,0.0,"[('wc_7', 0.27000000000000013), ('wc_15', 0.27000000000000013)]",0.4671000000000002,,,25.0,0.003915,['Fail'],Pass,0.27000000000000013,-0.17000000000000012,0.0,0.0,0.3
190.0,15.0,wc_15,,0.0,,,,341.0,,,,Pass,,,,,
190.0,15.0,wc_15,wc_5,0.0,"[('wc_15', 0.27000000000000013), ('wc_7', 0.27000000000000013)]",0.4671000000000002,,,29.0,0.006192,['Fail'],Pass,0.19000000000000006,-0.19000000000000006,0.0,8.0,0.2
190.0,15.0,wc_15,,0.0,,,,61.0,,,,Pass,,,,,
190.0,15.0,wc_15,wc_6,0.0,"[('wc_6', 0.7800000000000006), ('wc_5', 0.19000000000000006)]",0.8218000000000005,,,36.0,0.008156,['Pass'],Pass,0.7800000000000006,-0.7800000000000006,0.0,3.0,0.8
190.0,15.0,wc_15,,0.0,,,,202.0,,,,Pass,,,,,
190.0,15.0,wc_15,wc_1,1.0,"[('wc_1', 0.6200000000000004), ('wc_5', 0.19000000000000006), ('wc_6', 0.7800000000000006)]",0.9322840000000002,,,27.0,0.047902,['Pass'],Pass,0.6200000000000004,-0.2866666666666671,1.0,3.0,1.0
199.0,16.0,wc_16,,0.0,,,,263.0,,,,Fail,,,,,
199.0,16.0,wc_16,,0.0,,,51.0,,,,,Fail,,,,,
199.0,16.0,wc_16,,0.0,,,,0.0,,,,Fail,,,,,
199.0,16.0,wc_16,wc_16,0.0,"[('wc_16', 0.7400000000000005)]",0.7400000000000005,,,21.0,0.002146,['Fail'],Fail,0.7400000000000005,-0.7400000000000005,0.0,3.0,0.9
199.0,16.0,wc_16,,0.0,,,,402.0,,,,Fail,,,,,
199.0,16.0,wc_16,wc_4,0.0,"[('wc_4', 0.4500000000000003), ('wc_16', 0.7400000000000005)]",0.8570000000000004,,,30.0,0.004333,['Fail'],Fail,0.4500000000000003,-0.2500000000000003,0.0,0.0,0.5
199.0,16.0,wc_16,,0.0,,,,103.0,,,,Fail,,,,,
199.0,16.0,wc_16,wc_3,1.0,"[('wc_3', 0.6900000000000005), ('wc_16', 0.7400000000000005), ('wc_4', 0.4500000000000003)]",0.9556700000000002,,,29.0,0.04235799999999999,['Fail'],Fail,0.6900000000000005,-0.023333333333333872,2.0,3.0,1.0
213.0,16.0,wc_16,,0.0,,,,222.0,,,,Fail,,,,,
213.0,16.0,wc_16,,0.0,,,67.0,,,,,Fail,,,,,
213.0,16.0,wc_16,,0.0,,,,0.0,,,,Fail,,,,,
213.0,16.0,wc_16,wc_16,0.0,"[('wc_16', 0.7400000000000005)]",0.7400000000000005,,,40.0,0.00236,['Fail'],Fail,0.7400000000000005,-0.49000000000000055,1.0,4.0,0.9
213.0,16.0,wc_16,,0.0,,,,81.0,,,,Fail,,,,,
213.0,16.0,wc_16,wc_14,0.0,"[('wc_14', 0.5500000000000004), ('wc_16', 0.7400000000000005)]",0.8830000000000003,,,33.0,0.00418,['Fail'],Fail,0.5500000000000004,-0.21666666666666706,3.0,9.0,0.7
213.0,16.0,wc_16,,0.0,,,,82.0,,,,Fail,,,,,
213.0,16.0,wc_16,wc_12,0.0,"[('wc_16', 0.7400000000000005), ('wc_14', 0.5500000000000004)]",0.8830000000000003,,,28.0,0.005993999999999999,['Fail'],Fail,0.17000000000000004,-0.17000000000000004,0.0,0.0,0.2
213.0,16.0,wc_16,,0.0,,,,401.0,,,,Fail,,,,,
213.0,16.0,wc_16,wc_5,0.0,"[('wc_16', 0.7400000000000005), ('wc_14', 0.5500000000000004)]",0.8830000000000003,,,28.0,0.007784999999999999,['Fail'],Fail,0.19000000000000006,-0.09000000000000005,0.0,0.0,0.2
213.0,16.0,wc_16,,0.0,,,,61.0,,,,Fail,,,,,
213.0,16.0,wc_16,wc_6,1.0,"[('wc_6', 0.7800000000000006), ('wc_16', 0.7400000000000005), ('wc_14', 0.5500000000000004)]",0.9742600000000001,,,25.0,0.044075,['Fail'],Fail,0.7800000000000006,-0.44666666666666727,2.0,6.0,0.8
227.0,14.0,wc_14,,0.0,,,,202.0,,,,Fail,,,,,
227.0,14.0,wc_14,,0.0,,,80.0,,,,,Fail,,,,,
227.0,14.0,wc_14,,0.0,,,,0.0,,,,Fail,,,,,
227.0,14.0,wc_14,wc_14,0.0,"[('wc_14', 0.5500000000000004)]",0.5500000000000004,,,22.0,0.0021,['Fail'],Fail,0.5500000000000004,-0.5500000000000004,0.0,0.0,0.7
227.0,14.0,wc_14,,0.0,,,,361.0,,,,Fail,,,,,
227.0,14.0,wc_14,wc_5,0.0,"[('wc_5', 0.18000000000000005), ('wc_14', 0.5500000000000004)]",0.6310000000000003,,,26.0,0.00452,['Fail'],Fail,0.18000000000000005,-0.18000000000000005,0.0,1.0,0.2
227.0,14.0,wc_14,,0.0,,,,83.0,,,,Fail,,,,,
227.0,14.0,wc_14,wc_3,0.0,"[('wc_3', 0.6900000000000005), ('wc_14', 0.5500000000000004), ('wc_5', 0.18000000000000005)]",0.8856100000000002,,,33.0,0.005673,['Fail'],Fail,0.6900000000000005,-0.1900000000000005,2.0,4.0,1.0
227.0,14.0,wc_14,,0.0,,,,141.0,,,,Fail,,,,,
227.0,14.0,wc_14,wc_8,1.0,"[('wc_8', 0.7000000000000005), ('wc_14', 0.5500000000000004), ('wc_5', 0.18000000000000005), ('wc_3', 0.6900000000000005)]",0.9656830000000002,,,36.0,0.042649999999999993,['Fail'],Fail,0.7000000000000005,-0.4777777777777783,2.0,9.0,1.0
235.0,16.0,wc_16,,0.0,,,,203.0,,,,Fail,,,,,
235.0,16.0,wc_16,,0.0,,,52.0,,,,,Fail,,,,,
235.0,16.0,wc_16,,0.0,,,,0.0,,,,Fail,,,,,
235.0,16.0,wc_16,wc_16,0.0,"[('wc_16', 0.7400000000000005)]",0.7400000000000005,,,25.0,0.002283,['Fail'],Fail,0.7400000000000005,-0.40666666666666723,2.0,6.0,0.9
235.0,16.0,wc_16,,0.0,,,,81.0,,,,Fail,,,,,
235.0,16.0,wc_16,wc_14,0.0,"[('wc_14', 0.5600000000000004), ('wc_16', 0.7400000000000005)]",0.8856000000000004,,,27.0,0.00472,['Fail'],Fail,0.5600000000000004,0.4399999999999996,1.0,1.0,0.7
235.0,16.0,wc_16,,0.0,,,,0.0,,,,Fail,,,,,
235.0,16.0,wc_16,wc_17,1.0,"[('wc_17', 0.5400000000000004), ('wc_16', 0.7400000000000005), ('wc_14', 0.5600000000000004)]",0.9473760000000002,,,35.0,0.043764,['Fail'],Fail,0.5400000000000004,-0.5400000000000004,0.0,0.0,0.6
244.0,14.0,wc_14,,0.0,,,,61.0,,,,Fail,,,,,
244.0,14.0,wc_14,,0.0,,,53.0,,,,,Fail,,,,,
244.0,14.0,wc_14,,0.0,,,,0.0,,,,Fail,,,,,
244.0,14.0,wc_14,wc_14,0.0,"[('wc_14', 0.5700000000000004)]",0.5700000000000004,,,27.0,0.00237,['Fail'],Fail,0.5700000000000004,0.4299999999999996,2.0,2.0,0.7
244.0,14.0,wc_14,,0.0,,,,321.0,,,,Fail,,,,,
244.0,14.0,wc_14,wc_3,0.0,"[('wc_3', 0.6900000000000005), ('wc_14', 0.5700000000000004)]",0.8667000000000004,,,27.0,0.004536999999999999,['Fail'],Fail,0.6900000000000005,-0.1900000000000005,3.0,6.0,1.0
244.0,14.0,wc_14,,0.0,,,,182.0,,,,Fail,,,,,
244.0,14.0,wc_14,wc_10,0.0,"[('wc_14', 0.5700000000000004), ('wc_3', 0.6900000000000005)]",0.8667000000000004,,,37.0,0.006508,['Fail'],Fail,0.6300000000000004,-0.38000000000000045,2.0,8.0,0.9
244.0,14.0,wc_14,,0.0,,,,243.0,,,,Fail,,,,,
244.0,14.0,wc_14,wc_2,0.0,"[('wc_14', 0.5700000000000004), ('wc_3', 0.6900000000000005)]",0.8667000000000004,,,25.0,0.007765,['Fail'],Fail,0.5300000000000004,-0.5300000000000004,0.0,0.0,0.5
244.0,14.0,wc_14,,0.0,,,,182.0,,,,Fail,,,,,
244.0,14.0,wc_14,wc_13,1.0,"[('wc_13', 0.6600000000000005), ('wc_10', 0.6300000000000004), ('wc_2', 0.5300000000000004)]",0.9408740000000002,,,33.0,0.048543,['Pass'],Fail,0.6600000000000005,-0.6600000000000005,0.0,0.0,0.7
256.0,16.0,wc_16,,0.0,,,,0.0,,,,Pass,,,,,
256.0,16.0,wc_16,,0.0,,,75.0,,,,,Pass,,,,,
256.0,16.0,wc_16,,0.0,,,,0.0,,,,Pass,,,,,
256.0,16.0,wc_16,wc_16,0.0,"[('wc_16', 0.7400000000000005)]",0.7400000000000005,,,39.0,0.002368,['Pass'],Pass,0.7400000000000005,-0.36500000000000055,3.0,8.0,0.9
256.0,16.0,wc_16,,0.0,,,,243.0,,,,Pass,,,,,
256.0,16.0,wc_16,wc_8,0.0,"[('wc_8', 0.7000000000000005), ('wc_16', 0.7400000000000005)]",0.9220000000000003,,,26.0,0.005332,['Pass'],Pass,0.7000000000000005,-0.5181818181818187,0.0,0.0,1.0
256.0,16.0,wc_16,,0.0,,,,183.0,,,,Pass,,,,,
256.0,16.0,wc_16,wc_15,0.0,"[('wc_16', 0.7400000000000005), ('wc_8', 0.7000000000000005)]",0.9220000000000003,,,28.0,0.006177,['Pass'],Pass,0.2600000000000001,-0.1690909090909092,0.0,0.0,0.2
256.0,16.0,wc_16,,0.0,,,,0.0,,,,Pass,,,,,
256.0,16.0,wc_16,wc_17,1.0,"[('wc_17', 0.5400000000000004), ('wc_16', 0.7400000000000005), ('wc_8', 0.7000000000000005)]",0.9641200000000002,,,32.0,0.051889000000000005,['Pass'],Pass,0.5400000000000004,-0.04000000000000037,1.0,2.0,0.6
263.0,14.0,wc_14,,0.0,,,,61.0,,,,Pass,,,,,
263.0,14.0,wc_14,,0.0,,,50.0,,,,,Pass,,,,,
263.0,14.0,wc_14,,0.0,,,,0.0,,,,Pass,,,,,
263.0,14.0,wc_14,wc_14,0.0,"[('wc_14', 0.5700000000000004)]",0.5700000000000004,,,29.0,0.002425,['Pass'],Pass,0.5700000000000004,-0.0700000000000004,2.0,4.0,0.7
263.0,14.0,wc_14,,0.0,,,,321.0,,,,Pass,,,,,
263.0,14.0,wc_14,wc_3,0.0,"[('wc_3', 0.6800000000000005), ('wc_14', 0.5700000000000004)]",0.8624000000000003,,,25.0,0.004719,['Pass'],Pass,0.6800000000000005,-0.3050000000000005,3.0,8.0,1.0
263.0,14.0,wc_14,,0.0,,,,202.0,,,,Pass,,,,,
263.0,14.0,wc_14,wc_15,0.0,"[('wc_15', 0.2500000000000001), ('wc_14', 0.5700000000000004), ('wc_3', 0.6800000000000005)]",0.8968000000000003,,,39.0,0.007101,['Pass'],Pass,0.2500000000000001,-0.2500000000000001,0.0,1.0,0.2
263.0,14.0,wc_14,,0.0,,,,61.0,,,,Pass,,,,,
263.0,14.0,wc_14,wc_12,1.0,"[('wc_12', 0.16000000000000003), ('wc_14', 0.5700000000000004), ('wc_3', 0.6800000000000005), ('wc_15', 0.2500000000000001)]",0.9133120000000002,,,29.0,0.053070000000000006,['Pass'],Pass,0.16000000000000003,0.006666666666666626,1.0,6.0,0.2
273.0,17.0,wc_17,,0.0,,,,0.0,,,,Pass,,,,,
273.0,17.0,wc_17,,0.0,,,52.0,,,,,Pass,,,,,
273.0,17.0,wc_17,,0.0,,,,0.0,,,,Pass,,,,,
273.0,17.0,wc_17,wc_17,0.0,"[('wc_17', 0.5400000000000004)]",0.5400000000000004,,,32.0,0.002206,['Pass'],Pass,0.5400000000000004,-0.20666666666666705,1.0,3.0,0.6
273.0,17.0,wc_17,,0.0,,,,263.0,,,,Pass,,,,,
273.0,17.0,wc_17,wc_2,0.0,"[('wc_17', 0.5400000000000004)]",0.5400000000000004,,,34.0,0.004289,['Pass'],Pass,0.5400000000000004,-0.20666666666666705,1.0,3.0,0.5
273.0,17.0,wc_17,,0.0,,,,142.0,,,,Pass,,,,,
273.0,17.0,wc_17,wc_7,0.0,"[('wc_7', 0.2600000000000001), ('wc_2', 0.5400000000000004)]",0.6596000000000004,,,20.0,0.006222,['Fail'],Pass,0.2600000000000001,-0.2600000000000001,0.0,8.0,0.3
273.0,17.0,wc_17,,0.0,,,,203.0,,,,Pass,,,,,
273.0,17.0,wc_17,wc_15,0.0,"[('wc_15', 0.2600000000000001), ('wc_17', 0.5400000000000004)]",0.6596000000000004,,,24.0,0.007796000000000001,['Pass'],Pass,0.2600000000000001,0.23999999999999988,1.0,2.0,0.2
273.0,17.0,wc_17,,0.0,,,,223.0,,,,Pass,,,,,
273.0,17.0,wc_17,wc_6,1.0,"[('wc_6', 0.7800000000000006), ('wc_17', 0.5400000000000004), ('wc_15', 0.2600000000000001)]",0.9251120000000003,,,37.0,0.05041000000000001,['Pass'],Pass,0.7800000000000006,-0.7800000000000006,0.0,0.0,0.8
