mpecck/BCQC/bcqc_with_qdt/results/raw/input_6/independent_qc/training/20_workpiece/20200429_084416/wp_14_qc_majority_0.9.csv
production_index,step_idx,production_workcell,qc,consent,winner_qc_list,score,production_time,transport_time,inspection_time,network_time,qc_results,actual_quality,qc_score,score_error,in_winner_counter,in_qc_counter,qc_capability
52.0,1.0,wc_1,,0.0,,,69.0,,,,,Pass,,,,,
52.0,1.0,wc_1,,0.0,,,,0.0,,,,Pass,,,,,
52.0,1.0,wc_1,wc_1,0.0,"[('wc_1', 0.27000000000000013)]",0.27000000000000013,,,22.0,0.002364,['Pass'],Pass,0.27000000000000013,0.22999999999999987,1.0,2.0,0.1
52.0,1.0,wc_1,,0.0,,,,203.0,,,,Pass,,,,,
52.0,1.0,wc_1,wc_9,0.0,"[('wc_9', 0.6500000000000005)]",0.6500000000000005,,,39.0,0.004134,['Fail'],Pass,0.6500000000000005,-0.3500000000000005,0.0,0.0,0.6
52.0,1.0,wc_1,,0.0,,,,61.0,,,,Pass,,,,,
52.0,1.0,wc_1,wc_6,0.0,"[('wc_6', 0.5500000000000004), ('wc_1', 0.27000000000000013)]",0.6715000000000003,,,30.0,0.006417,['Pass'],Pass,0.5500000000000004,-0.5500000000000004,0.0,0.0,0.5
52.0,1.0,wc_1,,0.0,,,,0.0,,,,Pass,,,,,
52.0,1.0,wc_1,wc_10,0.0,"[('wc_10', 0.43000000000000027), ('wc_1', 0.27000000000000013), ('wc_6', 0.5500000000000004)]",0.8127550000000003,,,24.0,0.01022,['Pass'],Pass,0.43000000000000027,-0.43000000000000027,0.0,3.0,0.4
52.0,1.0,wc_1,,0.0,,,,61.0,,,,Pass,,,,,
52.0,1.0,wc_1,wc_7,1.0,"[('wc_7', 0.6400000000000005), ('wc_1', 0.27000000000000013), ('wc_6', 0.5500000000000004), ('wc_10', 0.43000000000000027)]",0.9325918000000002,,,33.0,0.041399000000000005,['Pass'],Pass,0.6400000000000005,-0.6400000000000005,0.0,0.0,0.6
63.0,2.0,wc_2,,0.0,,,,202.0,,,,Fail,,,,,
63.0,2.0,wc_2,,0.0,,,71.0,,,,,Fail,,,,,
63.0,2.0,wc_2,,0.0,,,,0.0,,,,Fail,,,,,
63.0,2.0,wc_2,wc_2,0.0,"[('wc_2', 0.5700000000000004)]",0.5700000000000004,,,22.0,0.002253,['Fail'],Fail,0.5700000000000004,-0.5700000000000004,0.0,9.0,0.5
63.0,2.0,wc_2,,0.0,,,,182.0,,,,Fail,,,,,
63.0,2.0,wc_2,wc_13,0.0,"[('wc_13', 0.6700000000000005), ('wc_2', 0.5700000000000004)]",0.8581000000000003,,,23.0,0.00489,['Fail'],Fail,0.6700000000000005,-0.6700000000000005,0.0,2.0,0.5
63.0,2.0,wc_2,,0.0,,,,0.0,,,,Fail,,,,,
63.0,2.0,wc_2,wc_15,1.0,"[('wc_15', 0.3400000000000002), ('wc_2', 0.5700000000000004), ('wc_13', 0.6700000000000005)]",0.9063460000000002,,,26.0,0.036462999999999995,['Fail'],Fail,0.3400000000000002,-0.006666666666666876,2.0,6.0,0.1
72.0,2.0,wc_2,,0.0,,,,303.0,,,,Pass,,,,,
72.0,2.0,wc_2,,0.0,,,69.0,,,,,Pass,,,,,
72.0,2.0,wc_2,,0.0,,,,0.0,,,,Pass,,,,,
72.0,2.0,wc_2,wc_2,0.0,"[('wc_2', 0.5700000000000004)]",0.5700000000000004,,,39.0,0.002136,['Pass'],Pass,0.5700000000000004,-0.5700000000000004,0.0,0.0,0.5
72.0,2.0,wc_2,,0.0,,,,0.0,,,,Pass,,,,,
72.0,2.0,wc_2,wc_4,0.0,"[('wc_4', 0.6900000000000005), ('wc_2', 0.5700000000000004)]",0.8667000000000004,,,24.0,0.003922,['Pass'],Pass,0.6900000000000005,-0.5233333333333339,1.0,6.0,0.7
72.0,2.0,wc_2,,0.0,,,,61.0,,,,Pass,,,,,
72.0,2.0,wc_2,wc_1,0.0,"[('wc_2', 0.5700000000000004), ('wc_4', 0.6900000000000005)]",0.8667000000000004,,,35.0,0.006626,['Pass'],Pass,0.28000000000000014,0.21999999999999986,2.0,4.0,0.1
72.0,2.0,wc_2,,0.0,,,,142.0,,,,Pass,,,,,
72.0,2.0,wc_2,wc_6,1.0,"[('wc_6', 0.5600000000000004), ('wc_2', 0.5700000000000004), ('wc_4', 0.6900000000000005)]",0.9413480000000002,,,30.0,0.037071,['Pass'],Pass,0.5700000000000004,0.09666666666666623,2.0,3.0,0.5
81.0,4.0,wc_4,,0.0,,,,341.0,,,,Pass,,,,,
81.0,4.0,wc_4,,0.0,,,78.0,,,,,Pass,,,,,
81.0,4.0,wc_4,,0.0,,,,0.0,,,,Pass,,,,,
81.0,4.0,wc_4,wc_4,0.0,"[('wc_4', 0.6900000000000005)]",0.6900000000000005,,,20.0,0.00219,['Pass'],Pass,0.6900000000000005,-0.4042857142857148,2.0,7.0,0.7
81.0,4.0,wc_4,,0.0,,,,103.0,,,,Pass,,,,,
81.0,4.0,wc_4,wc_3,0.0,"[('wc_3', 0.3600000000000002), ('wc_4', 0.6900000000000005)]",0.8016000000000004,,,26.0,0.004064,['Pass'],Pass,0.3600000000000002,-0.3600000000000002,0.0,3.0,0.3
81.0,4.0,wc_4,,0.0,,,,182.0,,,,Pass,,,,,
81.0,4.0,wc_4,wc_10,0.0,"[('wc_10', 0.43000000000000027), ('wc_4', 0.6900000000000005), ('wc_3', 0.3600000000000002)]",0.8869120000000003,,,38.0,0.006926,['Pass'],Pass,0.43000000000000027,-0.26333333333333364,1.0,6.0,0.4
81.0,4.0,wc_4,,0.0,,,,243.0,,,,Pass,,,,,
81.0,4.0,wc_4,wc_2,0.0,"[('wc_4', 0.6900000000000005), ('wc_3', 0.3600000000000002), ('wc_10', 0.43000000000000027)]",0.8869120000000003,,,24.0,0.007837,['Pass'],Pass,0.5800000000000004,0.4199999999999996,1.0,1.0,0.5
81.0,4.0,wc_4,,0.0,,,,183.0,,,,Pass,,,,,
81.0,4.0,wc_4,wc_9,0.0,"[('wc_4', 0.6900000000000005), ('wc_3', 0.3600000000000002), ('wc_10', 0.43000000000000027)]",0.8869120000000003,,,40.0,0.010529,['Pass'],Pass,0.6400000000000005,-0.6400000000000005,0.0,3.0,0.6
81.0,4.0,wc_4,,0.0,,,,81.0,,,,Pass,,,,,
81.0,4.0,wc_4,wc_7,1.0,"[('wc_7', 0.6400000000000005), ('wc_4', 0.6900000000000005), ('wc_3', 0.3600000000000002), ('wc_10', 0.43000000000000027)]",0.9592883200000002,,,40.0,0.04220600000000001,['Pass'],Pass,0.6400000000000005,-0.30666666666666714,1.0,3.0,0.6
95.0,3.0,wc_3,,0.0,,,,301.0,,,,Fail,,,,,
95.0,3.0,wc_3,,0.0,,,64.0,,,,,Fail,,,,,
95.0,3.0,wc_3,,0.0,,,,0.0,,,,Fail,,,,,
95.0,3.0,wc_3,wc_3,0.0,"[('wc_3', 0.3600000000000002)]",0.3600000000000002,,,37.0,0.002245,['Pass'],Fail,0.3600000000000002,-0.11000000000000021,1.0,4.0,0.3
95.0,3.0,wc_3,,0.0,,,,0.0,,,,Fail,,,,,
95.0,3.0,wc_3,wc_4,0.0,"[('wc_4', 0.6900000000000005)]",0.6900000000000005,,,22.0,0.0040750000000000005,['Fail'],Fail,0.6900000000000005,-0.3150000000000005,3.0,8.0,0.7
95.0,3.0,wc_3,,0.0,,,,101.0,,,,Fail,,,,,
95.0,3.0,wc_3,wc_7,0.0,"[('wc_7', 0.6400000000000005), ('wc_4', 0.6900000000000005)]",0.8884000000000003,,,36.0,0.006319,['Fail'],Fail,0.6400000000000005,-0.30666666666666714,1.0,3.0,0.6
95.0,3.0,wc_3,,0.0,,,,102.0,,,,Fail,,,,,
95.0,3.0,wc_3,wc_6,1.0,"[('wc_6', 0.5700000000000004), ('wc_4', 0.6900000000000005), ('wc_7', 0.6400000000000005)]",0.9520120000000002,,,30.0,0.038211,['Fail'],Fail,0.5800000000000004,0.019999999999999574,3.0,5.0,0.5
116.0,3.0,wc_3,,0.0,,,,321.0,,,,Fail,,,,,
116.0,3.0,wc_3,,0.0,,,69.0,,,,,Fail,,,,,
116.0,3.0,wc_3,,0.0,,,,0.0,,,,Fail,,,,,
116.0,3.0,wc_3,wc_3,0.0,"[('wc_3', 0.3500000000000002)]",0.3500000000000002,,,34.0,0.002251,['Fail'],Fail,0.3500000000000002,-0.1500000000000002,1.0,5.0,0.3
116.0,3.0,wc_3,,0.0,,,,141.0,,,,Fail,,,,,
116.0,3.0,wc_3,wc_12,0.0,"[('wc_12', 0.5000000000000003), ('wc_3', 0.3500000000000002)]",0.6750000000000003,,,37.0,0.005274,['Fail'],Fail,0.5000000000000003,-0.42857142857142894,0.0,0.0,0.4
116.0,3.0,wc_3,,0.0,,,,242.0,,,,Fail,,,,,
116.0,3.0,wc_3,wc_1,0.0,"[('wc_1', 0.28000000000000014), ('wc_3', 0.3500000000000002), ('wc_12', 0.5000000000000003)]",0.7660000000000002,,,37.0,0.006062,['Fail'],Fail,0.28000000000000014,0.005714285714285561,2.0,7.0,0.1
116.0,3.0,wc_3,,0.0,,,,222.0,,,,Fail,,,,,
116.0,3.0,wc_3,wc_14,0.0,"[('wc_14', 0.22000000000000008), ('wc_3', 0.3500000000000002), ('wc_12', 0.5000000000000003), ('wc_1', 0.28000000000000014)]",0.8174800000000002,,,22.0,0.0081,['Fail'],Fail,0.22000000000000008,-0.12909090909090917,0.0,0.0,0.1
116.0,3.0,wc_3,,0.0,,,,142.0,,,,Fail,,,,,
116.0,3.0,wc_3,wc_6,1.0,"[('wc_6', 0.5800000000000004), ('wc_3', 0.3500000000000002), ('wc_12', 0.5000000000000003), ('wc_1', 0.28000000000000014), ('wc_14', 0.22000000000000008)]",0.9233416000000002,,,33.0,0.040933,['Fail'],Fail,0.5900000000000004,0.07666666666666622,4.0,6.0,0.5
141.0,3.0,wc_3,,0.0,,,,321.0,,,,Pass,,,,,
141.0,3.0,wc_3,,0.0,,,65.0,,,,,Pass,,,,,
141.0,3.0,wc_3,,0.0,,,,0.0,,,,Pass,,,,,
141.0,3.0,wc_3,wc_3,0.0,"[('wc_3', 0.3500000000000002)]",0.3500000000000002,,,22.0,0.003219,['Pass'],Pass,0.3500000000000002,-0.016666666666666885,2.0,6.0,0.3
141.0,3.0,wc_3,,0.0,,,,121.0,,,,Pass,,,,,
141.0,3.0,wc_3,wc_7,0.0,"[('wc_7', 0.6400000000000005), ('wc_3', 0.3500000000000002)]",0.7660000000000003,,,23.0,0.004002,['Pass'],Pass,0.6400000000000005,-0.24000000000000044,2.0,5.0,0.6
141.0,3.0,wc_3,,0.0,,,,243.0,,,,Pass,,,,,
141.0,3.0,wc_3,wc_17,1.0,"[('wc_17', 0.7600000000000006), ('wc_3', 0.3500000000000002), ('wc_7', 0.6400000000000005)]",0.9438400000000002,,,25.0,0.037194,['Pass'],Pass,0.7600000000000006,-0.7600000000000006,0.0,0.0,1.0
153.0,5.0,wc_5,,0.0,,,,402.0,,,,Fail,,,,,
153.0,5.0,wc_5,,0.0,,,79.0,,,,,Fail,,,,,
153.0,5.0,wc_5,,0.0,,,,0.0,,,,Fail,,,,,
153.0,5.0,wc_5,wc_5,0.0,"[('wc_5', 0.8100000000000006)]",0.8100000000000006,,,34.0,0.002357,['Fail'],Fail,0.8100000000000006,-0.6225000000000006,0.0,0.0,1.0
153.0,5.0,wc_5,,0.0,,,,103.0,,,,Fail,,,,,
153.0,5.0,wc_5,wc_4,0.0,"[('wc_4', 0.6900000000000005), ('wc_5', 0.8100000000000006)]",0.9411000000000003,,,33.0,0.003855,['Fail'],Fail,0.6900000000000005,-0.32636363636363686,0.0,0.0,0.7
153.0,5.0,wc_5,,0.0,,,,142.0,,,,Fail,,,,,
153.0,5.0,wc_5,wc_9,1.0,"[('wc_9', 0.6300000000000004), ('wc_5', 0.8100000000000006), ('wc_4', 0.6900000000000005)]",0.9782070000000002,,,21.0,0.036655,['Fail'],Fail,0.6300000000000004,-0.5050000000000004,1.0,8.0,0.6
175.0,5.0,wc_5,,0.0,,,,402.0,,,,Fail,,,,,
175.0,5.0,wc_5,,0.0,,,80.0,,,,,Fail,,,,,
175.0,5.0,wc_5,,0.0,,,,0.0,,,,Fail,,,,,
175.0,5.0,wc_5,wc_5,0.0,"[('wc_5', 0.8200000000000006)]",0.8200000000000006,,,34.0,0.002038,['Fail'],Fail,0.8200000000000006,0.17999999999999938,1.0,1.0,1.0
175.0,5.0,wc_5,,0.0,,,,122.0,,,,Fail,,,,,
175.0,5.0,wc_5,wc_9,0.0,"[('wc_9', 0.6300000000000004), ('wc_5', 0.8200000000000006)]",0.9334000000000003,,,22.0,0.003881,['Fail'],Fail,0.6300000000000004,-0.5050000000000004,1.0,8.0,0.6
175.0,5.0,wc_5,,0.0,,,,0.0,,,,Fail,,,,,
175.0,5.0,wc_5,wc_11,0.0,"[('wc_5', 0.8200000000000006), ('wc_9', 0.6300000000000004)]",0.9334000000000003,,,34.0,0.0063950000000000005,['Fail'],Fail,0.40000000000000024,-0.21818181818181842,0.0,0.0,0.2
175.0,5.0,wc_5,,0.0,,,,162.0,,,,Fail,,,,,
175.0,5.0,wc_5,wc_17,1.0,"[('wc_17', 0.7600000000000006), ('wc_5', 0.8200000000000006), ('wc_9', 0.6300000000000004)]",0.9840160000000001,,,32.0,0.041187999999999995,['Fail'],Fail,0.7600000000000006,-0.26000000000000056,1.0,2.0,1.0
226.0,5.0,wc_5,,0.0,,,,402.0,,,,Fail,,,,,
226.0,5.0,wc_5,,0.0,,,78.0,,,,,Fail,,,,,
226.0,5.0,wc_5,,0.0,,,,0.0,,,,Fail,,,,,
226.0,5.0,wc_5,wc_5,0.0,"[('wc_5', 0.8300000000000006)]",0.8300000000000006,,,21.0,0.00226,['Fail'],Fail,0.8300000000000006,0.16999999999999937,2.0,2.0,1.0
226.0,5.0,wc_5,,0.0,,,,101.0,,,,Fail,,,,,
226.0,5.0,wc_5,wc_12,0.0,"[('wc_12', 0.5100000000000003), ('wc_5', 0.8300000000000006)]",0.9167000000000004,,,34.0,0.004439,['Fail'],Fail,0.5100000000000003,-0.26000000000000034,1.0,4.0,0.4
226.0,5.0,wc_5,,0.0,,,,222.0,,,,Fail,,,,,
226.0,5.0,wc_5,wc_8,1.0,"[('wc_8', 0.6700000000000005), ('wc_5', 0.8300000000000006), ('wc_12', 0.5100000000000003)]",0.9725110000000001,,,27.0,0.037063,['Fail'],Fail,0.6700000000000005,-0.6700000000000005,0.0,0.0,0.8
243.0,5.0,wc_5,,0.0,,,,321.0,,,,Fail,,,,,
243.0,5.0,wc_5,,0.0,,,78.0,,,,,Fail,,,,,
243.0,5.0,wc_5,,0.0,,,,0.0,,,,Fail,,,,,
243.0,5.0,wc_5,wc_5,0.0,"[('wc_5', 0.8400000000000006)]",0.8400000000000006,,,39.0,0.002348,['Fail'],Fail,0.8400000000000006,0.15999999999999936,3.0,3.0,1.0
243.0,5.0,wc_5,,0.0,,,,162.0,,,,Fail,,,,,
243.0,5.0,wc_5,wc_11,0.0,"[('wc_5', 0.8400000000000006)]",0.8400000000000006,,,37.0,0.003999,['Fail'],Fail,0.39000000000000024,-0.39000000000000024,0.0,2.0,0.2
243.0,5.0,wc_5,,0.0,,,,81.0,,,,Fail,,,,,
243.0,5.0,wc_5,wc_13,0.0,"[('wc_13', 0.6700000000000005), ('wc_5', 0.8400000000000006)]",0.9472000000000003,,,31.0,0.005596,['Fail'],Fail,0.6700000000000005,-0.5790909090909095,0.0,0.0,0.5
243.0,5.0,wc_5,,0.0,,,,202.0,,,,Fail,,,,,
243.0,5.0,wc_5,wc_8,1.0,"[('wc_8', 0.6700000000000005), ('wc_5', 0.8400000000000006), ('wc_13', 0.6700000000000005)]",0.9825760000000001,,,24.0,0.03737,['Fail'],Fail,0.6800000000000005,0.3199999999999995,1.0,1.0,0.8
255.0,5.0,wc_5,,0.0,,,,321.0,,,,Pass,,,,,
255.0,5.0,wc_5,,0.0,,,59.0,,,,,Pass,,,,,
255.0,5.0,wc_5,,0.0,,,,0.0,,,,Pass,,,,,
255.0,5.0,wc_5,wc_5,0.0,"[('wc_5', 0.8500000000000006)]",0.8500000000000006,,,39.0,0.002643,['Pass'],Pass,0.8500000000000006,0.14999999999999936,4.0,4.0,1.0
255.0,5.0,wc_5,,0.0,,,,202.0,,,,Pass,,,,,
255.0,5.0,wc_5,wc_17,0.0,"[('wc_17', 0.7600000000000006), ('wc_5', 0.8500000000000006)]",0.9640000000000002,,,30.0,0.004078,['Pass'],Pass,0.7600000000000006,-0.5100000000000006,1.0,4.0,1.0
255.0,5.0,wc_5,,0.0,,,,41.0,,,,Pass,,,,,
255.0,5.0,wc_5,wc_13,1.0,"[('wc_13', 0.6800000000000005), ('wc_5', 0.8500000000000006), ('wc_17', 0.7600000000000006)]",0.9884800000000001,,,33.0,0.035557000000000005,['Pass'],Pass,0.6900000000000005,0.3099999999999995,2.0,2.0,0.5
265.0,6.0,wc_6,,0.0,,,,162.0,,,,Pass,,,,,
265.0,6.0,wc_6,,0.0,,,58.0,,,,,Pass,,,,,
265.0,6.0,wc_6,,0.0,,,,0.0,,,,Pass,,,,,
265.0,6.0,wc_6,wc_6,0.0,"[('wc_6', 0.5900000000000004)]",0.5900000000000004,,,32.0,0.001974,['Pass'],Pass,0.5900000000000004,-0.2566666666666671,0.0,0.0,0.5
265.0,6.0,wc_6,,0.0,,,,243.0,,,,Pass,,,,,
265.0,6.0,wc_6,wc_16,0.0,"[('wc_16', 0.6800000000000005), ('wc_6', 0.5900000000000004)]",0.8688000000000003,,,31.0,0.005252,['Pass'],Pass,0.6800000000000005,-0.6030769230769235,0.0,0.0,0.6
265.0,6.0,wc_6,,0.0,,,,382.0,,,,Pass,,,,,
265.0,6.0,wc_6,wc_3,1.0,"[('wc_3', 0.3600000000000002), ('wc_6', 0.5900000000000004), ('wc_16', 0.6800000000000005)]",0.9160320000000003,,,40.0,0.04360700000000001,['Pass'],Pass,0.3600000000000002,-0.3600000000000002,0.0,0.0,0.3
283.0,8.0,wc_8,,0.0,,,,141.0,,,,Pass,,,,,
283.0,8.0,wc_8,,0.0,,,73.0,,,,,Pass,,,,,
283.0,8.0,wc_8,,0.0,,,,0.0,,,,Pass,,,,,
283.0,8.0,wc_8,wc_8,0.0,"[('wc_8', 0.6800000000000005)]",0.6800000000000005,,,22.0,0.00202,['Pass'],Pass,0.6800000000000005,-0.3466666666666672,1.0,3.0,0.8
283.0,8.0,wc_8,,0.0,,,,183.0,,,,Pass,,,,,
283.0,8.0,wc_8,wc_15,0.0,"[('wc_8', 0.6800000000000005)]",0.6800000000000005,,,28.0,0.0041849999999999995,['Pass'],Pass,0.3400000000000002,-0.22235294117647078,0.0,0.0,0.1
283.0,8.0,wc_8,,0.0,,,,0.0,,,,Pass,,,,,
283.0,8.0,wc_8,wc_17,0.0,"[('wc_17', 0.7600000000000006), ('wc_8', 0.6800000000000005)]",0.9232000000000002,,,21.0,0.006288,['Pass'],Pass,0.7600000000000006,-0.42666666666666725,2.0,6.0,1.0
283.0,8.0,wc_8,,0.0,,,,362.0,,,,Pass,,,,,
283.0,8.0,wc_8,wc_11,1.0,"[('wc_11', 0.3800000000000002), ('wc_8', 0.6800000000000005), ('wc_17', 0.7600000000000006)]",0.9523840000000002,,,39.0,0.043348,['Pass'],Pass,0.3800000000000002,-0.21333333333333357,1.0,6.0,0.2
295.0,11.0,wc_11,,0.0,,,,0.0,,,,Fail,,,,,
295.0,11.0,wc_11,,0.0,,,71.0,,,,,Fail,,,,,
295.0,11.0,wc_11,,0.0,,,,0.0,,,,Fail,,,,,
295.0,11.0,wc_11,wc_11,0.0,"[('wc_11', 0.3800000000000002)]",0.3800000000000002,,,33.0,0.002028,['Fail'],Fail,0.3800000000000002,-0.21333333333333357,1.0,6.0,0.2
295.0,11.0,wc_11,,0.0,,,,61.0,,,,Fail,,,,,
295.0,11.0,wc_11,wc_12,0.0,"[('wc_12', 0.5100000000000003), ('wc_11', 0.3800000000000002)]",0.6962000000000004,,,35.0,0.003856,['Fail'],Fail,0.5100000000000003,-0.28777777777777813,2.0,9.0,0.4
295.0,11.0,wc_11,,0.0,,,,0.0,,,,Fail,,,,,
295.0,11.0,wc_11,wc_15,0.0,"[('wc_11', 0.3800000000000002), ('wc_12', 0.5100000000000003)]",0.6962000000000004,,,27.0,0.0065439999999999995,['Fail'],Fail,0.3300000000000002,-0.3300000000000002,0.0,1.0,0.1
295.0,11.0,wc_11,,0.0,,,,81.0,,,,Fail,,,,,
295.0,11.0,wc_11,wc_13,0.0,"[('wc_13', 0.6900000000000005), ('wc_15', 0.3300000000000002)]",0.7923000000000004,,,32.0,0.007458,['Pass'],Fail,0.6900000000000005,-0.1900000000000005,2.0,4.0,0.5
295.0,11.0,wc_11,,0.0,,,,381.0,,,,Fail,,,,,
295.0,11.0,wc_11,wc_5,1.0,"[('wc_5', 0.8600000000000007), ('wc_11', 0.3800000000000002), ('wc_12', 0.5100000000000003)]",0.9574680000000002,,,39.0,0.043451,['Fail'],Fail,0.8600000000000007,-0.11000000000000065,6.0,8.0,1.0
310.0,10.0,wc_10,,0.0,,,,142.0,,,,Fail,,,,,
310.0,10.0,wc_10,,0.0,,,76.0,,,,,Fail,,,,,
310.0,10.0,wc_10,,0.0,,,,0.0,,,,Fail,,,,,
310.0,10.0,wc_10,wc_10,0.0,"[('wc_10', 0.43000000000000027)]",0.43000000000000027,,,35.0,0.002202,['Pass'],Fail,0.43000000000000027,-0.31888888888888917,0.0,0.0,0.4
310.0,10.0,wc_10,,0.0,,,,101.0,,,,Fail,,,,,
310.0,10.0,wc_10,wc_13,0.0,"[('wc_13', 0.6800000000000005)]",0.6800000000000005,,,20.0,0.004668,['Fail'],Fail,0.6800000000000005,-0.28000000000000047,2.0,5.0,0.5
310.0,10.0,wc_10,,0.0,,,,162.0,,,,Fail,,,,,
310.0,10.0,wc_10,wc_6,0.0,"[('wc_6', 0.6000000000000004), ('wc_10', 0.43000000000000027)]",0.7720000000000004,,,31.0,0.008022999999999999,['Pass'],Fail,0.6000000000000004,-0.2666666666666671,1.0,3.0,0.5
310.0,10.0,wc_10,,0.0,,,,223.0,,,,Fail,,,,,
310.0,10.0,wc_10,wc_15,0.0,"[('wc_15', 0.3200000000000002), ('wc_13', 0.6800000000000005)]",0.7824000000000004,,,32.0,0.007856,['Fail'],Fail,0.3200000000000002,-0.3200000000000002,0.0,2.0,0.1
310.0,10.0,wc_10,,0.0,,,,422.0,,,,Fail,,,,,
310.0,10.0,wc_10,wc_4,1.0,"[('wc_4', 0.7000000000000005), ('wc_13', 0.6800000000000005), ('wc_15', 0.3200000000000002)]",0.9347200000000002,,,28.0,0.04080400000000001,['Fail'],Fail,0.7000000000000005,-0.4777777777777783,2.0,9.0,0.7
320.0,9.0,wc_9,,0.0,,,,142.0,,,,Fail,,,,,
320.0,9.0,wc_9,,0.0,,,61.0,,,,,Fail,,,,,
320.0,9.0,wc_9,,0.0,,,,0.0,,,,Fail,,,,,
320.0,9.0,wc_9,wc_9,0.0,"[('wc_9', 0.6300000000000004)]",0.6300000000000004,,,23.0,0.002032,['Fail'],Fail,0.6300000000000004,-0.5050000000000004,0.0,0.0,0.6
320.0,9.0,wc_9,,0.0,,,,121.0,,,,Fail,,,,,
320.0,9.0,wc_9,wc_13,0.0,"[('wc_13', 0.6800000000000005), ('wc_9', 0.6300000000000004)]",0.8816000000000004,,,37.0,0.004104999999999999,['Fail'],Fail,0.6800000000000005,-0.1800000000000005,3.0,6.0,0.5
320.0,9.0,wc_9,,0.0,,,,321.0,,,,Fail,,,,,
320.0,9.0,wc_9,wc_10,1.0,"[('wc_10', 0.42000000000000026), ('wc_9', 0.6300000000000004), ('wc_13', 0.6800000000000005)]",0.9313280000000002,,,32.0,0.050628,['Fail'],Fail,0.43000000000000027,0.06999999999999973,1.0,2.0,0.4
330.0,7.0,wc_7,,0.0,,,,61.0,,,,Pass,,,,,
330.0,7.0,wc_7,,0.0,,,56.0,,,,,Pass,,,,,
330.0,7.0,wc_7,,0.0,,,,0.0,,,,Pass,,,,,
330.0,7.0,wc_7,wc_7,0.0,"[('wc_7', 0.6400000000000005)]",0.6400000000000005,,,28.0,0.002422,['Pass'],Pass,0.6400000000000005,-0.45250000000000046,0.0,0.0,0.6
330.0,7.0,wc_7,,0.0,,,,162.0,,,,Pass,,,,,
330.0,7.0,wc_7,wc_13,0.0,"[('wc_13', 0.6800000000000005), ('wc_7', 0.6400000000000005)]",0.8848000000000004,,,22.0,0.003955,['Pass'],Pass,0.6800000000000005,-0.1085714285714291,4.0,7.0,0.5
330.0,7.0,wc_7,,0.0,,,,222.0,,,,Pass,,,,,
330.0,7.0,wc_7,wc_1,0.0,"[('wc_7', 0.6400000000000005), ('wc_13', 0.6800000000000005)]",0.8848000000000004,,,31.0,0.006667,['Pass'],Pass,0.29000000000000015,-0.1321052631578949,0.0,0.0,0.1
330.0,7.0,wc_7,,0.0,,,,0.0,,,,Pass,,,,,
330.0,7.0,wc_7,wc_3,1.0,"[('wc_3', 0.3600000000000002), ('wc_7', 0.6400000000000005), ('wc_13', 0.6800000000000005)]",0.9262720000000002,,,25.0,0.04728400000000001,['Pass'],Pass,0.3600000000000002,-0.1600000000000002,1.0,5.0,0.3
345.0,10.0,wc_10,,0.0,,,,182.0,,,,Fail,,,,,
345.0,10.0,wc_10,,0.0,,,80.0,,,,,Fail,,,,,
345.0,10.0,wc_10,,0.0,,,,0.0,,,,Fail,,,,,
345.0,10.0,wc_10,wc_10,0.0,"[('wc_10', 0.43000000000000027)]",0.43000000000000027,,,26.0,0.002344,['Fail'],Fail,0.43000000000000027,-0.09666666666666696,1.0,3.0,0.4
345.0,10.0,wc_10,,0.0,,,,101.0,,,,Fail,,,,,
345.0,10.0,wc_10,wc_13,0.0,"[('wc_13', 0.6800000000000005), ('wc_10', 0.43000000000000027)]",0.8176000000000003,,,24.0,0.004510999999999999,['Fail'],Fail,0.6800000000000005,-0.05500000000000049,5.0,8.0,0.5
345.0,10.0,wc_10,,0.0,,,,182.0,,,,Fail,,,,,
345.0,10.0,wc_10,wc_7,1.0,"[('wc_7', 0.6500000000000005), ('wc_10', 0.43000000000000027), ('wc_13', 0.6800000000000005)]",0.9361600000000002,,,23.0,0.039876999999999996,['Fail'],Fail,0.6600000000000005,0.3399999999999995,2.0,2.0,0.6
355.0,10.0,wc_10,,0.0,,,,0.0,,,,Fail,,,,,
355.0,10.0,wc_10,,0.0,,,53.0,,,,,Fail,,,,,
355.0,10.0,wc_10,,0.0,,,,0.0,,,,Fail,,,,,
355.0,10.0,wc_10,wc_10,0.0,"[('wc_10', 0.4400000000000003)]",0.4400000000000003,,,30.0,0.00202,['Pass'],Fail,0.4400000000000003,0.05999999999999972,2.0,4.0,0.4
355.0,10.0,wc_10,,0.0,,,,61.0,,,,Fail,,,,,
355.0,10.0,wc_10,wc_7,0.0,"[('wc_7', 0.6600000000000005)]",0.6600000000000005,,,26.0,0.005044,['Fail'],Fail,0.6600000000000005,0.3399999999999995,2.0,2.0,0.6
355.0,10.0,wc_10,,0.0,,,,0.0,,,,Fail,,,,,
355.0,10.0,wc_10,wc_8,0.0,"[('wc_8', 0.6800000000000005), ('wc_7', 0.6600000000000005)]",0.8912000000000003,,,29.0,0.007438,['Fail'],Fail,0.6800000000000005,-0.4577777777777783,2.0,9.0,0.8
355.0,10.0,wc_10,,0.0,,,,82.0,,,,Fail,,,,,
355.0,10.0,wc_10,wc_6,1.0,"[('wc_6', 0.5900000000000004), ('wc_7', 0.6600000000000005), ('wc_8', 0.6800000000000005)]",0.9553920000000001,,,39.0,0.042216,['Fail'],Fail,0.5900000000000004,-0.3400000000000004,2.0,8.0,0.5
367.0,11.0,wc_11,,0.0,,,,0.0,,,,Pass,,,,,
367.0,11.0,wc_11,,0.0,,,70.0,,,,,Pass,,,,,
367.0,11.0,wc_11,,0.0,,,,0.0,,,,Pass,,,,,
367.0,11.0,wc_11,wc_11,0.0,"[('wc_11', 0.3800000000000002)]",0.3800000000000002,,,30.0,0.002283,['Fail'],Pass,0.3800000000000002,-0.21333333333333357,0.0,0.0,0.2
367.0,11.0,wc_11,,0.0,,,,203.0,,,,Pass,,,,,
367.0,11.0,wc_11,wc_1,0.0,"[('wc_11', 0.3800000000000002)]",0.3800000000000002,,,36.0,0.004143,['Fail'],Pass,0.28000000000000014,-0.28000000000000014,0.0,3.0,0.1
367.0,11.0,wc_11,,0.0,,,,283.0,,,,Pass,,,,,
367.0,11.0,wc_11,wc_17,0.0,"[('wc_17', 0.7600000000000006), ('wc_1', 0.28000000000000014)]",0.8272000000000004,,,21.0,0.0058449999999999995,['Pass'],Pass,0.7600000000000006,-0.5292307692307698,0.0,0.0,1.0
367.0,11.0,wc_11,,0.0,,,,382.0,,,,Pass,,,,,
367.0,11.0,wc_11,wc_4,0.0,"[('wc_1', 0.28000000000000014), ('wc_17', 0.7600000000000006)]",0.8272000000000004,,,33.0,0.008137,['Pass'],Pass,0.7000000000000005,-0.5461538461538467,0.0,0.0,0.7
367.0,11.0,wc_11,,0.0,,,,101.0,,,,Pass,,,,,
367.0,11.0,wc_11,wc_7,1.0,"[('wc_7', 0.6700000000000005), ('wc_1', 0.28000000000000014), ('wc_17', 0.7600000000000006)]",0.9429760000000003,,,23.0,0.04641200000000001,['Pass'],Pass,0.6800000000000005,0.3199999999999995,4.0,4.0,0.6
378.0,10.0,wc_10,,0.0,,,,0.0,,,,Pass,,,,,
378.0,10.0,wc_10,,0.0,,,67.0,,,,,Pass,,,,,
378.0,10.0,wc_10,,0.0,,,,0.0,,,,Pass,,,,,
378.0,10.0,wc_10,wc_10,0.0,"[('wc_10', 0.43000000000000027)]",0.43000000000000027,,,37.0,0.002275,['Fail'],Pass,0.43000000000000027,-0.09666666666666696,2.0,6.0,0.4
378.0,10.0,wc_10,,0.0,,,,81.0,,,,Pass,,,,,
378.0,10.0,wc_10,wc_12,0.0,"[('wc_12', 0.5100000000000003), ('wc_10', 0.43000000000000027)]",0.7207000000000003,,,31.0,0.0039000000000000003,['Fail'],Pass,0.5100000000000003,-0.5100000000000003,0.0,6.0,0.4
378.0,10.0,wc_10,,0.0,,,,182.0,,,,Pass,,,,,
378.0,10.0,wc_10,wc_6,0.0,"[('wc_10', 0.43000000000000027), ('wc_12', 0.5100000000000003)]",0.7207000000000003,,,22.0,0.006508,['Fail'],Pass,0.5900000000000004,-0.3677777777777782,2.0,9.0,0.5
378.0,10.0,wc_10,,0.0,,,,222.0,,,,Pass,,,,,
378.0,10.0,wc_10,wc_2,0.0,"[('wc_2', 0.5700000000000004), ('wc_6', 0.5900000000000004)]",0.8237000000000003,,,29.0,0.008544,['Pass'],Pass,0.5700000000000004,-0.5173684210526319,0.0,0.0,0.5
378.0,10.0,wc_10,,0.0,,,,223.0,,,,Pass,,,,,
378.0,10.0,wc_10,wc_15,0.0,"[('wc_6', 0.5900000000000004), ('wc_2', 0.5700000000000004)]",0.8237000000000003,,,39.0,0.010297999999999998,['Pass'],Pass,0.3300000000000002,-0.20500000000000018,1.0,8.0,0.1
378.0,10.0,wc_10,,0.0,,,,402.0,,,,Pass,,,,,
378.0,10.0,wc_10,wc_3,0.0,"[('wc_3', 0.3600000000000002), ('wc_10', 0.43000000000000027), ('wc_12', 0.5100000000000003), ('wc_15', 0.3300000000000002)]",0.8802361600000003,,,38.0,0.011772,['Fail'],Pass,0.3600000000000002,-0.2350000000000002,1.0,8.0,0.3
378.0,10.0,wc_10,,0.0,,,,0.0,,,,Pass,,,,,
378.0,10.0,wc_10,wc_4,1.0,"[('wc_4', 0.6900000000000005), ('wc_6', 0.5900000000000004), ('wc_2', 0.5700000000000004)]",0.9453470000000002,,,40.0,0.048091,['Pass'],Pass,0.6900000000000005,-0.1900000000000005,1.0,2.0,0.7
384.0,9.0,wc_9,,0.0,,,,142.0,,,,Pass,,,,,
384.0,9.0,wc_9,,0.0,,,52.0,,,,,Pass,,,,,
384.0,9.0,wc_9,,0.0,,,,0.0,,,,Pass,,,,,
384.0,9.0,wc_9,wc_9,0.0,"[('wc_9', 0.6400000000000005)]",0.6400000000000005,,,28.0,0.002056,['Pass'],Pass,0.6400000000000005,-0.4733333333333338,1.0,6.0,0.6
384.0,9.0,wc_9,,0.0,,,,61.0,,,,Pass,,,,,
384.0,9.0,wc_9,wc_6,0.0,"[('wc_6', 0.5900000000000004), ('wc_9', 0.6400000000000005)]",0.8524000000000003,,,29.0,0.004207000000000001,['Pass'],Pass,0.5900000000000004,-0.5900000000000004,0.0,0.0,0.5
384.0,9.0,wc_9,,0.0,,,,0.0,,,,Pass,,,,,
384.0,9.0,wc_9,wc_10,1.0,"[('wc_10', 0.42000000000000026), ('wc_9', 0.6400000000000005), ('wc_6', 0.5900000000000004)]",0.9143920000000002,,,20.0,0.037072,['Pass'],Pass,0.42000000000000026,-0.04500000000000026,3.0,8.0,0.4
397.0,12.0,wc_12,,0.0,,,,81.0,,,,Pass,,,,,
397.0,12.0,wc_12,,0.0,,,75.0,,,,,Pass,,,,,
397.0,12.0,wc_12,,0.0,,,,0.0,,,,Pass,,,,,
397.0,12.0,wc_12,wc_12,0.0,"[('wc_12', 0.5000000000000003)]",0.5000000000000003,,,24.0,0.002365,['Pass'],Pass,0.5000000000000003,-0.5000000000000003,0.0,8.0,0.4
397.0,12.0,wc_12,,0.0,,,,321.0,,,,Pass,,,,,
397.0,12.0,wc_12,wc_9,0.0,"[('wc_9', 0.6400000000000005), ('wc_12', 0.5000000000000003)]",0.8200000000000003,,,34.0,0.004664,['Pass'],Pass,0.6400000000000005,-0.35428571428571476,2.0,7.0,0.6
397.0,12.0,wc_12,,0.0,,,,263.0,,,,Pass,,,,,
397.0,12.0,wc_12,wc_2,1.0,"[('wc_2', 0.5800000000000004), ('wc_12', 0.5000000000000003), ('wc_9', 0.6400000000000005)]",0.9244000000000002,,,32.0,0.03902799999999999,['Pass'],Pass,0.5900000000000004,0.07666666666666622,2.0,3.0,0.5
410.0,13.0,wc_13,,0.0,,,,182.0,,,,Fail,,,,,
410.0,13.0,wc_13,,0.0,,,69.0,,,,,Fail,,,,,
410.0,13.0,wc_13,,0.0,,,,0.0,,,,Fail,,,,,
410.0,13.0,wc_13,wc_13,0.0,"[('wc_13', 0.6800000000000005)]",0.6800000000000005,,,40.0,0.002067,['Fail'],Fail,0.6800000000000005,-0.25142857142857195,0.0,0.0,0.5
410.0,13.0,wc_13,,0.0,,,,321.0,,,,Fail,,,,,
410.0,13.0,wc_13,wc_10,0.0,"[('wc_13', 0.6800000000000005)]",0.6800000000000005,,,20.0,0.004321,['Fail'],Fail,0.42000000000000026,-0.08666666666666695,3.0,9.0,0.4
410.0,13.0,wc_13,,0.0,,,,61.0,,,,Fail,,,,,
410.0,13.0,wc_13,wc_7,0.0,"[('wc_7', 0.6800000000000005), ('wc_13', 0.6800000000000005)]",0.8976000000000003,,,32.0,0.005637,['Fail'],Fail,0.6800000000000005,-0.1085714285714291,4.0,7.0,0.6
410.0,13.0,wc_13,,0.0,,,,243.0,,,,Fail,,,,,
410.0,13.0,wc_13,wc_17,1.0,"[('wc_17', 0.7700000000000006), ('wc_13', 0.6800000000000005), ('wc_7', 0.6800000000000005)]",0.9764480000000001,,,32.0,0.07797299999999999,['Fail'],Fail,0.7700000000000006,-0.37000000000000055,2.0,5.0,1.0
422.0,13.0,wc_13,,0.0,,,,41.0,,,,Pass,,,,,
422.0,13.0,wc_13,,0.0,,,74.0,,,,,Pass,,,,,
422.0,13.0,wc_13,,0.0,,,,0.0,,,,Pass,,,,,
422.0,13.0,wc_13,wc_13,0.0,"[('wc_13', 0.6900000000000005)]",0.6900000000000005,,,27.0,0.00202,['Pass'],Pass,0.6900000000000005,0.3099999999999995,1.0,1.0,0.5
422.0,13.0,wc_13,,0.0,,,,0.0,,,,Pass,,,,,
422.0,13.0,wc_13,wc_15,0.0,"[('wc_13', 0.6900000000000005)]",0.6900000000000005,,,26.0,0.004169,['Pass'],Pass,0.3200000000000002,-0.23666666666666686,0.0,0.0,0.1
422.0,13.0,wc_13,,0.0,,,,382.0,,,,Pass,,,,,
422.0,13.0,wc_13,wc_10,0.0,"[('wc_10', 0.41000000000000025), ('wc_13', 0.6900000000000005)]",0.8171000000000004,,,38.0,0.005946999999999999,['Pass'],Pass,0.41000000000000025,-0.41000000000000025,0.0,0.0,0.4
422.0,13.0,wc_13,,0.0,,,,81.0,,,,Pass,,,,,
422.0,13.0,wc_13,wc_12,1.0,"[('wc_12', 0.5000000000000003), ('wc_13', 0.6900000000000005), ('wc_10', 0.41000000000000025)]",0.9085500000000002,,,35.0,0.04450699999999999,['Pass'],Pass,0.5000000000000003,-0.5000000000000003,0.0,0.0,0.4
432.0,15.0,wc_15,,0.0,,,,0.0,,,,Pass,,,,,
432.0,15.0,wc_15,,0.0,,,68.0,,,,,Pass,,,,,
432.0,15.0,wc_15,,0.0,,,,0.0,,,,Pass,,,,,
432.0,15.0,wc_15,wc_15,0.0,"[('wc_15', 0.31000000000000016)]",0.31000000000000016,,,27.0,0.002077,['Pass'],Pass,0.31000000000000016,-0.31000000000000016,0.0,1.0,0.1
432.0,15.0,wc_15,,0.0,,,,402.0,,,,Pass,,,,,
432.0,15.0,wc_15,wc_11,0.0,"[('wc_11', 0.3700000000000002), ('wc_15', 0.31000000000000016)]",0.5653000000000002,,,37.0,0.003807,['Pass'],Pass,0.3700000000000002,-0.3700000000000002,0.0,6.0,0.2
432.0,15.0,wc_15,,0.0,,,,61.0,,,,Pass,,,,,
432.0,15.0,wc_15,wc_12,0.0,"[('wc_12', 0.5000000000000003), ('wc_15', 0.31000000000000016), ('wc_11', 0.3700000000000002)]",0.7826500000000003,,,36.0,0.0057269999999999995,['Pass'],Pass,0.5000000000000003,-0.5000000000000003,0.0,0.0,0.4
432.0,15.0,wc_15,,0.0,,,,381.0,,,,Pass,,,,,
432.0,15.0,wc_15,wc_4,1.0,"[('wc_4', 0.6900000000000005), ('wc_15', 0.31000000000000016), ('wc_11', 0.3700000000000002), ('wc_12', 0.5000000000000003)]",0.9326215000000002,,,29.0,0.042146,['Pass'],Pass,0.6900000000000005,-0.4042857142857148,2.0,7.0,0.7
440.0,16.0,wc_16,,0.0,,,,202.0,,,,Pass,,,,,
440.0,16.0,wc_16,,0.0,,,59.0,,,,,Pass,,,,,
440.0,16.0,wc_16,,0.0,,,,0.0,,,,Pass,,,,,
440.0,16.0,wc_16,wc_16,0.0,"[('wc_16', 0.6900000000000005)]",0.6900000000000005,,,35.0,0.002122,['Pass'],Pass,0.6900000000000005,-0.6233333333333338,0.0,0.0,0.6
440.0,16.0,wc_16,,0.0,,,,203.0,,,,Pass,,,,,
440.0,16.0,wc_16,wc_6,0.0,"[('wc_6', 0.6000000000000004), ('wc_16', 0.6900000000000005)]",0.8760000000000003,,,21.0,0.003967,['Pass'],Pass,0.6000000000000004,-0.4000000000000004,1.0,5.0,0.5
440.0,16.0,wc_16,,0.0,,,,0.0,,,,Pass,,,,,
440.0,16.0,wc_16,wc_9,1.0,"[('wc_9', 0.6400000000000005), ('wc_16', 0.6900000000000005), ('wc_6', 0.6000000000000004)]",0.9553600000000002,,,33.0,0.040279,['Pass'],Pass,0.6400000000000005,-0.6400000000000005,0.0,0.0,0.6
449.0,14.0,wc_14,,0.0,,,,141.0,,,,Pass,,,,,
449.0,14.0,wc_14,,0.0,,,64.0,,,,,Pass,,,,,
449.0,14.0,wc_14,,0.0,,,,0.0,,,,Pass,,,,,
449.0,14.0,wc_14,wc_14,0.0,"[('wc_14', 0.2300000000000001)]",0.2300000000000001,,,37.0,0.002358,['Fail'],Pass,0.2300000000000001,-0.18652173913043488,0.0,0.0,0.1
449.0,14.0,wc_14,,0.0,,,,341.0,,,,Pass,,,,,
449.0,14.0,wc_14,wc_4,0.0,"[('wc_4', 0.6900000000000005)]",0.6900000000000005,,,37.0,0.004005,['Pass'],Pass,0.6900000000000005,-0.4400000000000005,2.0,8.0,0.7
449.0,14.0,wc_14,,0.0,,,,81.0,,,,Pass,,,,,
449.0,14.0,wc_14,wc_2,0.0,"[('wc_2', 0.5900000000000004), ('wc_4', 0.6900000000000005)]",0.8729000000000003,,,36.0,0.0061660000000000005,['Pass'],Pass,0.5900000000000004,-0.3042857142857147,2.0,7.0,0.5
449.0,14.0,wc_14,,0.0,,,,183.0,,,,Pass,,,,,
449.0,14.0,wc_14,wc_9,1.0,"[('wc_9', 0.6400000000000005), ('wc_4', 0.6900000000000005), ('wc_2', 0.5900000000000004)]",0.9542440000000002,,,34.0,0.044756000000000004,['Pass'],Pass,0.6500000000000005,0.34999999999999953,1.0,1.0,0.6
461.0,17.0,wc_17,,0.0,,,,202.0,,,,Pass,,,,,
461.0,17.0,wc_17,,0.0,,,62.0,,,,,Pass,,,,,
461.0,17.0,wc_17,,0.0,,,,0.0,,,,Pass,,,,,
461.0,17.0,wc_17,wc_17,0.0,"[('wc_17', 0.7700000000000006)]",0.7700000000000006,,,32.0,0.002871,['Pass'],Pass,0.7700000000000006,-0.5477777777777784,2.0,9.0,1.0
461.0,17.0,wc_17,,0.0,,,,203.0,,,,Pass,,,,,
461.0,17.0,wc_17,wc_7,0.0,"[('wc_17', 0.7700000000000006)]",0.7700000000000006,,,40.0,0.004104,['Pass'],Pass,0.6800000000000005,-0.2633333333333338,0.0,0.0,0.6
461.0,17.0,wc_17,,0.0,,,,0.0,,,,Pass,,,,,
461.0,17.0,wc_17,wc_9,0.0,"[('wc_9', 0.6500000000000005), ('wc_7', 0.6800000000000005)]",0.8880000000000003,,,35.0,0.005734,['Fail'],Pass,0.6500000000000005,0.34999999999999953,1.0,1.0,0.6
461.0,17.0,wc_17,,0.0,,,,121.0,,,,Pass,,,,,
461.0,17.0,wc_17,wc_13,0.0,"[('wc_13', 0.7000000000000005), ('wc_17', 0.7700000000000006)]",0.9310000000000003,,,22.0,0.007298000000000001,['Pass'],Pass,0.7000000000000005,-0.3000000000000005,2.0,5.0,0.5
461.0,17.0,wc_17,,0.0,,,,381.0,,,,Pass,,,,,
461.0,17.0,wc_17,wc_5,1.0,"[('wc_5', 0.8600000000000007), ('wc_17', 0.7700000000000006), ('wc_13', 0.7000000000000005)]",0.9903400000000001,,,23.0,0.045232,['Pass'],Pass,0.8600000000000007,-0.8600000000000007,0.0,0.0,1.0
