mpecck/BCQC/bcqc_with_qdt/results/raw/input_6/independent_qc/training/20_workpiece/20200429_084416/wp_13_qc_majority_0.9.csv
production_index,step_idx,production_workcell,qc,consent,winner_qc_list,score,production_time,transport_time,inspection_time,network_time,qc_results,actual_quality,qc_score,score_error,in_winner_counter,in_qc_counter,qc_capability
45.0,1.0,wc_1,,0.0,,,56.0,,,,,Pass,,,,,
45.0,1.0,wc_1,,0.0,,,,0.0,,,,Pass,,,,,
45.0,1.0,wc_1,wc_1,0.0,"[('wc_1', 0.2600000000000001)]",0.2600000000000001,,,31.0,0.002096,['Pass'],Pass,0.2600000000000001,-0.01000000000000012,1.0,4.0,0.1
45.0,1.0,wc_1,,0.0,,,,223.0,,,,Pass,,,,,
45.0,1.0,wc_1,wc_10,0.0,"[('wc_10', 0.42000000000000026), ('wc_1', 0.2600000000000001)]",0.5708000000000002,,,37.0,0.004336,['Pass'],Pass,0.42000000000000026,-0.22000000000000025,1.0,5.0,0.4
45.0,1.0,wc_1,,0.0,,,,103.0,,,,Pass,,,,,
45.0,1.0,wc_1,wc_9,0.0,"[('wc_9', 0.6300000000000004)]",0.6300000000000004,,,22.0,0.007128000000000001,['Fail'],Pass,0.6300000000000004,-0.40777777777777824,2.0,9.0,0.6
45.0,1.0,wc_1,,0.0,,,,263.0,,,,Pass,,,,,
45.0,1.0,wc_1,wc_2,0.0,"[('wc_2', 0.6100000000000004), ('wc_1', 0.2600000000000001), ('wc_10', 0.42000000000000026)]",0.8326120000000004,,,26.0,0.008342,['Pass'],Pass,0.6100000000000004,-0.4433333333333338,1.0,6.0,0.5
45.0,1.0,wc_1,,0.0,,,,0.0,,,,Pass,,,,,
45.0,1.0,wc_1,wc_4,0.0,"[('wc_4', 0.6400000000000005), ('wc_9', 0.6300000000000004)]",0.8668000000000003,,,38.0,0.011021,['Fail'],Pass,0.6400000000000005,-0.39000000000000046,0.0,0.0,0.7
45.0,1.0,wc_1,,0.0,,,,182.0,,,,Pass,,,,,
45.0,1.0,wc_1,wc_11,1.0,"[('wc_11', 0.3700000000000002), ('wc_9', 0.6300000000000004), ('wc_4', 0.6400000000000005)]",0.9160840000000002,,,23.0,0.042864,['Fail'],Pass,0.3700000000000002,-0.3700000000000002,0.0,0.0,0.2
51.0,4.0,wc_4,,0.0,,,,342.0,,,,Fail,,,,,
51.0,4.0,wc_4,,0.0,,,62.0,,,,,Fail,,,,,
51.0,4.0,wc_4,,0.0,,,,0.0,,,,Fail,,,,,
51.0,4.0,wc_4,wc_4,0.0,"[('wc_4', 0.6500000000000005)]",0.6500000000000005,,,37.0,0.002119,['Fail'],Fail,0.6500000000000005,0.34999999999999953,1.0,1.0,0.7
51.0,4.0,wc_4,,0.0,,,,121.0,,,,Fail,,,,,
51.0,4.0,wc_4,wc_8,0.0,"[('wc_8', 0.6600000000000005), ('wc_4', 0.6500000000000005)]",0.8810000000000003,,,34.0,0.004288999999999999,['Fail'],Fail,0.6600000000000005,-0.6600000000000005,0.0,1.0,0.8
51.0,4.0,wc_4,,0.0,,,,82.0,,,,Fail,,,,,
51.0,4.0,wc_4,wc_6,1.0,"[('wc_6', 0.5700000000000004), ('wc_4', 0.6500000000000005), ('wc_8', 0.6600000000000005)]",0.9488300000000002,,,35.0,0.034540999999999995,['Fail'],Fail,0.5700000000000004,-0.4450000000000004,1.0,8.0,0.5
57.0,4.0,wc_4,,0.0,,,,341.0,,,,Fail,,,,,
57.0,4.0,wc_4,,0.0,,,57.0,,,,,Fail,,,,,
57.0,4.0,wc_4,,0.0,,,,0.0,,,,Fail,,,,,
57.0,4.0,wc_4,wc_4,0.0,"[('wc_4', 0.6600000000000005)]",0.6600000000000005,,,32.0,0.00231,['Fail'],Fail,0.6600000000000005,0.3399999999999995,2.0,2.0,0.7
57.0,4.0,wc_4,,0.0,,,,121.0,,,,Fail,,,,,
57.0,4.0,wc_4,wc_8,0.0,"[('wc_8', 0.6600000000000005), ('wc_4', 0.6600000000000005)]",0.8844000000000003,,,36.0,0.004282,['Fail'],Fail,0.6600000000000005,-0.16000000000000048,1.0,2.0,0.8
57.0,4.0,wc_4,,0.0,,,,102.0,,,,Fail,,,,,
57.0,4.0,wc_4,wc_7,1.0,"[('wc_7', 0.6200000000000004), ('wc_4', 0.6600000000000005), ('wc_8', 0.6600000000000005)]",0.9560720000000001,,,36.0,0.03707100000000001,['Fail'],Fail,0.6200000000000004,-0.6200000000000004,0.0,0.0,0.6
66.0,4.0,wc_4,,0.0,,,,321.0,,,,Pass,,,,,
66.0,4.0,wc_4,,0.0,,,68.0,,,,,Pass,,,,,
66.0,4.0,wc_4,,0.0,,,,0.0,,,,Pass,,,,,
66.0,4.0,wc_4,wc_4,0.0,"[('wc_4', 0.6700000000000005)]",0.6700000000000005,,,20.0,0.002077,['Pass'],Pass,0.6700000000000005,0.3299999999999995,3.0,3.0,0.7
66.0,4.0,wc_4,,0.0,,,,182.0,,,,Pass,,,,,
66.0,4.0,wc_4,wc_15,0.0,"[('wc_4', 0.6700000000000005)]",0.6700000000000005,,,22.0,0.004497,['Pass'],Pass,0.3400000000000002,-0.2150000000000002,0.0,0.0,0.1
66.0,4.0,wc_4,,0.0,,,,243.0,,,,Pass,,,,,
66.0,4.0,wc_4,wc_7,0.0,"[('wc_7', 0.6200000000000004), ('wc_4', 0.6700000000000005)]",0.8746000000000003,,,40.0,0.006339,['Pass'],Pass,0.6200000000000004,-0.6200000000000004,0.0,0.0,0.6
66.0,4.0,wc_4,,0.0,,,,182.0,,,,Pass,,,,,
66.0,4.0,wc_4,wc_1,0.0,"[('wc_4', 0.6700000000000005), ('wc_7', 0.6200000000000004)]",0.8746000000000003,,,28.0,0.008779,['Pass'],Pass,0.2500000000000001,-0.10714285714285726,1.0,7.0,0.1
66.0,4.0,wc_4,,0.0,,,,142.0,,,,Pass,,,,,
66.0,4.0,wc_4,wc_6,1.0,"[('wc_6', 0.5700000000000004), ('wc_4', 0.6700000000000005), ('wc_7', 0.6200000000000004)]",0.9460780000000002,,,28.0,0.040968000000000004,['Pass'],Pass,0.5700000000000004,-0.5700000000000004,0.0,0.0,0.5
78.0,3.0,wc_3,,0.0,,,,321.0,,,,Fail,,,,,
78.0,3.0,wc_3,,0.0,,,57.0,,,,,Fail,,,,,
78.0,3.0,wc_3,,0.0,,,,0.0,,,,Fail,,,,,
78.0,3.0,wc_3,wc_3,0.0,"[('wc_3', 0.3600000000000002)]",0.3600000000000002,,,37.0,0.002078,['Pass'],Fail,0.3600000000000002,-0.20615384615384635,0.0,0.0,0.3
78.0,3.0,wc_3,,0.0,,,,202.0,,,,Fail,,,,,
78.0,3.0,wc_3,wc_11,0.0,"[('wc_11', 0.3700000000000002), ('wc_3', 0.3600000000000002)]",0.5968000000000002,,,34.0,0.004463,['Pass'],Fail,0.3700000000000002,-0.3700000000000002,0.0,3.0,0.2
78.0,3.0,wc_3,,0.0,,,,362.0,,,,Fail,,,,,
78.0,3.0,wc_3,wc_5,0.0,"[('wc_5', 0.7600000000000006)]",0.7600000000000006,,,28.0,0.006816,['Fail'],Fail,0.7600000000000006,-0.5933333333333339,1.0,6.0,1.0
78.0,3.0,wc_3,,0.0,,,,162.0,,,,Fail,,,,,
78.0,3.0,wc_3,wc_15,0.0,"[('wc_15', 0.3300000000000002), ('wc_5', 0.7600000000000006)]",0.8392000000000004,,,28.0,0.008066,['Fail'],Fail,0.3300000000000002,-0.3300000000000002,0.0,1.0,0.1
78.0,3.0,wc_3,,0.0,,,,303.0,,,,Fail,,,,,
78.0,3.0,wc_3,wc_2,1.0,"[('wc_2', 0.6000000000000004), ('wc_5', 0.7600000000000006), ('wc_15', 0.3300000000000002)]",0.9356800000000003,,,38.0,0.040058,['Fail'],Fail,0.6000000000000004,-0.6000000000000004,0.0,0.0,0.5
87.0,3.0,wc_3,,0.0,,,,0.0,,,,Fail,,,,,
87.0,3.0,wc_3,,0.0,,,76.0,,,,,Fail,,,,,
87.0,3.0,wc_3,,0.0,,,,0.0,,,,Fail,,,,,
87.0,3.0,wc_3,wc_3,0.0,"[('wc_3', 0.3500000000000002)]",0.3500000000000002,,,36.0,0.001989,['Fail'],Fail,0.3500000000000002,-0.3500000000000002,0.0,1.0,0.3
87.0,3.0,wc_3,,0.0,,,,121.0,,,,Fail,,,,,
87.0,3.0,wc_3,wc_7,0.0,"[('wc_7', 0.6300000000000004)]",0.6300000000000004,,,37.0,0.005026,['Pass'],Fail,0.6300000000000004,-0.13000000000000045,1.0,2.0,0.6
87.0,3.0,wc_3,,0.0,,,,182.0,,,,Fail,,,,,
87.0,3.0,wc_3,wc_1,0.0,"[('wc_1', 0.2400000000000001), ('wc_7', 0.6300000000000004)]",0.7188000000000003,,,31.0,0.006861000000000001,['Pass'],Fail,0.2400000000000001,-0.128888888888889,1.0,9.0,0.1
87.0,3.0,wc_3,,0.0,,,,202.0,,,,Fail,,,,,
87.0,3.0,wc_3,wc_13,0.0,"[('wc_13', 0.6900000000000005), ('wc_3', 0.3500000000000002)]",0.7985000000000004,,,36.0,0.008243,['Fail'],Fail,0.6900000000000005,-0.4900000000000005,0.0,0.0,0.5
87.0,3.0,wc_3,,0.0,,,,0.0,,,,Fail,,,,,
87.0,3.0,wc_3,wc_14,0.0,"[('wc_3', 0.3500000000000002), ('wc_13', 0.6900000000000005)]",0.7985000000000004,,,31.0,0.009828,['Fail'],Fail,0.2300000000000001,-0.11888888888888899,1.0,9.0,0.1
87.0,3.0,wc_3,,0.0,,,,142.0,,,,Fail,,,,,
87.0,3.0,wc_3,wc_6,1.0,"[('wc_6', 0.5700000000000004), ('wc_7', 0.6300000000000004), ('wc_1', 0.2400000000000001), ('wc_14', 0.2300000000000001)]",0.9068946800000002,,,21.0,0.041936,['Pass'],Fail,0.5700000000000004,-0.0700000000000004,1.0,2.0,0.5
93.0,2.0,wc_2,,0.0,,,,222.0,,,,Pass,,,,,
93.0,2.0,wc_2,,0.0,,,60.0,,,,,Pass,,,,,
93.0,2.0,wc_2,,0.0,,,,0.0,,,,Pass,,,,,
93.0,2.0,wc_2,wc_2,0.0,"[('wc_2', 0.6000000000000004)]",0.6000000000000004,,,20.0,0.00237,['Fail'],Pass,0.6000000000000004,-0.6000000000000004,0.0,1.0,0.5
93.0,2.0,wc_2,,0.0,,,,183.0,,,,Pass,,,,,
93.0,2.0,wc_2,wc_9,0.0,"[('wc_9', 0.6300000000000004), ('wc_2', 0.6000000000000004)]",0.8520000000000003,,,36.0,0.003961,['Fail'],Pass,0.6300000000000004,-0.6300000000000004,0.0,5.0,0.6
93.0,2.0,wc_2,,0.0,,,,0.0,,,,Pass,,,,,
93.0,2.0,wc_2,wc_10,0.0,"[('wc_2', 0.6000000000000004), ('wc_9', 0.6300000000000004)]",0.8520000000000003,,,25.0,0.006432,['Fail'],Pass,0.41000000000000025,-0.3190909090909093,0.0,0.0,0.4
93.0,2.0,wc_2,,0.0,,,,223.0,,,,Pass,,,,,
93.0,2.0,wc_2,wc_1,0.0,"[('wc_1', 0.2400000000000001), ('wc_2', 0.6000000000000004), ('wc_9', 0.6300000000000004)]",0.8875200000000003,,,33.0,0.007366,['Fail'],Pass,0.2400000000000001,-0.2400000000000001,0.0,0.0,0.1
93.0,2.0,wc_2,,0.0,,,,0.0,,,,Pass,,,,,
93.0,2.0,wc_2,wc_3,1.0,"[('wc_3', 0.3400000000000002), ('wc_2', 0.6000000000000004), ('wc_9', 0.6300000000000004), ('wc_1', 0.2400000000000001)]",0.9257632000000002,,,35.0,0.03979900000000001,['Fail'],Pass,0.3400000000000002,-0.006666666666666876,1.0,3.0,0.3
108.0,3.0,wc_3,,0.0,,,,0.0,,,,Fail,,,,,
108.0,3.0,wc_3,,0.0,,,52.0,,,,,Fail,,,,,
108.0,3.0,wc_3,,0.0,,,,0.0,,,,Fail,,,,,
108.0,3.0,wc_3,wc_3,0.0,"[('wc_3', 0.3400000000000002)]",0.3400000000000002,,,35.0,0.002384,['Pass'],Fail,0.3400000000000002,-0.006666666666666876,1.0,3.0,0.3
108.0,3.0,wc_3,,0.0,,,,141.0,,,,Fail,,,,,
108.0,3.0,wc_3,wc_12,0.0,"[('wc_12', 0.5000000000000003)]",0.5000000000000003,,,21.0,0.004109,['Fail'],Fail,0.5000000000000003,-0.37500000000000033,1.0,8.0,0.4
108.0,3.0,wc_3,,0.0,,,,202.0,,,,Fail,,,,,
108.0,3.0,wc_3,wc_7,0.0,"[('wc_7', 0.6400000000000005), ('wc_3', 0.3400000000000002)]",0.7624000000000004,,,23.0,0.005778999999999999,['Pass'],Fail,0.6400000000000005,-0.14000000000000046,2.0,4.0,0.6
108.0,3.0,wc_3,,0.0,,,,0.0,,,,Fail,,,,,
108.0,3.0,wc_3,wc_11,0.0,"[('wc_11', 0.3600000000000002), ('wc_3', 0.3400000000000002), ('wc_7', 0.6400000000000005)]",0.8479360000000002,,,24.0,0.007708,['Pass'],Fail,0.3600000000000002,-0.3600000000000002,0.0,6.0,0.2
108.0,3.0,wc_3,,0.0,,,,83.0,,,,Fail,,,,,
108.0,3.0,wc_3,wc_9,1.0,"[('wc_9', 0.6300000000000004), ('wc_3', 0.3400000000000002), ('wc_7', 0.6400000000000005), ('wc_11', 0.3600000000000002)]",0.9437363200000002,,,21.0,0.045617000000000005,['Pass'],Fail,0.6300000000000004,-0.34428571428571475,2.0,7.0,0.6
132.0,3.0,wc_3,,0.0,,,,362.0,,,,Pass,,,,,
132.0,3.0,wc_3,,0.0,,,59.0,,,,,Pass,,,,,
132.0,3.0,wc_3,,0.0,,,,0.0,,,,Pass,,,,,
132.0,3.0,wc_3,wc_3,0.0,"[('wc_3', 0.3500000000000002)]",0.3500000000000002,,,35.0,0.002795,['Pass'],Pass,0.3500000000000002,0.1499999999999998,2.0,4.0,0.3
132.0,3.0,wc_3,,0.0,,,,181.0,,,,Pass,,,,,
132.0,3.0,wc_3,wc_14,0.0,"[('wc_14', 0.2300000000000001), ('wc_3', 0.3500000000000002)]",0.49950000000000017,,,35.0,0.004099,['Pass'],Pass,0.2300000000000001,-0.2300000000000001,0.0,2.0,0.1
132.0,3.0,wc_3,,0.0,,,,0.0,,,,Pass,,,,,
132.0,3.0,wc_3,wc_16,0.0,"[('wc_16', 0.6600000000000005)]",0.6600000000000005,,,26.0,0.005676,['Fail'],Pass,0.6600000000000005,-0.4100000000000005,0.0,0.0,0.6
132.0,3.0,wc_3,,0.0,,,,61.0,,,,Pass,,,,,
132.0,3.0,wc_3,wc_13,0.0,"[('wc_13', 0.6800000000000005), ('wc_3', 0.3500000000000002), ('wc_14', 0.2300000000000001)]",0.8398400000000004,,,24.0,0.007508,['Pass'],Pass,0.6800000000000005,-0.6800000000000005,0.0,3.0,0.5
132.0,3.0,wc_3,,0.0,,,,321.0,,,,Pass,,,,,
132.0,3.0,wc_3,wc_10,0.0,"[('wc_3', 0.3500000000000002), ('wc_14', 0.2300000000000001), ('wc_13', 0.6800000000000005)]",0.8398400000000004,,,24.0,0.01039,['Pass'],Pass,0.40000000000000024,-0.40000000000000024,0.0,2.0,0.4
132.0,3.0,wc_3,,0.0,,,,142.0,,,,Pass,,,,,
132.0,3.0,wc_3,wc_15,0.0,"[('wc_15', 0.3400000000000002), ('wc_16', 0.6600000000000005), ('wc_10', 0.40000000000000024)]",0.8653600000000002,,,33.0,0.010634000000000001,['Fail'],Pass,0.3400000000000002,-0.14000000000000018,1.0,5.0,0.1
132.0,3.0,wc_3,,0.0,,,,362.0,,,,Pass,,,,,
132.0,3.0,wc_3,wc_9,1.0,"[('wc_9', 0.6300000000000004), ('wc_16', 0.6600000000000005), ('wc_10', 0.40000000000000024), ('wc_15', 0.3400000000000002)]",0.9501832000000001,,,39.0,0.04561799999999999,['Fail'],Pass,0.6300000000000004,-0.25500000000000045,3.0,8.0,0.6
185.0,3.0,wc_3,,0.0,,,,362.0,,,,Fail,,,,,
185.0,3.0,wc_3,,0.0,,,52.0,,,,,Fail,,,,,
185.0,3.0,wc_3,,0.0,,,,0.0,,,,Fail,,,,,
185.0,3.0,wc_3,wc_3,0.0,"[('wc_3', 0.3500000000000002)]",0.3500000000000002,,,29.0,0.002161,['Fail'],Fail,0.3500000000000002,0.04999999999999982,2.0,5.0,0.3
185.0,3.0,wc_3,,0.0,,,,81.0,,,,Fail,,,,,
185.0,3.0,wc_3,wc_1,0.0,"[('wc_1', 0.2500000000000001), ('wc_3', 0.3500000000000002)]",0.5125000000000002,,,27.0,0.0039369999999999995,['Fail'],Fail,0.2500000000000001,0.0833333333333332,1.0,3.0,0.1
185.0,3.0,wc_3,,0.0,,,,223.0,,,,Fail,,,,,
185.0,3.0,wc_3,wc_10,0.0,"[('wc_10', 0.40000000000000024), ('wc_3', 0.3500000000000002), ('wc_1', 0.2500000000000001)]",0.7075000000000002,,,36.0,0.0060090000000000005,['Fail'],Fail,0.40000000000000024,-0.06666666666666693,1.0,3.0,0.4
185.0,3.0,wc_3,,0.0,,,,103.0,,,,Fail,,,,,
185.0,3.0,wc_3,wc_9,0.0,"[('wc_9', 0.6300000000000004), ('wc_3', 0.3500000000000002), ('wc_1', 0.2500000000000001), ('wc_10', 0.40000000000000024)]",0.8917750000000002,,,28.0,0.007725000000000001,['Fail'],Fail,0.6300000000000004,-0.25500000000000045,3.0,8.0,0.6
185.0,3.0,wc_3,,0.0,,,,263.0,,,,Fail,,,,,
185.0,3.0,wc_3,wc_2,1.0,"[('wc_2', 0.6000000000000004), ('wc_3', 0.3500000000000002), ('wc_1', 0.2500000000000001), ('wc_10', 0.40000000000000024), ('wc_9', 0.6300000000000004)]",0.9567100000000002,,,25.0,0.039196,['Fail'],Fail,0.6000000000000004,-0.2000000000000004,2.0,5.0,0.5
218.0,3.0,wc_3,,0.0,,,,0.0,,,,Fail,,,,,
218.0,3.0,wc_3,,0.0,,,57.0,,,,,Fail,,,,,
218.0,3.0,wc_3,,0.0,,,,0.0,,,,Fail,,,,,
218.0,3.0,wc_3,wc_3,0.0,"[('wc_3', 0.3600000000000002)]",0.3600000000000002,,,28.0,0.001992,['Pass'],Fail,0.3600000000000002,0.1399999999999998,3.0,6.0,0.3
218.0,3.0,wc_3,,0.0,,,,242.0,,,,Fail,,,,,
218.0,3.0,wc_3,wc_17,0.0,"[('wc_17', 0.7400000000000005)]",0.7400000000000005,,,22.0,0.003956,['Fail'],Fail,0.7400000000000005,-0.5733333333333339,0.0,0.0,1.0
218.0,3.0,wc_3,,0.0,,,,103.0,,,,Fail,,,,,
218.0,3.0,wc_3,wc_16,0.0,"[('wc_16', 0.6700000000000005), ('wc_17', 0.7400000000000005)]",0.9142000000000003,,,34.0,0.005915999999999999,['Fail'],Fail,0.6700000000000005,-0.17000000000000048,1.0,2.0,0.6
218.0,3.0,wc_3,,0.0,,,,203.0,,,,Fail,,,,,
218.0,3.0,wc_3,wc_6,0.0,"[('wc_17', 0.7400000000000005), ('wc_16', 0.6700000000000005)]",0.9142000000000003,,,38.0,0.009488,['Fail'],Fail,0.5700000000000004,-0.40333333333333377,1.0,6.0,0.5
218.0,3.0,wc_3,,0.0,,,,0.0,,,,Fail,,,,,
218.0,3.0,wc_3,wc_7,1.0,"[('wc_7', 0.6400000000000005), ('wc_17', 0.7400000000000005), ('wc_16', 0.6700000000000005)]",0.9691120000000002,,,22.0,0.037906999999999996,['Fail'],Fail,0.6400000000000005,-0.14000000000000046,4.0,8.0,0.6
257.0,3.0,wc_3,,0.0,,,,301.0,,,,Pass,,,,,
257.0,3.0,wc_3,,0.0,,,55.0,,,,,Pass,,,,,
257.0,3.0,wc_3,,0.0,,,,0.0,,,,Pass,,,,,
257.0,3.0,wc_3,wc_3,0.0,"[('wc_3', 0.3600000000000002)]",0.3600000000000002,,,31.0,0.002129,['Fail'],Pass,0.3600000000000002,0.06857142857142834,3.0,7.0,0.3
257.0,3.0,wc_3,,0.0,,,,202.0,,,,Pass,,,,,
257.0,3.0,wc_3,wc_15,0.0,"[('wc_15', 0.3400000000000002), ('wc_3', 0.3600000000000002)]",0.5776000000000003,,,36.0,0.004057,['Fail'],Pass,0.3400000000000002,-0.09000000000000019,2.0,8.0,0.1
257.0,3.0,wc_3,,0.0,,,,442.0,,,,Pass,,,,,
257.0,3.0,wc_3,wc_5,0.0,"[('wc_5', 0.7600000000000006), ('wc_3', 0.3600000000000002), ('wc_15', 0.3400000000000002)]",0.8986240000000003,,,40.0,0.006148,['Fail'],Pass,0.7600000000000006,-0.6061538461538467,0.0,0.0,1.0
257.0,3.0,wc_3,,0.0,,,,41.0,,,,Pass,,,,,
257.0,3.0,wc_3,wc_1,1.0,"[('wc_1', 0.2600000000000001), ('wc_3', 0.3600000000000002), ('wc_15', 0.3400000000000002), ('wc_5', 0.7600000000000006)]",0.9249817600000002,,,30.0,0.048043,['Fail'],Pass,0.27000000000000013,0.22999999999999987,3.0,6.0,0.1
285.0,5.0,wc_5,,0.0,,,,0.0,,,,Fail,,,,,
285.0,5.0,wc_5,,0.0,,,79.0,,,,,Fail,,,,,
285.0,5.0,wc_5,,0.0,,,,0.0,,,,Fail,,,,,
285.0,5.0,wc_5,wc_5,0.0,"[('wc_5', 0.7700000000000006)]",0.7700000000000006,,,23.0,0.002594,['Fail'],Fail,0.7700000000000006,0.22999999999999943,1.0,1.0,1.0
285.0,5.0,wc_5,,0.0,,,,142.0,,,,Fail,,,,,
285.0,5.0,wc_5,wc_10,0.0,"[('wc_10', 0.41000000000000025), ('wc_5', 0.7700000000000006)]",0.8643000000000004,,,33.0,0.004333999999999999,['Fail'],Fail,0.41000000000000025,-0.07666666666666694,2.0,6.0,0.4
285.0,5.0,wc_5,,0.0,,,,101.0,,,,Fail,,,,,
285.0,5.0,wc_5,wc_13,1.0,"[('wc_13', 0.6700000000000005), ('wc_5', 0.7700000000000006), ('wc_10', 0.41000000000000025)]",0.9552190000000002,,,37.0,0.038997000000000004,['Fail'],Fail,0.6700000000000005,-0.5450000000000005,1.0,8.0,0.5
337.0,5.0,wc_5,,0.0,,,,381.0,,,,Fail,,,,,
337.0,5.0,wc_5,,0.0,,,80.0,,,,,Fail,,,,,
337.0,5.0,wc_5,,0.0,,,,0.0,,,,Fail,,,,,
337.0,5.0,wc_5,wc_5,0.0,"[('wc_5', 0.7800000000000006)]",0.7800000000000006,,,28.0,0.002473,['Fail'],Fail,0.7800000000000006,0.21999999999999942,2.0,2.0,1.0
337.0,5.0,wc_5,,0.0,,,,142.0,,,,Fail,,,,,
337.0,5.0,wc_5,wc_10,0.0,"[('wc_10', 0.42000000000000026), ('wc_5', 0.7800000000000006)]",0.8724000000000004,,,32.0,0.004064,['Fail'],Fail,0.42000000000000026,0.008571428571428286,3.0,7.0,0.4
337.0,5.0,wc_5,,0.0,,,,162.0,,,,Fail,,,,,
337.0,5.0,wc_5,wc_16,1.0,"[('wc_16', 0.6700000000000005), ('wc_5', 0.7800000000000006), ('wc_10', 0.42000000000000026)]",0.9578920000000002,,,29.0,0.037903,['Fail'],Fail,0.6700000000000005,-0.17000000000000048,3.0,6.0,0.6
369.0,5.0,wc_5,,0.0,,,,422.0,,,,Pass,,,,,
369.0,5.0,wc_5,,0.0,,,59.0,,,,,Pass,,,,,
369.0,5.0,wc_5,,0.0,,,,0.0,,,,Pass,,,,,
369.0,5.0,wc_5,wc_5,0.0,"[('wc_5', 0.7900000000000006)]",0.7900000000000006,,,22.0,0.002195,['Pass'],Pass,0.7900000000000006,0.2099999999999994,3.0,3.0,1.0
369.0,5.0,wc_5,,0.0,,,,141.0,,,,Pass,,,,,
369.0,5.0,wc_5,wc_14,0.0,"[('wc_14', 0.22000000000000008), ('wc_5', 0.7900000000000006)]",0.8362000000000005,,,38.0,0.0057669999999999996,['Pass'],Pass,0.22000000000000008,-0.22000000000000008,0.0,8.0,0.1
369.0,5.0,wc_5,,0.0,,,,202.0,,,,Pass,,,,,
369.0,5.0,wc_5,wc_1,0.0,"[('wc_5', 0.7900000000000006), ('wc_14', 0.22000000000000008)]",0.8362000000000005,,,25.0,0.005652,['Pass'],Pass,0.27000000000000013,0.10499999999999987,3.0,8.0,0.1
369.0,5.0,wc_5,,0.0,,,,0.0,,,,Pass,,,,,
369.0,5.0,wc_5,wc_4,1.0,"[('wc_4', 0.6800000000000005), ('wc_5', 0.7900000000000006), ('wc_14', 0.22000000000000008)]",0.9475840000000002,,,32.0,0.039728000000000006,['Pass'],Pass,0.6800000000000005,-0.6800000000000005,0.0,0.0,0.7
377.0,6.0,wc_6,,0.0,,,,81.0,,,,Pass,,,,,
377.0,6.0,wc_6,,0.0,,,51.0,,,,,Pass,,,,,
377.0,6.0,wc_6,,0.0,,,,0.0,,,,Pass,,,,,
377.0,6.0,wc_6,wc_6,0.0,"[('wc_6', 0.5600000000000004)]",0.5600000000000004,,,37.0,0.002371,['Fail'],Pass,0.5600000000000004,-0.46909090909090945,0.0,0.0,0.5
377.0,6.0,wc_6,,0.0,,,,0.0,,,,Pass,,,,,
377.0,6.0,wc_6,wc_8,0.0,"[('wc_8', 0.6600000000000005)]",0.6600000000000005,,,30.0,0.004129,['Pass'],Pass,0.6600000000000005,-0.5266666666666672,0.0,0.0,0.8
377.0,6.0,wc_6,,0.0,,,,223.0,,,,Pass,,,,,
377.0,6.0,wc_6,wc_17,0.0,"[('wc_17', 0.7500000000000006), ('wc_8', 0.6600000000000005)]",0.9150000000000003,,,20.0,0.005595,['Pass'],Pass,0.7500000000000006,-0.5500000000000005,1.0,5.0,1.0
377.0,6.0,wc_6,,0.0,,,,83.0,,,,Pass,,,,,
377.0,6.0,wc_6,wc_15,1.0,"[('wc_15', 0.3400000000000002), ('wc_8', 0.6600000000000005), ('wc_17', 0.7500000000000006)]",0.9439000000000002,,,39.0,0.040227000000000006,['Pass'],Pass,0.3400000000000002,-0.3400000000000002,0.0,0.0,0.1
386.0,7.0,wc_7,,0.0,,,,243.0,,,,Pass,,,,,
386.0,7.0,wc_7,,0.0,,,61.0,,,,,Pass,,,,,
386.0,7.0,wc_7,,0.0,,,,0.0,,,,Pass,,,,,
386.0,7.0,wc_7,wc_7,0.0,"[('wc_7', 0.6400000000000005)]",0.6400000000000005,,,38.0,0.002894,['Pass'],Pass,0.6400000000000005,-0.33230769230769275,0.0,0.0,0.6
386.0,7.0,wc_7,,0.0,,,,0.0,,,,Pass,,,,,
386.0,7.0,wc_7,wc_11,0.0,"[('wc_11', 0.3600000000000002), ('wc_7', 0.6400000000000005)]",0.7696000000000004,,,32.0,0.004069,['Pass'],Pass,0.3600000000000002,-0.29333333333333356,0.0,0.0,0.2
386.0,7.0,wc_7,,0.0,,,,203.0,,,,Pass,,,,,
386.0,7.0,wc_7,wc_1,0.0,"[('wc_7', 0.6400000000000005), ('wc_11', 0.3600000000000002)]",0.7696000000000004,,,32.0,0.005947999999999999,['Pass'],Pass,0.27000000000000013,0.02999999999999986,0.0,0.0,0.1
386.0,7.0,wc_7,,0.0,,,,0.0,,,,Pass,,,,,
386.0,7.0,wc_7,wc_4,1.0,"[('wc_4', 0.6800000000000005), ('wc_7', 0.6400000000000005), ('wc_11', 0.3600000000000002)]",0.9262720000000002,,,26.0,0.04075,['Pass'],Pass,0.6800000000000005,-0.1800000000000005,1.0,2.0,0.7
398.0,10.0,wc_10,,0.0,,,,162.0,,,,Pass,,,,,
398.0,10.0,wc_10,,0.0,,,69.0,,,,,Pass,,,,,
398.0,10.0,wc_10,,0.0,,,,0.0,,,,Pass,,,,,
398.0,10.0,wc_10,wc_10,0.0,"[('wc_10', 0.43000000000000027)]",0.43000000000000027,,,29.0,0.002384,['Pass'],Pass,0.43000000000000027,-0.06636363636363662,0.0,0.0,0.4
398.0,10.0,wc_10,,0.0,,,,101.0,,,,Pass,,,,,
398.0,10.0,wc_10,wc_13,0.0,"[('wc_13', 0.6700000000000005), ('wc_10', 0.43000000000000027)]",0.8119000000000004,,,34.0,0.003724,['Pass'],Pass,0.6700000000000005,-0.5866666666666671,0.0,0.0,0.5
398.0,10.0,wc_10,,0.0,,,,341.0,,,,Pass,,,,,
398.0,10.0,wc_10,wc_11,0.0,"[('wc_10', 0.43000000000000027), ('wc_13', 0.6700000000000005)]",0.8119000000000004,,,32.0,0.00591,['Pass'],Pass,0.3700000000000002,0.6299999999999998,1.0,1.0,0.2
398.0,10.0,wc_10,,0.0,,,,342.0,,,,Pass,,,,,
398.0,10.0,wc_10,wc_4,1.0,"[('wc_4', 0.6800000000000005), ('wc_10', 0.43000000000000027), ('wc_13', 0.6700000000000005)]",0.9398080000000002,,,40.0,0.039123000000000005,['Pass'],Pass,0.6800000000000005,-0.013333333333333863,2.0,3.0,0.7
406.0,8.0,wc_8,,0.0,,,,121.0,,,,Pass,,,,,
406.0,8.0,wc_8,,0.0,,,51.0,,,,,Pass,,,,,
406.0,8.0,wc_8,,0.0,,,,0.0,,,,Pass,,,,,
406.0,8.0,wc_8,wc_8,0.0,"[('wc_8', 0.6700000000000005)]",0.6700000000000005,,,27.0,0.002176,['Pass'],Pass,0.6700000000000005,-0.33666666666666717,1.0,3.0,0.8
406.0,8.0,wc_8,,0.0,,,,142.0,,,,Pass,,,,,
406.0,8.0,wc_8,wc_13,0.0,"[('wc_13', 0.6800000000000005), ('wc_8', 0.6700000000000005)]",0.8944000000000003,,,39.0,0.0039759999999999995,['Pass'],Pass,0.6800000000000005,0.3199999999999995,1.0,1.0,0.5
406.0,8.0,wc_8,,0.0,,,,0.0,,,,Pass,,,,,
406.0,8.0,wc_8,wc_16,1.0,"[('wc_16', 0.6700000000000005), ('wc_8', 0.6700000000000005), ('wc_13', 0.6800000000000005)]",0.9651520000000001,,,23.0,0.039382,['Pass'],Pass,0.6700000000000005,-0.6700000000000005,0.0,0.0,0.6
416.0,11.0,wc_11,,0.0,,,,382.0,,,,Pass,,,,,
416.0,11.0,wc_11,,0.0,,,65.0,,,,,Pass,,,,,
416.0,11.0,wc_11,,0.0,,,,0.0,,,,Pass,,,,,
416.0,11.0,wc_11,wc_11,0.0,"[('wc_11', 0.3700000000000002)]",0.3700000000000002,,,22.0,0.002126,['Pass'],Pass,0.3700000000000002,-0.0366666666666669,1.0,3.0,0.2
416.0,11.0,wc_11,,0.0,,,,61.0,,,,Pass,,,,,
416.0,11.0,wc_11,wc_8,0.0,"[('wc_8', 0.6700000000000005), ('wc_11', 0.3700000000000002)]",0.7921000000000004,,,39.0,0.004045999999999999,['Pass'],Pass,0.6700000000000005,-0.17000000000000048,2.0,4.0,0.8
416.0,11.0,wc_11,,0.0,,,,102.0,,,,Pass,,,,,
416.0,11.0,wc_11,wc_7,1.0,"[('wc_7', 0.6500000000000005), ('wc_11', 0.3700000000000002), ('wc_8', 0.6700000000000005)]",0.9272350000000003,,,34.0,0.04151799999999999,['Pass'],Pass,0.6500000000000005,-0.15000000000000047,2.0,4.0,0.6
431.0,9.0,wc_9,,0.0,,,,0.0,,,,Pass,,,,,
431.0,9.0,wc_9,,0.0,,,71.0,,,,,Pass,,,,,
431.0,9.0,wc_9,,0.0,,,,0.0,,,,Pass,,,,,
431.0,9.0,wc_9,wc_9,0.0,"[('wc_9', 0.6300000000000004)]",0.6300000000000004,,,39.0,0.002179,['Pass'],Pass,0.6300000000000004,-0.4194736842105268,0.0,0.0,0.6
431.0,9.0,wc_9,,0.0,,,,182.0,,,,Pass,,,,,
431.0,9.0,wc_9,wc_16,0.0,"[('wc_16', 0.6700000000000005), ('wc_9', 0.6300000000000004)]",0.8779000000000003,,,30.0,0.004027,['Pass'],Pass,0.6700000000000005,-0.6700000000000005,0.0,1.0,0.6
431.0,9.0,wc_9,,0.0,,,,382.0,,,,Pass,,,,,
431.0,9.0,wc_9,wc_3,0.0,"[('wc_9', 0.6300000000000004), ('wc_16', 0.6700000000000005)]",0.8779000000000003,,,38.0,0.005651,['Pass'],Pass,0.3700000000000002,-0.12000000000000022,0.0,0.0,0.3
431.0,9.0,wc_9,,0.0,,,,182.0,,,,Pass,,,,,
431.0,9.0,wc_9,wc_10,0.0,"[('wc_9', 0.6300000000000004), ('wc_16', 0.6700000000000005)]",0.8779000000000003,,,29.0,0.008303,['Pass'],Pass,0.4400000000000003,-0.10666666666666696,1.0,3.0,0.4
431.0,9.0,wc_9,,0.0,,,,81.0,,,,Pass,,,,,
431.0,9.0,wc_9,wc_12,1.0,"[('wc_12', 0.4900000000000003), ('wc_9', 0.6300000000000004), ('wc_16', 0.6700000000000005)]",0.9377290000000003,,,40.0,0.04839199999999999,['Pass'],Pass,0.4900000000000003,-0.4900000000000003,0.0,0.0,0.4
438.0,12.0,wc_12,,0.0,,,,0.0,,,,Pass,,,,,
438.0,12.0,wc_12,,0.0,,,60.0,,,,,Pass,,,,,
438.0,12.0,wc_12,,0.0,,,,0.0,,,,Pass,,,,,
438.0,12.0,wc_12,wc_12,0.0,"[('wc_12', 0.4900000000000003)]",0.4900000000000003,,,22.0,0.002284,['Pass'],Pass,0.4900000000000003,-0.4900000000000003,0.0,0.0,0.4
438.0,12.0,wc_12,,0.0,,,,401.0,,,,Pass,,,,,
438.0,12.0,wc_12,wc_5,0.0,"[('wc_5', 0.8000000000000006), ('wc_12', 0.4900000000000003)]",0.8980000000000004,,,37.0,0.004314,['Pass'],Pass,0.8000000000000006,-0.4000000000000006,0.0,0.0,1.0
438.0,12.0,wc_12,,0.0,,,,121.0,,,,Pass,,,,,
438.0,12.0,wc_12,wc_13,0.0,"[('wc_12', 0.4900000000000003), ('wc_5', 0.8000000000000006)]",0.8980000000000004,,,24.0,0.0062970000000000005,['Pass'],Pass,0.6900000000000005,-0.1900000000000005,2.0,4.0,0.5
438.0,12.0,wc_12,,0.0,,,,341.0,,,,Pass,,,,,
438.0,12.0,wc_12,wc_11,1.0,"[('wc_11', 0.3800000000000002), ('wc_12', 0.4900000000000003), ('wc_5', 0.8000000000000006)]",0.9367600000000003,,,29.0,0.044362000000000006,['Pass'],Pass,0.39000000000000024,0.10999999999999976,3.0,6.0,0.2
454.0,13.0,wc_13,,0.0,,,,81.0,,,,Pass,,,,,
454.0,13.0,wc_13,,0.0,,,58.0,,,,,Pass,,,,,
454.0,13.0,wc_13,,0.0,,,,0.0,,,,Pass,,,,,
454.0,13.0,wc_13,wc_13,0.0,"[('wc_13', 0.6800000000000005)]",0.6800000000000005,,,26.0,0.00208,['Pass'],Pass,0.6800000000000005,-0.28000000000000047,2.0,5.0,0.5
454.0,13.0,wc_13,,0.0,,,,301.0,,,,Pass,,,,,
454.0,13.0,wc_13,wc_9,0.0,"[('wc_9', 0.6400000000000005), ('wc_13', 0.6800000000000005)]",0.8848000000000004,,,34.0,0.00407,['Pass'],Pass,0.6400000000000005,-0.14000000000000046,1.0,2.0,0.6
454.0,13.0,wc_13,,0.0,,,,263.0,,,,Pass,,,,,
454.0,13.0,wc_13,wc_2,0.0,"[('wc_13', 0.6800000000000005), ('wc_9', 0.6400000000000005)]",0.8848000000000004,,,30.0,0.006672,['Pass'],Pass,0.6000000000000004,-0.482352941176471,0.0,0.0,0.5
454.0,13.0,wc_13,,0.0,,,,243.0,,,,Pass,,,,,
454.0,13.0,wc_13,wc_16,1.0,"[('wc_16', 0.6700000000000005), ('wc_13', 0.6800000000000005), ('wc_9', 0.6400000000000005)]",0.9619840000000002,,,32.0,0.044533,['Pass'],Pass,0.6700000000000005,-0.17000000000000048,2.0,4.0,0.6
459.0,16.0,wc_16,,0.0,,,,0.0,,,,Pass,,,,,
459.0,16.0,wc_16,,0.0,,,52.0,,,,,Pass,,,,,
459.0,16.0,wc_16,,0.0,,,,0.0,,,,Pass,,,,,
459.0,16.0,wc_16,wc_16,0.0,"[('wc_16', 0.6700000000000005)]",0.6700000000000005,,,22.0,0.002206,['Pass'],Pass,0.6700000000000005,-0.17000000000000048,2.0,4.0,0.6
459.0,16.0,wc_16,,0.0,,,,61.0,,,,Pass,,,,,
459.0,16.0,wc_16,wc_13,0.0,"[('wc_13', 0.6800000000000005), ('wc_16', 0.6700000000000005)]",0.8944000000000003,,,21.0,0.004088,['Pass'],Pass,0.6800000000000005,-0.1800000000000005,3.0,6.0,0.5
459.0,16.0,wc_16,,0.0,,,,0.0,,,,Pass,,,,,
459.0,16.0,wc_16,wc_14,1.0,"[('wc_14', 0.22000000000000008), ('wc_16', 0.6700000000000005), ('wc_13', 0.6800000000000005)]",0.9176320000000002,,,23.0,0.045959,['Pass'],Pass,0.22000000000000008,-0.22000000000000008,0.0,0.0,0.1
469.0,14.0,wc_14,,0.0,,,,0.0,,,,Pass,,,,,
469.0,14.0,wc_14,,0.0,,,68.0,,,,,Pass,,,,,
469.0,14.0,wc_14,,0.0,,,,0.0,,,,Pass,,,,,
469.0,14.0,wc_14,wc_14,0.0,"[('wc_14', 0.22000000000000008)]",0.22000000000000008,,,29.0,0.00257,['Fail'],Pass,0.22000000000000008,-0.22000000000000008,0.0,0.0,0.1
469.0,14.0,wc_14,,0.0,,,,162.0,,,,Pass,,,,,
469.0,14.0,wc_14,wc_7,0.0,"[('wc_7', 0.6500000000000005), ('wc_14', 0.22000000000000008)]",0.7270000000000003,,,37.0,0.003951,['Fail'],Pass,0.6500000000000005,-0.40000000000000047,2.0,8.0,0.6
469.0,14.0,wc_14,,0.0,,,,203.0,,,,Pass,,,,,
469.0,14.0,wc_14,wc_15,0.0,"[('wc_15', 0.3400000000000002), ('wc_14', 0.22000000000000008), ('wc_7', 0.6500000000000005)]",0.8198200000000003,,,36.0,0.006761,['Fail'],Pass,0.3400000000000002,-0.3400000000000002,0.0,8.0,0.1
469.0,14.0,wc_14,,0.0,,,,81.0,,,,Pass,,,,,
469.0,14.0,wc_14,wc_13,0.0,"[('wc_14', 0.22000000000000008), ('wc_7', 0.6500000000000005), ('wc_15', 0.3400000000000002)]",0.8198200000000003,,,39.0,0.008794,['Fail'],Pass,0.6800000000000005,-0.1085714285714291,4.0,7.0,0.5
469.0,14.0,wc_14,,0.0,,,,341.0,,,,Pass,,,,,
469.0,14.0,wc_14,wc_11,0.0,"[('wc_14', 0.22000000000000008), ('wc_7', 0.6500000000000005), ('wc_15', 0.3400000000000002)]",0.8198200000000003,,,32.0,0.020232,['Fail'],Pass,0.39000000000000024,-0.015000000000000235,3.0,8.0,0.2
469.0,14.0,wc_14,,0.0,,,,362.0,,,,Pass,,,,,
469.0,14.0,wc_14,wc_5,1.0,"[('wc_5', 0.8100000000000006), ('wc_13', 0.6800000000000005), ('wc_11', 0.39000000000000024)]",0.9629120000000002,,,35.0,0.050293,['Pass'],Pass,0.8100000000000006,-0.3100000000000006,2.0,4.0,1.0
478.0,15.0,wc_15,,0.0,,,,162.0,,,,Fail,,,,,
478.0,15.0,wc_15,,0.0,,,68.0,,,,,Fail,,,,,
478.0,15.0,wc_15,,0.0,,,,0.0,,,,Fail,,,,,
478.0,15.0,wc_15,wc_15,0.0,"[('wc_15', 0.3300000000000002)]",0.3300000000000002,,,36.0,0.002529,['Fail'],Fail,0.3300000000000002,-0.3300000000000002,0.0,9.0,0.1
478.0,15.0,wc_15,,0.0,,,,0.0,,,,Fail,,,,,
478.0,15.0,wc_15,wc_17,0.0,"[('wc_17', 0.7500000000000006), ('wc_15', 0.3300000000000002)]",0.8325000000000005,,,32.0,0.004639000000000001,['Fail'],Fail,0.7500000000000006,-0.6166666666666673,0.0,0.0,1.0
478.0,15.0,wc_15,,0.0,,,,103.0,,,,Fail,,,,,
478.0,15.0,wc_15,wc_16,1.0,"[('wc_16', 0.6700000000000005), ('wc_15', 0.3300000000000002), ('wc_17', 0.7500000000000006)]",0.9447250000000003,,,40.0,0.04166,['Fail'],Fail,0.6700000000000005,-0.09857142857142909,4.0,7.0,0.6
487.0,15.0,wc_15,,0.0,,,,103.0,,,,Pass,,,,,
487.0,15.0,wc_15,,0.0,,,65.0,,,,,Pass,,,,,
487.0,15.0,wc_15,,0.0,,,,0.0,,,,Pass,,,,,
487.0,15.0,wc_15,wc_15,0.0,"[('wc_15', 0.3300000000000002)]",0.3300000000000002,,,36.0,0.002111,['Fail'],Pass,0.3300000000000002,-0.3300000000000002,0.0,0.0,0.1
487.0,15.0,wc_15,,0.0,,,,382.0,,,,Pass,,,,,
487.0,15.0,wc_15,wc_10,0.0,"[('wc_10', 0.43000000000000027), ('wc_15', 0.3300000000000002)]",0.6181000000000003,,,24.0,0.004112,['Fail'],Pass,0.43000000000000027,-0.31888888888888917,1.0,9.0,0.4
487.0,15.0,wc_15,,0.0,,,,243.0,,,,Pass,,,,,
487.0,15.0,wc_15,wc_2,0.0,"[('wc_15', 0.3300000000000002), ('wc_10', 0.43000000000000027)]",0.6181000000000003,,,37.0,0.0059570000000000005,['Fail'],Pass,0.5900000000000004,-0.5900000000000004,0.0,4.0,0.5
487.0,15.0,wc_15,,0.0,,,,263.0,,,,Pass,,,,,
487.0,15.0,wc_15,wc_17,0.0,"[('wc_17', 0.7600000000000006), ('wc_2', 0.5900000000000004)]",0.9016000000000003,,,28.0,0.007948,['Pass'],Pass,0.7600000000000006,0.23999999999999944,1.0,1.0,1.0
487.0,15.0,wc_15,,0.0,,,,382.0,,,,Pass,,,,,
487.0,15.0,wc_15,wc_4,0.0,"[('wc_2', 0.5900000000000004), ('wc_17', 0.7600000000000006)]",0.9016000000000003,,,22.0,0.009719,['Pass'],Pass,0.6800000000000005,-0.49818181818181867,0.0,0.0,0.7
487.0,15.0,wc_15,,0.0,,,,161.0,,,,Pass,,,,,
487.0,15.0,wc_15,wc_14,1.0,"[('wc_14', 0.21000000000000008), ('wc_15', 0.3300000000000002), ('wc_10', 0.43000000000000027), ('wc_4', 0.6800000000000005)]",0.9034556800000002,,,32.0,0.049624,['Fail'],Pass,0.22000000000000008,0.11333333333333323,1.0,3.0,0.1
502.0,17.0,wc_17,,0.0,,,,0.0,,,,Fail,,,,,
502.0,17.0,wc_17,,0.0,,,56.0,,,,,Fail,,,,,
502.0,17.0,wc_17,,0.0,,,,0.0,,,,Fail,,,,,
502.0,17.0,wc_17,wc_17,0.0,"[('wc_17', 0.7500000000000006)]",0.7500000000000006,,,24.0,0.001992,['Fail'],Fail,0.7500000000000006,-0.25000000000000056,1.0,2.0,1.0
502.0,17.0,wc_17,,0.0,,,,402.0,,,,Fail,,,,,
502.0,17.0,wc_17,wc_5,0.0,"[('wc_5', 0.8100000000000006), ('wc_17', 0.7500000000000006)]",0.9525000000000002,,,32.0,0.005466,['Fail'],Fail,0.8100000000000006,-0.4766666666666673,2.0,6.0,1.0
502.0,17.0,wc_17,,0.0,,,,101.0,,,,Fail,,,,,
502.0,17.0,wc_17,wc_8,1.0,"[('wc_8', 0.6700000000000005), ('wc_17', 0.7500000000000006), ('wc_5', 0.8100000000000006)]",0.9843250000000001,,,24.0,0.041995,['Fail'],Fail,0.6700000000000005,-0.6700000000000005,0.0,0.0,0.8
514.0,17.0,wc_17,,0.0,,,,223.0,,,,Fail,,,,,
514.0,17.0,wc_17,,0.0,,,62.0,,,,,Fail,,,,,
514.0,17.0,wc_17,,0.0,,,,0.0,,,,Fail,,,,,
514.0,17.0,wc_17,wc_17,0.0,"[('wc_17', 0.7500000000000006)]",0.7500000000000006,,,31.0,0.002196,['Fail'],Fail,0.7500000000000006,-0.08333333333333393,2.0,3.0,1.0
514.0,17.0,wc_17,,0.0,,,,243.0,,,,Fail,,,,,
514.0,17.0,wc_17,wc_1,0.0,"[('wc_1', 0.2600000000000001), ('wc_17', 0.7500000000000006)]",0.8150000000000004,,,38.0,0.004309,['Fail'],Fail,0.2600000000000001,-0.2600000000000001,0.0,0.0,0.1
514.0,17.0,wc_17,,0.0,,,,203.0,,,,Fail,,,,,
514.0,17.0,wc_17,wc_9,1.0,"[('wc_9', 0.6500000000000005), ('wc_17', 0.7500000000000006), ('wc_1', 0.2600000000000001)]",0.9352500000000002,,,23.0,0.043484999999999996,['Fail'],Fail,0.6500000000000005,-0.31666666666666715,3.0,9.0,0.6
528.0,17.0,wc_17,,0.0,,,,202.0,,,,Pass,,,,,
528.0,17.0,wc_17,,0.0,,,73.0,,,,,Pass,,,,,
528.0,17.0,wc_17,,0.0,,,,0.0,,,,Pass,,,,,
528.0,17.0,wc_17,wc_17,0.0,"[('wc_17', 0.7500000000000006)]",0.7500000000000006,,,28.0,0.002613,['Pass'],Pass,0.7500000000000006,-5.551115123125783e-16,3.0,4.0,1.0
528.0,17.0,wc_17,,0.0,,,,41.0,,,,Pass,,,,,
528.0,17.0,wc_17,wc_13,0.0,"[('wc_17', 0.7500000000000006)]",0.7500000000000006,,,37.0,0.004627,['Pass'],Pass,0.6800000000000005,-0.2633333333333338,0.0,0.0,0.5
528.0,17.0,wc_17,,0.0,,,,0.0,,,,Pass,,,,,
528.0,17.0,wc_17,wc_16,0.0,"[('wc_16', 0.6700000000000005), ('wc_17', 0.7500000000000006)]",0.9175000000000003,,,34.0,0.006184,['Pass'],Pass,0.6700000000000005,-0.27000000000000046,0.0,0.0,0.6
528.0,17.0,wc_17,,0.0,,,,283.0,,,,Pass,,,,,
528.0,17.0,wc_17,wc_2,0.0,"[('wc_17', 0.7500000000000006), ('wc_16', 0.6700000000000005)]",0.9175000000000003,,,22.0,0.008482,['Pass'],Pass,0.5800000000000004,-0.5800000000000004,0.0,7.0,0.5
528.0,17.0,wc_17,,0.0,,,,0.0,,,,Pass,,,,,
528.0,17.0,wc_17,wc_3,1.0,"[('wc_3', 0.3600000000000002), ('wc_17', 0.7500000000000006), ('wc_16', 0.6700000000000005)]",0.9472000000000003,,,36.0,0.045236,['Pass'],Pass,0.3600000000000002,-0.3600000000000002,0.0,0.0,0.3
