mpecck/BCQC/bcqc_with_qdt/results/raw/input_6/independent_qc/training/20_workpiece/20200429_084416/wp_16_qc_majority_0.9.csv
production_index,step_idx,production_workcell,qc,consent,winner_qc_list,score,production_time,transport_time,inspection_time,network_time,qc_results,actual_quality,qc_score,score_error,in_winner_counter,in_qc_counter,qc_capability
70.0,1.0,wc_1,,0.0,,,71.0,,,,,Fail,,,,,
70.0,1.0,wc_1,,0.0,,,,0.0,,,,Fail,,,,,
70.0,1.0,wc_1,wc_1,0.0,"[('wc_1', 0.2600000000000001)]",0.2600000000000001,,,31.0,0.002212,['Fail'],Fail,0.2600000000000001,-0.2600000000000001,0.0,3.0,0.1
70.0,1.0,wc_1,,0.0,,,,283.0,,,,Fail,,,,,
70.0,1.0,wc_1,wc_17,0.0,"[('wc_17', 0.7700000000000006), ('wc_1', 0.2600000000000001)]",0.8298000000000004,,,32.0,0.004605,['Fail'],Fail,0.7700000000000006,-0.6588888888888895,1.0,9.0,1.0
70.0,1.0,wc_1,,0.0,,,,61.0,,,,Fail,,,,,
70.0,1.0,wc_1,wc_14,0.0,"[('wc_1', 0.2600000000000001), ('wc_17', 0.7700000000000006)]",0.8298000000000004,,,22.0,0.00594,['Fail'],Fail,0.2400000000000001,0.2599999999999999,2.0,4.0,0.1
70.0,1.0,wc_1,,0.0,,,,182.0,,,,Fail,,,,,
70.0,1.0,wc_1,wc_8,1.0,"[('wc_8', 0.7400000000000005), ('wc_1', 0.2600000000000001), ('wc_17', 0.7700000000000006)]",0.9557480000000003,,,21.0,0.041542,['Fail'],Fail,0.7400000000000005,-0.49000000000000055,1.0,4.0,0.8
174.0,1.0,wc_1,,0.0,,,,162.0,,,,Pass,,,,,
174.0,1.0,wc_1,,0.0,,,63.0,,,,,Pass,,,,,
174.0,1.0,wc_1,,0.0,,,,0.0,,,,Pass,,,,,
174.0,1.0,wc_1,wc_1,0.0,"[('wc_1', 0.2600000000000001)]",0.2600000000000001,,,24.0,0.002235,['Fail'],Pass,0.2600000000000001,-0.01000000000000012,1.0,4.0,0.1
174.0,1.0,wc_1,,0.0,,,,283.0,,,,Pass,,,,,
174.0,1.0,wc_1,wc_17,0.0,"[('wc_17', 0.7700000000000006)]",0.7700000000000006,,,35.0,0.003963,['Pass'],Pass,0.7700000000000006,-0.7700000000000006,0.0,0.0,1.0
174.0,1.0,wc_1,,0.0,,,,263.0,,,,Pass,,,,,
174.0,1.0,wc_1,wc_2,0.0,"[('wc_2', 0.6400000000000005), ('wc_17', 0.7700000000000006)]",0.9172000000000003,,,25.0,0.00615,['Pass'],Pass,0.6400000000000005,-0.6400000000000005,0.0,1.0,0.5
174.0,1.0,wc_1,,0.0,,,,162.0,,,,Pass,,,,,
174.0,1.0,wc_1,wc_12,1.0,"[('wc_12', 0.5000000000000003), ('wc_17', 0.7700000000000006), ('wc_2', 0.6400000000000005)]",0.9586000000000002,,,32.0,0.039797,['Pass'],Pass,0.5000000000000003,-3.3306690738754696e-16,2.0,4.0,0.4
193.0,4.0,wc_4,,0.0,,,,381.0,,,,Pass,,,,,
193.0,4.0,wc_4,,0.0,,,77.0,,,,,Pass,,,,,
193.0,4.0,wc_4,,0.0,,,,0.0,,,,Pass,,,,,
193.0,4.0,wc_4,wc_4,0.0,"[('wc_4', 0.7500000000000006)]",0.7500000000000006,,,20.0,0.00228,['Pass'],Pass,0.7500000000000006,-0.6250000000000006,0.0,0.0,0.7
193.0,4.0,wc_4,,0.0,,,,222.0,,,,Pass,,,,,
193.0,4.0,wc_4,wc_17,0.0,"[('wc_17', 0.7800000000000006), ('wc_4', 0.7500000000000006)]",0.9450000000000003,,,32.0,0.003969,['Pass'],Pass,0.7800000000000006,0.21999999999999942,1.0,1.0,1.0
193.0,4.0,wc_4,,0.0,,,,342.0,,,,Pass,,,,,
193.0,4.0,wc_4,wc_10,1.0,"[('wc_10', 0.41000000000000025), ('wc_4', 0.7500000000000006), ('wc_17', 0.7800000000000006)]",0.9675500000000001,,,27.0,0.036995,['Pass'],Pass,0.41000000000000025,-0.41000000000000025,0.0,0.0,0.4
222.0,2.0,wc_2,,0.0,,,,243.0,,,,Fail,,,,,
222.0,2.0,wc_2,,0.0,,,56.0,,,,,Fail,,,,,
222.0,2.0,wc_2,,0.0,,,,0.0,,,,Fail,,,,,
222.0,2.0,wc_2,wc_2,0.0,"[('wc_2', 0.6400000000000005)]",0.6400000000000005,,,22.0,0.002312,['Fail'],Fail,0.6400000000000005,-0.30666666666666714,1.0,3.0,0.5
222.0,2.0,wc_2,,0.0,,,,0.0,,,,Fail,,,,,
222.0,2.0,wc_2,wc_3,0.0,"[('wc_2', 0.6400000000000005)]",0.6400000000000005,,,39.0,0.004069,['Fail'],Fail,0.3800000000000002,-0.2890909090909093,0.0,0.0,0.3
222.0,2.0,wc_2,,0.0,,,,121.0,,,,Fail,,,,,
222.0,2.0,wc_2,wc_7,0.0,"[('wc_7', 0.7100000000000005), ('wc_2', 0.6400000000000005)]",0.8956000000000003,,,40.0,0.006501,['Fail'],Fail,0.7100000000000005,-0.44333333333333386,0.0,0.0,0.6
222.0,2.0,wc_2,,0.0,,,,182.0,,,,Fail,,,,,
222.0,2.0,wc_2,wc_1,0.0,"[('wc_2', 0.6400000000000005), ('wc_7', 0.7100000000000005)]",0.8956000000000003,,,30.0,0.007066,['Fail'],Fail,0.2500000000000001,-0.08333333333333345,1.0,6.0,0.1
222.0,2.0,wc_2,,0.0,,,,142.0,,,,Fail,,,,,
222.0,2.0,wc_2,wc_6,1.0,"[('wc_6', 0.6300000000000004), ('wc_2', 0.6400000000000005), ('wc_7', 0.7100000000000005)]",0.9613720000000001,,,30.0,0.038631,['Fail'],Fail,0.6300000000000004,-0.38000000000000045,1.0,4.0,0.5
234.0,2.0,wc_2,,0.0,,,,222.0,,,,Pass,,,,,
234.0,2.0,wc_2,,0.0,,,58.0,,,,,Pass,,,,,
234.0,2.0,wc_2,,0.0,,,,0.0,,,,Pass,,,,,
234.0,2.0,wc_2,wc_2,0.0,"[('wc_2', 0.6400000000000005)]",0.6400000000000005,,,33.0,0.002077,['Pass'],Pass,0.6400000000000005,-0.14000000000000046,2.0,4.0,0.5
234.0,2.0,wc_2,,0.0,,,,162.0,,,,Pass,,,,,
234.0,2.0,wc_2,wc_12,0.0,"[('wc_12', 0.5000000000000003), ('wc_2', 0.6400000000000005)]",0.8200000000000003,,,20.0,0.003855,['Pass'],Pass,0.5000000000000003,-0.16666666666666702,2.0,6.0,0.4
234.0,2.0,wc_2,,0.0,,,,361.0,,,,Pass,,,,,
234.0,2.0,wc_2,wc_3,0.0,"[('wc_2', 0.6400000000000005), ('wc_12', 0.5000000000000003)]",0.8200000000000003,,,34.0,0.00608,['Pass'],Pass,0.3700000000000002,-0.3700000000000002,0.0,1.0,0.3
234.0,2.0,wc_2,,0.0,,,,202.0,,,,Pass,,,,,
234.0,2.0,wc_2,wc_11,0.0,"[('wc_11', 0.3400000000000002), ('wc_2', 0.6400000000000005), ('wc_12', 0.5000000000000003)]",0.8812000000000003,,,37.0,0.008223999999999999,['Pass'],Pass,0.3400000000000002,-0.24000000000000019,0.0,0.0,0.2
234.0,2.0,wc_2,,0.0,,,,81.0,,,,Pass,,,,,
234.0,2.0,wc_2,wc_13,1.0,"[('wc_13', 0.7200000000000005), ('wc_2', 0.6400000000000005), ('wc_12', 0.5000000000000003), ('wc_11', 0.3400000000000002)]",0.9667360000000002,,,26.0,0.03901,['Pass'],Pass,0.7200000000000005,-0.7200000000000005,0.0,0.0,0.5
267.0,3.0,wc_3,,0.0,,,,341.0,,,,Pass,,,,,
267.0,3.0,wc_3,,0.0,,,52.0,,,,,Pass,,,,,
267.0,3.0,wc_3,,0.0,,,,0.0,,,,Pass,,,,,
267.0,3.0,wc_3,wc_3,0.0,"[('wc_3', 0.3600000000000002)]",0.3600000000000002,,,24.0,0.002308,['Pass'],Pass,0.3600000000000002,-0.3600000000000002,0.0,2.0,0.3
267.0,3.0,wc_3,,0.0,,,,141.0,,,,Pass,,,,,
267.0,3.0,wc_3,wc_8,0.0,"[('wc_8', 0.7400000000000005), ('wc_3', 0.3600000000000002)]",0.8336000000000003,,,39.0,0.004336,['Pass'],Pass,0.7400000000000005,-0.6150000000000005,1.0,8.0,0.8
267.0,3.0,wc_3,,0.0,,,,162.0,,,,Pass,,,,,
267.0,3.0,wc_3,wc_14,0.0,"[('wc_3', 0.3600000000000002), ('wc_8', 0.7400000000000005)]",0.8336000000000003,,,23.0,0.0057020000000000005,['Pass'],Pass,0.2400000000000001,-0.017777777777777892,2.0,9.0,0.1
267.0,3.0,wc_3,,0.0,,,,102.0,,,,Pass,,,,,
267.0,3.0,wc_3,wc_13,1.0,"[('wc_13', 0.7200000000000005), ('wc_3', 0.3600000000000002), ('wc_8', 0.7400000000000005)]",0.9534080000000003,,,29.0,0.040927000000000005,['Pass'],Pass,0.7300000000000005,0.26999999999999946,1.0,1.0,0.5
298.0,5.0,wc_5,,0.0,,,,381.0,,,,Pass,,,,,
298.0,5.0,wc_5,,0.0,,,77.0,,,,,Pass,,,,,
298.0,5.0,wc_5,,0.0,,,,0.0,,,,Pass,,,,,
298.0,5.0,wc_5,wc_5,0.0,"[('wc_5', 0.8900000000000007)]",0.8900000000000007,,,22.0,0.002288,['Fail'],Pass,0.8900000000000007,-0.7650000000000007,1.0,8.0,1.0
298.0,5.0,wc_5,,0.0,,,,81.0,,,,Pass,,,,,
298.0,5.0,wc_5,wc_7,0.0,"[('wc_5', 0.8900000000000007)]",0.8900000000000007,,,40.0,0.004365,['Fail'],Pass,0.7200000000000005,-0.3866666666666672,1.0,3.0,0.6
298.0,5.0,wc_5,,0.0,,,,182.0,,,,Pass,,,,,
298.0,5.0,wc_5,wc_14,0.0,"[('wc_14', 0.2300000000000001), ('wc_5', 0.8900000000000007)]",0.9153000000000006,,,39.0,0.005631,['Fail'],Pass,0.2300000000000001,-0.2300000000000001,0.0,0.0,0.1
298.0,5.0,wc_5,,0.0,,,,102.0,,,,Pass,,,,,
298.0,5.0,wc_5,wc_13,0.0,"[('wc_13', 0.7300000000000005), ('wc_7', 0.7200000000000005)]",0.9244000000000003,,,26.0,0.0070940000000000005,['Pass'],Pass,0.7300000000000005,0.26999999999999946,1.0,1.0,0.5
298.0,5.0,wc_5,,0.0,,,,341.0,,,,Pass,,,,,
298.0,5.0,wc_5,wc_3,1.0,"[('wc_3', 0.3600000000000002), ('wc_5', 0.8900000000000007), ('wc_14', 0.2300000000000001)]",0.9457920000000004,,,37.0,0.041819999999999996,['Fail'],Pass,0.3700000000000002,0.12999999999999978,2.0,4.0,0.3
311.0,6.0,wc_6,,0.0,,,,101.0,,,,Pass,,,,,
311.0,6.0,wc_6,,0.0,,,63.0,,,,,Pass,,,,,
311.0,6.0,wc_6,,0.0,,,,0.0,,,,Pass,,,,,
311.0,6.0,wc_6,wc_6,0.0,"[('wc_6', 0.6300000000000004)]",0.6300000000000004,,,30.0,0.002286,['Fail'],Pass,0.6300000000000004,-0.4871428571428576,1.0,7.0,0.5
311.0,6.0,wc_6,,0.0,,,,0.0,,,,Pass,,,,,
311.0,6.0,wc_6,wc_11,0.0,"[('wc_11', 0.3500000000000002), ('wc_6', 0.6300000000000004)]",0.7595000000000004,,,32.0,0.004096000000000001,['Fail'],Pass,0.3500000000000002,-0.016666666666666885,1.0,3.0,0.2
311.0,6.0,wc_6,,0.0,,,,81.0,,,,Pass,,,,,
311.0,6.0,wc_6,wc_13,0.0,"[('wc_6', 0.6300000000000004), ('wc_11', 0.3500000000000002)]",0.7595000000000004,,,27.0,0.006026999999999999,['Fail'],Pass,0.7200000000000005,-0.22000000000000053,1.0,2.0,0.5
311.0,6.0,wc_6,,0.0,,,,202.0,,,,Pass,,,,,
311.0,6.0,wc_6,wc_8,0.0,"[('wc_8', 0.7400000000000005), ('wc_13', 0.7200000000000005)]",0.9272000000000002,,,36.0,0.007194000000000001,['Pass'],Pass,0.7400000000000005,-0.5400000000000005,0.0,0.0,0.8
311.0,6.0,wc_6,,0.0,,,,203.0,,,,Pass,,,,,
311.0,6.0,wc_6,wc_16,1.0,"[('wc_16', 0.7000000000000005), ('wc_6', 0.6300000000000004), ('wc_11', 0.3500000000000002)]",0.9278500000000003,,,30.0,0.045015,['Fail'],Pass,0.7000000000000005,-0.7000000000000005,0.0,0.0,0.6
323.0,10.0,wc_10,,0.0,,,,362.0,,,,Fail,,,,,
323.0,10.0,wc_10,,0.0,,,77.0,,,,,Fail,,,,,
323.0,10.0,wc_10,,0.0,,,,0.0,,,,Fail,,,,,
323.0,10.0,wc_10,wc_10,0.0,"[('wc_10', 0.41000000000000025)]",0.41000000000000025,,,27.0,0.002301,['Pass'],Fail,0.41000000000000025,-0.41000000000000025,0.0,5.0,0.4
323.0,10.0,wc_10,,0.0,,,,121.0,,,,Fail,,,,,
323.0,10.0,wc_10,wc_14,0.0,"[('wc_14', 0.2400000000000001), ('wc_10', 0.41000000000000025)]",0.5516000000000003,,,20.0,0.004129,['Pass'],Fail,0.2400000000000001,0.2599999999999999,1.0,2.0,0.1
323.0,10.0,wc_10,,0.0,,,,222.0,,,,Fail,,,,,
323.0,10.0,wc_10,wc_2,0.0,"[('wc_2', 0.6400000000000005), ('wc_10', 0.41000000000000025), ('wc_14', 0.2400000000000001)]",0.8385760000000003,,,37.0,0.005797,['Pass'],Fail,0.6400000000000005,-0.26500000000000046,3.0,8.0,0.5
323.0,10.0,wc_10,,0.0,,,,243.0,,,,Fail,,,,,
323.0,10.0,wc_10,wc_16,0.0,"[('wc_10', 0.41000000000000025), ('wc_14', 0.2400000000000001), ('wc_2', 0.6400000000000005)]",0.8385760000000003,,,31.0,0.008099,['Pass'],Fail,0.7000000000000005,-0.7000000000000005,0.0,0.0,0.6
323.0,10.0,wc_10,,0.0,,,,382.0,,,,Fail,,,,,
323.0,10.0,wc_10,wc_11,0.0,"[('wc_11', 0.3600000000000002), ('wc_10', 0.41000000000000025), ('wc_14', 0.2400000000000001), ('wc_2', 0.6400000000000005)]",0.8966886400000003,,,39.0,0.009554,['Pass'],Fail,0.3600000000000002,0.1399999999999998,2.0,4.0,0.2
323.0,10.0,wc_10,,0.0,,,,203.0,,,,Fail,,,,,
323.0,10.0,wc_10,wc_1,1.0,"[('wc_1', 0.2400000000000001), ('wc_10', 0.41000000000000025), ('wc_14', 0.2400000000000001), ('wc_2', 0.6400000000000005), ('wc_11', 0.3600000000000002)]",0.9214833664000002,,,33.0,0.041829000000000005,['Pass'],Fail,0.2400000000000001,-0.2400000000000001,0.0,0.0,0.1
335.0,9.0,wc_9,,0.0,,,,203.0,,,,Pass,,,,,
335.0,9.0,wc_9,,0.0,,,75.0,,,,,Pass,,,,,
335.0,9.0,wc_9,,0.0,,,,0.0,,,,Pass,,,,,
335.0,9.0,wc_9,wc_9,0.0,"[('wc_9', 0.6500000000000005)]",0.6500000000000005,,,29.0,0.002116,['Pass'],Pass,0.6500000000000005,-0.6500000000000005,0.0,0.0,0.6
335.0,9.0,wc_9,,0.0,,,,61.0,,,,Pass,,,,,
335.0,9.0,wc_9,wc_6,0.0,"[('wc_9', 0.6500000000000005)]",0.6500000000000005,,,35.0,0.0040420000000000005,['Pass'],Pass,0.6300000000000004,-0.40777777777777824,2.0,9.0,0.5
335.0,9.0,wc_9,,0.0,,,,0.0,,,,Pass,,,,,
335.0,9.0,wc_9,wc_10,0.0,"[('wc_10', 0.41000000000000025), ('wc_9', 0.6500000000000005)]",0.7935000000000003,,,28.0,0.005807,['Pass'],Pass,0.41000000000000025,-0.2433333333333336,1.0,6.0,0.4
335.0,9.0,wc_9,,0.0,,,,142.0,,,,Pass,,,,,
335.0,9.0,wc_9,wc_15,0.0,"[('wc_9', 0.6500000000000005), ('wc_10', 0.41000000000000025)]",0.7935000000000003,,,24.0,0.008653000000000001,['Pass'],Pass,0.31000000000000016,-0.17666666666666683,0.0,0.0,0.1
335.0,9.0,wc_9,,0.0,,,,243.0,,,,Pass,,,,,
335.0,9.0,wc_9,wc_7,1.0,"[('wc_7', 0.7100000000000005), ('wc_9', 0.6500000000000005), ('wc_10', 0.41000000000000025)]",0.9401150000000003,,,20.0,0.041742,['Pass'],Pass,0.7100000000000005,-0.4242857142857148,2.0,7.0,0.6
349.0,8.0,wc_8,,0.0,,,,0.0,,,,Pass,,,,,
349.0,8.0,wc_8,,0.0,,,73.0,,,,,Pass,,,,,
349.0,8.0,wc_8,,0.0,,,,0.0,,,,Pass,,,,,
349.0,8.0,wc_8,wc_8,0.0,"[('wc_8', 0.7300000000000005)]",0.7300000000000005,,,35.0,0.002176,['Pass'],Pass,0.7300000000000005,-0.7300000000000005,0.0,3.0,0.8
349.0,8.0,wc_8,,0.0,,,,321.0,,,,Pass,,,,,
349.0,8.0,wc_8,wc_5,0.0,"[('wc_5', 0.8900000000000007), ('wc_8', 0.7300000000000005)]",0.9703000000000003,,,40.0,0.003952000000000001,['Pass'],Pass,0.8900000000000007,-0.723333333333334,0.0,0.0,1.0
349.0,8.0,wc_8,,0.0,,,,103.0,,,,Pass,,,,,
349.0,8.0,wc_8,wc_4,1.0,"[('wc_4', 0.7600000000000006), ('wc_8', 0.7300000000000005), ('wc_5', 0.8900000000000007)]",0.9928720000000001,,,32.0,0.038994,['Pass'],Pass,0.7600000000000006,-0.5377777777777784,2.0,9.0,0.7
360.0,7.0,wc_7,,0.0,,,,101.0,,,,Fail,,,,,
360.0,7.0,wc_7,,0.0,,,70.0,,,,,Fail,,,,,
360.0,7.0,wc_7,,0.0,,,,0.0,,,,Fail,,,,,
360.0,7.0,wc_7,wc_7,0.0,"[('wc_7', 0.7100000000000005)]",0.7100000000000005,,,20.0,0.002218,['Fail'],Fail,0.7100000000000005,-0.4600000000000005,2.0,8.0,0.6
360.0,7.0,wc_7,,0.0,,,,162.0,,,,Fail,,,,,
360.0,7.0,wc_7,wc_13,0.0,"[('wc_13', 0.7100000000000005), ('wc_7', 0.7100000000000005)]",0.9159000000000003,,,28.0,0.0051649999999999995,['Fail'],Fail,0.7100000000000005,-0.5433333333333339,1.0,6.0,0.5
360.0,7.0,wc_7,,0.0,,,,0.0,,,,Fail,,,,,
360.0,7.0,wc_7,wc_15,1.0,"[('wc_15', 0.30000000000000016), ('wc_7', 0.7100000000000005), ('wc_13', 0.7100000000000005)]",0.9411300000000002,,,22.0,0.036703,['Fail'],Fail,0.31000000000000016,0.02333333333333315,1.0,3.0,0.1
375.0,7.0,wc_7,,0.0,,,,243.0,,,,Pass,,,,,
375.0,7.0,wc_7,,0.0,,,79.0,,,,,Pass,,,,,
375.0,7.0,wc_7,,0.0,,,,0.0,,,,Pass,,,,,
375.0,7.0,wc_7,wc_7,0.0,"[('wc_7', 0.7100000000000005)]",0.7100000000000005,,,22.0,0.002206,['Pass'],Pass,0.7100000000000005,-0.3766666666666672,3.0,9.0,0.6
375.0,7.0,wc_7,,0.0,,,,243.0,,,,Pass,,,,,
375.0,7.0,wc_7,wc_17,0.0,"[('wc_17', 0.7900000000000006), ('wc_7', 0.7100000000000005)]",0.9391000000000003,,,21.0,0.004139,['Pass'],Pass,0.7900000000000006,-0.6081818181818188,0.0,0.0,1.0
375.0,7.0,wc_7,,0.0,,,,243.0,,,,Pass,,,,,
375.0,7.0,wc_7,wc_1,1.0,"[('wc_1', 0.2400000000000001), ('wc_7', 0.7100000000000005), ('wc_17', 0.7900000000000006)]",0.9537160000000002,,,23.0,0.03599100000000001,['Pass'],Pass,0.2400000000000001,0.009999999999999898,1.0,4.0,0.1
387.0,11.0,wc_11,,0.0,,,,243.0,,,,Fail,,,,,
387.0,11.0,wc_11,,0.0,,,74.0,,,,,Fail,,,,,
387.0,11.0,wc_11,,0.0,,,,0.0,,,,Fail,,,,,
387.0,11.0,wc_11,wc_11,0.0,"[('wc_11', 0.3700000000000002)]",0.3700000000000002,,,31.0,0.002152,['Fail'],Fail,0.3700000000000002,-0.0366666666666669,3.0,9.0,0.2
387.0,11.0,wc_11,,0.0,,,,101.0,,,,Fail,,,,,
387.0,11.0,wc_11,wc_14,0.0,"[('wc_11', 0.3700000000000002)]",0.3700000000000002,,,39.0,0.004234,['Fail'],Fail,0.2500000000000001,0.03571428571428559,2.0,7.0,0.1
387.0,11.0,wc_11,,0.0,,,,102.0,,,,Fail,,,,,
387.0,11.0,wc_11,wc_13,0.0,"[('wc_13', 0.7100000000000005), ('wc_11', 0.3700000000000002)]",0.8173000000000004,,,37.0,0.0058519999999999996,['Fail'],Fail,0.7100000000000005,-0.4600000000000005,2.0,8.0,0.5
387.0,11.0,wc_11,,0.0,,,,222.0,,,,Fail,,,,,
387.0,11.0,wc_11,wc_1,0.0,"[('wc_11', 0.3700000000000002), ('wc_13', 0.7100000000000005)]",0.8173000000000004,,,21.0,0.009788,['Fail'],Fail,0.2400000000000001,0.009999999999999898,1.0,4.0,0.1
387.0,11.0,wc_11,,0.0,,,,182.0,,,,Fail,,,,,
387.0,11.0,wc_11,wc_8,1.0,"[('wc_8', 0.7300000000000005), ('wc_11', 0.3700000000000002), ('wc_13', 0.7100000000000005)]",0.9506710000000002,,,32.0,0.044811,['Fail'],Fail,0.7300000000000005,-0.44428571428571484,2.0,7.0,0.8
395.0,11.0,wc_11,,0.0,,,,0.0,,,,Pass,,,,,
395.0,11.0,wc_11,,0.0,,,62.0,,,,,Pass,,,,,
395.0,11.0,wc_11,,0.0,,,,0.0,,,,Pass,,,,,
395.0,11.0,wc_11,wc_11,0.0,"[('wc_11', 0.3800000000000002)]",0.3800000000000002,,,37.0,0.002174,['Pass'],Pass,0.3800000000000002,-0.3800000000000002,0.0,0.0,0.2
395.0,11.0,wc_11,,0.0,,,,162.0,,,,Pass,,,,,
395.0,11.0,wc_11,wc_17,0.0,"[('wc_17', 0.8000000000000006)]",0.8000000000000006,,,21.0,0.004677000000000001,['Fail'],Pass,0.8000000000000006,-0.3000000000000006,1.0,2.0,1.0
395.0,11.0,wc_11,,0.0,,,,382.0,,,,Pass,,,,,
395.0,11.0,wc_11,wc_4,0.0,"[('wc_4', 0.7600000000000006), ('wc_17', 0.8000000000000006)]",0.9520000000000003,,,26.0,0.007307,['Fail'],Pass,0.7600000000000006,-0.5933333333333339,0.0,0.0,0.7
395.0,11.0,wc_11,,0.0,,,,81.0,,,,Pass,,,,,
395.0,11.0,wc_11,wc_2,1.0,"[('wc_2', 0.6400000000000005), ('wc_17', 0.8000000000000006), ('wc_4', 0.7600000000000006)]",0.9827200000000001,,,27.0,0.041952,['Fail'],Pass,0.6400000000000005,-0.6400000000000005,0.0,0.0,0.5
407.0,10.0,wc_10,,0.0,,,,203.0,,,,Fail,,,,,
407.0,10.0,wc_10,,0.0,,,52.0,,,,,Fail,,,,,
407.0,10.0,wc_10,,0.0,,,,0.0,,,,Fail,,,,,
407.0,10.0,wc_10,wc_10,0.0,"[('wc_10', 0.41000000000000025)]",0.41000000000000025,,,37.0,0.002392,['Pass'],Fail,0.41000000000000025,-0.2433333333333336,0.0,0.0,0.4
407.0,10.0,wc_10,,0.0,,,,182.0,,,,Fail,,,,,
407.0,10.0,wc_10,wc_17,0.0,"[('wc_17', 0.8000000000000006)]",0.8000000000000006,,,27.0,0.004056000000000001,['Fail'],Fail,0.8000000000000006,-0.13333333333333397,2.0,3.0,1.0
407.0,10.0,wc_10,,0.0,,,,322.0,,,,Fail,,,,,
407.0,10.0,wc_10,wc_9,0.0,"[('wc_9', 0.6600000000000005), ('wc_17', 0.8000000000000006)]",0.9320000000000003,,,36.0,0.005574,['Fail'],Fail,0.6600000000000005,-0.49333333333333385,1.0,6.0,0.6
407.0,10.0,wc_10,,0.0,,,,121.0,,,,Fail,,,,,
407.0,10.0,wc_10,wc_13,1.0,"[('wc_13', 0.7100000000000005), ('wc_17', 0.8000000000000006), ('wc_9', 0.6600000000000005)]",0.9802800000000002,,,35.0,0.042489,['Fail'],Fail,0.7100000000000005,-0.7100000000000005,0.0,0.0,0.5
419.0,10.0,wc_10,,0.0,,,,321.0,,,,Pass,,,,,
419.0,10.0,wc_10,,0.0,,,78.0,,,,,Pass,,,,,
419.0,10.0,wc_10,,0.0,,,,0.0,,,,Pass,,,,,
419.0,10.0,wc_10,wc_10,0.0,"[('wc_10', 0.40000000000000024)]",0.40000000000000024,,,35.0,0.002085,['Pass'],Pass,0.40000000000000024,-0.40000000000000024,0.0,1.0,0.4
419.0,10.0,wc_10,,0.0,,,,362.0,,,,Pass,,,,,
419.0,10.0,wc_10,wc_4,0.0,"[('wc_4', 0.7700000000000006)]",0.7700000000000006,,,22.0,0.006002,['Fail'],Pass,0.7700000000000006,-0.2700000000000006,1.0,2.0,0.7
419.0,10.0,wc_10,,0.0,,,,81.0,,,,Pass,,,,,
419.0,10.0,wc_10,wc_2,0.0,"[('wc_2', 0.6400000000000005), ('wc_10', 0.40000000000000024)]",0.7840000000000004,,,38.0,0.006168,['Pass'],Pass,0.6400000000000005,-0.6400000000000005,0.0,1.0,0.5
419.0,10.0,wc_10,,0.0,,,,102.0,,,,Pass,,,,,
419.0,10.0,wc_10,wc_1,0.0,"[('wc_1', 0.2300000000000001), ('wc_10', 0.40000000000000024), ('wc_2', 0.6400000000000005)]",0.8336800000000003,,,20.0,0.007507999999999999,['Pass'],Pass,0.2300000000000001,-0.08714285714285724,1.0,7.0,0.1
419.0,10.0,wc_10,,0.0,,,,203.0,,,,Pass,,,,,
419.0,10.0,wc_10,wc_9,0.0,"[('wc_9', 0.6600000000000005), ('wc_4', 0.7700000000000006)]",0.9218000000000003,,,31.0,0.010519,['Fail'],Pass,0.6600000000000005,-0.3742857142857148,2.0,7.0,0.6
419.0,10.0,wc_10,,0.0,,,,202.0,,,,Pass,,,,,
419.0,10.0,wc_10,wc_17,1.0,"[('wc_17', 0.8000000000000006), ('wc_10', 0.40000000000000024), ('wc_2', 0.6400000000000005), ('wc_1', 0.2300000000000001)]",0.9667360000000002,,,33.0,0.045866000000000004,['Pass'],Pass,0.8000000000000006,-5.551115123125783e-16,4.0,5.0,1.0
428.0,12.0,wc_12,,0.0,,,,21.0,,,,Pass,,,,,
428.0,12.0,wc_12,,0.0,,,58.0,,,,,Pass,,,,,
428.0,12.0,wc_12,,0.0,,,,0.0,,,,Pass,,,,,
428.0,12.0,wc_12,wc_12,0.0,"[('wc_12', 0.5000000000000003)]",0.5000000000000003,,,27.0,0.002047,['Fail'],Pass,0.5000000000000003,-0.3421052631578951,0.0,0.0,0.4
428.0,12.0,wc_12,,0.0,,,,182.0,,,,Pass,,,,,
428.0,12.0,wc_12,wc_6,0.0,"[('wc_6', 0.6200000000000004)]",0.6200000000000004,,,23.0,0.004129000000000001,['Pass'],Pass,0.6200000000000004,-0.6200000000000004,0.0,7.0,0.5
428.0,12.0,wc_12,,0.0,,,,0.0,,,,Pass,,,,,
428.0,12.0,wc_12,wc_11,0.0,"[('wc_11', 0.3700000000000002), ('wc_6', 0.6200000000000004)]",0.7606000000000004,,,38.0,0.005783,['Pass'],Pass,0.3700000000000002,-0.3700000000000002,0.0,3.0,0.2
428.0,12.0,wc_12,,0.0,,,,41.0,,,,Pass,,,,,
428.0,12.0,wc_12,wc_7,0.0,"[('wc_7', 0.7100000000000005), ('wc_12', 0.5000000000000003)]",0.8550000000000003,,,23.0,0.0072440000000000004,['Fail'],Pass,0.7100000000000005,-0.7100000000000005,0.0,4.0,0.6
428.0,12.0,wc_12,,0.0,,,,162.0,,,,Pass,,,,,
428.0,12.0,wc_12,wc_13,1.0,"[('wc_13', 0.7100000000000005), ('wc_6', 0.6200000000000004), ('wc_11', 0.3700000000000002)]",0.9305740000000002,,,32.0,0.054123,['Pass'],Pass,0.7100000000000005,-0.21000000000000052,1.0,2.0,0.5
437.0,13.0,wc_13,,0.0,,,,0.0,,,,Fail,,,,,
437.0,13.0,wc_13,,0.0,,,78.0,,,,,Fail,,,,,
437.0,13.0,wc_13,,0.0,,,,0.0,,,,Fail,,,,,
437.0,13.0,wc_13,wc_13,0.0,"[('wc_13', 0.7100000000000005)]",0.7100000000000005,,,28.0,0.002537,['Fail'],Fail,0.7100000000000005,-0.21000000000000052,1.0,2.0,0.5
437.0,13.0,wc_13,,0.0,,,,0.0,,,,Fail,,,,,
437.0,13.0,wc_13,wc_17,0.0,"[('wc_17', 0.8000000000000006), ('wc_13', 0.7100000000000005)]",0.9420000000000003,,,36.0,0.0042439999999999995,['Fail'],Fail,0.8000000000000006,-0.13333333333333397,4.0,6.0,1.0
437.0,13.0,wc_13,,0.0,,,,61.0,,,,Fail,,,,,
437.0,13.0,wc_13,wc_14,0.0,"[('wc_13', 0.7100000000000005), ('wc_17', 0.8000000000000006)]",0.9420000000000003,,,21.0,0.0059949999999999995,['Fail'],Fail,0.2500000000000001,-0.08333333333333345,0.0,0.0,0.1
437.0,13.0,wc_13,,0.0,,,,301.0,,,,Fail,,,,,
437.0,13.0,wc_13,wc_10,0.0,"[('wc_13', 0.7100000000000005), ('wc_17', 0.8000000000000006)]",0.9420000000000003,,,22.0,0.007799,['Fail'],Fail,0.41000000000000025,-0.07666666666666694,1.0,3.0,0.4
437.0,13.0,wc_13,,0.0,,,,0.0,,,,Fail,,,,,
437.0,13.0,wc_13,wc_11,1.0,"[('wc_11', 0.3700000000000002), ('wc_13', 0.7100000000000005), ('wc_17', 0.8000000000000006)]",0.9634600000000002,,,22.0,0.04082,['Fail'],Fail,0.3800000000000002,0.019999999999999796,2.0,5.0,0.2
445.0,13.0,wc_13,,0.0,,,,81.0,,,,Fail,,,,,
445.0,13.0,wc_13,,0.0,,,50.0,,,,,Fail,,,,,
445.0,13.0,wc_13,,0.0,,,,0.0,,,,Fail,,,,,
445.0,13.0,wc_13,wc_13,0.0,"[('wc_13', 0.7100000000000005)]",0.7100000000000005,,,25.0,0.002341,['Fail'],Fail,0.7100000000000005,-0.04333333333333389,2.0,3.0,0.5
445.0,13.0,wc_13,,0.0,,,,0.0,,,,Fail,,,,,
445.0,13.0,wc_13,wc_17,0.0,"[('wc_17', 0.8000000000000006), ('wc_13', 0.7100000000000005)]",0.9420000000000003,,,36.0,0.004337000000000001,['Fail'],Fail,0.8000000000000006,-0.0857142857142863,5.0,7.0,1.0
445.0,13.0,wc_13,,0.0,,,,21.0,,,,Fail,,,,,
445.0,13.0,wc_13,wc_12,1.0,"[('wc_12', 0.4900000000000003), ('wc_13', 0.7100000000000005), ('wc_17', 0.8000000000000006)]",0.9704200000000002,,,39.0,0.040426,['Fail'],Fail,0.4900000000000003,-0.156666666666667,1.0,3.0,0.4
464.0,13.0,wc_13,,0.0,,,,0.0,,,,Fail,,,,,
464.0,13.0,wc_13,,0.0,,,77.0,,,,,Fail,,,,,
464.0,13.0,wc_13,,0.0,,,,0.0,,,,Fail,,,,,
464.0,13.0,wc_13,wc_13,0.0,"[('wc_13', 0.7200000000000005)]",0.7200000000000005,,,31.0,0.002189,['Fail'],Fail,0.7200000000000005,0.02999999999999947,3.0,4.0,0.5
464.0,13.0,wc_13,,0.0,,,,321.0,,,,Fail,,,,,
464.0,13.0,wc_13,wc_10,0.0,"[('wc_13', 0.7200000000000005)]",0.7200000000000005,,,37.0,0.00562,['Fail'],Fail,0.40000000000000024,-0.20000000000000023,1.0,5.0,0.4
464.0,13.0,wc_13,,0.0,,,,41.0,,,,Fail,,,,,
464.0,13.0,wc_13,wc_6,0.0,"[('wc_6', 0.6200000000000004), ('wc_13', 0.7200000000000005)]",0.8936000000000003,,,40.0,0.007232000000000001,['Fail'],Fail,0.6200000000000004,-0.5200000000000005,0.0,0.0,0.5
464.0,13.0,wc_13,,0.0,,,,321.0,,,,Fail,,,,,
464.0,13.0,wc_13,wc_3,0.0,"[('wc_13', 0.7200000000000005), ('wc_6', 0.6200000000000004)]",0.8936000000000003,,,21.0,0.010189,['Fail'],Fail,0.3700000000000002,-0.2523529411764708,0.0,0.0,0.3
464.0,13.0,wc_13,,0.0,,,,141.0,,,,Fail,,,,,
464.0,13.0,wc_13,wc_12,0.0,"[('wc_13', 0.7200000000000005), ('wc_6', 0.6200000000000004)]",0.8936000000000003,,,25.0,0.009922,['Fail'],Fail,0.4900000000000003,-0.156666666666667,1.0,3.0,0.4
464.0,13.0,wc_13,,0.0,,,,321.0,,,,Fail,,,,,
464.0,13.0,wc_13,wc_9,1.0,"[('wc_9', 0.6500000000000005), ('wc_13', 0.7200000000000005), ('wc_6', 0.6200000000000004)]",0.9627600000000002,,,37.0,0.04342899999999999,['Fail'],Fail,0.6500000000000005,-0.6500000000000005,0.0,0.0,0.6
470.0,13.0,wc_13,,0.0,,,,121.0,,,,Pass,,,,,
470.0,13.0,wc_13,,0.0,,,50.0,,,,,Pass,,,,,
470.0,13.0,wc_13,,0.0,,,,0.0,,,,Pass,,,,,
470.0,13.0,wc_13,wc_13,0.0,"[('wc_13', 0.7300000000000005)]",0.7300000000000005,,,35.0,0.003208,['Pass'],Pass,0.7300000000000005,0.06999999999999951,4.0,5.0,0.5
470.0,13.0,wc_13,,0.0,,,,0.0,,,,Pass,,,,,
470.0,13.0,wc_13,wc_17,0.0,"[('wc_17', 0.8000000000000006), ('wc_13', 0.7300000000000005)]",0.9460000000000003,,,23.0,0.004246,['Pass'],Pass,0.8000000000000006,-0.13333333333333397,6.0,9.0,1.0
470.0,13.0,wc_13,,0.0,,,,183.0,,,,Pass,,,,,
470.0,13.0,wc_13,wc_6,1.0,"[('wc_6', 0.6300000000000004), ('wc_13', 0.7300000000000005), ('wc_17', 0.8000000000000006)]",0.9800200000000001,,,33.0,0.04042199999999999,['Pass'],Pass,0.6400000000000005,0.35999999999999954,2.0,2.0,0.5
477.0,14.0,wc_14,,0.0,,,,202.0,,,,Pass,,,,,
477.0,14.0,wc_14,,0.0,,,61.0,,,,,Pass,,,,,
477.0,14.0,wc_14,,0.0,,,,0.0,,,,Pass,,,,,
477.0,14.0,wc_14,wc_14,0.0,"[('wc_14', 0.2400000000000001)]",0.2400000000000001,,,34.0,0.002301,['Fail'],Pass,0.2400000000000001,-0.2400000000000001,0.0,4.0,0.1
477.0,14.0,wc_14,,0.0,,,,281.0,,,,Pass,,,,,
477.0,14.0,wc_14,wc_9,0.0,"[('wc_9', 0.6500000000000005), ('wc_14', 0.2400000000000001)]",0.7340000000000004,,,25.0,0.005044,['Fail'],Pass,0.6500000000000005,-0.6500000000000005,0.0,1.0,0.6
477.0,14.0,wc_14,,0.0,,,,101.0,,,,Pass,,,,,
477.0,14.0,wc_14,wc_8,0.0,"[('wc_14', 0.2400000000000001), ('wc_9', 0.6500000000000005)]",0.7340000000000004,,,33.0,0.006357,['Fail'],Pass,0.7300000000000005,-0.5966666666666672,0.0,0.0,0.8
477.0,14.0,wc_14,,0.0,,,,301.0,,,,Pass,,,,,
477.0,14.0,wc_14,wc_4,0.0,"[('wc_4', 0.7600000000000006), ('wc_8', 0.7300000000000005)]",0.9352000000000003,,,27.0,0.008851,['Pass'],Pass,0.7600000000000006,-0.6350000000000006,1.0,8.0,0.7
477.0,14.0,wc_14,,0.0,,,,162.0,,,,Pass,,,,,
477.0,14.0,wc_14,wc_10,1.0,"[('wc_10', 0.39000000000000024), ('wc_8', 0.7300000000000005), ('wc_4', 0.7600000000000006)]",0.9604720000000002,,,30.0,0.05017399999999999,['Pass'],Pass,0.39000000000000024,-0.14000000000000024,2.0,8.0,0.4
488.0,16.0,wc_16,,0.0,,,,162.0,,,,Pass,,,,,
488.0,16.0,wc_16,,0.0,,,71.0,,,,,Pass,,,,,
488.0,16.0,wc_16,,0.0,,,,0.0,,,,Pass,,,,,
488.0,16.0,wc_16,wc_16,0.0,"[('wc_16', 0.6900000000000005)]",0.6900000000000005,,,38.0,0.002125,['Fail'],Pass,0.6900000000000005,-0.6900000000000005,0.0,0.0,0.6
488.0,16.0,wc_16,,0.0,,,,41.0,,,,Pass,,,,,
488.0,16.0,wc_16,wc_12,0.0,"[('wc_12', 0.4800000000000003), ('wc_16', 0.6900000000000005)]",0.8388000000000003,,,33.0,0.004281,['Fail'],Pass,0.4800000000000003,-0.3133333333333337,1.0,6.0,0.4
488.0,16.0,wc_16,,0.0,,,,0.0,,,,Pass,,,,,
488.0,16.0,wc_16,wc_17,0.0,"[('wc_16', 0.6900000000000005), ('wc_12', 0.4800000000000003)]",0.8388000000000003,,,37.0,0.006213,['Fail'],Pass,0.8000000000000006,-0.8000000000000006,0.0,1.0,1.0
488.0,16.0,wc_16,,0.0,,,,382.0,,,,Pass,,,,,
488.0,16.0,wc_16,wc_4,1.0,"[('wc_4', 0.7600000000000006), ('wc_16', 0.6900000000000005), ('wc_12', 0.4800000000000003)]",0.9613120000000002,,,28.0,0.047158000000000005,['Fail'],Pass,0.7600000000000006,-0.7600000000000006,0.0,0.0,0.7
495.0,15.0,wc_15,,0.0,,,,182.0,,,,Fail,,,,,
495.0,15.0,wc_15,,0.0,,,78.0,,,,,Fail,,,,,
495.0,15.0,wc_15,,0.0,,,,0.0,,,,Fail,,,,,
495.0,15.0,wc_15,wc_15,0.0,"[('wc_15', 0.31000000000000016)]",0.31000000000000016,,,20.0,0.002663,['Pass'],Fail,0.31000000000000016,-0.2433333333333335,0.0,0.0,0.1
495.0,15.0,wc_15,,0.0,,,,382.0,,,,Fail,,,,,
495.0,15.0,wc_15,wc_10,0.0,"[('wc_10', 0.39000000000000024)]",0.39000000000000024,,,24.0,0.0045769999999999995,['Fail'],Fail,0.39000000000000024,-0.16777777777777803,2.0,9.0,0.4
495.0,15.0,wc_15,,0.0,,,,41.0,,,,Fail,,,,,
495.0,15.0,wc_15,wc_6,0.0,"[('wc_6', 0.6400000000000005), ('wc_15', 0.31000000000000016)]",0.7516000000000004,,,22.0,0.006763,['Pass'],Fail,0.6400000000000005,-0.14000000000000046,2.0,4.0,0.5
495.0,15.0,wc_15,,0.0,,,,162.0,,,,Fail,,,,,
495.0,15.0,wc_15,wc_12,0.0,"[('wc_15', 0.31000000000000016), ('wc_6', 0.6400000000000005)]",0.7516000000000004,,,24.0,0.009164,['Pass'],Fail,0.4800000000000003,-0.19428571428571462,2.0,7.0,0.4
495.0,15.0,wc_15,,0.0,,,,321.0,,,,Fail,,,,,
495.0,15.0,wc_15,wc_9,0.0,"[('wc_9', 0.6400000000000005), ('wc_10', 0.39000000000000024), ('wc_12', 0.4800000000000003)]",0.8858080000000003,,,35.0,0.011491,['Fail'],Fail,0.6400000000000005,-0.6400000000000005,0.0,3.0,0.6
495.0,15.0,wc_15,,0.0,,,,202.0,,,,Fail,,,,,
495.0,15.0,wc_15,wc_17,1.0,"[('wc_17', 0.7900000000000006), ('wc_10', 0.39000000000000024), ('wc_12', 0.4800000000000003), ('wc_9', 0.6400000000000005)]",0.9760196800000002,,,38.0,0.056422999999999994,['Fail'],Fail,0.7900000000000006,-0.4566666666666673,1.0,3.0,1.0
503.0,15.0,wc_15,,0.0,,,,83.0,,,,Pass,,,,,
503.0,15.0,wc_15,,0.0,,,77.0,,,,,Pass,,,,,
503.0,15.0,wc_15,,0.0,,,,0.0,,,,Pass,,,,,
503.0,15.0,wc_15,wc_15,0.0,"[('wc_15', 0.30000000000000016)]",0.30000000000000016,,,38.0,0.002103,['Fail'],Pass,0.30000000000000016,-0.30000000000000016,0.0,1.0,0.1
503.0,15.0,wc_15,,0.0,,,,0.0,,,,Pass,,,,,
503.0,15.0,wc_15,wc_16,0.0,"[('wc_16', 0.7000000000000005)]",0.7000000000000005,,,22.0,0.004411,['Pass'],Pass,0.7000000000000005,-0.2000000000000005,1.0,2.0,0.6
503.0,15.0,wc_15,,0.0,,,,422.0,,,,Pass,,,,,
503.0,15.0,wc_15,wc_5,0.0,"[('wc_5', 0.9000000000000007), ('wc_16', 0.7000000000000005)]",0.9700000000000003,,,27.0,0.005802,['Pass'],Pass,0.9000000000000007,-0.833333333333334,0.0,0.0,1.0
503.0,15.0,wc_15,,0.0,,,,101.0,,,,Pass,,,,,
503.0,15.0,wc_15,wc_8,1.0,"[('wc_8', 0.7400000000000005), ('wc_16', 0.7000000000000005), ('wc_5', 0.9000000000000007)]",0.9922000000000001,,,25.0,0.041319,['Pass'],Pass,0.7400000000000005,-0.24000000000000055,2.0,4.0,0.8
516.0,17.0,wc_17,,0.0,,,,223.0,,,,Fail,,,,,
516.0,17.0,wc_17,,0.0,,,52.0,,,,,Fail,,,,,
516.0,17.0,wc_17,,0.0,,,,0.0,,,,Fail,,,,,
516.0,17.0,wc_17,wc_17,0.0,"[('wc_17', 0.7900000000000006)]",0.7900000000000006,,,29.0,0.002283,['Fail'],Fail,0.7900000000000006,-0.5400000000000006,1.0,4.0,1.0
516.0,17.0,wc_17,,0.0,,,,21.0,,,,Fail,,,,,
516.0,17.0,wc_17,wc_12,0.0,"[('wc_12', 0.4800000000000003), ('wc_17', 0.7900000000000006)]",0.8908000000000004,,,32.0,0.004053,['Fail'],Fail,0.4800000000000003,-0.146666666666667,3.0,9.0,0.4
516.0,17.0,wc_17,,0.0,,,,321.0,,,,Fail,,,,,
516.0,17.0,wc_17,wc_9,1.0,"[('wc_9', 0.6400000000000005), ('wc_17', 0.7900000000000006), ('wc_12', 0.4800000000000003)]",0.9606880000000002,,,31.0,0.043202,['Fail'],Fail,0.6400000000000005,-0.30666666666666714,2.0,6.0,0.6
534.0,17.0,wc_17,,0.0,,,,202.0,,,,Pass,,,,,
534.0,17.0,wc_17,,0.0,,,65.0,,,,,Pass,,,,,
534.0,17.0,wc_17,,0.0,,,,0.0,,,,Pass,,,,,
534.0,17.0,wc_17,wc_17,0.0,"[('wc_17', 0.7900000000000006)]",0.7900000000000006,,,21.0,0.002253,['Pass'],Pass,0.7900000000000006,-0.39000000000000057,2.0,5.0,1.0
534.0,17.0,wc_17,,0.0,,,,362.0,,,,Pass,,,,,
534.0,17.0,wc_17,wc_3,0.0,"[('wc_17', 0.7900000000000006)]",0.7900000000000006,,,27.0,0.004593,['Pass'],Pass,0.3600000000000002,-0.3600000000000002,0.0,7.0,0.3
534.0,17.0,wc_17,,0.0,,,,202.0,,,,Pass,,,,,
534.0,17.0,wc_17,wc_15,0.0,"[('wc_17', 0.7900000000000006)]",0.7900000000000006,,,37.0,0.008866,['Pass'],Pass,0.29000000000000015,-0.29000000000000015,0.0,3.0,0.1
534.0,17.0,wc_17,,0.0,,,,422.0,,,,Pass,,,,,
534.0,17.0,wc_17,wc_4,0.0,"[('wc_4', 0.7600000000000006), ('wc_17', 0.7900000000000006)]",0.9496000000000002,,,30.0,0.008502,['Pass'],Pass,0.7600000000000006,-0.7600000000000006,0.0,3.0,0.7
534.0,17.0,wc_17,,0.0,,,,81.0,,,,Pass,,,,,
534.0,17.0,wc_17,wc_2,0.0,"[('wc_17', 0.7900000000000006), ('wc_4', 0.7600000000000006)]",0.9496000000000002,,,26.0,0.011378,['Pass'],Pass,0.6400000000000005,-0.5566666666666671,0.0,0.0,0.5
534.0,17.0,wc_17,,0.0,,,,203.0,,,,Pass,,,,,
534.0,17.0,wc_17,wc_10,1.0,"[('wc_10', 0.39000000000000024), ('wc_17', 0.7900000000000006), ('wc_4', 0.7600000000000006)]",0.9692560000000001,,,21.0,0.04427,['Pass'],Pass,0.39000000000000024,-0.05666666666666692,1.0,3.0,0.4
