mpecck/BCQC/bcqc_with_qdt/results/raw/input_6/independent_qc/training/20_workpiece/20200429_084416/wp_12_qc_majority_0.9.csv
production_index,step_idx,production_workcell,qc,consent,winner_qc_list,score,production_time,transport_time,inspection_time,network_time,qc_results,actual_quality,qc_score,score_error,in_winner_counter,in_qc_counter,qc_capability
42.0,1.0,wc_1,,0.0,,,67.0,,,,,Pass,,,,,
42.0,1.0,wc_1,,0.0,,,,0.0,,,,Pass,,,,,
42.0,1.0,wc_1,wc_1,0.0,"[('wc_1', 0.22000000000000008)]",0.22000000000000008,,,40.0,0.002156,['Fail'],Pass,0.22000000000000008,0.2799999999999999,1.0,2.0,0.1
42.0,1.0,wc_1,,0.0,,,,243.0,,,,Pass,,,,,
42.0,1.0,wc_1,wc_15,0.0,"[('wc_15', 0.3800000000000002), ('wc_1', 0.22000000000000008)]",0.5164000000000002,,,36.0,0.004233,['Fail'],Pass,0.3800000000000002,-0.09428571428571453,2.0,7.0,0.1
42.0,1.0,wc_1,,0.0,,,,382.0,,,,Pass,,,,,
42.0,1.0,wc_1,wc_10,0.0,"[('wc_1', 0.22000000000000008), ('wc_15', 0.3800000000000002)]",0.5164000000000002,,,36.0,0.007429,['Fail'],Pass,0.43000000000000027,-0.2871428571428574,1.0,7.0,0.4
42.0,1.0,wc_1,,0.0,,,,101.0,,,,Pass,,,,,
42.0,1.0,wc_1,wc_13,0.0,"[('wc_13', 0.6500000000000005), ('wc_10', 0.43000000000000027)]",0.8005000000000003,,,20.0,0.007937,['Pass'],Pass,0.6500000000000005,-0.4961538461538466,0.0,0.0,0.5
42.0,1.0,wc_1,,0.0,,,,162.0,,,,Pass,,,,,
42.0,1.0,wc_1,wc_6,1.0,"[('wc_6', 0.5600000000000004), ('wc_10', 0.43000000000000027), ('wc_13', 0.6500000000000005)]",0.9122200000000003,,,23.0,0.041577,['Pass'],Pass,0.5600000000000004,-0.3600000000000004,1.0,5.0,0.5
44.0,4.0,wc_4,,0.0,,,,341.0,,,,Pass,,,,,
44.0,4.0,wc_4,,0.0,,,52.0,,,,,Pass,,,,,
44.0,4.0,wc_4,,0.0,,,,0.0,,,,Pass,,,,,
44.0,4.0,wc_4,wc_4,0.0,"[('wc_4', 0.6300000000000004)]",0.6300000000000004,,,39.0,0.00294,['Pass'],Pass,0.6300000000000004,-0.40777777777777824,2.0,9.0,0.7
44.0,4.0,wc_4,,0.0,,,,101.0,,,,Pass,,,,,
44.0,4.0,wc_4,wc_7,0.0,"[('wc_4', 0.6300000000000004)]",0.6300000000000004,,,29.0,0.004058,['Pass'],Pass,0.6300000000000004,-0.6300000000000004,0.0,3.0,0.6
44.0,4.0,wc_4,,0.0,,,,341.0,,,,Pass,,,,,
44.0,4.0,wc_4,wc_5,0.0,"[('wc_5', 0.7500000000000006), ('wc_4', 0.6300000000000004)]",0.9075000000000003,,,26.0,0.005705,['Pass'],Pass,0.7500000000000006,-0.5000000000000006,1.0,4.0,1.0
44.0,4.0,wc_4,,0.0,,,,122.0,,,,Pass,,,,,
44.0,4.0,wc_4,wc_9,0.0,"[('wc_4', 0.6300000000000004), ('wc_5', 0.7500000000000006)]",0.9075000000000003,,,39.0,0.008388999999999999,['Pass'],Pass,0.5600000000000004,-0.060000000000000386,1.0,2.0,0.6
44.0,4.0,wc_4,,0.0,,,,162.0,,,,Pass,,,,,
44.0,4.0,wc_4,wc_15,0.0,"[('wc_4', 0.6300000000000004), ('wc_5', 0.7500000000000006)]",0.9075000000000003,,,37.0,0.011585999999999999,['Pass'],Pass,0.3700000000000002,-0.12000000000000022,2.0,8.0,0.1
44.0,4.0,wc_4,,0.0,,,,283.0,,,,Pass,,,,,
44.0,4.0,wc_4,wc_1,1.0,"[('wc_1', 0.22000000000000008), ('wc_7', 0.6300000000000004), ('wc_9', 0.5600000000000004), ('wc_15', 0.3700000000000002)]",0.9200000800000002,,,22.0,0.05100199999999999,['Fail'],Pass,0.2300000000000001,0.2699999999999999,2.0,4.0,0.1
53.0,2.0,wc_2,,0.0,,,,0.0,,,,Fail,,,,,
53.0,2.0,wc_2,,0.0,,,72.0,,,,,Fail,,,,,
53.0,2.0,wc_2,,0.0,,,,0.0,,,,Fail,,,,,
53.0,2.0,wc_2,wc_2,0.0,"[('wc_2', 0.5600000000000004)]",0.5600000000000004,,,29.0,0.002102,['Pass'],Fail,0.5600000000000004,-0.46909090909090945,0.0,0.0,0.5
53.0,2.0,wc_2,,0.0,,,,182.0,,,,Fail,,,,,
53.0,2.0,wc_2,wc_13,0.0,"[('wc_13', 0.6600000000000005)]",0.6600000000000005,,,34.0,0.00421,['Fail'],Fail,0.6600000000000005,-0.16000000000000048,1.0,2.0,0.5
53.0,2.0,wc_2,,0.0,,,,202.0,,,,Fail,,,,,
53.0,2.0,wc_2,wc_8,0.0,"[('wc_8', 0.6700000000000005), ('wc_13', 0.6600000000000005)]",0.8878000000000004,,,32.0,0.00605,['Fail'],Fail,0.6700000000000005,-0.6700000000000005,0.0,0.0,0.8
53.0,2.0,wc_2,,0.0,,,,82.0,,,,Fail,,,,,
53.0,2.0,wc_2,wc_6,0.0,"[('wc_13', 0.6600000000000005), ('wc_8', 0.6700000000000005)]",0.8878000000000004,,,35.0,0.008229,['Fail'],Fail,0.5600000000000004,-0.39333333333333376,1.0,6.0,0.5
53.0,2.0,wc_2,,0.0,,,,0.0,,,,Fail,,,,,
53.0,2.0,wc_2,wc_9,1.0,"[('wc_9', 0.5700000000000004), ('wc_2', 0.5600000000000004), ('wc_6', 0.5600000000000004)]",0.9167520000000002,,,38.0,0.04892199999999999,['Pass'],Fail,0.5800000000000004,0.1699999999999996,3.0,4.0,0.6
60.0,3.0,wc_3,,0.0,,,,362.0,,,,Fail,,,,,
60.0,3.0,wc_3,,0.0,,,59.0,,,,,Fail,,,,,
60.0,3.0,wc_3,,0.0,,,,0.0,,,,Fail,,,,,
60.0,3.0,wc_3,wc_3,0.0,"[('wc_3', 0.3800000000000002)]",0.3800000000000002,,,37.0,0.001999,['Pass'],Fail,0.3800000000000002,-0.2747368421052634,0.0,0.0,0.3
60.0,3.0,wc_3,,0.0,,,,242.0,,,,Fail,,,,,
60.0,3.0,wc_3,wc_17,0.0,"[('wc_17', 0.6900000000000005)]",0.6900000000000005,,,29.0,0.004112,['Fail'],Fail,0.6900000000000005,-0.4400000000000005,0.0,0.0,1.0
60.0,3.0,wc_3,,0.0,,,,322.0,,,,Fail,,,,,
60.0,3.0,wc_3,wc_9,0.0,"[('wc_9', 0.5800000000000004), ('wc_17', 0.6900000000000005)]",0.8698000000000004,,,27.0,0.005986999999999999,['Fail'],Fail,0.5800000000000004,0.1699999999999996,3.0,4.0,0.6
60.0,3.0,wc_3,,0.0,,,,263.0,,,,Fail,,,,,
60.0,3.0,wc_3,wc_2,1.0,"[('wc_2', 0.5700000000000004), ('wc_17', 0.6900000000000005), ('wc_9', 0.5800000000000004)]",0.9440140000000002,,,22.0,0.04507799999999999,['Fail'],Fail,0.5800000000000004,0.4199999999999996,2.0,2.0,0.5
71.0,3.0,wc_3,,0.0,,,,0.0,,,,Fail,,,,,
71.0,3.0,wc_3,,0.0,,,72.0,,,,,Fail,,,,,
71.0,3.0,wc_3,,0.0,,,,0.0,,,,Fail,,,,,
71.0,3.0,wc_3,wc_3,0.0,"[('wc_3', 0.3700000000000002)]",0.3700000000000002,,,39.0,0.002321,['Pass'],Fail,0.3700000000000002,-0.3700000000000002,0.0,1.0,0.3
71.0,3.0,wc_3,,0.0,,,,222.0,,,,Fail,,,,,
71.0,3.0,wc_3,wc_16,0.0,"[('wc_16', 0.6400000000000005)]",0.6400000000000005,,,36.0,0.003939,['Fail'],Fail,0.6400000000000005,-0.14000000000000046,0.0,0.0,0.6
71.0,3.0,wc_3,,0.0,,,,61.0,,,,Fail,,,,,
71.0,3.0,wc_3,wc_13,0.0,"[('wc_13', 0.6500000000000005), ('wc_16', 0.6400000000000005)]",0.8740000000000003,,,36.0,0.005555,['Fail'],Fail,0.6500000000000005,-0.40000000000000047,1.0,4.0,0.5
71.0,3.0,wc_3,,0.0,,,,381.0,,,,Fail,,,,,
71.0,3.0,wc_3,wc_5,1.0,"[('wc_5', 0.7400000000000005), ('wc_16', 0.6400000000000005), ('wc_13', 0.6500000000000005)]",0.9672400000000001,,,39.0,0.044517999999999995,['Fail'],Fail,0.7400000000000005,-0.49000000000000055,2.0,8.0,1.0
80.0,2.0,wc_2,,0.0,,,,61.0,,,,Pass,,,,,
80.0,2.0,wc_2,,0.0,,,72.0,,,,,Pass,,,,,
80.0,2.0,wc_2,,0.0,,,,0.0,,,,Pass,,,,,
80.0,2.0,wc_2,wc_2,0.0,"[('wc_2', 0.5800000000000004)]",0.5800000000000004,,,22.0,0.002228,['Pass'],Pass,0.5800000000000004,0.08666666666666623,2.0,3.0,0.5
80.0,2.0,wc_2,,0.0,,,,102.0,,,,Pass,,,,,
80.0,2.0,wc_2,wc_1,0.0,"[('wc_1', 0.2300000000000001), ('wc_2', 0.5800000000000004)]",0.6766000000000003,,,21.0,0.003939,['Pass'],Pass,0.2300000000000001,0.055714285714285605,2.0,7.0,0.1
80.0,2.0,wc_2,,0.0,,,,162.0,,,,Pass,,,,,
80.0,2.0,wc_2,wc_7,0.0,"[('wc_7', 0.6300000000000004), ('wc_2', 0.5800000000000004), ('wc_1', 0.2300000000000001)]",0.8803420000000003,,,27.0,0.005712,['Pass'],Pass,0.6300000000000004,-0.4871428571428576,1.0,7.0,0.6
80.0,2.0,wc_2,,0.0,,,,182.0,,,,Pass,,,,,
80.0,2.0,wc_2,wc_14,1.0,"[('wc_14', 0.2300000000000001), ('wc_2', 0.5800000000000004), ('wc_1', 0.2300000000000001), ('wc_7', 0.6300000000000004)]",0.9078633400000002,,,37.0,0.038762000000000005,['Pass'],Pass,0.2400000000000001,-0.2400000000000001,0.0,0.0,0.1
101.0,3.0,wc_3,,0.0,,,,321.0,,,,Fail,,,,,
101.0,3.0,wc_3,,0.0,,,67.0,,,,,Fail,,,,,
101.0,3.0,wc_3,,0.0,,,,0.0,,,,Fail,,,,,
101.0,3.0,wc_3,wc_3,0.0,"[('wc_3', 0.3600000000000002)]",0.3600000000000002,,,25.0,0.002236,['Fail'],Fail,0.3600000000000002,-0.3600000000000002,0.0,3.0,0.3
101.0,3.0,wc_3,,0.0,,,,81.0,,,,Fail,,,,,
101.0,3.0,wc_3,wc_1,0.0,"[('wc_1', 0.2400000000000001), ('wc_3', 0.3600000000000002)]",0.5136000000000003,,,27.0,0.003999,['Fail'],Fail,0.2400000000000001,0.1349999999999999,3.0,8.0,0.1
101.0,3.0,wc_3,,0.0,,,,202.0,,,,Fail,,,,,
101.0,3.0,wc_3,wc_13,0.0,"[('wc_13', 0.6500000000000005), ('wc_3', 0.3600000000000002), ('wc_1', 0.2400000000000001)]",0.8297600000000003,,,20.0,0.005404,['Fail'],Fail,0.6500000000000005,-0.31666666666666715,2.0,6.0,0.5
101.0,3.0,wc_3,,0.0,,,,0.0,,,,Fail,,,,,
101.0,3.0,wc_3,wc_16,0.0,"[('wc_3', 0.3600000000000002), ('wc_1', 0.2400000000000001), ('wc_13', 0.6500000000000005)]",0.8297600000000003,,,24.0,0.01055,['Fail'],Fail,0.6500000000000005,-0.15000000000000047,1.0,2.0,0.6
101.0,3.0,wc_3,,0.0,,,,362.0,,,,Fail,,,,,
101.0,3.0,wc_3,wc_10,1.0,"[('wc_10', 0.43000000000000027), ('wc_3', 0.3600000000000002), ('wc_1', 0.2400000000000001), ('wc_13', 0.6500000000000005)]",0.9029632000000002,,,24.0,0.040275,['Fail'],Fail,0.43000000000000027,-0.43000000000000027,0.0,0.0,0.4
123.0,3.0,wc_3,,0.0,,,,342.0,,,,Pass,,,,,
123.0,3.0,wc_3,,0.0,,,58.0,,,,,Pass,,,,,
123.0,3.0,wc_3,,0.0,,,,0.0,,,,Pass,,,,,
123.0,3.0,wc_3,wc_3,0.0,"[('wc_3', 0.3600000000000002)]",0.3600000000000002,,,39.0,0.002487,['Fail'],Pass,0.3600000000000002,-0.11000000000000021,1.0,4.0,0.3
123.0,3.0,wc_3,,0.0,,,,161.0,,,,Pass,,,,,
123.0,3.0,wc_3,wc_13,0.0,"[('wc_13', 0.6500000000000005), ('wc_3', 0.3600000000000002)]",0.7760000000000004,,,33.0,0.004283,['Fail'],Pass,0.6500000000000005,-0.22142857142857192,3.0,7.0,0.5
123.0,3.0,wc_3,,0.0,,,,0.0,,,,Pass,,,,,
123.0,3.0,wc_3,wc_16,0.0,"[('wc_3', 0.3600000000000002), ('wc_13', 0.6500000000000005)]",0.7760000000000004,,,36.0,0.005939,['Fail'],Pass,0.6400000000000005,-0.30666666666666714,1.0,3.0,0.6
123.0,3.0,wc_3,,0.0,,,,223.0,,,,Pass,,,,,
123.0,3.0,wc_3,wc_7,1.0,"[('wc_7', 0.6300000000000004), ('wc_3', 0.3600000000000002), ('wc_13', 0.6500000000000005)]",0.9171200000000003,,,39.0,0.040388999999999994,['Fail'],Pass,0.6300000000000004,-0.6300000000000004,0.0,0.0,0.6
130.0,5.0,wc_5,,0.0,,,,341.0,,,,Pass,,,,,
130.0,5.0,wc_5,,0.0,,,50.0,,,,,Pass,,,,,
130.0,5.0,wc_5,,0.0,,,,0.0,,,,Pass,,,,,
130.0,5.0,wc_5,wc_5,0.0,"[('wc_5', 0.7400000000000005)]",0.7400000000000005,,,39.0,0.002013,['Pass'],Pass,0.7400000000000005,-0.5581818181818188,0.0,0.0,1.0
130.0,5.0,wc_5,,0.0,,,,101.0,,,,Pass,,,,,
130.0,5.0,wc_5,wc_12,0.0,"[('wc_5', 0.7400000000000005)]",0.7400000000000005,,,28.0,0.003795,['Pass'],Pass,0.5300000000000004,-0.48652173913043517,0.0,0.0,0.4
130.0,5.0,wc_5,,0.0,,,,0.0,,,,Pass,,,,,
130.0,5.0,wc_5,wc_16,0.0,"[('wc_16', 0.6300000000000004), ('wc_12', 0.5300000000000004)]",0.8261000000000003,,,34.0,0.005537,['Fail'],Pass,0.6300000000000004,-0.38000000000000045,1.0,4.0,0.6
130.0,5.0,wc_5,,0.0,,,,203.0,,,,Pass,,,,,
130.0,5.0,wc_5,wc_6,0.0,"[('wc_6', 0.5600000000000004), ('wc_5', 0.7400000000000005)]",0.8856000000000004,,,34.0,0.007653999999999999,['Pass'],Pass,0.5600000000000004,-0.39333333333333376,0.0,0.0,0.5
130.0,5.0,wc_5,,0.0,,,,341.0,,,,Pass,,,,,
130.0,5.0,wc_5,wc_4,1.0,"[('wc_4', 0.6200000000000004), ('wc_5', 0.7400000000000005), ('wc_6', 0.5600000000000004)]",0.9565280000000002,,,39.0,0.048853999999999995,['Pass'],Pass,0.6200000000000004,-0.4771428571428576,1.0,7.0,0.7
142.0,6.0,wc_6,,0.0,,,,81.0,,,,Pass,,,,,
142.0,6.0,wc_6,,0.0,,,76.0,,,,,Pass,,,,,
142.0,6.0,wc_6,,0.0,,,,0.0,,,,Pass,,,,,
142.0,6.0,wc_6,wc_6,0.0,"[('wc_6', 0.5700000000000004)]",0.5700000000000004,,,30.0,0.002294,['Pass'],Pass,0.5700000000000004,0.4299999999999996,1.0,1.0,0.5
142.0,6.0,wc_6,,0.0,,,,223.0,,,,Pass,,,,,
142.0,6.0,wc_6,wc_15,0.0,"[('wc_15', 0.3700000000000002), ('wc_6', 0.5700000000000004)]",0.7291000000000003,,,22.0,0.003955,['Pass'],Pass,0.3700000000000002,-0.18250000000000022,0.0,0.0,0.1
142.0,6.0,wc_6,,0.0,,,,382.0,,,,Pass,,,,,
142.0,6.0,wc_6,wc_10,0.0,"[('wc_10', 0.43000000000000027), ('wc_6', 0.5700000000000004), ('wc_15', 0.3700000000000002)]",0.8455870000000003,,,22.0,0.0067090000000000006,['Pass'],Pass,0.43000000000000027,-0.43000000000000027,0.0,2.0,0.4
142.0,6.0,wc_6,,0.0,,,,223.0,,,,Pass,,,,,
142.0,6.0,wc_6,wc_1,0.0,"[('wc_1', 0.2500000000000001), ('wc_6', 0.5700000000000004), ('wc_15', 0.3700000000000002), ('wc_10', 0.43000000000000027)]",0.8841902500000002,,,26.0,0.007653999999999999,['Pass'],Pass,0.2500000000000001,0.11363636363636354,0.0,0.0,0.1
142.0,6.0,wc_6,,0.0,,,,0.0,,,,Pass,,,,,
142.0,6.0,wc_6,wc_5,1.0,"[('wc_5', 0.7500000000000006), ('wc_6', 0.5700000000000004), ('wc_15', 0.3700000000000002), ('wc_10', 0.43000000000000027), ('wc_1', 0.2500000000000001)]",0.9710475625000001,,,21.0,0.039553,['Pass'],Pass,0.7600000000000006,0.23999999999999944,2.0,2.0,1.0
150.0,11.0,wc_11,,0.0,,,,162.0,,,,Fail,,,,,
150.0,11.0,wc_11,,0.0,,,61.0,,,,,Fail,,,,,
150.0,11.0,wc_11,,0.0,,,,0.0,,,,Fail,,,,,
150.0,11.0,wc_11,wc_11,0.0,"[('wc_11', 0.3700000000000002)]",0.3700000000000002,,,38.0,0.002353,['Fail'],Fail,0.3700000000000002,-0.30333333333333357,0.0,0.0,0.2
150.0,11.0,wc_11,,0.0,,,,83.0,,,,Fail,,,,,
150.0,11.0,wc_11,wc_9,0.0,"[('wc_9', 0.5900000000000004), ('wc_11', 0.3700000000000002)]",0.7417000000000004,,,20.0,0.0038569999999999998,['Fail'],Fail,0.5900000000000004,-0.22636363636363677,0.0,0.0,0.6
150.0,11.0,wc_11,,0.0,,,,101.0,,,,Fail,,,,,
150.0,11.0,wc_11,wc_8,1.0,"[('wc_8', 0.6600000000000005), ('wc_11', 0.3700000000000002), ('wc_9', 0.5900000000000004)]",0.9121780000000003,,,40.0,0.038478,['Fail'],Fail,0.6600000000000005,-0.5488888888888894,1.0,9.0,0.8
160.0,11.0,wc_11,,0.0,,,,0.0,,,,Fail,,,,,
160.0,11.0,wc_11,,0.0,,,59.0,,,,,Fail,,,,,
160.0,11.0,wc_11,,0.0,,,,0.0,,,,Fail,,,,,
160.0,11.0,wc_11,wc_11,0.0,"[('wc_11', 0.3800000000000002)]",0.3800000000000002,,,27.0,0.002251,['Fail'],Fail,0.3800000000000002,0.6199999999999998,1.0,1.0,0.2
160.0,11.0,wc_11,,0.0,,,,322.0,,,,Fail,,,,,
160.0,11.0,wc_11,wc_3,0.0,"[('wc_3', 0.3700000000000002), ('wc_11', 0.3800000000000002)]",0.6094000000000003,,,20.0,0.004676,['Fail'],Fail,0.3700000000000002,-0.12000000000000022,2.0,8.0,0.3
160.0,11.0,wc_11,,0.0,,,,162.0,,,,Fail,,,,,
160.0,11.0,wc_11,wc_9,0.0,"[('wc_9', 0.6000000000000004), ('wc_11', 0.3800000000000002), ('wc_3', 0.3700000000000002)]",0.8437600000000003,,,37.0,0.006218,['Fail'],Fail,0.6000000000000004,0.3999999999999996,1.0,1.0,0.6
160.0,11.0,wc_11,,0.0,,,,202.0,,,,Fail,,,,,
160.0,11.0,wc_11,wc_17,1.0,"[('wc_17', 0.7000000000000005), ('wc_11', 0.3800000000000002), ('wc_3', 0.3700000000000002), ('wc_9', 0.6000000000000004)]",0.9531280000000002,,,38.0,0.040185,['Fail'],Fail,0.7000000000000005,-0.4777777777777783,2.0,9.0,1.0
171.0,10.0,wc_10,,0.0,,,,342.0,,,,Fail,,,,,
171.0,10.0,wc_10,,0.0,,,79.0,,,,,Fail,,,,,
171.0,10.0,wc_10,,0.0,,,,0.0,,,,Fail,,,,,
171.0,10.0,wc_10,wc_10,0.0,"[('wc_10', 0.43000000000000027)]",0.43000000000000027,,,32.0,0.002321,['Fail'],Fail,0.43000000000000027,-0.23000000000000026,1.0,5.0,0.4
171.0,10.0,wc_10,,0.0,,,,101.0,,,,Fail,,,,,
171.0,10.0,wc_10,wc_13,0.0,"[('wc_13', 0.6500000000000005), ('wc_10', 0.43000000000000027)]",0.8005000000000003,,,30.0,0.004726,['Fail'],Fail,0.6500000000000005,-0.31666666666666715,0.0,0.0,0.5
171.0,10.0,wc_10,,0.0,,,,202.0,,,,Fail,,,,,
171.0,10.0,wc_10,wc_8,1.0,"[('wc_8', 0.6600000000000005), ('wc_10', 0.43000000000000027), ('wc_13', 0.6500000000000005)]",0.9321700000000002,,,40.0,0.038882,['Fail'],Fail,0.6600000000000005,-0.6600000000000005,0.0,0.0,0.8
183.0,10.0,wc_10,,0.0,,,,0.0,,,,Pass,,,,,
183.0,10.0,wc_10,,0.0,,,67.0,,,,,Pass,,,,,
183.0,10.0,wc_10,,0.0,,,,0.0,,,,Pass,,,,,
183.0,10.0,wc_10,wc_10,0.0,"[('wc_10', 0.43000000000000027)]",0.43000000000000027,,,23.0,0.00223,['Fail'],Pass,0.43000000000000027,-0.09666666666666696,2.0,6.0,0.4
183.0,10.0,wc_10,,0.0,,,,243.0,,,,Pass,,,,,
183.0,10.0,wc_10,wc_2,0.0,"[('wc_2', 0.5900000000000004)]",0.5900000000000004,,,27.0,0.005478,['Pass'],Pass,0.5900000000000004,-0.3172727272727277,0.0,0.0,0.5
183.0,10.0,wc_10,,0.0,,,,0.0,,,,Pass,,,,,
183.0,10.0,wc_10,wc_3,0.0,"[('wc_3', 0.3700000000000002), ('wc_2', 0.5900000000000004)]",0.7417000000000004,,,24.0,0.006782,['Pass'],Pass,0.3700000000000002,-0.07000000000000023,0.0,0.0,0.3
183.0,10.0,wc_10,,0.0,,,,222.0,,,,Pass,,,,,
183.0,10.0,wc_10,wc_16,1.0,"[('wc_16', 0.6200000000000004), ('wc_2', 0.5900000000000004), ('wc_3', 0.3700000000000002)]",0.9018460000000003,,,24.0,0.038972,['Pass'],Pass,0.6200000000000004,-0.6200000000000004,0.0,0.0,0.6
194.0,11.0,wc_11,,0.0,,,,382.0,,,,Pass,,,,,
194.0,11.0,wc_11,,0.0,,,74.0,,,,,Pass,,,,,
194.0,11.0,wc_11,,0.0,,,,0.0,,,,Pass,,,,,
194.0,11.0,wc_11,wc_11,0.0,"[('wc_11', 0.39000000000000024)]",0.39000000000000024,,,30.0,0.002167,['Fail'],Pass,0.39000000000000024,0.10999999999999976,2.0,4.0,0.2
194.0,11.0,wc_11,,0.0,,,,362.0,,,,Pass,,,,,
194.0,11.0,wc_11,wc_5,0.0,"[('wc_5', 0.7600000000000006)]",0.7600000000000006,,,38.0,0.004671,['Pass'],Pass,0.7600000000000006,-0.42666666666666725,2.0,6.0,1.0
194.0,11.0,wc_11,,0.0,,,,141.0,,,,Pass,,,,,
194.0,11.0,wc_11,wc_14,0.0,"[('wc_14', 0.2400000000000001), ('wc_5', 0.7600000000000006)]",0.8176000000000004,,,36.0,0.005689,['Pass'],Pass,0.2400000000000001,-0.2400000000000001,0.0,8.0,0.1
194.0,11.0,wc_11,,0.0,,,,281.0,,,,Pass,,,,,
194.0,11.0,wc_11,wc_9,1.0,"[('wc_9', 0.6100000000000004), ('wc_5', 0.7600000000000006), ('wc_14', 0.2400000000000001)]",0.9288640000000002,,,35.0,0.046921000000000004,['Pass'],Pass,0.6100000000000004,-0.010000000000000453,3.0,5.0,0.6
204.0,9.0,wc_9,,0.0,,,,0.0,,,,Pass,,,,,
204.0,9.0,wc_9,,0.0,,,58.0,,,,,Pass,,,,,
204.0,9.0,wc_9,,0.0,,,,0.0,,,,Pass,,,,,
204.0,9.0,wc_9,wc_9,0.0,"[('wc_9', 0.6100000000000004)]",0.6100000000000004,,,37.0,0.002057,['Pass'],Pass,0.6100000000000004,-0.010000000000000453,3.0,5.0,0.6
204.0,9.0,wc_9,,0.0,,,,61.0,,,,Pass,,,,,
204.0,9.0,wc_9,wc_6,0.0,"[('wc_6', 0.5800000000000004), ('wc_9', 0.6100000000000004)]",0.8362000000000003,,,39.0,0.004069,['Pass'],Pass,0.5800000000000004,-0.2942857142857147,2.0,7.0,0.5
204.0,9.0,wc_9,,0.0,,,,0.0,,,,Pass,,,,,
204.0,9.0,wc_9,wc_7,1.0,"[('wc_7', 0.6300000000000004), ('wc_9', 0.6100000000000004), ('wc_6', 0.5800000000000004)]",0.9393940000000002,,,36.0,0.038288,['Pass'],Pass,0.6300000000000004,-0.5050000000000004,1.0,8.0,0.6
217.0,7.0,wc_7,,0.0,,,,0.0,,,,Pass,,,,,
217.0,7.0,wc_7,,0.0,,,67.0,,,,,Pass,,,,,
217.0,7.0,wc_7,,0.0,,,,0.0,,,,Pass,,,,,
217.0,7.0,wc_7,wc_7,0.0,"[('wc_7', 0.6300000000000004)]",0.6300000000000004,,,23.0,0.002153,['Pass'],Pass,0.6300000000000004,-0.5050000000000004,1.0,8.0,0.6
217.0,7.0,wc_7,,0.0,,,,142.0,,,,Pass,,,,,
217.0,7.0,wc_7,wc_12,0.0,"[('wc_12', 0.5200000000000004), ('wc_7', 0.6300000000000004)]",0.8224000000000004,,,39.0,0.004247,['Pass'],Pass,0.5200000000000004,-0.5200000000000004,0.0,8.0,0.4
217.0,7.0,wc_7,,0.0,,,,0.0,,,,Pass,,,,,
217.0,7.0,wc_7,wc_13,1.0,"[('wc_13', 0.6600000000000005), ('wc_7', 0.6300000000000004), ('wc_12', 0.5200000000000004)]",0.9396160000000002,,,38.0,0.037254,['Pass'],Pass,0.6600000000000005,-0.26000000000000045,2.0,5.0,0.5
239.0,8.0,wc_8,,0.0,,,,202.0,,,,Fail,,,,,
239.0,8.0,wc_8,,0.0,,,60.0,,,,,Fail,,,,,
239.0,8.0,wc_8,,0.0,,,,0.0,,,,Fail,,,,,
239.0,8.0,wc_8,wc_8,0.0,"[('wc_8', 0.6600000000000005)]",0.6600000000000005,,,34.0,0.002292,['Fail'],Fail,0.6600000000000005,-0.6600000000000005,0.0,4.0,0.8
239.0,8.0,wc_8,,0.0,,,,102.0,,,,Fail,,,,,
239.0,8.0,wc_8,wc_7,0.0,"[('wc_7', 0.6300000000000004), ('wc_8', 0.6600000000000005)]",0.8742000000000003,,,29.0,0.004063000000000001,['Fail'],Fail,0.6300000000000004,-0.40777777777777824,2.0,9.0,0.6
239.0,8.0,wc_8,,0.0,,,,301.0,,,,Fail,,,,,
239.0,8.0,wc_8,wc_3,0.0,"[('wc_8', 0.6600000000000005), ('wc_7', 0.6300000000000004)]",0.8742000000000003,,,22.0,0.007479,['Fail'],Fail,0.3800000000000002,-0.13000000000000023,1.0,4.0,0.3
239.0,8.0,wc_8,,0.0,,,,182.0,,,,Fail,,,,,
239.0,8.0,wc_8,wc_10,0.0,"[('wc_8', 0.6600000000000005), ('wc_7', 0.6300000000000004)]",0.8742000000000003,,,26.0,0.008831,['Fail'],Fail,0.42000000000000026,-0.22000000000000025,0.0,0.0,0.4
239.0,8.0,wc_8,,0.0,,,,121.0,,,,Fail,,,,,
239.0,8.0,wc_8,wc_14,1.0,"[('wc_14', 0.2400000000000001), ('wc_8', 0.6600000000000005), ('wc_7', 0.6300000000000004)]",0.9043920000000003,,,33.0,0.041018000000000006,['Fail'],Fail,0.2400000000000001,-0.2400000000000001,0.0,0.0,0.1
263.0,8.0,wc_8,,0.0,,,,182.0,,,,Pass,,,,,
263.0,8.0,wc_8,,0.0,,,76.0,,,,,Pass,,,,,
263.0,8.0,wc_8,,0.0,,,,0.0,,,,Pass,,,,,
263.0,8.0,wc_8,wc_8,0.0,"[('wc_8', 0.6600000000000005)]",0.6600000000000005,,,31.0,0.00215,['Pass'],Pass,0.6600000000000005,-0.46000000000000046,1.0,5.0,0.8
263.0,8.0,wc_8,,0.0,,,,0.0,,,,Pass,,,,,
263.0,8.0,wc_8,wc_10,0.0,"[('wc_10', 0.41000000000000025), ('wc_8', 0.6600000000000005)]",0.7994000000000003,,,38.0,0.004333999999999999,['Pass'],Pass,0.41000000000000025,-0.41000000000000025,0.0,1.0,0.4
263.0,8.0,wc_8,,0.0,,,,142.0,,,,Pass,,,,,
263.0,8.0,wc_8,wc_15,0.0,"[('wc_8', 0.6600000000000005), ('wc_10', 0.41000000000000025)]",0.7994000000000003,,,33.0,0.0061589999999999995,['Pass'],Pass,0.3800000000000002,-0.2688888888888891,1.0,9.0,0.1
263.0,8.0,wc_8,,0.0,,,,61.0,,,,Pass,,,,,
263.0,8.0,wc_8,wc_12,1.0,"[('wc_12', 0.5200000000000004), ('wc_8', 0.6600000000000005), ('wc_10', 0.41000000000000025)]",0.9037120000000003,,,26.0,0.040805,['Pass'],Pass,0.5200000000000004,-0.5200000000000004,0.0,0.0,0.4
276.0,12.0,wc_12,,0.0,,,,0.0,,,,Fail,,,,,
276.0,12.0,wc_12,,0.0,,,53.0,,,,,Fail,,,,,
276.0,12.0,wc_12,,0.0,,,,0.0,,,,Fail,,,,,
276.0,12.0,wc_12,wc_12,0.0,"[('wc_12', 0.5200000000000004)]",0.5200000000000004,,,36.0,0.002463,['Pass'],Fail,0.5200000000000004,-0.5200000000000004,0.0,0.0,0.4
276.0,12.0,wc_12,,0.0,,,,0.0,,,,Fail,,,,,
276.0,12.0,wc_12,wc_16,0.0,"[('wc_16', 0.6200000000000004)]",0.6200000000000004,,,34.0,0.0039,['Fail'],Fail,0.6200000000000004,-0.6200000000000004,0.0,5.0,0.6
276.0,12.0,wc_12,,0.0,,,,283.0,,,,Fail,,,,,
276.0,12.0,wc_12,wc_2,0.0,"[('wc_2', 0.6000000000000004), ('wc_16', 0.6200000000000004)]",0.8480000000000003,,,25.0,0.005875,['Fail'],Fail,0.6000000000000004,-0.4333333333333338,1.0,6.0,0.5
276.0,12.0,wc_12,,0.0,,,,0.0,,,,Fail,,,,,
276.0,12.0,wc_12,wc_5,1.0,"[('wc_5', 0.7600000000000006), ('wc_16', 0.6200000000000004), ('wc_2', 0.6000000000000004)]",0.9635200000000002,,,26.0,0.04062399999999999,['Fail'],Fail,0.7600000000000006,-0.7600000000000006,0.0,0.0,1.0
305.0,12.0,wc_12,,0.0,,,,101.0,,,,Pass,,,,,
305.0,12.0,wc_12,,0.0,,,80.0,,,,,Pass,,,,,
305.0,12.0,wc_12,,0.0,,,,0.0,,,,Pass,,,,,
305.0,12.0,wc_12,wc_12,0.0,"[('wc_12', 0.5100000000000003)]",0.5100000000000003,,,22.0,0.002329,['Fail'],Pass,0.5100000000000003,-0.5100000000000003,0.0,1.0,0.4
305.0,12.0,wc_12,,0.0,,,,381.0,,,,Pass,,,,,
305.0,12.0,wc_12,wc_4,0.0,"[('wc_4', 0.6200000000000004)]",0.6200000000000004,,,31.0,0.0037280000000000004,['Pass'],Pass,0.6200000000000004,-0.5644444444444449,0.0,0.0,0.7
305.0,12.0,wc_12,,0.0,,,,222.0,,,,Pass,,,,,
305.0,12.0,wc_12,wc_17,0.0,"[('wc_17', 0.7000000000000005), ('wc_4', 0.6200000000000004)]",0.8860000000000003,,,35.0,0.0058189999999999995,['Pass'],Pass,0.7000000000000005,-0.5823529411764711,0.0,0.0,1.0
305.0,12.0,wc_12,,0.0,,,,203.0,,,,Pass,,,,,
305.0,12.0,wc_12,wc_7,1.0,"[('wc_7', 0.6300000000000004), ('wc_4', 0.6200000000000004), ('wc_17', 0.7000000000000005)]",0.9578200000000001,,,34.0,0.042860999999999996,['Pass'],Pass,0.6300000000000004,-0.29666666666666713,1.0,3.0,0.6
317.0,13.0,wc_13,,0.0,,,,162.0,,,,Fail,,,,,
317.0,13.0,wc_13,,0.0,,,63.0,,,,,Fail,,,,,
317.0,13.0,wc_13,,0.0,,,,0.0,,,,Fail,,,,,
317.0,13.0,wc_13,wc_13,0.0,"[('wc_13', 0.6600000000000005)]",0.6600000000000005,,,20.0,0.002547,['Fail'],Fail,0.6600000000000005,-0.43777777777777827,2.0,9.0,0.5
317.0,13.0,wc_13,,0.0,,,,182.0,,,,Fail,,,,,
317.0,13.0,wc_13,wc_7,0.0,"[('wc_13', 0.6600000000000005)]",0.6600000000000005,,,40.0,0.004771,['Fail'],Fail,0.6300000000000004,-0.29666666666666713,1.0,3.0,0.6
317.0,13.0,wc_13,,0.0,,,,0.0,,,,Fail,,,,,
317.0,13.0,wc_13,wc_10,0.0,"[('wc_10', 0.42000000000000026), ('wc_13', 0.6600000000000005)]",0.8028000000000004,,,20.0,0.006171,['Fail'],Fail,0.42000000000000026,-0.17000000000000026,1.0,4.0,0.4
317.0,13.0,wc_13,,0.0,,,,142.0,,,,Fail,,,,,
317.0,13.0,wc_13,wc_15,0.0,"[('wc_15', 0.3700000000000002), ('wc_13', 0.6600000000000005), ('wc_10', 0.42000000000000026)]",0.8757640000000003,,,31.0,0.007994000000000001,['Fail'],Fail,0.3700000000000002,-0.3700000000000002,0.0,2.0,0.1
317.0,13.0,wc_13,,0.0,,,,101.0,,,,Fail,,,,,
317.0,13.0,wc_13,wc_14,0.0,"[('wc_13', 0.6600000000000005), ('wc_10', 0.42000000000000026), ('wc_15', 0.3700000000000002)]",0.8757640000000003,,,36.0,0.009815,['Fail'],Fail,0.2400000000000001,-0.2400000000000001,0.0,3.0,0.1
317.0,13.0,wc_13,,0.0,,,,321.0,,,,Fail,,,,,
317.0,13.0,wc_13,wc_11,0.0,"[('wc_13', 0.6600000000000005), ('wc_10', 0.42000000000000026), ('wc_15', 0.3700000000000002)]",0.8757640000000003,,,35.0,0.011779,['Fail'],Fail,0.39000000000000024,-0.2081818181818184,0.0,0.0,0.2
317.0,13.0,wc_13,,0.0,,,,162.0,,,,Fail,,,,,
317.0,13.0,wc_13,wc_17,1.0,"[('wc_17', 0.7100000000000005), ('wc_13', 0.6600000000000005), ('wc_10', 0.42000000000000026), ('wc_15', 0.3700000000000002)]",0.9639715600000002,,,33.0,0.045261,['Fail'],Fail,0.7200000000000005,0.27999999999999947,2.0,2.0,1.0
328.0,13.0,wc_13,,0.0,,,,41.0,,,,Pass,,,,,
328.0,13.0,wc_13,,0.0,,,63.0,,,,,Pass,,,,,
328.0,13.0,wc_13,,0.0,,,,0.0,,,,Pass,,,,,
328.0,13.0,wc_13,wc_13,0.0,"[('wc_13', 0.6600000000000005)]",0.6600000000000005,,,28.0,0.002333,['Pass'],Pass,0.6600000000000005,-0.6600000000000005,0.0,0.0,0.5
328.0,13.0,wc_13,,0.0,,,,0.0,,,,Pass,,,,,
328.0,13.0,wc_13,wc_15,0.0,"[('wc_13', 0.6600000000000005)]",0.6600000000000005,,,32.0,0.004126,['Pass'],Pass,0.3700000000000002,-0.0366666666666669,1.0,3.0,0.1
328.0,13.0,wc_13,,0.0,,,,243.0,,,,Pass,,,,,
328.0,13.0,wc_13,wc_7,0.0,"[('wc_7', 0.6200000000000004), ('wc_13', 0.6600000000000005)]",0.8708000000000004,,,37.0,0.006069000000000001,['Pass'],Pass,0.6200000000000004,-0.37000000000000044,1.0,4.0,0.6
328.0,13.0,wc_13,,0.0,,,,301.0,,,,Pass,,,,,
328.0,13.0,wc_13,wc_3,0.0,"[('wc_13', 0.6600000000000005), ('wc_7', 0.6200000000000004)]",0.8708000000000004,,,22.0,0.007403,['Pass'],Pass,0.3700000000000002,-0.2588888888888891,1.0,9.0,0.3
328.0,13.0,wc_13,,0.0,,,,0.0,,,,Pass,,,,,
328.0,13.0,wc_13,wc_4,1.0,"[('wc_4', 0.6300000000000004), ('wc_13', 0.6600000000000005), ('wc_7', 0.6200000000000004)]",0.9521960000000002,,,27.0,0.044331999999999996,['Pass'],Pass,0.6400000000000005,0.026666666666666172,2.0,3.0,0.7
342.0,15.0,wc_15,,0.0,,,,182.0,,,,Fail,,,,,
342.0,15.0,wc_15,,0.0,,,77.0,,,,,Fail,,,,,
342.0,15.0,wc_15,,0.0,,,,0.0,,,,Fail,,,,,
342.0,15.0,wc_15,wc_15,0.0,"[('wc_15', 0.3600000000000002)]",0.3600000000000002,,,26.0,0.002218,['Pass'],Fail,0.3600000000000002,-0.11000000000000021,1.0,4.0,0.1
342.0,15.0,wc_15,,0.0,,,,61.0,,,,Fail,,,,,
342.0,15.0,wc_15,wc_12,0.0,"[('wc_12', 0.5000000000000003), ('wc_15', 0.3600000000000002)]",0.6800000000000004,,,28.0,0.004076,['Pass'],Fail,0.5000000000000003,-0.5000000000000003,0.0,4.0,0.4
342.0,15.0,wc_15,,0.0,,,,202.0,,,,Fail,,,,,
342.0,15.0,wc_15,wc_7,0.0,"[('wc_15', 0.3600000000000002), ('wc_12', 0.5000000000000003)]",0.6800000000000004,,,39.0,0.005806,['Pass'],Fail,0.6200000000000004,-0.22000000000000042,2.0,5.0,0.6
342.0,15.0,wc_15,,0.0,,,,0.0,,,,Fail,,,,,
342.0,15.0,wc_15,wc_9,0.0,"[('wc_9', 0.6200000000000004), ('wc_7', 0.6200000000000004)]",0.8556000000000004,,,39.0,0.00827,['Fail'],Fail,0.6200000000000004,-0.31230769230769273,0.0,0.0,0.6
342.0,15.0,wc_15,,0.0,,,,121.0,,,,Fail,,,,,
342.0,15.0,wc_15,wc_13,1.0,"[('wc_13', 0.6700000000000005), ('wc_7', 0.6200000000000004), ('wc_9', 0.6200000000000004)]",0.9523480000000002,,,26.0,0.043245000000000006,['Fail'],Fail,0.6800000000000005,0.3199999999999995,2.0,2.0,0.5
352.0,16.0,wc_16,,0.0,,,,0.0,,,,Fail,,,,,
352.0,16.0,wc_16,,0.0,,,54.0,,,,,Fail,,,,,
352.0,16.0,wc_16,,0.0,,,,0.0,,,,Fail,,,,,
352.0,16.0,wc_16,wc_16,0.0,"[('wc_16', 0.6200000000000004)]",0.6200000000000004,,,25.0,0.002129,['Fail'],Fail,0.6200000000000004,-0.5200000000000005,0.0,0.0,0.6
352.0,16.0,wc_16,,0.0,,,,61.0,,,,Fail,,,,,
352.0,16.0,wc_16,wc_13,0.0,"[('wc_13', 0.6800000000000005), ('wc_16', 0.6200000000000004)]",0.8784000000000003,,,34.0,0.004181,['Fail'],Fail,0.6800000000000005,0.3199999999999995,2.0,2.0,0.5
352.0,16.0,wc_16,,0.0,,,,0.0,,,,Fail,,,,,
352.0,16.0,wc_16,wc_15,0.0,"[('wc_16', 0.6200000000000004), ('wc_13', 0.6800000000000005)]",0.8784000000000003,,,21.0,0.005849,['Fail'],Fail,0.3500000000000002,-0.1500000000000002,1.0,5.0,0.1
352.0,16.0,wc_16,,0.0,,,,101.0,,,,Fail,,,,,
352.0,16.0,wc_16,wc_14,0.0,"[('wc_16', 0.6200000000000004), ('wc_13', 0.6800000000000005)]",0.8784000000000003,,,27.0,0.007283,['Fail'],Fail,0.2300000000000001,-0.2300000000000001,0.0,6.0,0.1
352.0,16.0,wc_16,,0.0,,,,361.0,,,,Fail,,,,,
352.0,16.0,wc_16,wc_5,1.0,"[('wc_5', 0.7600000000000006), ('wc_16', 0.6200000000000004), ('wc_13', 0.6800000000000005)]",0.9708160000000001,,,24.0,0.04684500000000001,['Fail'],Fail,0.7600000000000006,-0.5600000000000005,1.0,5.0,1.0
366.0,15.0,wc_15,,0.0,,,,162.0,,,,Pass,,,,,
366.0,15.0,wc_15,,0.0,,,61.0,,,,,Pass,,,,,
366.0,15.0,wc_15,,0.0,,,,0.0,,,,Pass,,,,,
366.0,15.0,wc_15,wc_15,0.0,"[('wc_15', 0.3400000000000002)]",0.3400000000000002,,,22.0,0.002354,['Pass'],Pass,0.3400000000000002,-0.17333333333333353,1.0,6.0,0.1
366.0,15.0,wc_15,,0.0,,,,402.0,,,,Pass,,,,,
366.0,15.0,wc_15,wc_11,0.0,"[('wc_11', 0.3800000000000002)]",0.3800000000000002,,,28.0,0.004163,['Fail'],Pass,0.3800000000000002,-0.3800000000000002,0.0,4.0,0.2
366.0,15.0,wc_15,,0.0,,,,41.0,,,,Pass,,,,,
366.0,15.0,wc_15,wc_7,0.0,"[('wc_7', 0.6200000000000004), ('wc_15', 0.3400000000000002)]",0.7492000000000003,,,20.0,0.006092,['Pass'],Pass,0.6200000000000004,-0.1914285714285719,3.0,7.0,0.6
366.0,15.0,wc_15,,0.0,,,,223.0,,,,Pass,,,,,
366.0,15.0,wc_15,wc_16,1.0,"[('wc_16', 0.6300000000000004), ('wc_15', 0.3400000000000002), ('wc_7', 0.6200000000000004)]",0.9072040000000002,,,21.0,0.04015200000000001,['Pass'],Pass,0.6400000000000005,0.35999999999999954,2.0,2.0,0.6
381.0,14.0,wc_14,,0.0,,,,81.0,,,,Fail,,,,,
381.0,14.0,wc_14,,0.0,,,55.0,,,,,Fail,,,,,
381.0,14.0,wc_14,,0.0,,,,0.0,,,,Fail,,,,,
381.0,14.0,wc_14,wc_14,0.0,"[('wc_14', 0.22000000000000008)]",0.22000000000000008,,,29.0,0.002174,['Pass'],Fail,0.22000000000000008,-0.22000000000000008,0.0,8.0,0.1
381.0,14.0,wc_14,,0.0,,,,82.0,,,,Fail,,,,,
381.0,14.0,wc_14,wc_12,0.0,"[('wc_12', 0.4900000000000003), ('wc_14', 0.22000000000000008)]",0.6022000000000003,,,25.0,0.004358,['Pass'],Fail,0.4900000000000003,-0.4900000000000003,0.0,7.0,0.4
381.0,14.0,wc_14,,0.0,,,,341.0,,,,Fail,,,,,
381.0,14.0,wc_14,wc_10,0.0,"[('wc_14', 0.22000000000000008), ('wc_12', 0.4900000000000003)]",0.6022000000000003,,,33.0,0.006547999999999999,['Pass'],Fail,0.42000000000000026,-0.19777777777777805,2.0,9.0,0.4
381.0,14.0,wc_14,,0.0,,,,41.0,,,,Fail,,,,,
381.0,14.0,wc_14,wc_6,0.0,"[('wc_6', 0.5800000000000004), ('wc_10', 0.42000000000000026)]",0.7564000000000004,,,37.0,0.007161,['Fail'],Fail,0.5800000000000004,-0.4133333333333338,0.0,0.0,0.5
381.0,14.0,wc_14,,0.0,,,,321.0,,,,Fail,,,,,
381.0,14.0,wc_14,wc_3,0.0,"[('wc_10', 0.42000000000000026), ('wc_6', 0.5800000000000004)]",0.7564000000000004,,,20.0,0.009856,['Fail'],Fail,0.3600000000000002,-0.3600000000000002,0.0,3.0,0.3
381.0,14.0,wc_14,,0.0,,,,101.0,,,,Fail,,,,,
381.0,14.0,wc_14,wc_2,0.0,"[('wc_2', 0.6000000000000004), ('wc_14', 0.22000000000000008), ('wc_12', 0.4900000000000003), ('wc_3', 0.3600000000000002)]",0.8981632000000002,,,40.0,0.011614000000000001,['Pass'],Fail,0.6000000000000004,-0.44615384615384657,0.0,0.0,0.5
381.0,14.0,wc_14,,0.0,,,,142.0,,,,Fail,,,,,
381.0,14.0,wc_14,wc_7,1.0,"[('wc_7', 0.6200000000000004), ('wc_14', 0.22000000000000008), ('wc_12', 0.4900000000000003), ('wc_3', 0.3600000000000002), ('wc_2', 0.6000000000000004)]",0.9613020160000001,,,25.0,0.050668,['Pass'],Fail,0.6200000000000004,-0.06444444444444486,5.0,9.0,0.6
396.0,16.0,wc_16,,0.0,,,,223.0,,,,Pass,,,,,
396.0,16.0,wc_16,,0.0,,,69.0,,,,,Pass,,,,,
396.0,16.0,wc_16,,0.0,,,,0.0,,,,Pass,,,,,
396.0,16.0,wc_16,wc_16,0.0,"[('wc_16', 0.6400000000000005)]",0.6400000000000005,,,26.0,0.002335,['Pass'],Pass,0.6400000000000005,0.026666666666666172,2.0,3.0,0.6
396.0,16.0,wc_16,,0.0,,,,402.0,,,,Pass,,,,,
396.0,16.0,wc_16,wc_4,0.0,"[('wc_4', 0.6400000000000005), ('wc_16', 0.6400000000000005)]",0.8704000000000003,,,29.0,0.0037,['Pass'],Pass,0.6400000000000005,-0.35428571428571476,2.0,7.0,0.7
396.0,16.0,wc_16,,0.0,,,,121.0,,,,Pass,,,,,
396.0,16.0,wc_16,wc_12,1.0,"[('wc_12', 0.4900000000000003), ('wc_16', 0.6400000000000005), ('wc_4', 0.6400000000000005)]",0.9339040000000002,,,35.0,0.043572,['Pass'],Pass,0.4900000000000003,-0.2677777777777781,2.0,9.0,0.4
413.0,14.0,wc_14,,0.0,,,,0.0,,,,Pass,,,,,
413.0,14.0,wc_14,,0.0,,,59.0,,,,,Pass,,,,,
413.0,14.0,wc_14,,0.0,,,,0.0,,,,Pass,,,,,
413.0,14.0,wc_14,wc_14,0.0,"[('wc_14', 0.22000000000000008)]",0.22000000000000008,,,30.0,0.002419,['Fail'],Pass,0.22000000000000008,-0.12000000000000008,0.0,0.0,0.1
413.0,14.0,wc_14,,0.0,,,,0.0,,,,Pass,,,,,
413.0,14.0,wc_14,wc_16,0.0,"[('wc_16', 0.6500000000000005), ('wc_14', 0.22000000000000008)]",0.7270000000000003,,,36.0,0.004881,['Fail'],Pass,0.6500000000000005,0.09999999999999953,3.0,4.0,0.6
413.0,14.0,wc_14,,0.0,,,,263.0,,,,Pass,,,,,
413.0,14.0,wc_14,wc_1,0.0,"[('wc_14', 0.22000000000000008), ('wc_16', 0.6500000000000005)]",0.7270000000000003,,,26.0,0.0056240000000000005,['Fail'],Pass,0.2600000000000001,-0.2073684210526317,0.0,0.0,0.1
413.0,14.0,wc_14,,0.0,,,,0.0,,,,Pass,,,,,
413.0,14.0,wc_14,wc_5,0.0,"[('wc_5', 0.7600000000000006), ('wc_1', 0.2600000000000001)]",0.8224000000000005,,,20.0,0.007388,['Pass'],Pass,0.7600000000000006,-0.6350000000000006,1.0,8.0,1.0
413.0,14.0,wc_14,,0.0,,,,142.0,,,,Pass,,,,,
413.0,14.0,wc_14,wc_10,0.0,"[('wc_10', 0.41000000000000025), ('wc_14', 0.22000000000000008), ('wc_16', 0.6500000000000005)]",0.8389300000000003,,,35.0,0.009554,['Fail'],Pass,0.41000000000000025,-0.41000000000000025,0.0,1.0,0.4
413.0,14.0,wc_14,,0.0,,,,103.0,,,,Pass,,,,,
413.0,14.0,wc_14,wc_9,1.0,"[('wc_9', 0.6300000000000004), ('wc_14', 0.22000000000000008), ('wc_16', 0.6500000000000005), ('wc_10', 0.41000000000000025)]",0.9404041000000002,,,40.0,0.04770600000000001,['Fail'],Pass,0.6300000000000004,-0.29666666666666713,2.0,6.0,0.6
435.0,17.0,wc_17,,0.0,,,,202.0,,,,Fail,,,,,
435.0,17.0,wc_17,,0.0,,,79.0,,,,,Fail,,,,,
435.0,17.0,wc_17,,0.0,,,,0.0,,,,Fail,,,,,
435.0,17.0,wc_17,wc_17,0.0,"[('wc_17', 0.7200000000000005)]",0.7200000000000005,,,34.0,0.001923,['Fail'],Fail,0.7200000000000005,-0.4977777777777783,2.0,9.0,1.0
435.0,17.0,wc_17,,0.0,,,,103.0,,,,Fail,,,,,
435.0,17.0,wc_17,wc_16,0.0,"[('wc_17', 0.7200000000000005)]",0.7200000000000005,,,32.0,0.0038599999999999997,['Fail'],Fail,0.6600000000000005,0.13999999999999957,4.0,5.0,0.6
435.0,17.0,wc_17,,0.0,,,,422.0,,,,Fail,,,,,
435.0,17.0,wc_17,wc_5,0.0,"[('wc_5', 0.7500000000000006), ('wc_17', 0.7200000000000005)]",0.9300000000000003,,,29.0,0.0062710000000000005,['Fail'],Fail,0.7500000000000006,-0.6388888888888895,1.0,9.0,1.0
435.0,17.0,wc_17,,0.0,,,,41.0,,,,Fail,,,,,
435.0,17.0,wc_17,wc_1,1.0,"[('wc_1', 0.2500000000000001), ('wc_17', 0.7200000000000005), ('wc_5', 0.7500000000000006)]",0.9475000000000002,,,37.0,0.05185700000000001,['Fail'],Fail,0.2600000000000001,0.23999999999999988,1.0,2.0,0.1
444.0,17.0,wc_17,,0.0,,,,283.0,,,,Fail,,,,,
444.0,17.0,wc_17,,0.0,,,57.0,,,,,Fail,,,,,
444.0,17.0,wc_17,,0.0,,,,0.0,,,,Fail,,,,,
444.0,17.0,wc_17,wc_17,0.0,"[('wc_17', 0.7200000000000005)]",0.7200000000000005,,,38.0,0.002461,['Fail'],Fail,0.7200000000000005,-0.7200000000000005,0.0,0.0,1.0
444.0,17.0,wc_17,,0.0,,,,362.0,,,,Fail,,,,,
444.0,17.0,wc_17,wc_3,0.0,"[('wc_3', 0.3600000000000002), ('wc_17', 0.7200000000000005)]",0.8208000000000004,,,24.0,0.0039970000000000006,['Fail'],Fail,0.3600000000000002,-0.21714285714285736,1.0,7.0,0.3
444.0,17.0,wc_17,,0.0,,,,0.0,,,,Fail,,,,,
444.0,17.0,wc_17,wc_5,1.0,"[('wc_5', 0.7500000000000006), ('wc_17', 0.7200000000000005), ('wc_3', 0.3600000000000002)]",0.9552000000000002,,,20.0,0.042609,['Fail'],Fail,0.7600000000000006,0.23999999999999944,1.0,1.0,1.0
453.0,17.0,wc_17,,0.0,,,,202.0,,,,Pass,,,,,
453.0,17.0,wc_17,,0.0,,,56.0,,,,,Pass,,,,,
453.0,17.0,wc_17,,0.0,,,,0.0,,,,Pass,,,,,
453.0,17.0,wc_17,wc_17,0.0,"[('wc_17', 0.7300000000000005)]",0.7300000000000005,,,28.0,0.002196,['Pass'],Pass,0.7300000000000005,0.26999999999999946,1.0,1.0,1.0
453.0,17.0,wc_17,,0.0,,,,21.0,,,,Pass,,,,,
453.0,17.0,wc_17,wc_12,0.0,"[('wc_12', 0.4900000000000003), ('wc_17', 0.7300000000000005)]",0.8623000000000004,,,34.0,0.003938,['Pass'],Pass,0.4900000000000003,-0.3233333333333337,0.0,0.0,0.4
453.0,17.0,wc_17,,0.0,,,,222.0,,,,Pass,,,,,
453.0,17.0,wc_17,wc_8,1.0,"[('wc_8', 0.6600000000000005), ('wc_17', 0.7300000000000005), ('wc_12', 0.4900000000000003)]",0.9531820000000002,,,35.0,0.042440000000000005,['Pass'],Pass,0.6600000000000005,-0.6600000000000005,0.0,0.0,0.8
