mpecck/BCQC/bcqc_with_qdt/results/raw/input_6/independent_qc/training/20_workpiece/20200429_084416/wp_10_qc_majority_0.9.csv
production_index,step_idx,production_workcell,qc,consent,winner_qc_list,score,production_time,transport_time,inspection_time,network_time,qc_results,actual_quality,qc_score,score_error,in_winner_counter,in_qc_counter,qc_capability
34.0,1.0,wc_1,,0.0,,,53.0,,,,,Fail,,,,,
34.0,1.0,wc_1,,0.0,,,,0.0,,,,Fail,,,,,
34.0,1.0,wc_1,wc_1,0.0,"[('wc_1', 0.20000000000000007)]",0.20000000000000007,,,24.0,0.002636,['Fail'],Fail,0.20000000000000007,-0.20000000000000007,0.0,3.0,0.1
34.0,1.0,wc_1,,0.0,,,,182.0,,,,Fail,,,,,
34.0,1.0,wc_1,wc_12,0.0,"[('wc_12', 0.5100000000000003)]",0.5100000000000003,,,36.0,0.0040230000000000005,['Pass'],Fail,0.5100000000000003,-0.22428571428571464,2.0,7.0,0.4
34.0,1.0,wc_1,,0.0,,,,381.0,,,,Fail,,,,,
34.0,1.0,wc_1,wc_4,0.0,"[('wc_4', 0.6500000000000005), ('wc_1', 0.20000000000000007)]",0.7200000000000004,,,31.0,0.005777999999999999,['Fail'],Fail,0.6500000000000005,-0.42777777777777826,2.0,9.0,0.7
34.0,1.0,wc_1,,0.0,,,,182.0,,,,Fail,,,,,
34.0,1.0,wc_1,wc_15,0.0,"[('wc_1', 0.20000000000000007), ('wc_4', 0.6500000000000005)]",0.7200000000000004,,,22.0,0.007824999999999999,['Fail'],Fail,0.3300000000000002,-0.14818181818181836,0.0,0.0,0.1
34.0,1.0,wc_1,,0.0,,,,402.0,,,,Fail,,,,,
34.0,1.0,wc_1,wc_11,0.0,"[('wc_11', 0.29000000000000015), ('wc_1', 0.20000000000000007), ('wc_4', 0.6500000000000005)]",0.8012000000000004,,,36.0,0.010711,['Fail'],Fail,0.29000000000000015,-0.29000000000000015,0.0,9.0,0.2
34.0,1.0,wc_1,,0.0,,,,362.0,,,,Fail,,,,,
34.0,1.0,wc_1,wc_5,1.0,"[('wc_5', 0.7100000000000005), ('wc_1', 0.20000000000000007), ('wc_4', 0.6500000000000005), ('wc_11', 0.29000000000000015)]",0.9423480000000002,,,32.0,0.040434,['Fail'],Fail,0.7100000000000005,-0.7100000000000005,0.0,0.0,1.0
145.0,1.0,wc_1,,0.0,,,,41.0,,,,Fail,,,,,
145.0,1.0,wc_1,,0.0,,,79.0,,,,,Fail,,,,,
145.0,1.0,wc_1,,0.0,,,,0.0,,,,Fail,,,,,
145.0,1.0,wc_1,wc_1,0.0,"[('wc_1', 0.21000000000000008)]",0.21000000000000008,,,32.0,0.002539,['Fail'],Fail,0.21000000000000008,0.039999999999999925,1.0,4.0,0.1
145.0,1.0,wc_1,,0.0,,,,162.0,,,,Fail,,,,,
145.0,1.0,wc_1,wc_7,0.0,"[('wc_7', 0.6100000000000004)]",0.6100000000000004,,,20.0,0.004294,['Pass'],Fail,0.6100000000000004,-0.4433333333333338,1.0,6.0,0.6
145.0,1.0,wc_1,,0.0,,,,341.0,,,,Fail,,,,,
145.0,1.0,wc_1,wc_5,0.0,"[('wc_5', 0.7100000000000005), ('wc_1', 0.21000000000000008)]",0.7709000000000005,,,35.0,0.005393,['Fail'],Fail,0.7100000000000005,-0.7100000000000005,0.0,0.0,1.0
145.0,1.0,wc_1,,0.0,,,,162.0,,,,Fail,,,,,
145.0,1.0,wc_1,wc_15,0.0,"[('wc_15', 0.3200000000000002), ('wc_1', 0.21000000000000008), ('wc_5', 0.7100000000000005)]",0.8442120000000004,,,26.0,0.008192,['Fail'],Fail,0.3200000000000002,-0.3200000000000002,0.0,1.0,0.1
145.0,1.0,wc_1,,0.0,,,,382.0,,,,Fail,,,,,
145.0,1.0,wc_1,wc_10,1.0,"[('wc_10', 0.3800000000000002), ('wc_1', 0.21000000000000008), ('wc_5', 0.7100000000000005), ('wc_15', 0.3200000000000002)]",0.9034114400000002,,,27.0,0.039427000000000004,['Fail'],Fail,0.39000000000000024,0.009999999999999787,2.0,5.0,0.4
224.0,1.0,wc_1,,0.0,,,,223.0,,,,Pass,,,,,
224.0,1.0,wc_1,,0.0,,,65.0,,,,,Pass,,,,,
224.0,1.0,wc_1,,0.0,,,,0.0,,,,Pass,,,,,
224.0,1.0,wc_1,wc_1,0.0,"[('wc_1', 0.22000000000000008)]",0.22000000000000008,,,21.0,0.002097,['Pass'],Pass,0.22000000000000008,0.17999999999999994,2.0,5.0,0.1
224.0,1.0,wc_1,,0.0,,,,243.0,,,,Pass,,,,,
224.0,1.0,wc_1,wc_11,0.0,"[('wc_11', 0.29000000000000015), ('wc_1', 0.22000000000000008)]",0.44620000000000015,,,20.0,0.004513,['Pass'],Pass,0.29000000000000015,-0.29000000000000015,0.0,1.0,0.2
224.0,1.0,wc_1,,0.0,,,,142.0,,,,Pass,,,,,
224.0,1.0,wc_1,wc_16,0.0,"[('wc_16', 0.5300000000000004), ('wc_1', 0.22000000000000008), ('wc_11', 0.29000000000000015)]",0.7397140000000002,,,30.0,0.006154,['Pass'],Pass,0.5300000000000004,-0.5300000000000004,0.0,2.0,0.6
224.0,1.0,wc_1,,0.0,,,,61.0,,,,Pass,,,,,
224.0,1.0,wc_1,wc_13,0.0,"[('wc_13', 0.5800000000000004), ('wc_1', 0.22000000000000008), ('wc_11', 0.29000000000000015), ('wc_16', 0.5300000000000004)]",0.8906798800000002,,,20.0,0.008966,['Pass'],Pass,0.5800000000000004,-0.3925000000000004,0.0,0.0,0.5
224.0,1.0,wc_1,,0.0,,,,0.0,,,,Pass,,,,,
224.0,1.0,wc_1,wc_14,1.0,"[('wc_14', 0.20000000000000007), ('wc_1', 0.22000000000000008), ('wc_11', 0.29000000000000015), ('wc_16', 0.5300000000000004), ('wc_13', 0.5800000000000004)]",0.9125439040000002,,,33.0,0.041729,['Pass'],Pass,0.20000000000000007,-5.551115123125783e-17,1.0,5.0,0.1
246.0,3.0,wc_3,,0.0,,,,321.0,,,,Pass,,,,,
246.0,3.0,wc_3,,0.0,,,79.0,,,,,Pass,,,,,
246.0,3.0,wc_3,,0.0,,,,0.0,,,,Pass,,,,,
246.0,3.0,wc_3,wc_3,0.0,"[('wc_3', 0.3800000000000002)]",0.3800000000000002,,,31.0,0.002161,['Pass'],Pass,0.3800000000000002,-0.22210526315789497,0.0,0.0,0.3
246.0,3.0,wc_3,,0.0,,,,161.0,,,,Pass,,,,,
246.0,3.0,wc_3,wc_13,0.0,"[('wc_13', 0.5900000000000004), ('wc_3', 0.3800000000000002)]",0.7458000000000004,,,30.0,0.004510999999999999,['Pass'],Pass,0.5900000000000004,0.4099999999999996,1.0,1.0,0.5
246.0,3.0,wc_3,,0.0,,,,0.0,,,,Pass,,,,,
246.0,3.0,wc_3,wc_15,0.0,"[('wc_15', 0.3300000000000002), ('wc_3', 0.3800000000000002), ('wc_13', 0.5900000000000004)]",0.8296860000000003,,,30.0,0.006136,['Pass'],Pass,0.3300000000000002,0.0033333333333331328,1.0,3.0,0.1
246.0,3.0,wc_3,,0.0,,,,442.0,,,,Pass,,,,,
246.0,3.0,wc_3,wc_5,1.0,"[('wc_5', 0.7200000000000005), ('wc_3', 0.3800000000000002), ('wc_13', 0.5900000000000004), ('wc_15', 0.3300000000000002)]",0.9523120800000002,,,35.0,0.039008,['Pass'],Pass,0.7200000000000005,-0.0533333333333339,2.0,3.0,1.0
261.0,2.0,wc_2,,0.0,,,,61.0,,,,Pass,,,,,
261.0,2.0,wc_2,,0.0,,,79.0,,,,,Pass,,,,,
261.0,2.0,wc_2,,0.0,,,,0.0,,,,Pass,,,,,
261.0,2.0,wc_2,wc_2,0.0,"[('wc_2', 0.5800000000000004)]",0.5800000000000004,,,20.0,0.002272,['Pass'],Pass,0.5800000000000004,-0.48909090909090946,0.0,0.0,0.5
261.0,2.0,wc_2,,0.0,,,,0.0,,,,Pass,,,,,
261.0,2.0,wc_2,wc_5,0.0,"[('wc_5', 0.7200000000000005), ('wc_2', 0.5800000000000004)]",0.8824000000000003,,,39.0,0.004215999999999999,['Pass'],Pass,0.7200000000000005,-0.0533333333333339,2.0,3.0,1.0
261.0,2.0,wc_2,,0.0,,,,61.0,,,,Pass,,,,,
261.0,2.0,wc_2,wc_6,0.0,"[('wc_2', 0.5800000000000004), ('wc_5', 0.7200000000000005)]",0.8824000000000003,,,34.0,0.006632000000000001,['Pass'],Pass,0.5200000000000004,-0.5200000000000004,0.0,4.0,0.5
261.0,2.0,wc_2,,0.0,,,,0.0,,,,Pass,,,,,
261.0,2.0,wc_2,wc_8,0.0,"[('wc_2', 0.5800000000000004), ('wc_5', 0.7200000000000005)]",0.8824000000000003,,,27.0,0.0076300000000000005,['Pass'],Pass,0.6500000000000005,-0.532352941176471,0.0,0.0,0.8
261.0,2.0,wc_2,,0.0,,,,0.0,,,,Pass,,,,,
261.0,2.0,wc_2,wc_11,0.0,"[('wc_2', 0.5800000000000004), ('wc_5', 0.7200000000000005)]",0.8824000000000003,,,20.0,0.009427,['Pass'],Pass,0.30000000000000016,0.03333333333333316,1.0,3.0,0.2
261.0,2.0,wc_2,,0.0,,,,203.0,,,,Pass,,,,,
261.0,2.0,wc_2,wc_1,1.0,"[('wc_1', 0.2300000000000001), ('wc_6', 0.5200000000000004), ('wc_8', 0.6500000000000005), ('wc_11', 0.30000000000000016)]",0.9094480000000003,,,29.0,0.04690800000000001,['Fail'],Pass,0.2400000000000001,0.2599999999999999,4.0,8.0,0.1
286.0,4.0,wc_4,,0.0,,,,0.0,,,,Pass,,,,,
286.0,4.0,wc_4,,0.0,,,77.0,,,,,Pass,,,,,
286.0,4.0,wc_4,,0.0,,,,0.0,,,,Pass,,,,,
286.0,4.0,wc_4,wc_4,0.0,"[('wc_4', 0.6500000000000005)]",0.6500000000000005,,,24.0,0.002393,['Pass'],Pass,0.6500000000000005,-0.6500000000000005,0.0,4.0,0.7
286.0,4.0,wc_4,,0.0,,,,182.0,,,,Pass,,,,,
286.0,4.0,wc_4,wc_11,0.0,"[('wc_4', 0.6500000000000005)]",0.6500000000000005,,,20.0,0.02865,['Pass'],Pass,0.31000000000000016,0.18999999999999984,2.0,4.0,0.2
286.0,4.0,wc_4,,0.0,,,,61.0,,,,Pass,,,,,
286.0,4.0,wc_4,wc_12,0.0,"[('wc_12', 0.5000000000000003), ('wc_11', 0.31000000000000016)]",0.6550000000000002,,,36.0,0.006103,['Fail'],Pass,0.5000000000000003,-0.3333333333333337,0.0,0.0,0.4
286.0,4.0,wc_4,,0.0,,,,0.0,,,,Pass,,,,,
286.0,4.0,wc_4,wc_16,0.0,"[('wc_16', 0.5300000000000004), ('wc_4', 0.6500000000000005)]",0.8355000000000004,,,20.0,0.007849,['Pass'],Pass,0.5300000000000004,-0.33000000000000035,1.0,5.0,0.6
286.0,4.0,wc_4,,0.0,,,,362.0,,,,Pass,,,,,
286.0,4.0,wc_4,wc_10,0.0,"[('wc_10', 0.39000000000000024), ('wc_4', 0.6500000000000005), ('wc_16', 0.5300000000000004)]",0.8996550000000002,,,26.0,0.009779000000000001,['Pass'],Pass,0.39000000000000024,-0.14000000000000024,2.0,8.0,0.4
286.0,4.0,wc_4,,0.0,,,,243.0,,,,Pass,,,,,
286.0,4.0,wc_4,wc_2,1.0,"[('wc_2', 0.5700000000000004), ('wc_4', 0.6500000000000005), ('wc_16', 0.5300000000000004), ('wc_10', 0.39000000000000024)]",0.9568516500000002,,,27.0,0.051371,['Pass'],Pass,0.5700000000000004,-0.0700000000000004,1.0,2.0,0.5
324.0,5.0,wc_5,,0.0,,,,0.0,,,,Fail,,,,,
324.0,5.0,wc_5,,0.0,,,63.0,,,,,Fail,,,,,
324.0,5.0,wc_5,,0.0,,,,0.0,,,,Fail,,,,,
324.0,5.0,wc_5,wc_5,0.0,"[('wc_5', 0.7100000000000005)]",0.7100000000000005,,,40.0,0.002406,['Fail'],Fail,0.7100000000000005,-0.3100000000000005,2.0,5.0,1.0
324.0,5.0,wc_5,,0.0,,,,122.0,,,,Fail,,,,,
324.0,5.0,wc_5,wc_9,0.0,"[('wc_9', 0.5400000000000004), ('wc_5', 0.7100000000000005)]",0.8666000000000004,,,37.0,0.004111999999999999,['Fail'],Fail,0.5400000000000004,-0.5400000000000004,0.0,9.0,0.6
324.0,5.0,wc_5,,0.0,,,,382.0,,,,Fail,,,,,
324.0,5.0,wc_5,wc_4,1.0,"[('wc_4', 0.6500000000000005), ('wc_5', 0.7100000000000005), ('wc_9', 0.5400000000000004)]",0.9533100000000002,,,29.0,0.041918,['Fail'],Fail,0.6500000000000005,-0.31666666666666715,2.0,6.0,0.7
359.0,5.0,wc_5,,0.0,,,,0.0,,,,Fail,,,,,
359.0,5.0,wc_5,,0.0,,,67.0,,,,,Fail,,,,,
359.0,5.0,wc_5,,0.0,,,,0.0,,,,Fail,,,,,
359.0,5.0,wc_5,wc_5,0.0,"[('wc_5', 0.7100000000000005)]",0.7100000000000005,,,35.0,0.002204,['Pass'],Fail,0.7100000000000005,-0.21000000000000052,3.0,6.0,1.0
359.0,5.0,wc_5,,0.0,,,,141.0,,,,Fail,,,,,
359.0,5.0,wc_5,wc_14,0.0,"[('wc_14', 0.20000000000000007), ('wc_5', 0.7100000000000005)]",0.7680000000000005,,,36.0,0.0044480000000000006,['Pass'],Fail,0.20000000000000007,-0.08888888888888896,1.0,9.0,0.1
359.0,5.0,wc_5,,0.0,,,,182.0,,,,Fail,,,,,
359.0,5.0,wc_5,wc_8,0.0,"[('wc_5', 0.7100000000000005), ('wc_14', 0.20000000000000007)]",0.7680000000000005,,,27.0,0.007518,['Pass'],Fail,0.6600000000000005,-0.32666666666666716,1.0,3.0,0.8
359.0,5.0,wc_5,,0.0,,,,142.0,,,,Fail,,,,,
359.0,5.0,wc_5,wc_13,1.0,"[('wc_13', 0.6000000000000004), ('wc_5', 0.7100000000000005), ('wc_14', 0.20000000000000007)]",0.9072000000000002,,,30.0,0.041533999999999995,['Pass'],Fail,0.6000000000000004,-0.10000000000000042,3.0,6.0,0.5
414.0,5.0,wc_5,,0.0,,,,381.0,,,,Fail,,,,,
414.0,5.0,wc_5,,0.0,,,69.0,,,,,Fail,,,,,
414.0,5.0,wc_5,,0.0,,,,0.0,,,,Fail,,,,,
414.0,5.0,wc_5,wc_5,0.0,"[('wc_5', 0.7100000000000005)]",0.7100000000000005,,,35.0,0.002235,['Fail'],Fail,0.7100000000000005,-0.13857142857142912,4.0,7.0,1.0
414.0,5.0,wc_5,,0.0,,,,83.0,,,,Fail,,,,,
414.0,5.0,wc_5,wc_3,0.0,"[('wc_3', 0.39000000000000024), ('wc_5', 0.7100000000000005)]",0.8231000000000004,,,25.0,0.003943,['Fail'],Fail,0.39000000000000024,-0.19000000000000022,1.0,5.0,0.3
414.0,5.0,wc_5,,0.0,,,,0.0,,,,Fail,,,,,
414.0,5.0,wc_5,wc_4,1.0,"[('wc_4', 0.6500000000000005), ('wc_5', 0.7100000000000005), ('wc_3', 0.39000000000000024)]",0.9380850000000002,,,26.0,0.036062,['Fail'],Fail,0.6500000000000005,-0.27500000000000047,3.0,8.0,0.7
427.0,5.0,wc_5,,0.0,,,,0.0,,,,Fail,,,,,
427.0,5.0,wc_5,,0.0,,,79.0,,,,,Fail,,,,,
427.0,5.0,wc_5,,0.0,,,,0.0,,,,Fail,,,,,
427.0,5.0,wc_5,wc_5,0.0,"[('wc_5', 0.7100000000000005)]",0.7100000000000005,,,20.0,0.002145,['Fail'],Fail,0.7100000000000005,-0.08500000000000052,5.0,8.0,1.0
427.0,5.0,wc_5,,0.0,,,,202.0,,,,Fail,,,,,
427.0,5.0,wc_5,wc_17,0.0,"[('wc_17', 0.6600000000000005), ('wc_5', 0.7100000000000005)]",0.9014000000000003,,,38.0,0.004182,['Fail'],Fail,0.6600000000000005,-0.32666666666666716,0.0,0.0,1.0
427.0,5.0,wc_5,,0.0,,,,342.0,,,,Fail,,,,,
427.0,5.0,wc_5,wc_10,1.0,"[('wc_10', 0.39000000000000024), ('wc_5', 0.7100000000000005), ('wc_17', 0.6600000000000005)]",0.9398540000000002,,,24.0,0.037533000000000004,['Fail'],Fail,0.39000000000000024,-0.39000000000000024,0.0,0.0,0.4
446.0,5.0,wc_5,,0.0,,,,382.0,,,,Pass,,,,,
446.0,5.0,wc_5,,0.0,,,78.0,,,,,Pass,,,,,
446.0,5.0,wc_5,,0.0,,,,0.0,,,,Pass,,,,,
446.0,5.0,wc_5,wc_5,0.0,"[('wc_5', 0.7100000000000005)]",0.7100000000000005,,,34.0,0.002106,['Pass'],Pass,0.7100000000000005,-0.04333333333333389,6.0,9.0,1.0
446.0,5.0,wc_5,,0.0,,,,61.0,,,,Pass,,,,,
446.0,5.0,wc_5,wc_6,0.0,"[('wc_6', 0.5200000000000004), ('wc_5', 0.7100000000000005)]",0.8608000000000003,,,37.0,0.004324,['Pass'],Pass,0.5200000000000004,-0.4200000000000004,0.0,0.0,0.5
446.0,5.0,wc_5,,0.0,,,,0.0,,,,Pass,,,,,
446.0,5.0,wc_5,wc_11,1.0,"[('wc_11', 0.31000000000000016), ('wc_5', 0.7100000000000005), ('wc_6', 0.5200000000000004)]",0.9039520000000003,,,23.0,0.039623,['Pass'],Pass,0.31000000000000016,-0.31000000000000016,0.0,0.0,0.2
458.0,6.0,wc_6,,0.0,,,,21.0,,,,Fail,,,,,
458.0,6.0,wc_6,,0.0,,,51.0,,,,,Fail,,,,,
458.0,6.0,wc_6,,0.0,,,,0.0,,,,Fail,,,,,
458.0,6.0,wc_6,wc_6,0.0,"[('wc_6', 0.5300000000000004)]",0.5300000000000004,,,28.0,0.002194,['Fail'],Fail,0.5300000000000004,0.46999999999999964,1.0,1.0,0.5
458.0,6.0,wc_6,,0.0,,,,0.0,,,,Fail,,,,,
458.0,6.0,wc_6,wc_10,0.0,"[('wc_10', 0.39000000000000024), ('wc_6', 0.5300000000000004)]",0.7133000000000003,,,33.0,0.004136,['Fail'],Fail,0.39000000000000024,-0.39000000000000024,0.0,1.0,0.4
458.0,6.0,wc_6,,0.0,,,,342.0,,,,Fail,,,,,
458.0,6.0,wc_6,wc_3,0.0,"[('wc_3', 0.39000000000000024), ('wc_6', 0.5300000000000004), ('wc_10', 0.39000000000000024)]",0.8251130000000002,,,21.0,0.0060669999999999995,['Fail'],Fail,0.39000000000000024,-0.14000000000000024,2.0,8.0,0.3
458.0,6.0,wc_6,,0.0,,,,202.0,,,,Fail,,,,,
458.0,6.0,wc_6,wc_15,0.0,"[('wc_15', 0.3400000000000002), ('wc_6', 0.5300000000000004), ('wc_10', 0.39000000000000024), ('wc_3', 0.39000000000000024)]",0.8845745800000002,,,25.0,0.007931,['Fail'],Fail,0.3400000000000002,-0.15818181818181837,0.0,0.0,0.1
458.0,6.0,wc_6,,0.0,,,,303.0,,,,Fail,,,,,
458.0,6.0,wc_6,wc_2,1.0,"[('wc_2', 0.5700000000000004), ('wc_6', 0.5300000000000004), ('wc_10', 0.39000000000000024), ('wc_3', 0.39000000000000024), ('wc_15', 0.3400000000000002)]",0.9503670694000002,,,23.0,0.04384299999999999,['Fail'],Fail,0.5700000000000004,-0.3200000000000004,2.0,8.0,0.5
476.0,6.0,wc_6,,0.0,,,,122.0,,,,Fail,,,,,
476.0,6.0,wc_6,,0.0,,,61.0,,,,,Fail,,,,,
476.0,6.0,wc_6,,0.0,,,,0.0,,,,Fail,,,,,
476.0,6.0,wc_6,wc_6,0.0,"[('wc_6', 0.5400000000000004)]",0.5400000000000004,,,28.0,0.00231,['Fail'],Fail,0.5400000000000004,0.45999999999999963,2.0,2.0,0.5
476.0,6.0,wc_6,,0.0,,,,0.0,,,,Fail,,,,,
476.0,6.0,wc_6,wc_11,0.0,"[('wc_11', 0.31000000000000016), ('wc_6', 0.5400000000000004)]",0.6826000000000003,,,37.0,0.0039,['Fail'],Fail,0.31000000000000016,-0.31000000000000016,0.0,1.0,0.2
476.0,6.0,wc_6,,0.0,,,,342.0,,,,Fail,,,,,
476.0,6.0,wc_6,wc_4,0.0,"[('wc_4', 0.6500000000000005), ('wc_6', 0.5400000000000004), ('wc_11', 0.31000000000000016)]",0.8889100000000003,,,20.0,0.0055509999999999995,['Fail'],Fail,0.6500000000000005,-0.37727272727272776,0.0,0.0,0.7
476.0,6.0,wc_6,,0.0,,,,182.0,,,,Fail,,,,,
476.0,6.0,wc_6,wc_15,1.0,"[('wc_15', 0.3500000000000002), ('wc_6', 0.5400000000000004), ('wc_11', 0.31000000000000016), ('wc_4', 0.6500000000000005)]",0.9277915000000002,,,22.0,0.042367,['Fail'],Fail,0.3600000000000002,0.6399999999999998,2.0,2.0,0.1
500.0,6.0,wc_6,,0.0,,,,223.0,,,,Fail,,,,,
500.0,6.0,wc_6,,0.0,,,77.0,,,,,Fail,,,,,
500.0,6.0,wc_6,,0.0,,,,0.0,,,,Fail,,,,,
500.0,6.0,wc_6,wc_6,0.0,"[('wc_6', 0.5500000000000004)]",0.5500000000000004,,,33.0,0.002189,['Fail'],Fail,0.5500000000000004,0.4499999999999996,3.0,3.0,0.5
500.0,6.0,wc_6,,0.0,,,,162.0,,,,Fail,,,,,
500.0,6.0,wc_6,wc_12,0.0,"[('wc_6', 0.5500000000000004)]",0.5500000000000004,,,34.0,0.0040149999999999995,['Fail'],Fail,0.4900000000000003,-0.4900000000000003,0.0,8.0,0.4
500.0,6.0,wc_6,,0.0,,,,242.0,,,,Fail,,,,,
500.0,6.0,wc_6,wc_1,0.0,"[('wc_1', 0.2400000000000001), ('wc_6', 0.5500000000000004)]",0.6580000000000004,,,36.0,0.0058449999999999995,['Fail'],Fail,0.2400000000000001,0.009999999999999898,0.0,0.0,0.1
500.0,6.0,wc_6,,0.0,,,,223.0,,,,Fail,,,,,
500.0,6.0,wc_6,wc_10,0.0,"[('wc_10', 0.40000000000000024), ('wc_6', 0.5500000000000004), ('wc_1', 0.2400000000000001)]",0.7948000000000003,,,25.0,0.007166,['Fail'],Fail,0.40000000000000024,-0.06666666666666693,1.0,3.0,0.4
500.0,6.0,wc_6,,0.0,,,,0.0,,,,Fail,,,,,
500.0,6.0,wc_6,wc_11,0.0,"[('wc_11', 0.3200000000000002), ('wc_6', 0.5500000000000004), ('wc_1', 0.2400000000000001), ('wc_10', 0.40000000000000024)]",0.8604640000000002,,,36.0,0.010662999999999999,['Fail'],Fail,0.3200000000000002,0.17999999999999983,1.0,2.0,0.2
500.0,6.0,wc_6,,0.0,,,,223.0,,,,Fail,,,,,
500.0,6.0,wc_6,wc_2,0.0,"[('wc_6', 0.5500000000000004), ('wc_1', 0.2400000000000001), ('wc_10', 0.40000000000000024), ('wc_11', 0.3200000000000002)]",0.8604640000000002,,,20.0,0.011499,['Fail'],Fail,0.5700000000000004,-0.3477777777777782,2.0,9.0,0.5
500.0,6.0,wc_6,,0.0,,,,142.0,,,,Fail,,,,,
500.0,6.0,wc_6,wc_7,1.0,"[('wc_7', 0.6000000000000004), ('wc_6', 0.5500000000000004), ('wc_1', 0.2400000000000001), ('wc_10', 0.40000000000000024), ('wc_11', 0.3200000000000002)]",0.9441856000000002,,,32.0,0.045712,['Fail'],Fail,0.6000000000000004,-0.6000000000000004,0.0,0.0,0.6
525.0,6.0,wc_6,,0.0,,,,102.0,,,,Fail,,,,,
525.0,6.0,wc_6,,0.0,,,53.0,,,,,Fail,,,,,
525.0,6.0,wc_6,,0.0,,,,0.0,,,,Fail,,,,,
525.0,6.0,wc_6,wc_6,0.0,"[('wc_6', 0.5600000000000004)]",0.5600000000000004,,,37.0,0.002277,['Fail'],Fail,0.5600000000000004,0.4399999999999996,4.0,4.0,0.5
525.0,6.0,wc_6,,0.0,,,,202.0,,,,Fail,,,,,
525.0,6.0,wc_6,wc_14,0.0,"[('wc_14', 0.20000000000000007), ('wc_6', 0.5600000000000004)]",0.6480000000000004,,,34.0,0.004114,['Fail'],Fail,0.20000000000000007,-0.20000000000000007,0.0,6.0,0.1
525.0,6.0,wc_6,,0.0,,,,341.0,,,,Fail,,,,,
525.0,6.0,wc_6,wc_4,0.0,"[('wc_4', 0.6600000000000005), ('wc_6', 0.5600000000000004), ('wc_14', 0.20000000000000007)]",0.8803200000000003,,,40.0,0.0062120000000000005,['Fail'],Fail,0.6600000000000005,-0.16000000000000048,1.0,2.0,0.7
525.0,6.0,wc_6,,0.0,,,,141.0,,,,Fail,,,,,
525.0,6.0,wc_6,wc_13,0.0,"[('wc_6', 0.5600000000000004), ('wc_14', 0.20000000000000007), ('wc_4', 0.6600000000000005)]",0.8803200000000003,,,28.0,0.0075580000000000005,['Fail'],Fail,0.6000000000000004,-0.3500000000000004,0.0,0.0,0.5
525.0,6.0,wc_6,,0.0,,,,341.0,,,,Fail,,,,,
525.0,6.0,wc_6,wc_11,1.0,"[('wc_11', 0.3300000000000002), ('wc_6', 0.5600000000000004), ('wc_14', 0.20000000000000007), ('wc_4', 0.6600000000000005)]",0.9198144000000003,,,27.0,0.04605000000000001,['Fail'],Fail,0.3400000000000002,0.4099999999999998,3.0,4.0,0.2
532.0,6.0,wc_6,,0.0,,,,21.0,,,,Fail,,,,,
532.0,6.0,wc_6,,0.0,,,56.0,,,,,Fail,,,,,
532.0,6.0,wc_6,,0.0,,,,0.0,,,,Fail,,,,,
532.0,6.0,wc_6,wc_6,0.0,"[('wc_6', 0.5700000000000004)]",0.5700000000000004,,,24.0,0.002204,['Fail'],Fail,0.5700000000000004,0.4299999999999996,5.0,5.0,0.5
532.0,6.0,wc_6,,0.0,,,,361.0,,,,Fail,,,,,
532.0,6.0,wc_6,wc_5,0.0,"[('wc_5', 0.7100000000000005), ('wc_6', 0.5700000000000004)]",0.8753000000000003,,,37.0,0.004006,['Fail'],Fail,0.7100000000000005,-0.7100000000000005,0.0,4.0,1.0
532.0,6.0,wc_6,,0.0,,,,101.0,,,,Fail,,,,,
532.0,6.0,wc_6,wc_12,1.0,"[('wc_12', 0.4800000000000003), ('wc_6', 0.5700000000000004), ('wc_5', 0.7100000000000005)]",0.9351560000000002,,,40.0,0.039135,['Fail'],Fail,0.4800000000000003,-0.4800000000000003,0.0,0.0,0.4
540.0,6.0,wc_6,,0.0,,,,182.0,,,,Fail,,,,,
540.0,6.0,wc_6,,0.0,,,80.0,,,,,Fail,,,,,
540.0,6.0,wc_6,,0.0,,,,0.0,,,,Fail,,,,,
540.0,6.0,wc_6,wc_6,0.0,"[('wc_6', 0.5800000000000004)]",0.5800000000000004,,,33.0,0.002158,['Fail'],Fail,0.5800000000000004,0.4199999999999996,6.0,6.0,0.5
540.0,6.0,wc_6,,0.0,,,,162.0,,,,Fail,,,,,
540.0,6.0,wc_6,wc_12,0.0,"[('wc_12', 0.4800000000000003), ('wc_6', 0.5800000000000004)]",0.7816000000000003,,,38.0,0.003762,['Fail'],Fail,0.4800000000000003,-0.4800000000000003,0.0,0.0,0.4
540.0,6.0,wc_6,,0.0,,,,401.0,,,,Fail,,,,,
540.0,6.0,wc_6,wc_5,1.0,"[('wc_5', 0.7100000000000005), ('wc_6', 0.5800000000000004), ('wc_12', 0.4800000000000003)]",0.9366640000000002,,,33.0,0.045223999999999986,['Fail'],Fail,0.7100000000000005,-0.3766666666666672,2.0,6.0,1.0
549.0,6.0,wc_6,,0.0,,,,61.0,,,,Pass,,,,,
549.0,6.0,wc_6,,0.0,,,79.0,,,,,Pass,,,,,
549.0,6.0,wc_6,,0.0,,,,0.0,,,,Pass,,,,,
549.0,6.0,wc_6,wc_6,0.0,"[('wc_6', 0.5900000000000004)]",0.5900000000000004,,,21.0,0.002114,['Fail'],Pass,0.5900000000000004,0.4099999999999996,7.0,7.0,0.5
549.0,6.0,wc_6,,0.0,,,,341.0,,,,Pass,,,,,
549.0,6.0,wc_6,wc_4,0.0,"[('wc_4', 0.6600000000000005)]",0.6600000000000005,,,38.0,0.003939,['Pass'],Pass,0.6600000000000005,-0.26000000000000045,2.0,5.0,0.7
549.0,6.0,wc_6,,0.0,,,,162.0,,,,Pass,,,,,
549.0,6.0,wc_6,wc_10,0.0,"[('wc_10', 0.41000000000000025), ('wc_4', 0.6600000000000005)]",0.7994000000000003,,,37.0,0.006546,['Pass'],Pass,0.41000000000000025,-0.12428571428571455,2.0,7.0,0.4
549.0,6.0,wc_6,,0.0,,,,382.0,,,,Pass,,,,,
549.0,6.0,wc_6,wc_5,1.0,"[('wc_5', 0.7100000000000005), ('wc_4', 0.6600000000000005), ('wc_10', 0.41000000000000025)]",0.9418260000000002,,,21.0,0.042933000000000006,['Pass'],Pass,0.7100000000000005,-0.28142857142857197,3.0,7.0,1.0
556.0,7.0,wc_7,,0.0,,,,81.0,,,,Pass,,,,,
556.0,7.0,wc_7,,0.0,,,54.0,,,,,Pass,,,,,
556.0,7.0,wc_7,,0.0,,,,0.0,,,,Pass,,,,,
556.0,7.0,wc_7,wc_7,0.0,"[('wc_7', 0.6000000000000004)]",0.6000000000000004,,,30.0,0.002179,['Pass'],Pass,0.6000000000000004,-0.6000000000000004,0.0,4.0,0.6
556.0,7.0,wc_7,,0.0,,,,223.0,,,,Pass,,,,,
556.0,7.0,wc_7,wc_16,0.0,"[('wc_16', 0.5300000000000004), ('wc_7', 0.6000000000000004)]",0.8120000000000003,,,31.0,0.004091,['Pass'],Pass,0.5300000000000004,-0.41888888888888925,0.0,0.0,0.6
556.0,7.0,wc_7,,0.0,,,,61.0,,,,Pass,,,,,
556.0,7.0,wc_7,wc_13,1.0,"[('wc_13', 0.5900000000000004), ('wc_7', 0.6000000000000004), ('wc_16', 0.5300000000000004)]",0.9229200000000002,,,24.0,0.040457999999999994,['Pass'],Pass,0.5900000000000004,-0.3900000000000004,1.0,5.0,0.5
564.0,11.0,wc_11,,0.0,,,,341.0,,,,Pass,,,,,
564.0,11.0,wc_11,,0.0,,,79.0,,,,,Pass,,,,,
564.0,11.0,wc_11,,0.0,,,,0.0,,,,Pass,,,,,
564.0,11.0,wc_11,wc_11,0.0,"[('wc_11', 0.3400000000000002)]",0.3400000000000002,,,22.0,0.002202,['Fail'],Pass,0.3400000000000002,0.03499999999999981,3.0,8.0,0.2
564.0,11.0,wc_11,,0.0,,,,61.0,,,,Pass,,,,,
564.0,11.0,wc_11,wc_8,0.0,"[('wc_8', 0.6500000000000005)]",0.6500000000000005,,,31.0,0.004034,['Pass'],Pass,0.6500000000000005,-0.5833333333333338,0.0,0.0,0.8
564.0,11.0,wc_11,,0.0,,,,0.0,,,,Pass,,,,,
564.0,11.0,wc_11,wc_9,0.0,"[('wc_9', 0.5400000000000004), ('wc_11', 0.3400000000000002)]",0.6964000000000004,,,40.0,0.005884,['Fail'],Pass,0.5400000000000004,-0.5400000000000004,0.0,0.0,0.6
564.0,11.0,wc_11,,0.0,,,,101.0,,,,Pass,,,,,
564.0,11.0,wc_11,wc_12,0.0,"[('wc_12', 0.4900000000000003), ('wc_8', 0.6500000000000005)]",0.8215000000000003,,,24.0,0.007157,['Pass'],Pass,0.4900000000000003,-0.156666666666667,1.0,3.0,0.4
564.0,11.0,wc_11,,0.0,,,,0.0,,,,Pass,,,,,
564.0,11.0,wc_11,wc_13,1.0,"[('wc_13', 0.5900000000000004), ('wc_8', 0.6500000000000005), ('wc_12', 0.4900000000000003)]",0.9268150000000002,,,29.0,0.042257,['Pass'],Pass,0.5900000000000004,-0.2566666666666671,2.0,6.0,0.5
570.0,10.0,wc_10,,0.0,,,,321.0,,,,Pass,,,,,
570.0,10.0,wc_10,,0.0,,,66.0,,,,,Pass,,,,,
570.0,10.0,wc_10,,0.0,,,,0.0,,,,Pass,,,,,
570.0,10.0,wc_10,wc_10,0.0,"[('wc_10', 0.41000000000000025)]",0.41000000000000025,,,26.0,0.002007,['Pass'],Pass,0.41000000000000025,-0.11000000000000026,0.0,0.0,0.4
570.0,10.0,wc_10,,0.0,,,,182.0,,,,Pass,,,,,
570.0,10.0,wc_10,wc_17,0.0,"[('wc_17', 0.6700000000000005), ('wc_10', 0.41000000000000025)]",0.8053000000000003,,,35.0,0.003961,['Pass'],Pass,0.6700000000000005,-0.5790909090909095,0.0,0.0,1.0
570.0,10.0,wc_10,,0.0,,,,103.0,,,,Pass,,,,,
570.0,10.0,wc_10,wc_16,1.0,"[('wc_16', 0.5400000000000004), ('wc_10', 0.41000000000000025), ('wc_17', 0.6700000000000005)]",0.9104380000000003,,,30.0,0.04163,['Pass'],Pass,0.5500000000000004,0.11666666666666625,2.0,3.0,0.6
576.0,9.0,wc_9,,0.0,,,,342.0,,,,Fail,,,,,
576.0,9.0,wc_9,,0.0,,,79.0,,,,,Fail,,,,,
576.0,9.0,wc_9,,0.0,,,,0.0,,,,Fail,,,,,
576.0,9.0,wc_9,wc_9,0.0,"[('wc_9', 0.5300000000000004)]",0.5300000000000004,,,38.0,0.002285,['Fail'],Fail,0.5300000000000004,-0.5300000000000004,0.0,2.0,0.6
576.0,9.0,wc_9,,0.0,,,,402.0,,,,Fail,,,,,
576.0,9.0,wc_9,wc_5,0.0,"[('wc_5', 0.7100000000000005), ('wc_9', 0.5300000000000004)]",0.8637000000000004,,,38.0,0.004099,['Fail'],Fail,0.7100000000000005,-0.41000000000000053,0.0,0.0,1.0
576.0,9.0,wc_9,,0.0,,,,101.0,,,,Fail,,,,,
576.0,9.0,wc_9,wc_8,1.0,"[('wc_8', 0.6600000000000005), ('wc_9', 0.5300000000000004), ('wc_5', 0.7100000000000005)]",0.9536580000000002,,,39.0,0.041981,['Fail'],Fail,0.6600000000000005,0.0066666666666661545,2.0,3.0,0.8
581.0,8.0,wc_8,,0.0,,,,0.0,,,,Pass,,,,,
581.0,8.0,wc_8,,0.0,,,51.0,,,,,Pass,,,,,
581.0,8.0,wc_8,,0.0,,,,0.0,,,,Pass,,,,,
581.0,8.0,wc_8,wc_8,0.0,"[('wc_8', 0.6600000000000005)]",0.6600000000000005,,,28.0,0.002191,['Pass'],Pass,0.6600000000000005,0.0066666666666661545,2.0,3.0,0.8
581.0,8.0,wc_8,,0.0,,,,0.0,,,,Pass,,,,,
581.0,8.0,wc_8,wc_10,0.0,"[('wc_8', 0.6600000000000005)]",0.6600000000000005,,,27.0,0.003918,['Pass'],Pass,0.42000000000000026,0.07999999999999974,1.0,2.0,0.4
581.0,8.0,wc_8,,0.0,,,,103.0,,,,Pass,,,,,
581.0,8.0,wc_8,wc_9,0.0,"[('wc_9', 0.5300000000000004), ('wc_10', 0.42000000000000026)]",0.7274000000000003,,,21.0,0.005732999999999999,['Fail'],Pass,0.5300000000000004,-0.19666666666666704,1.0,3.0,0.6
581.0,8.0,wc_8,,0.0,,,,382.0,,,,Pass,,,,,
581.0,8.0,wc_8,wc_4,0.0,"[('wc_4', 0.6600000000000005), ('wc_8', 0.6600000000000005)]",0.8844000000000003,,,21.0,0.008165,['Pass'],Pass,0.6600000000000005,-0.3600000000000005,0.0,0.0,0.7
581.0,8.0,wc_8,,0.0,,,,141.0,,,,Pass,,,,,
581.0,8.0,wc_8,wc_13,0.0,"[('wc_13', 0.5900000000000004), ('wc_10', 0.42000000000000026), ('wc_9', 0.5300000000000004)]",0.8882340000000002,,,22.0,0.010216999999999999,['Fail'],Pass,0.5900000000000004,-0.3400000000000004,2.0,8.0,0.5
581.0,8.0,wc_8,,0.0,,,,242.0,,,,Pass,,,,,
581.0,8.0,wc_8,wc_2,1.0,"[('wc_2', 0.5600000000000004), ('wc_10', 0.42000000000000026), ('wc_9', 0.5300000000000004), ('wc_13', 0.5900000000000004)]",0.9508229600000001,,,35.0,0.044256,['Fail'],Pass,0.5600000000000004,-0.4488888888888893,1.0,9.0,0.5
588.0,8.0,wc_8,,0.0,,,,162.0,,,,Pass,,,,,
588.0,8.0,wc_8,,0.0,,,60.0,,,,,Pass,,,,,
588.0,8.0,wc_8,,0.0,,,,0.0,,,,Pass,,,,,
588.0,8.0,wc_8,wc_8,0.0,"[('wc_8', 0.6500000000000005)]",0.6500000000000005,,,38.0,0.003076,['Pass'],Pass,0.6500000000000005,-0.15000000000000047,2.0,4.0,0.8
588.0,8.0,wc_8,,0.0,,,,0.0,,,,Pass,,,,,
588.0,8.0,wc_8,wc_9,0.0,"[('wc_9', 0.5300000000000004), ('wc_8', 0.6500000000000005)]",0.8355000000000004,,,39.0,0.003926,['Pass'],Pass,0.5300000000000004,-0.03000000000000036,2.0,4.0,0.6
588.0,8.0,wc_8,,0.0,,,,81.0,,,,Pass,,,,,
588.0,8.0,wc_8,wc_7,1.0,"[('wc_7', 0.6000000000000004), ('wc_8', 0.6500000000000005), ('wc_9', 0.5300000000000004)]",0.9342000000000003,,,35.0,0.042552,['Pass'],Pass,0.6000000000000004,-0.6000000000000004,0.0,0.0,0.6
593.0,9.0,wc_9,,0.0,,,,0.0,,,,Pass,,,,,
593.0,9.0,wc_9,,0.0,,,52.0,,,,,Pass,,,,,
593.0,9.0,wc_9,,0.0,,,,0.0,,,,Pass,,,,,
593.0,9.0,wc_9,wc_9,0.0,"[('wc_9', 0.5400000000000004)]",0.5400000000000004,,,38.0,0.002365,['Pass'],Pass,0.5400000000000004,0.05999999999999961,3.0,5.0,0.6
593.0,9.0,wc_9,,0.0,,,,121.0,,,,Pass,,,,,
593.0,9.0,wc_9,wc_13,0.0,"[('wc_13', 0.5900000000000004)]",0.5900000000000004,,,40.0,0.003916,['Fail'],Pass,0.5900000000000004,-0.2900000000000004,0.0,0.0,0.5
593.0,9.0,wc_9,,0.0,,,,321.0,,,,Pass,,,,,
593.0,9.0,wc_9,wc_10,0.0,"[('wc_10', 0.43000000000000027), ('wc_9', 0.5400000000000004)]",0.7378000000000003,,,22.0,0.005494,['Pass'],Pass,0.43000000000000027,0.06999999999999973,2.0,4.0,0.4
593.0,9.0,wc_9,,0.0,,,,162.0,,,,Pass,,,,,
593.0,9.0,wc_9,wc_16,0.0,"[('wc_16', 0.5500000000000004), ('wc_13', 0.5900000000000004)]",0.8155000000000003,,,39.0,0.009335,['Fail'],Pass,0.5500000000000004,-0.21666666666666706,2.0,6.0,0.6
593.0,9.0,wc_9,,0.0,,,,81.0,,,,Pass,,,,,
593.0,9.0,wc_9,wc_14,0.0,"[('wc_14', 0.20000000000000007), ('wc_13', 0.5900000000000004), ('wc_16', 0.5500000000000004)]",0.8524000000000003,,,26.0,0.009734,['Fail'],Pass,0.20000000000000007,-0.13750000000000007,0.0,0.0,0.1
593.0,9.0,wc_9,,0.0,,,,341.0,,,,Pass,,,,,
593.0,9.0,wc_9,wc_4,1.0,"[('wc_4', 0.6500000000000005), ('wc_13', 0.5900000000000004), ('wc_16', 0.5500000000000004), ('wc_14', 0.20000000000000007)]",0.9483400000000002,,,24.0,0.046587,['Fail'],Pass,0.6500000000000005,-0.31666666666666715,1.0,3.0,0.7
599.0,12.0,wc_12,,0.0,,,,121.0,,,,Fail,,,,,
599.0,12.0,wc_12,,0.0,,,55.0,,,,,Fail,,,,,
599.0,12.0,wc_12,,0.0,,,,0.0,,,,Fail,,,,,
599.0,12.0,wc_12,wc_12,0.0,"[('wc_12', 0.4900000000000003)]",0.4900000000000003,,,25.0,0.002011,['Fail'],Fail,0.4900000000000003,-0.2677777777777781,2.0,9.0,0.4
599.0,12.0,wc_12,,0.0,,,,361.0,,,,Fail,,,,,
599.0,12.0,wc_12,wc_3,0.0,"[('wc_12', 0.4900000000000003)]",0.4900000000000003,,,34.0,0.0047810000000000005,['Fail'],Fail,0.39000000000000024,-0.2536363636363639,0.0,0.0,0.3
599.0,12.0,wc_12,,0.0,,,,0.0,,,,Fail,,,,,
599.0,12.0,wc_12,wc_5,0.0,"[('wc_5', 0.7200000000000005), ('wc_12', 0.4900000000000003)]",0.8572000000000004,,,40.0,0.005953000000000001,['Fail'],Fail,0.7200000000000005,-0.47000000000000053,1.0,4.0,1.0
599.0,12.0,wc_12,,0.0,,,,41.0,,,,Fail,,,,,
599.0,12.0,wc_12,wc_1,0.0,"[('wc_12', 0.4900000000000003), ('wc_5', 0.7200000000000005)]",0.8572000000000004,,,25.0,0.007707,['Fail'],Fail,0.2500000000000001,-0.1666666666666668,0.0,0.0,0.1
599.0,12.0,wc_12,,0.0,,,,283.0,,,,Fail,,,,,
599.0,12.0,wc_12,wc_17,1.0,"[('wc_17', 0.6800000000000005), ('wc_12', 0.4900000000000003), ('wc_5', 0.7200000000000005)]",0.9543040000000002,,,30.0,0.051801,['Fail'],Fail,0.6800000000000005,-0.3466666666666672,2.0,6.0,1.0
610.0,12.0,wc_12,,0.0,,,,21.0,,,,Fail,,,,,
610.0,12.0,wc_12,,0.0,,,68.0,,,,,Fail,,,,,
610.0,12.0,wc_12,,0.0,,,,0.0,,,,Fail,,,,,
610.0,12.0,wc_12,wc_12,0.0,"[('wc_12', 0.4900000000000003)]",0.4900000000000003,,,39.0,0.002084,['Pass'],Fail,0.4900000000000003,-0.4900000000000003,0.0,0.0,0.4
610.0,12.0,wc_12,,0.0,,,,0.0,,,,Fail,,,,,
610.0,12.0,wc_12,wc_14,0.0,"[('wc_12', 0.4900000000000003)]",0.4900000000000003,,,34.0,0.004606,['Pass'],Fail,0.21000000000000008,0.2899999999999999,1.0,2.0,0.1
610.0,12.0,wc_12,,0.0,,,,182.0,,,,Fail,,,,,
610.0,12.0,wc_12,wc_8,0.0,"[('wc_8', 0.6500000000000005), ('wc_14', 0.21000000000000008)]",0.7235000000000005,,,38.0,0.006454,['Fail'],Fail,0.6500000000000005,-0.22142857142857192,3.0,7.0,0.8
610.0,12.0,wc_12,,0.0,,,,203.0,,,,Fail,,,,,
610.0,12.0,wc_12,wc_16,0.0,"[('wc_16', 0.5500000000000004), ('wc_14', 0.21000000000000008), ('wc_8', 0.6500000000000005)]",0.8755750000000003,,,33.0,0.007703,['Fail'],Fail,0.5500000000000004,-0.17500000000000038,3.0,8.0,0.6
610.0,12.0,wc_12,,0.0,,,,263.0,,,,Fail,,,,,
610.0,12.0,wc_12,wc_1,1.0,"[('wc_1', 0.2400000000000001), ('wc_14', 0.21000000000000008), ('wc_8', 0.6500000000000005), ('wc_16', 0.5500000000000004)]",0.9054370000000003,,,33.0,0.049653,['Fail'],Fail,0.2500000000000001,0.2499999999999999,1.0,2.0,0.1
616.0,12.0,wc_12,,0.0,,,,182.0,,,,Fail,,,,,
616.0,12.0,wc_12,,0.0,,,56.0,,,,,Fail,,,,,
616.0,12.0,wc_12,,0.0,,,,0.0,,,,Fail,,,,,
616.0,12.0,wc_12,wc_12,0.0,"[('wc_12', 0.4800000000000003)]",0.4800000000000003,,,34.0,0.002153,['Fail'],Fail,0.4800000000000003,-0.4800000000000003,0.0,1.0,0.4
616.0,12.0,wc_12,,0.0,,,,361.0,,,,Fail,,,,,
616.0,12.0,wc_12,wc_3,0.0,"[('wc_3', 0.3800000000000002), ('wc_12', 0.4800000000000003)]",0.6776000000000003,,,23.0,0.003809,['Fail'],Fail,0.3800000000000002,-0.3800000000000002,0.0,2.0,0.3
616.0,12.0,wc_12,,0.0,,,,101.0,,,,Fail,,,,,
616.0,12.0,wc_12,wc_2,0.0,"[('wc_2', 0.5600000000000004), ('wc_12', 0.4800000000000003), ('wc_3', 0.3800000000000002)]",0.8581440000000002,,,21.0,0.006428,['Fail'],Fail,0.5600000000000004,-0.48307692307692346,0.0,0.0,0.5
616.0,12.0,wc_12,,0.0,,,,203.0,,,,Fail,,,,,
616.0,12.0,wc_12,wc_10,1.0,"[('wc_10', 0.42000000000000026), ('wc_12', 0.4800000000000003), ('wc_3', 0.3800000000000002), ('wc_2', 0.5600000000000004)]",0.9177235200000002,,,35.0,0.051926,['Fail'],Fail,0.42000000000000026,-0.04500000000000026,3.0,8.0,0.4
624.0,12.0,wc_12,,0.0,,,,81.0,,,,Fail,,,,,
624.0,12.0,wc_12,,0.0,,,52.0,,,,,Fail,,,,,
624.0,12.0,wc_12,,0.0,,,,0.0,,,,Fail,,,,,
624.0,12.0,wc_12,wc_12,0.0,"[('wc_12', 0.4900000000000003)]",0.4900000000000003,,,20.0,0.002048,['Fail'],Fail,0.4900000000000003,0.009999999999999676,1.0,2.0,0.4
624.0,12.0,wc_12,,0.0,,,,321.0,,,,Fail,,,,,
624.0,12.0,wc_12,wc_9,0.0,"[('wc_9', 0.5300000000000004)]",0.5300000000000004,,,21.0,0.00436,['Pass'],Fail,0.5300000000000004,-0.19666666666666704,3.0,9.0,0.6
624.0,12.0,wc_12,,0.0,,,,0.0,,,,Fail,,,,,
624.0,12.0,wc_12,wc_11,0.0,"[('wc_11', 0.3400000000000002), ('wc_9', 0.5300000000000004)]",0.6898000000000003,,,36.0,0.006022,['Pass'],Fail,0.3400000000000002,-0.16352941176470606,0.0,0.0,0.2
624.0,12.0,wc_12,,0.0,,,,342.0,,,,Fail,,,,,
624.0,12.0,wc_12,wc_4,0.0,"[('wc_4', 0.6500000000000005), ('wc_12', 0.4900000000000003)]",0.8215000000000003,,,38.0,0.007412,['Fail'],Fail,0.6500000000000005,-0.48333333333333384,1.0,6.0,0.7
624.0,12.0,wc_12,,0.0,,,,61.0,,,,Fail,,,,,
624.0,12.0,wc_12,wc_1,0.0,"[('wc_12', 0.4900000000000003), ('wc_4', 0.6500000000000005)]",0.8215000000000003,,,25.0,0.008953000000000001,['Fail'],Fail,0.2500000000000001,0.0833333333333332,1.0,3.0,0.1
624.0,12.0,wc_12,,0.0,,,,243.0,,,,Fail,,,,,
624.0,12.0,wc_12,wc_15,0.0,"[('wc_15', 0.3600000000000002), ('wc_12', 0.4900000000000003), ('wc_4', 0.6500000000000005)]",0.8857600000000002,,,34.0,0.010659,['Fail'],Fail,0.3600000000000002,-0.2423529411764708,0.0,0.0,0.1
624.0,12.0,wc_12,,0.0,,,,0.0,,,,Fail,,,,,
624.0,12.0,wc_12,wc_17,1.0,"[('wc_17', 0.6800000000000005), ('wc_12', 0.4900000000000003), ('wc_4', 0.6500000000000005), ('wc_15', 0.3600000000000002)]",0.9634432000000002,,,29.0,0.05434199999999999,['Fail'],Fail,0.6800000000000005,-0.3466666666666672,3.0,9.0,1.0
631.0,12.0,wc_12,,0.0,,,,21.0,,,,Fail,,,,,
631.0,12.0,wc_12,,0.0,,,71.0,,,,,Fail,,,,,
631.0,12.0,wc_12,,0.0,,,,0.0,,,,Fail,,,,,
631.0,12.0,wc_12,wc_12,0.0,"[('wc_12', 0.5000000000000003)]",0.5000000000000003,,,26.0,0.002801,['Fail'],Fail,0.5000000000000003,0.1666666666666663,2.0,3.0,0.4
631.0,12.0,wc_12,,0.0,,,,341.0,,,,Fail,,,,,
631.0,12.0,wc_12,wc_10,0.0,"[('wc_12', 0.5000000000000003)]",0.5000000000000003,,,33.0,0.004622,['Fail'],Fail,0.42000000000000026,-0.08666666666666695,3.0,9.0,0.4
631.0,12.0,wc_12,,0.0,,,,243.0,,,,Fail,,,,,
631.0,12.0,wc_12,wc_2,0.0,"[('wc_2', 0.5700000000000004), ('wc_10', 0.42000000000000026)]",0.7506000000000004,,,36.0,0.005987999999999999,['Pass'],Fail,0.5700000000000004,-0.0700000000000004,1.0,2.0,0.5
631.0,12.0,wc_12,,0.0,,,,263.0,,,,Fail,,,,,
631.0,12.0,wc_12,wc_17,0.0,"[('wc_17', 0.6800000000000005), ('wc_12', 0.5000000000000003)]",0.8400000000000003,,,32.0,0.007807999999999999,['Fail'],Fail,0.6800000000000005,-0.3466666666666672,3.0,9.0,1.0
631.0,12.0,wc_12,,0.0,,,,382.0,,,,Fail,,,,,
631.0,12.0,wc_12,wc_4,1.0,"[('wc_4', 0.6500000000000005), ('wc_12', 0.5000000000000003), ('wc_17', 0.6800000000000005)]",0.9440000000000002,,,36.0,0.046218999999999996,['Fail'],Fail,0.6500000000000005,-0.27500000000000047,3.0,8.0,0.7
637.0,12.0,wc_12,,0.0,,,,121.0,,,,Fail,,,,,
637.0,12.0,wc_12,,0.0,,,71.0,,,,,Fail,,,,,
637.0,12.0,wc_12,,0.0,,,,0.0,,,,Fail,,,,,
637.0,12.0,wc_12,wc_12,0.0,"[('wc_12', 0.5100000000000003)]",0.5100000000000003,,,31.0,0.002096,['Pass'],Fail,0.5100000000000003,0.23999999999999966,3.0,4.0,0.4
637.0,12.0,wc_12,,0.0,,,,202.0,,,,Fail,,,,,
637.0,12.0,wc_12,wc_7,0.0,"[('wc_7', 0.6000000000000004), ('wc_12', 0.5100000000000003)]",0.8040000000000004,,,24.0,0.004222,['Pass'],Fail,0.6000000000000004,-0.6000000000000004,0.0,6.0,0.6
637.0,12.0,wc_12,,0.0,,,,223.0,,,,Fail,,,,,
637.0,12.0,wc_12,wc_16,0.0,"[('wc_12', 0.5100000000000003), ('wc_7', 0.6000000000000004)]",0.8040000000000004,,,40.0,0.005742,['Pass'],Fail,0.5500000000000004,-0.21666666666666706,0.0,0.0,0.6
637.0,12.0,wc_12,,0.0,,,,283.0,,,,Fail,,,,,
637.0,12.0,wc_12,wc_2,0.0,"[('wc_12', 0.5100000000000003), ('wc_7', 0.6000000000000004)]",0.8040000000000004,,,39.0,0.007922,['Pass'],Fail,0.5600000000000004,-0.22666666666666707,1.0,3.0,0.5
637.0,12.0,wc_12,,0.0,,,,202.0,,,,Fail,,,,,
637.0,12.0,wc_12,wc_14,0.0,"[('wc_14', 0.22000000000000008), ('wc_12', 0.5100000000000003), ('wc_7', 0.6000000000000004)]",0.8471200000000003,,,29.0,0.009862,['Pass'],Fail,0.22000000000000008,0.11333333333333323,2.0,6.0,0.1
637.0,12.0,wc_12,,0.0,,,,341.0,,,,Fail,,,,,
637.0,12.0,wc_12,wc_4,1.0,"[('wc_4', 0.6500000000000005), ('wc_12', 0.5100000000000003), ('wc_7', 0.6000000000000004), ('wc_14', 0.22000000000000008)]",0.9464920000000002,,,28.0,0.04728299999999999,['Pass'],Fail,0.6500000000000005,-0.20555555555555605,4.0,9.0,0.7
646.0,12.0,wc_12,,0.0,,,,121.0,,,,Fail,,,,,
646.0,12.0,wc_12,,0.0,,,66.0,,,,,Fail,,,,,
646.0,12.0,wc_12,,0.0,,,,0.0,,,,Fail,,,,,
646.0,12.0,wc_12,wc_12,0.0,"[('wc_12', 0.5200000000000004)]",0.5200000000000004,,,29.0,0.00234,['Fail'],Fail,0.5200000000000004,0.2799999999999997,4.0,5.0,0.4
646.0,12.0,wc_12,,0.0,,,,202.0,,,,Fail,,,,,
646.0,12.0,wc_12,wc_7,0.0,"[('wc_7', 0.6000000000000004)]",0.6000000000000004,,,24.0,0.0041919999999999995,['Pass'],Fail,0.6000000000000004,-0.4571428571428576,1.0,7.0,0.6
646.0,12.0,wc_12,,0.0,,,,0.0,,,,Fail,,,,,
646.0,12.0,wc_12,wc_11,0.0,"[('wc_11', 0.3300000000000002), ('wc_12', 0.5200000000000004)]",0.6784000000000003,,,30.0,0.007324000000000001,['Fail'],Fail,0.3300000000000002,-0.3300000000000002,0.0,3.0,0.2
646.0,12.0,wc_12,,0.0,,,,21.0,,,,Fail,,,,,
646.0,12.0,wc_12,wc_6,0.0,"[('wc_6', 0.5900000000000004), ('wc_7', 0.6000000000000004)]",0.8360000000000003,,,37.0,0.007921000000000001,['Pass'],Fail,0.5900000000000004,-0.2566666666666671,0.0,0.0,0.5
646.0,12.0,wc_12,,0.0,,,,223.0,,,,Fail,,,,,
646.0,12.0,wc_12,wc_15,0.0,"[('wc_7', 0.6000000000000004), ('wc_6', 0.5900000000000004)]",0.8360000000000003,,,23.0,0.009435,['Pass'],Fail,0.3700000000000002,-0.0366666666666669,1.0,3.0,0.1
646.0,12.0,wc_12,,0.0,,,,101.0,,,,Fail,,,,,
646.0,12.0,wc_12,wc_14,0.0,"[('wc_14', 0.2300000000000001), ('wc_12', 0.5200000000000004), ('wc_11', 0.3300000000000002), ('wc_15', 0.3700000000000002)]",0.8439918400000002,,,26.0,0.011399999999999999,['Fail'],Fail,0.2300000000000001,0.19857142857142845,3.0,7.0,0.1
646.0,12.0,wc_12,,0.0,,,,102.0,,,,Fail,,,,,
646.0,12.0,wc_12,wc_13,1.0,"[('wc_13', 0.6000000000000004), ('wc_12', 0.5200000000000004), ('wc_11', 0.3300000000000002), ('wc_15', 0.3700000000000002), ('wc_14', 0.2300000000000001)]",0.9375967360000002,,,29.0,0.054278999999999994,['Fail'],Fail,0.6000000000000004,-0.3500000000000004,2.0,8.0,0.5
655.0,12.0,wc_12,,0.0,,,,102.0,,,,Pass,,,,,
655.0,12.0,wc_12,,0.0,,,80.0,,,,,Pass,,,,,
655.0,12.0,wc_12,,0.0,,,,0.0,,,,Pass,,,,,
655.0,12.0,wc_12,wc_12,0.0,"[('wc_12', 0.5300000000000004)]",0.5300000000000004,,,36.0,0.002219,['Pass'],Pass,0.5300000000000004,0.303333333333333,5.0,6.0,0.4
655.0,12.0,wc_12,,0.0,,,,0.0,,,,Pass,,,,,
655.0,12.0,wc_12,wc_16,0.0,"[('wc_16', 0.5400000000000004), ('wc_12', 0.5300000000000004)]",0.7838000000000003,,,24.0,0.007008,['Pass'],Pass,0.5400000000000004,-0.5400000000000004,0.0,2.0,0.6
655.0,12.0,wc_12,,0.0,,,,81.0,,,,Pass,,,,,
655.0,12.0,wc_12,wc_14,0.0,"[('wc_14', 0.2400000000000001), ('wc_12', 0.5300000000000004), ('wc_16', 0.5400000000000004)]",0.8356880000000002,,,34.0,0.0063100000000000005,['Pass'],Pass,0.2400000000000001,0.2599999999999999,4.0,8.0,0.1
655.0,12.0,wc_12,,0.0,,,,321.0,,,,Pass,,,,,
655.0,12.0,wc_12,wc_3,0.0,"[('wc_3', 0.3800000000000002), ('wc_12', 0.5300000000000004), ('wc_16', 0.5400000000000004), ('wc_14', 0.2400000000000001)]",0.8981265600000002,,,28.0,0.010284999999999999,['Pass'],Pass,0.3800000000000002,-0.23714285714285738,1.0,7.0,0.3
655.0,12.0,wc_12,,0.0,,,,0.0,,,,Pass,,,,,
655.0,12.0,wc_12,wc_4,1.0,"[('wc_4', 0.6500000000000005), ('wc_12', 0.5300000000000004), ('wc_16', 0.5400000000000004), ('wc_14', 0.2400000000000001), ('wc_3', 0.3800000000000002)]",0.9643442960000002,,,37.0,0.053309,['Pass'],Pass,0.6500000000000005,-0.6500000000000005,0.0,0.0,0.7
661.0,13.0,wc_13,,0.0,,,,141.0,,,,Fail,,,,,
661.0,13.0,wc_13,,0.0,,,80.0,,,,,Fail,,,,,
661.0,13.0,wc_13,,0.0,,,,0.0,,,,Fail,,,,,
661.0,13.0,wc_13,wc_13,0.0,"[('wc_13', 0.6000000000000004)]",0.6000000000000004,,,27.0,0.002263,['Fail'],Fail,0.6000000000000004,-0.3777777777777782,2.0,9.0,0.5
661.0,13.0,wc_13,,0.0,,,,361.0,,,,Fail,,,,,
661.0,13.0,wc_13,wc_4,0.0,"[('wc_4', 0.6500000000000005)]",0.6500000000000005,,,32.0,0.0042959999999999995,['Pass'],Fail,0.6500000000000005,-0.6500000000000005,0.0,0.0,0.7
661.0,13.0,wc_13,,0.0,,,,121.0,,,,Fail,,,,,
661.0,13.0,wc_13,wc_12,0.0,"[('wc_12', 0.5400000000000004), ('wc_13', 0.6000000000000004)]",0.8160000000000003,,,36.0,0.006848,['Fail'],Fail,0.5400000000000004,0.3171428571428567,6.0,7.0,0.4
661.0,13.0,wc_13,,0.0,,,,222.0,,,,Fail,,,,,
661.0,13.0,wc_13,wc_8,1.0,"[('wc_8', 0.6500000000000005), ('wc_13', 0.6000000000000004), ('wc_12', 0.5400000000000004)]",0.9356000000000002,,,39.0,0.047767000000000004,['Fail'],Fail,0.6500000000000005,-0.6500000000000005,0.0,0.0,0.8
666.0,13.0,wc_13,,0.0,,,,142.0,,,,Pass,,,,,
666.0,13.0,wc_13,,0.0,,,72.0,,,,,Pass,,,,,
666.0,13.0,wc_13,,0.0,,,,0.0,,,,Pass,,,,,
666.0,13.0,wc_13,wc_13,0.0,"[('wc_13', 0.6000000000000004)]",0.6000000000000004,,,39.0,0.002467,['Fail'],Pass,0.6000000000000004,-0.6000000000000004,0.0,0.0,0.5
666.0,13.0,wc_13,,0.0,,,,182.0,,,,Pass,,,,,
666.0,13.0,wc_13,wc_7,0.0,"[('wc_7', 0.5900000000000004), ('wc_13', 0.6000000000000004)]",0.8360000000000003,,,36.0,0.004243,['Fail'],Pass,0.5900000000000004,-0.49000000000000044,0.0,0.0,0.6
666.0,13.0,wc_13,,0.0,,,,142.0,,,,Pass,,,,,
666.0,13.0,wc_13,wc_12,0.0,"[('wc_13', 0.6000000000000004), ('wc_7', 0.5900000000000004)]",0.8360000000000003,,,23.0,0.005988,['Fail'],Pass,0.5500000000000004,0.3249999999999996,7.0,8.0,0.4
666.0,13.0,wc_13,,0.0,,,,321.0,,,,Pass,,,,,
666.0,13.0,wc_13,wc_9,1.0,"[('wc_9', 0.5200000000000004), ('wc_13', 0.6000000000000004), ('wc_7', 0.5900000000000004)]",0.9212800000000002,,,34.0,0.044418000000000006,['Fail'],Pass,0.5200000000000004,-0.3533333333333337,1.0,6.0,0.6
669.0,15.0,wc_15,,0.0,,,,162.0,,,,Pass,,,,,
669.0,15.0,wc_15,,0.0,,,60.0,,,,,Pass,,,,,
669.0,15.0,wc_15,,0.0,,,,0.0,,,,Pass,,,,,
669.0,15.0,wc_15,wc_15,0.0,"[('wc_15', 0.3800000000000002)]",0.3800000000000002,,,24.0,0.002235,['Pass'],Pass,0.3800000000000002,-0.09428571428571453,2.0,7.0,0.1
669.0,15.0,wc_15,,0.0,,,,303.0,,,,Pass,,,,,
669.0,15.0,wc_15,wc_2,0.0,"[('wc_2', 0.5500000000000004), ('wc_15', 0.3800000000000002)]",0.7210000000000003,,,39.0,0.004196999999999999,['Pass'],Pass,0.5500000000000004,-0.4250000000000004,1.0,8.0,0.5
669.0,15.0,wc_15,,0.0,,,,202.0,,,,Pass,,,,,
669.0,15.0,wc_15,wc_14,0.0,"[('wc_14', 0.2500000000000001), ('wc_15', 0.3800000000000002), ('wc_2', 0.5500000000000004)]",0.7907500000000003,,,40.0,0.005834000000000001,['Pass'],Pass,0.2500000000000001,0.20454545454545442,0.0,0.0,0.1
669.0,15.0,wc_15,,0.0,,,,0.0,,,,Pass,,,,,
669.0,15.0,wc_15,wc_16,1.0,"[('wc_16', 0.5400000000000004), ('wc_15', 0.3800000000000002), ('wc_2', 0.5500000000000004), ('wc_14', 0.2500000000000001)]",0.9037450000000002,,,23.0,0.04306700000000001,['Pass'],Pass,0.5400000000000004,-0.20666666666666705,2.0,6.0,0.6
672.0,14.0,wc_14,,0.0,,,,81.0,,,,Pass,,,,,
672.0,14.0,wc_14,,0.0,,,79.0,,,,,Pass,,,,,
672.0,14.0,wc_14,,0.0,,,,0.0,,,,Pass,,,,,
672.0,14.0,wc_14,wc_14,0.0,"[('wc_14', 0.2600000000000001)]",0.2600000000000001,,,33.0,0.002045,['Fail'],Pass,0.2600000000000001,0.7399999999999999,1.0,1.0,0.1
672.0,14.0,wc_14,,0.0,,,,321.0,,,,Pass,,,,,
672.0,14.0,wc_14,wc_11,0.0,"[('wc_11', 0.3300000000000002)]",0.3300000000000002,,,37.0,0.004451999999999999,['Pass'],Pass,0.3300000000000002,-0.20500000000000018,1.0,8.0,0.2
672.0,14.0,wc_14,,0.0,,,,122.0,,,,Pass,,,,,
672.0,14.0,wc_14,wc_15,0.0,"[('wc_15', 0.3800000000000002), ('wc_14', 0.2600000000000001)]",0.5412000000000002,,,33.0,0.005844,['Fail'],Pass,0.3800000000000002,-0.0050000000000002265,3.0,8.0,0.1
672.0,14.0,wc_14,,0.0,,,,442.0,,,,Pass,,,,,
672.0,14.0,wc_14,wc_5,0.0,"[('wc_5', 0.7200000000000005), ('wc_11', 0.3300000000000002)]",0.8124000000000005,,,33.0,0.009137,['Pass'],Pass,0.7200000000000005,-0.5866666666666672,0.0,0.0,1.0
672.0,14.0,wc_14,,0.0,,,,103.0,,,,Pass,,,,,
672.0,14.0,wc_14,wc_4,1.0,"[('wc_4', 0.6400000000000005), ('wc_11', 0.3300000000000002), ('wc_5', 0.7200000000000005)]",0.9324640000000002,,,33.0,0.047205,['Pass'],Pass,0.6400000000000005,-0.39000000000000046,1.0,4.0,0.7
674.0,16.0,wc_16,,0.0,,,,202.0,,,,Fail,,,,,
674.0,16.0,wc_16,,0.0,,,79.0,,,,,Fail,,,,,
674.0,16.0,wc_16,,0.0,,,,0.0,,,,Fail,,,,,
674.0,16.0,wc_16,wc_16,0.0,"[('wc_16', 0.5400000000000004)]",0.5400000000000004,,,35.0,0.002343,['Fail'],Fail,0.5400000000000004,-0.25428571428571467,2.0,7.0,0.6
674.0,16.0,wc_16,,0.0,,,,243.0,,,,Fail,,,,,
674.0,16.0,wc_16,wc_8,0.0,"[('wc_8', 0.6500000000000005), ('wc_16', 0.5400000000000004)]",0.8390000000000004,,,34.0,0.004241,['Fail'],Fail,0.6500000000000005,-0.6500000000000005,0.0,3.0,0.8
674.0,16.0,wc_16,,0.0,,,,162.0,,,,Fail,,,,,
674.0,16.0,wc_16,wc_14,0.0,"[('wc_16', 0.5400000000000004), ('wc_8', 0.6500000000000005)]",0.8390000000000004,,,36.0,0.006206,['Fail'],Fail,0.2600000000000001,0.23999999999999988,1.0,2.0,0.1
674.0,16.0,wc_16,,0.0,,,,321.0,,,,Fail,,,,,
674.0,16.0,wc_16,wc_11,0.0,"[('wc_11', 0.3300000000000002), ('wc_16', 0.5400000000000004), ('wc_8', 0.6500000000000005)]",0.8921300000000003,,,21.0,0.00731,['Fail'],Fail,0.3300000000000002,-0.10777777777777797,2.0,9.0,0.2
674.0,16.0,wc_16,,0.0,,,,81.0,,,,Fail,,,,,
674.0,16.0,wc_16,wc_13,1.0,"[('wc_13', 0.6100000000000004), ('wc_16', 0.5400000000000004), ('wc_8', 0.6500000000000005), ('wc_11', 0.3300000000000002)]",0.9579307000000001,,,32.0,0.059003,['Fail'],Fail,0.6100000000000004,-0.11000000000000043,2.0,4.0,0.5
676.0,16.0,wc_16,,0.0,,,,0.0,,,,Fail,,,,,
676.0,16.0,wc_16,,0.0,,,51.0,,,,,Fail,,,,,
676.0,16.0,wc_16,,0.0,,,,0.0,,,,Fail,,,,,
676.0,16.0,wc_16,wc_16,0.0,"[('wc_16', 0.5400000000000004)]",0.5400000000000004,,,20.0,0.006519,['Fail'],Fail,0.5400000000000004,-0.16500000000000037,3.0,8.0,0.6
676.0,16.0,wc_16,,0.0,,,,263.0,,,,Fail,,,,,
676.0,16.0,wc_16,wc_1,0.0,"[('wc_16', 0.5400000000000004)]",0.5400000000000004,,,29.0,0.004064,['Fail'],Fail,0.2500000000000001,-0.17307692307692318,0.0,0.0,0.1
676.0,16.0,wc_16,,0.0,,,,0.0,,,,Fail,,,,,
676.0,16.0,wc_16,wc_5,0.0,"[('wc_5', 0.7300000000000005), ('wc_16', 0.5400000000000004)]",0.8758000000000004,,,20.0,0.025167000000000002,['Fail'],Fail,0.7300000000000005,-0.23000000000000054,1.0,2.0,1.0
676.0,16.0,wc_16,,0.0,,,,142.0,,,,Fail,,,,,
676.0,16.0,wc_16,wc_10,0.0,"[('wc_16', 0.5400000000000004), ('wc_5', 0.7300000000000005)]",0.8758000000000004,,,26.0,0.007735,['Fail'],Fail,0.41000000000000025,-0.41000000000000025,0.0,8.0,0.4
676.0,16.0,wc_16,,0.0,,,,41.0,,,,Fail,,,,,
676.0,16.0,wc_16,wc_6,1.0,"[('wc_6', 0.5800000000000004), ('wc_16', 0.5400000000000004), ('wc_5', 0.7300000000000005)]",0.9478360000000002,,,25.0,0.05304199999999999,['Fail'],Fail,0.5800000000000004,-0.4550000000000004,1.0,8.0,0.5
678.0,16.0,wc_16,,0.0,,,,243.0,,,,Fail,,,,,
678.0,16.0,wc_16,,0.0,,,58.0,,,,,Fail,,,,,
678.0,16.0,wc_16,,0.0,,,,0.0,,,,Fail,,,,,
678.0,16.0,wc_16,wc_16,0.0,"[('wc_16', 0.5400000000000004)]",0.5400000000000004,,,24.0,0.002049,['Fail'],Fail,0.5400000000000004,-0.09555555555555595,4.0,9.0,0.6
678.0,16.0,wc_16,,0.0,,,,382.0,,,,Fail,,,,,
678.0,16.0,wc_16,wc_11,0.0,"[('wc_11', 0.3300000000000002), ('wc_16', 0.5400000000000004)]",0.6918000000000003,,,28.0,0.003831,['Fail'],Fail,0.3300000000000002,-0.3300000000000002,0.0,1.0,0.2
678.0,16.0,wc_16,,0.0,,,,61.0,,,,Fail,,,,,
678.0,16.0,wc_16,wc_8,0.0,"[('wc_8', 0.6500000000000005), ('wc_16', 0.5400000000000004), ('wc_11', 0.3300000000000002)]",0.8921300000000003,,,20.0,0.005886000000000001,['Fail'],Fail,0.6500000000000005,-0.45000000000000046,1.0,5.0,0.8
678.0,16.0,wc_16,,0.0,,,,0.0,,,,Fail,,,,,
678.0,16.0,wc_16,wc_10,1.0,"[('wc_10', 0.40000000000000024), ('wc_16', 0.5400000000000004), ('wc_11', 0.3300000000000002), ('wc_8', 0.6500000000000005)]",0.9352780000000002,,,38.0,0.045032,['Fail'],Fail,0.40000000000000024,-0.40000000000000024,0.0,0.0,0.4
680.0,16.0,wc_16,,0.0,,,,162.0,,,,Fail,,,,,
680.0,16.0,wc_16,,0.0,,,67.0,,,,,Fail,,,,,
680.0,16.0,wc_16,,0.0,,,,0.0,,,,Fail,,,,,
680.0,16.0,wc_16,wc_16,0.0,"[('wc_16', 0.5400000000000004)]",0.5400000000000004,,,24.0,0.002536,['Fail'],Fail,0.5400000000000004,-0.5400000000000004,0.0,0.0,0.6
680.0,16.0,wc_16,,0.0,,,,203.0,,,,Fail,,,,,
680.0,16.0,wc_16,wc_6,0.0,"[('wc_6', 0.5800000000000004), ('wc_16', 0.5400000000000004)]",0.8068000000000004,,,33.0,0.004161,['Fail'],Fail,0.5800000000000004,-0.4688888888888893,1.0,9.0,0.5
680.0,16.0,wc_16,,0.0,,,,202.0,,,,Fail,,,,,
680.0,16.0,wc_16,wc_1,0.0,"[('wc_1', 0.2400000000000001), ('wc_16', 0.5400000000000004), ('wc_6', 0.5800000000000004)]",0.8531680000000003,,,23.0,0.006694,['Fail'],Fail,0.2400000000000001,-0.2400000000000001,0.0,2.0,0.1
680.0,16.0,wc_16,,0.0,,,,0.0,,,,Fail,,,,,
680.0,16.0,wc_16,wc_5,1.0,"[('wc_5', 0.7300000000000005), ('wc_16', 0.5400000000000004), ('wc_6', 0.5800000000000004), ('wc_1', 0.2400000000000001)]",0.9603553600000001,,,24.0,0.05024700000000001,['Fail'],Fail,0.7300000000000005,-0.13000000000000056,3.0,5.0,1.0
682.0,16.0,wc_16,,0.0,,,,182.0,,,,Pass,,,,,
682.0,16.0,wc_16,,0.0,,,56.0,,,,,Pass,,,,,
682.0,16.0,wc_16,,0.0,,,,0.0,,,,Pass,,,,,
682.0,16.0,wc_16,wc_16,0.0,"[('wc_16', 0.5500000000000004)]",0.5500000000000004,,,27.0,0.002338,['Fail'],Pass,0.5500000000000004,0.4499999999999996,1.0,1.0,0.6
682.0,16.0,wc_16,,0.0,,,,0.0,,,,Pass,,,,,
682.0,16.0,wc_16,wc_17,0.0,"[('wc_17', 0.6800000000000005)]",0.6800000000000005,,,28.0,0.0039629999999999995,['Pass'],Pass,0.6800000000000005,-0.6800000000000005,0.0,0.0,1.0
682.0,16.0,wc_16,,0.0,,,,402.0,,,,Pass,,,,,
682.0,16.0,wc_16,wc_5,0.0,"[('wc_5', 0.7300000000000005), ('wc_16', 0.5500000000000004)]",0.8785000000000004,,,24.0,0.006255,['Fail'],Pass,0.7300000000000005,-0.13000000000000056,3.0,5.0,1.0
682.0,16.0,wc_16,,0.0,,,,61.0,,,,Pass,,,,,
682.0,16.0,wc_16,wc_6,1.0,"[('wc_6', 0.5800000000000004), ('wc_16', 0.5500000000000004), ('wc_5', 0.7300000000000005)]",0.9489700000000002,,,31.0,0.049745000000000004,['Fail'],Pass,0.5900000000000004,0.4099999999999996,1.0,1.0,0.5
683.0,17.0,wc_17,,0.0,,,,263.0,,,,Fail,,,,,
683.0,17.0,wc_17,,0.0,,,50.0,,,,,Fail,,,,,
683.0,17.0,wc_17,,0.0,,,,0.0,,,,Fail,,,,,
683.0,17.0,wc_17,wc_17,0.0,"[('wc_17', 0.6700000000000005)]",0.6700000000000005,,,26.0,0.002004,['Fail'],Fail,0.6700000000000005,-0.6700000000000005,0.0,1.0,1.0
683.0,17.0,wc_17,,0.0,,,,21.0,,,,Fail,,,,,
683.0,17.0,wc_17,wc_12,0.0,"[('wc_17', 0.6700000000000005)]",0.6700000000000005,,,24.0,0.004088,['Fail'],Fail,0.5500000000000004,-0.11250000000000038,0.0,0.0,0.4
683.0,17.0,wc_17,,0.0,,,,0.0,,,,Fail,,,,,
683.0,17.0,wc_17,wc_15,0.0,"[('wc_15', 0.3700000000000002), ('wc_17', 0.6700000000000005)]",0.7921000000000004,,,24.0,0.006539,['Fail'],Fail,0.3700000000000002,-0.15571428571428594,0.0,0.0,0.1
683.0,17.0,wc_17,,0.0,,,,283.0,,,,Fail,,,,,
683.0,17.0,wc_17,wc_1,0.0,"[('wc_17', 0.6700000000000005), ('wc_15', 0.3700000000000002)]",0.7921000000000004,,,39.0,0.008765,['Fail'],Fail,0.2500000000000001,-1.1102230246251565e-16,1.0,4.0,0.1
683.0,17.0,wc_17,,0.0,,,,202.0,,,,Fail,,,,,
683.0,17.0,wc_17,wc_13,1.0,"[('wc_13', 0.6100000000000004), ('wc_17', 0.6700000000000005), ('wc_15', 0.3700000000000002)]",0.9189190000000003,,,26.0,0.046765,['Fail'],Fail,0.6100000000000004,-0.2766666666666671,3.0,9.0,0.5
684.0,17.0,wc_17,,0.0,,,,0.0,,,,Pass,,,,,
684.0,17.0,wc_17,,0.0,,,51.0,,,,,Pass,,,,,
684.0,17.0,wc_17,,0.0,,,,0.0,,,,Pass,,,,,
684.0,17.0,wc_17,wc_17,0.0,"[('wc_17', 0.6700000000000005)]",0.6700000000000005,,,30.0,0.00213,['Pass'],Pass,0.6700000000000005,-0.17000000000000048,1.0,2.0,1.0
684.0,17.0,wc_17,,0.0,,,,402.0,,,,Pass,,,,,
684.0,17.0,wc_17,wc_5,0.0,"[('wc_5', 0.7300000000000005), ('wc_17', 0.6700000000000005)]",0.9109000000000003,,,28.0,0.003617,['Pass'],Pass,0.7300000000000005,-0.15857142857142914,4.0,7.0,1.0
684.0,17.0,wc_17,,0.0,,,,121.0,,,,Pass,,,,,
684.0,17.0,wc_17,wc_13,1.0,"[('wc_13', 0.6100000000000004), ('wc_17', 0.6700000000000005), ('wc_5', 0.7300000000000005)]",0.9652510000000002,,,22.0,0.047535,['Pass'],Pass,0.6100000000000004,-0.6100000000000004,0.0,0.0,0.5
