mpecck/BCQC/bcqc_with_qdt/results/raw/input_6/independent_qc/training/20_workpiece/20200429_084416/wp_17_qc_majority_0.9.csv
production_index,step_idx,production_workcell,qc,consent,winner_qc_list,score,production_time,transport_time,inspection_time,network_time,qc_results,actual_quality,qc_score,score_error,in_winner_counter,in_qc_counter,qc_capability
76.0,1.0,wc_1,,0.0,,,53.0,,,,,Fail,,,,,
76.0,1.0,wc_1,,0.0,,,,0.0,,,,Fail,,,,,
76.0,1.0,wc_1,wc_1,0.0,"[('wc_1', 0.2400000000000001)]",0.2400000000000001,,,20.0,0.001875,['Pass'],Fail,0.2400000000000001,-0.13473684210526327,0.0,0.0,0.1
76.0,1.0,wc_1,,0.0,,,,202.0,,,,Fail,,,,,
76.0,1.0,wc_1,wc_13,0.0,"[('wc_13', 0.7400000000000005)]",0.7400000000000005,,,29.0,0.0038389999999999995,['Fail'],Fail,0.7400000000000005,-0.32333333333333386,0.0,0.0,0.5
76.0,1.0,wc_1,,0.0,,,,301.0,,,,Fail,,,,,
76.0,1.0,wc_1,wc_9,0.0,"[('wc_9', 0.6400000000000005), ('wc_13', 0.7400000000000005)]",0.9064000000000003,,,40.0,0.005962,['Fail'],Fail,0.6400000000000005,-0.35428571428571476,2.0,7.0,0.6
76.0,1.0,wc_1,,0.0,,,,182.0,,,,Fail,,,,,
76.0,1.0,wc_1,wc_16,1.0,"[('wc_16', 0.7000000000000005), ('wc_13', 0.7400000000000005), ('wc_9', 0.6400000000000005)]",0.9719200000000001,,,26.0,0.039483,['Fail'],Fail,0.7000000000000005,-0.2000000000000005,3.0,6.0,0.6
186.0,1.0,wc_1,,0.0,,,,263.0,,,,Pass,,,,,
186.0,1.0,wc_1,,0.0,,,74.0,,,,,Pass,,,,,
186.0,1.0,wc_1,,0.0,,,,0.0,,,,Pass,,,,,
186.0,1.0,wc_1,wc_1,0.0,"[('wc_1', 0.2300000000000001)]",0.2300000000000001,,,39.0,0.002133,['Pass'],Pass,0.2300000000000001,-0.2300000000000001,0.0,1.0,0.1
186.0,1.0,wc_1,,0.0,,,,283.0,,,,Pass,,,,,
186.0,1.0,wc_1,wc_17,0.0,"[('wc_17', 0.7900000000000006), ('wc_1', 0.2300000000000001)]",0.8383000000000005,,,35.0,0.004059,['Pass'],Pass,0.7900000000000006,-0.36142857142857204,3.0,7.0,1.0
186.0,1.0,wc_1,,0.0,,,,83.0,,,,Pass,,,,,
186.0,1.0,wc_1,wc_15,0.0,"[('wc_15', 0.28000000000000014), ('wc_1', 0.2300000000000001), ('wc_17', 0.7900000000000006)]",0.8835760000000004,,,32.0,0.006487000000000001,['Pass'],Pass,0.28000000000000014,-0.28000000000000014,0.0,5.0,0.1
186.0,1.0,wc_1,,0.0,,,,263.0,,,,Pass,,,,,
186.0,1.0,wc_1,wc_8,1.0,"[('wc_8', 0.7400000000000005), ('wc_1', 0.2300000000000001), ('wc_17', 0.7900000000000006), ('wc_15', 0.28000000000000014)]",0.9697297600000001,,,24.0,0.043377,['Pass'],Pass,0.7400000000000005,-0.36500000000000055,3.0,8.0,0.8
202.0,2.0,wc_2,,0.0,,,,182.0,,,,Pass,,,,,
202.0,2.0,wc_2,,0.0,,,77.0,,,,,Pass,,,,,
202.0,2.0,wc_2,,0.0,,,,0.0,,,,Pass,,,,,
202.0,2.0,wc_2,wc_2,0.0,"[('wc_2', 0.6300000000000004)]",0.6300000000000004,,,37.0,0.002478,['Pass'],Pass,0.6300000000000004,-0.6300000000000004,0.0,3.0,0.5
202.0,2.0,wc_2,,0.0,,,,162.0,,,,Pass,,,,,
202.0,2.0,wc_2,wc_12,0.0,"[('wc_2', 0.6300000000000004)]",0.6300000000000004,,,40.0,0.0054,['Pass'],Pass,0.4800000000000003,-0.4800000000000003,0.0,3.0,0.4
202.0,2.0,wc_2,,0.0,,,,361.0,,,,Pass,,,,,
202.0,2.0,wc_2,wc_3,0.0,"[('wc_3', 0.3500000000000002), ('wc_2', 0.6300000000000004)]",0.7595000000000004,,,24.0,0.005862,['Pass'],Pass,0.3500000000000002,-0.3500000000000002,0.0,0.0,0.3
202.0,2.0,wc_2,,0.0,,,,182.0,,,,Pass,,,,,
202.0,2.0,wc_2,wc_10,0.0,"[('wc_10', 0.39000000000000024), ('wc_2', 0.6300000000000004), ('wc_3', 0.3500000000000002)]",0.8532950000000002,,,21.0,0.007738,['Pass'],Pass,0.39000000000000024,-0.19000000000000022,1.0,5.0,0.4
202.0,2.0,wc_2,,0.0,,,,81.0,,,,Pass,,,,,
202.0,2.0,wc_2,wc_8,1.0,"[('wc_8', 0.7400000000000005), ('wc_2', 0.6300000000000004), ('wc_3', 0.3500000000000002), ('wc_10', 0.39000000000000024)]",0.9618567000000001,,,37.0,0.041725,['Pass'],Pass,0.7400000000000005,-0.2955555555555561,4.0,9.0,0.8
219.0,4.0,wc_4,,0.0,,,,301.0,,,,Pass,,,,,
219.0,4.0,wc_4,,0.0,,,64.0,,,,,Pass,,,,,
219.0,4.0,wc_4,,0.0,,,,0.0,,,,Pass,,,,,
219.0,4.0,wc_4,wc_4,0.0,"[('wc_4', 0.7600000000000006)]",0.7600000000000006,,,35.0,0.002336,['Pass'],Pass,0.7600000000000006,-0.6171428571428577,1.0,7.0,0.7
219.0,4.0,wc_4,,0.0,,,,61.0,,,,Pass,,,,,
219.0,4.0,wc_4,wc_1,0.0,"[('wc_4', 0.7600000000000006)]",0.7600000000000006,,,29.0,0.004311000000000001,['Pass'],Pass,0.2400000000000001,0.09333333333333321,1.0,3.0,0.1
219.0,4.0,wc_4,,0.0,,,,202.0,,,,Pass,,,,,
219.0,4.0,wc_4,wc_13,0.0,"[('wc_13', 0.7500000000000006), ('wc_1', 0.2400000000000001)]",0.8100000000000005,,,24.0,0.006449,['Fail'],Pass,0.7500000000000006,-0.41666666666666724,1.0,3.0,0.5
219.0,4.0,wc_4,,0.0,,,,202.0,,,,Pass,,,,,
219.0,4.0,wc_4,wc_8,0.0,"[('wc_8', 0.7400000000000005), ('wc_4', 0.7600000000000006)]",0.9376000000000003,,,36.0,0.007816,['Pass'],Pass,0.7400000000000005,-0.2955555555555561,4.0,9.0,0.8
219.0,4.0,wc_4,,0.0,,,,162.0,,,,Pass,,,,,
219.0,4.0,wc_4,wc_14,0.0,"[('wc_4', 0.7600000000000006), ('wc_8', 0.7400000000000005)]",0.9376000000000003,,,25.0,0.010098000000000001,['Pass'],Pass,0.2300000000000001,-0.2300000000000001,0.0,0.0,0.1
219.0,4.0,wc_4,,0.0,,,,142.0,,,,Pass,,,,,
219.0,4.0,wc_4,wc_6,1.0,"[('wc_6', 0.6300000000000004), ('wc_4', 0.7600000000000006), ('wc_8', 0.7400000000000005)]",0.9769120000000001,,,22.0,0.042421,['Pass'],Pass,0.6300000000000004,-0.6300000000000004,0.0,0.0,0.5
282.0,3.0,wc_3,,0.0,,,,321.0,,,,Fail,,,,,
282.0,3.0,wc_3,,0.0,,,69.0,,,,,Fail,,,,,
282.0,3.0,wc_3,,0.0,,,,0.0,,,,Fail,,,,,
282.0,3.0,wc_3,wc_3,0.0,"[('wc_3', 0.3600000000000002)]",0.3600000000000002,,,20.0,0.0022,['Fail'],Fail,0.3600000000000002,0.1399999999999998,1.0,2.0,0.3
282.0,3.0,wc_3,,0.0,,,,181.0,,,,Fail,,,,,
282.0,3.0,wc_3,wc_14,0.0,"[('wc_14', 0.22000000000000008), ('wc_3', 0.3600000000000002)]",0.5008000000000001,,,28.0,0.004498,['Fail'],Fail,0.22000000000000008,-0.22000000000000008,0.0,1.0,0.1
282.0,3.0,wc_3,,0.0,,,,341.0,,,,Fail,,,,,
282.0,3.0,wc_3,wc_4,0.0,"[('wc_4', 0.7600000000000006)]",0.7600000000000006,,,22.0,0.006535,['Pass'],Fail,0.7600000000000006,-0.5100000000000006,2.0,8.0,0.7
282.0,3.0,wc_3,,0.0,,,,101.0,,,,Fail,,,,,
282.0,3.0,wc_3,wc_7,0.0,"[('wc_7', 0.7000000000000005), ('wc_3', 0.3600000000000002), ('wc_14', 0.22000000000000008)]",0.8502400000000003,,,34.0,0.008458,['Fail'],Fail,0.7000000000000005,-0.7000000000000005,0.0,0.0,0.6
282.0,3.0,wc_3,,0.0,,,,102.0,,,,Fail,,,,,
282.0,3.0,wc_3,wc_6,0.0,"[('wc_6', 0.6300000000000004), ('wc_4', 0.7600000000000006)]",0.9112000000000003,,,29.0,0.010198000000000002,['Pass'],Fail,0.6300000000000004,-0.6300000000000004,0.0,0.0,0.5
282.0,3.0,wc_3,,0.0,,,,263.0,,,,Fail,,,,,
282.0,3.0,wc_3,wc_17,1.0,"[('wc_17', 0.7900000000000006), ('wc_3', 0.3600000000000002), ('wc_14', 0.22000000000000008), ('wc_7', 0.7000000000000005)]",0.9685504000000001,,,21.0,0.038967,['Fail'],Fail,0.7900000000000006,-0.7900000000000006,0.0,0.0,1.0
316.0,3.0,wc_3,,0.0,,,,362.0,,,,Fail,,,,,
316.0,3.0,wc_3,,0.0,,,73.0,,,,,Fail,,,,,
316.0,3.0,wc_3,,0.0,,,,0.0,,,,Fail,,,,,
316.0,3.0,wc_3,wc_3,0.0,"[('wc_3', 0.3700000000000002)]",0.3700000000000002,,,31.0,0.002105,['Fail'],Fail,0.3700000000000002,0.2966666666666664,2.0,3.0,0.3
316.0,3.0,wc_3,,0.0,,,,0.0,,,,Fail,,,,,
316.0,3.0,wc_3,wc_4,0.0,"[('wc_4', 0.7500000000000006), ('wc_3', 0.3700000000000002)]",0.8425000000000005,,,30.0,0.004769000000000001,['Fail'],Fail,0.7500000000000006,-0.5277777777777783,2.0,9.0,0.7
316.0,3.0,wc_3,,0.0,,,,81.0,,,,Fail,,,,,
316.0,3.0,wc_3,wc_6,1.0,"[('wc_6', 0.6200000000000004), ('wc_3', 0.3700000000000002), ('wc_4', 0.7500000000000006)]",0.9401500000000003,,,24.0,0.045884,['Fail'],Fail,0.6200000000000004,-0.12000000000000044,1.0,2.0,0.5
353.0,3.0,wc_3,,0.0,,,,321.0,,,,Pass,,,,,
353.0,3.0,wc_3,,0.0,,,70.0,,,,,Pass,,,,,
353.0,3.0,wc_3,,0.0,,,,0.0,,,,Pass,,,,,
353.0,3.0,wc_3,wc_3,0.0,"[('wc_3', 0.3800000000000002)]",0.3800000000000002,,,24.0,0.002261,['Pass'],Pass,0.3800000000000002,0.3699999999999998,3.0,4.0,0.3
353.0,3.0,wc_3,,0.0,,,,242.0,,,,Pass,,,,,
353.0,3.0,wc_3,wc_17,0.0,"[('wc_17', 0.7900000000000006), ('wc_3', 0.3800000000000002)]",0.8698000000000004,,,28.0,0.00393,['Pass'],Pass,0.7900000000000006,-0.7900000000000006,0.0,1.0,1.0
353.0,3.0,wc_3,,0.0,,,,183.0,,,,Pass,,,,,
353.0,3.0,wc_3,wc_6,1.0,"[('wc_6', 0.6200000000000004), ('wc_3', 0.3800000000000002), ('wc_17', 0.7900000000000006)]",0.9505240000000003,,,24.0,0.036247,['Pass'],Pass,0.6300000000000004,0.03666666666666618,2.0,3.0,0.5
379.0,5.0,wc_5,,0.0,,,,361.0,,,,Pass,,,,,
379.0,5.0,wc_5,,0.0,,,75.0,,,,,Pass,,,,,
379.0,5.0,wc_5,,0.0,,,,0.0,,,,Pass,,,,,
379.0,5.0,wc_5,wc_5,0.0,"[('wc_5', 0.9100000000000007)]",0.9100000000000007,,,37.0,0.002254,['Pass'],Pass,0.9100000000000007,-0.8100000000000007,0.0,0.0,1.0
379.0,5.0,wc_5,,0.0,,,,61.0,,,,Pass,,,,,
379.0,5.0,wc_5,wc_2,0.0,"[('wc_2', 0.6300000000000004), ('wc_5', 0.9100000000000007)]",0.9667000000000003,,,20.0,0.004144,['Pass'],Pass,0.6300000000000004,-0.5050000000000004,1.0,8.0,0.5
379.0,5.0,wc_5,,0.0,,,,223.0,,,,Pass,,,,,
379.0,5.0,wc_5,wc_15,1.0,"[('wc_15', 0.28000000000000014), ('wc_5', 0.9100000000000007), ('wc_2', 0.6300000000000004)]",0.9760240000000002,,,30.0,0.037303,['Pass'],Pass,0.28000000000000014,-0.28000000000000014,0.0,0.0,0.1
391.0,6.0,wc_6,,0.0,,,,223.0,,,,Fail,,,,,
391.0,6.0,wc_6,,0.0,,,71.0,,,,,Fail,,,,,
391.0,6.0,wc_6,,0.0,,,,0.0,,,,Fail,,,,,
391.0,6.0,wc_6,wc_6,0.0,"[('wc_6', 0.6300000000000004)]",0.6300000000000004,,,28.0,0.00215,['Fail'],Fail,0.6300000000000004,-0.13000000000000045,2.0,4.0,0.5
391.0,6.0,wc_6,,0.0,,,,361.0,,,,Fail,,,,,
391.0,6.0,wc_6,wc_5,0.0,"[('wc_5', 0.9200000000000007), ('wc_6', 0.6300000000000004)]",0.9704000000000003,,,38.0,0.004037000000000001,['Fail'],Fail,0.9200000000000007,0.0799999999999993,1.0,1.0,1.0
391.0,6.0,wc_6,,0.0,,,,61.0,,,,Fail,,,,,
391.0,6.0,wc_6,wc_2,1.0,"[('wc_2', 0.6300000000000004), ('wc_6', 0.6300000000000004), ('wc_5', 0.9200000000000007)]",0.9890480000000001,,,31.0,0.036901,['Fail'],Fail,0.6300000000000004,-0.6300000000000004,0.0,0.0,0.5
401.0,6.0,wc_6,,0.0,,,,122.0,,,,Pass,,,,,
401.0,6.0,wc_6,,0.0,,,56.0,,,,,Pass,,,,,
401.0,6.0,wc_6,,0.0,,,,0.0,,,,Pass,,,,,
401.0,6.0,wc_6,wc_6,0.0,"[('wc_6', 0.6300000000000004)]",0.6300000000000004,,,27.0,0.002213,['Fail'],Pass,0.6300000000000004,-0.03000000000000047,3.0,5.0,0.5
401.0,6.0,wc_6,,0.0,,,,0.0,,,,Pass,,,,,
401.0,6.0,wc_6,wc_11,0.0,"[('wc_11', 0.3800000000000002), ('wc_6', 0.6300000000000004)]",0.7706000000000004,,,23.0,0.003823,['Fail'],Pass,0.3800000000000002,-0.2930434782608698,0.0,0.0,0.2
401.0,6.0,wc_6,,0.0,,,,81.0,,,,Pass,,,,,
401.0,6.0,wc_6,wc_13,0.0,"[('wc_6', 0.6300000000000004), ('wc_11', 0.3800000000000002)]",0.7706000000000004,,,38.0,0.005601,['Fail'],Pass,0.7400000000000005,-0.6288888888888895,1.0,9.0,0.5
401.0,6.0,wc_6,,0.0,,,,182.0,,,,Pass,,,,,
401.0,6.0,wc_6,wc_7,0.0,"[('wc_7', 0.7100000000000005), ('wc_13', 0.7400000000000005)]",0.9246000000000003,,,39.0,0.009488,['Pass'],Pass,0.7100000000000005,-0.5100000000000005,1.0,5.0,0.6
401.0,6.0,wc_6,,0.0,,,,182.0,,,,Pass,,,,,
401.0,6.0,wc_6,wc_14,0.0,"[('wc_13', 0.7400000000000005), ('wc_7', 0.7100000000000005)]",0.9246000000000003,,,26.0,0.009644,['Pass'],Pass,0.2300000000000001,-0.06333333333333344,1.0,6.0,0.1
401.0,6.0,wc_6,,0.0,,,,361.0,,,,Pass,,,,,
401.0,6.0,wc_6,wc_5,1.0,"[('wc_5', 0.9300000000000007), ('wc_13', 0.7400000000000005), ('wc_7', 0.7100000000000005)]",0.9947220000000001,,,31.0,0.043805000000000004,['Pass'],Pass,0.9400000000000007,0.059999999999999276,3.0,3.0,1.0
412.0,7.0,wc_7,,0.0,,,,81.0,,,,Fail,,,,,
412.0,7.0,wc_7,,0.0,,,60.0,,,,,Fail,,,,,
412.0,7.0,wc_7,,0.0,,,,0.0,,,,Fail,,,,,
412.0,7.0,wc_7,wc_7,0.0,"[('wc_7', 0.7100000000000005)]",0.7100000000000005,,,34.0,0.002178,['Fail'],Fail,0.7100000000000005,-0.3766666666666672,2.0,6.0,0.6
412.0,7.0,wc_7,,0.0,,,,223.0,,,,Fail,,,,,
412.0,7.0,wc_7,wc_16,0.0,"[('wc_16', 0.7000000000000005), ('wc_7', 0.7100000000000005)]",0.9130000000000003,,,23.0,0.003863,['Fail'],Fail,0.7000000000000005,-0.5000000000000004,0.0,0.0,0.6
412.0,7.0,wc_7,,0.0,,,,283.0,,,,Fail,,,,,
412.0,7.0,wc_7,wc_2,1.0,"[('wc_2', 0.6300000000000004), ('wc_7', 0.7100000000000005), ('wc_16', 0.7000000000000005)]",0.9678100000000002,,,26.0,0.04168500000000001,['Fail'],Fail,0.6300000000000004,-0.13000000000000045,1.0,2.0,0.5
421.0,9.0,wc_9,,0.0,,,,183.0,,,,Pass,,,,,
421.0,9.0,wc_9,,0.0,,,59.0,,,,,Pass,,,,,
421.0,9.0,wc_9,,0.0,,,,0.0,,,,Pass,,,,,
421.0,9.0,wc_9,wc_9,0.0,"[('wc_9', 0.6400000000000005)]",0.6400000000000005,,,36.0,0.002082,['Pass'],Pass,0.6400000000000005,-0.4733333333333338,0.0,0.0,0.6
421.0,9.0,wc_9,,0.0,,,,362.0,,,,Pass,,,,,
421.0,9.0,wc_9,wc_3,0.0,"[('wc_9', 0.6400000000000005)]",0.6400000000000005,,,34.0,0.004025,['Pass'],Pass,0.39000000000000024,0.054444444444444184,4.0,9.0,0.3
421.0,9.0,wc_9,,0.0,,,,222.0,,,,Pass,,,,,
421.0,9.0,wc_9,wc_16,0.0,"[('wc_16', 0.7100000000000005), ('wc_9', 0.6400000000000005)]",0.8956000000000003,,,36.0,0.0061010000000000005,['Pass'],Pass,0.7100000000000005,0.2899999999999995,1.0,1.0,0.6
421.0,9.0,wc_9,,0.0,,,,263.0,,,,Pass,,,,,
421.0,9.0,wc_9,wc_1,1.0,"[('wc_1', 0.2400000000000001), ('wc_9', 0.6400000000000005), ('wc_16', 0.7100000000000005)]",0.9206560000000003,,,38.0,0.037644000000000004,['Pass'],Pass,0.2400000000000001,-0.2400000000000001,0.0,0.0,0.1
429.0,11.0,wc_11,,0.0,,,,243.0,,,,Fail,,,,,
429.0,11.0,wc_11,,0.0,,,59.0,,,,,Fail,,,,,
429.0,11.0,wc_11,,0.0,,,,0.0,,,,Fail,,,,,
429.0,11.0,wc_11,wc_11,0.0,"[('wc_11', 0.3700000000000002)]",0.3700000000000002,,,40.0,0.002333,['Pass'],Fail,0.3700000000000002,-0.3700000000000002,0.0,3.0,0.2
429.0,11.0,wc_11,,0.0,,,,41.0,,,,Fail,,,,,
429.0,11.0,wc_11,wc_7,0.0,"[('wc_7', 0.7100000000000005), ('wc_11', 0.3700000000000002)]",0.8173000000000004,,,28.0,0.0038659999999999996,['Pass'],Fail,0.7100000000000005,-0.3350000000000005,3.0,8.0,0.6
429.0,11.0,wc_11,,0.0,,,,142.0,,,,Fail,,,,,
429.0,11.0,wc_11,wc_12,0.0,"[('wc_11', 0.3700000000000002), ('wc_7', 0.7100000000000005)]",0.8173000000000004,,,22.0,0.0057150000000000005,['Pass'],Fail,0.4700000000000003,-0.4700000000000003,0.0,0.0,0.4
429.0,11.0,wc_11,,0.0,,,,262.0,,,,Fail,,,,,
429.0,11.0,wc_11,wc_2,0.0,"[('wc_11', 0.3700000000000002), ('wc_7', 0.7100000000000005)]",0.8173000000000004,,,40.0,0.007323,['Pass'],Fail,0.6300000000000004,-0.29666666666666713,1.0,3.0,0.5
429.0,11.0,wc_11,,0.0,,,,263.0,,,,Fail,,,,,
429.0,11.0,wc_11,wc_17,1.0,"[('wc_17', 0.7900000000000006), ('wc_12', 0.4700000000000003), ('wc_2', 0.6300000000000004)]",0.9588190000000002,,,31.0,0.04442,['Fail'],Fail,0.7900000000000006,-0.5400000000000006,2.0,8.0,1.0
441.0,8.0,wc_8,,0.0,,,,223.0,,,,Pass,,,,,
441.0,8.0,wc_8,,0.0,,,78.0,,,,,Pass,,,,,
441.0,8.0,wc_8,,0.0,,,,0.0,,,,Pass,,,,,
441.0,8.0,wc_8,wc_8,0.0,"[('wc_8', 0.7400000000000005)]",0.7400000000000005,,,22.0,0.002259,['Pass'],Pass,0.7400000000000005,-0.7400000000000005,0.0,9.0,0.8
441.0,8.0,wc_8,,0.0,,,,321.0,,,,Pass,,,,,
441.0,8.0,wc_8,wc_5,0.0,"[('wc_5', 0.9400000000000007), ('wc_8', 0.7400000000000005)]",0.9844000000000003,,,25.0,0.004013,['Pass'],Pass,0.9400000000000007,-0.4400000000000007,3.0,6.0,1.0
441.0,8.0,wc_8,,0.0,,,,182.0,,,,Pass,,,,,
441.0,8.0,wc_8,wc_16,1.0,"[('wc_16', 0.7200000000000005), ('wc_8', 0.7400000000000005), ('wc_5', 0.9400000000000007)]",0.9956320000000001,,,40.0,0.051702000000000005,['Pass'],Pass,0.7300000000000005,0.019999999999999463,3.0,4.0,0.6
448.0,7.0,wc_7,,0.0,,,,223.0,,,,Fail,,,,,
448.0,7.0,wc_7,,0.0,,,58.0,,,,,Fail,,,,,
448.0,7.0,wc_7,,0.0,,,,0.0,,,,Fail,,,,,
448.0,7.0,wc_7,wc_7,0.0,"[('wc_7', 0.7000000000000005)]",0.7000000000000005,,,38.0,0.002229,['Fail'],Fail,0.7000000000000005,-0.4000000000000005,0.0,0.0,0.6
448.0,7.0,wc_7,,0.0,,,,142.0,,,,Fail,,,,,
448.0,7.0,wc_7,wc_12,0.0,"[('wc_7', 0.7000000000000005)]",0.7000000000000005,,,39.0,0.003815,['Fail'],Fail,0.4800000000000003,0.019999999999999685,1.0,2.0,0.4
448.0,7.0,wc_7,,0.0,,,,341.0,,,,Fail,,,,,
448.0,7.0,wc_7,wc_10,0.0,"[('wc_10', 0.39000000000000024), ('wc_7', 0.7000000000000005)]",0.8170000000000004,,,30.0,0.00699,['Fail'],Fail,0.39000000000000024,-0.2723529411764708,0.0,0.0,0.4
448.0,7.0,wc_7,,0.0,,,,162.0,,,,Fail,,,,,
448.0,7.0,wc_7,wc_16,0.0,"[('wc_16', 0.7300000000000005), ('wc_12', 0.4800000000000003)]",0.8596000000000004,,,21.0,0.007633,['Pass'],Fail,0.7300000000000005,0.019999999999999463,3.0,4.0,0.6
448.0,7.0,wc_7,,0.0,,,,402.0,,,,Fail,,,,,
448.0,7.0,wc_7,wc_4,1.0,"[('wc_4', 0.7500000000000006), ('wc_12', 0.4800000000000003), ('wc_16', 0.7300000000000005)]",0.9649000000000002,,,36.0,0.044364,['Pass'],Fail,0.7500000000000006,-0.6388888888888895,1.0,9.0,0.7
456.0,10.0,wc_10,,0.0,,,,162.0,,,,Fail,,,,,
456.0,10.0,wc_10,,0.0,,,68.0,,,,,Fail,,,,,
456.0,10.0,wc_10,,0.0,,,,0.0,,,,Fail,,,,,
456.0,10.0,wc_10,wc_10,0.0,"[('wc_10', 0.3800000000000002)]",0.3800000000000002,,,28.0,0.002177,['Fail'],Fail,0.3800000000000002,-0.3800000000000002,0.0,1.0,0.4
456.0,10.0,wc_10,,0.0,,,,162.0,,,,Fail,,,,,
456.0,10.0,wc_10,wc_16,0.0,"[('wc_16', 0.7400000000000005), ('wc_10', 0.3800000000000002)]",0.8388000000000004,,,28.0,0.0038979999999999996,['Fail'],Fail,0.7400000000000005,0.0599999999999995,4.0,5.0,0.6
456.0,10.0,wc_10,,0.0,,,,263.0,,,,Fail,,,,,
456.0,10.0,wc_10,wc_1,0.0,"[('wc_1', 0.2400000000000001), ('wc_10', 0.3800000000000002), ('wc_16', 0.7400000000000005)]",0.8774880000000003,,,31.0,0.006399,['Fail'],Fail,0.2400000000000001,-0.2400000000000001,0.0,3.0,0.1
456.0,10.0,wc_10,,0.0,,,,0.0,,,,Fail,,,,,
456.0,10.0,wc_10,wc_5,1.0,"[('wc_5', 0.9400000000000007), ('wc_10', 0.3800000000000002), ('wc_16', 0.7400000000000005), ('wc_1', 0.2400000000000001)]",0.9926492800000001,,,32.0,0.044517,['Fail'],Fail,0.9400000000000007,-0.38444444444444514,5.0,9.0,1.0
466.0,11.0,wc_11,,0.0,,,,162.0,,,,Pass,,,,,
466.0,11.0,wc_11,,0.0,,,80.0,,,,,Pass,,,,,
466.0,11.0,wc_11,,0.0,,,,0.0,,,,Pass,,,,,
466.0,11.0,wc_11,wc_11,0.0,"[('wc_11', 0.3600000000000002)]",0.3600000000000002,,,32.0,0.002031,['Pass'],Pass,0.3600000000000002,-0.3600000000000002,0.0,7.0,0.2
466.0,11.0,wc_11,,0.0,,,,342.0,,,,Pass,,,,,
466.0,11.0,wc_11,wc_4,0.0,"[('wc_4', 0.7500000000000006), ('wc_11', 0.3600000000000002)]",0.8400000000000004,,,25.0,0.004699999999999999,['Pass'],Pass,0.7500000000000006,-0.6500000000000006,0.0,0.0,0.7
466.0,11.0,wc_11,,0.0,,,,121.0,,,,Pass,,,,,
466.0,11.0,wc_11,wc_12,1.0,"[('wc_12', 0.4900000000000003), ('wc_11', 0.3600000000000002), ('wc_4', 0.7500000000000006)]",0.9184000000000002,,,34.0,0.042967,['Pass'],Pass,0.5000000000000003,0.09999999999999964,3.0,5.0,0.4
475.0,7.0,wc_7,,0.0,,,,202.0,,,,Pass,,,,,
475.0,7.0,wc_7,,0.0,,,58.0,,,,,Pass,,,,,
475.0,7.0,wc_7,,0.0,,,,0.0,,,,Pass,,,,,
475.0,7.0,wc_7,wc_7,0.0,"[('wc_7', 0.6900000000000005)]",0.6900000000000005,,,24.0,0.002071,['Pass'],Pass,0.6900000000000005,-0.6900000000000005,0.0,3.0,0.6
475.0,7.0,wc_7,,0.0,,,,0.0,,,,Pass,,,,,
475.0,7.0,wc_7,wc_10,0.0,"[('wc_10', 0.39000000000000024), ('wc_7', 0.6900000000000005)]",0.8109000000000004,,,27.0,0.004512,['Pass'],Pass,0.39000000000000024,-0.05666666666666692,1.0,3.0,0.4
475.0,7.0,wc_7,,0.0,,,,81.0,,,,Pass,,,,,
475.0,7.0,wc_7,wc_8,0.0,"[('wc_7', 0.6900000000000005), ('wc_10', 0.39000000000000024)]",0.8109000000000004,,,21.0,0.005911,['Pass'],Pass,0.7400000000000005,-0.7400000000000005,0.0,3.0,0.8
475.0,7.0,wc_7,,0.0,,,,203.0,,,,Pass,,,,,
475.0,7.0,wc_7,wc_16,1.0,"[('wc_16', 0.7500000000000006), ('wc_7', 0.6900000000000005), ('wc_10', 0.39000000000000024)]",0.9527250000000002,,,31.0,0.041534999999999996,['Pass'],Pass,0.7500000000000006,-5.551115123125783e-16,6.0,8.0,0.6
482.0,10.0,wc_10,,0.0,,,,362.0,,,,Fail,,,,,
482.0,10.0,wc_10,,0.0,,,51.0,,,,,Fail,,,,,
482.0,10.0,wc_10,,0.0,,,,0.0,,,,Fail,,,,,
482.0,10.0,wc_10,wc_10,0.0,"[('wc_10', 0.40000000000000024)]",0.40000000000000024,,,38.0,0.002916,['Fail'],Fail,0.40000000000000024,0.09999999999999976,2.0,4.0,0.4
482.0,10.0,wc_10,,0.0,,,,41.0,,,,Fail,,,,,
482.0,10.0,wc_10,wc_6,0.0,"[('wc_6', 0.6200000000000004), ('wc_10', 0.40000000000000024)]",0.7720000000000004,,,38.0,0.004411,['Fail'],Fail,0.6200000000000004,-0.40571428571428614,0.0,0.0,0.5
482.0,10.0,wc_10,,0.0,,,,202.0,,,,Fail,,,,,
482.0,10.0,wc_10,wc_1,0.0,"[('wc_10', 0.40000000000000024), ('wc_6', 0.6200000000000004)]",0.7720000000000004,,,21.0,0.0062439999999999996,['Fail'],Fail,0.2400000000000001,-0.07333333333333344,1.0,6.0,0.1
482.0,10.0,wc_10,,0.0,,,,0.0,,,,Fail,,,,,
482.0,10.0,wc_10,wc_2,0.0,"[('wc_10', 0.40000000000000024), ('wc_6', 0.6200000000000004)]",0.7720000000000004,,,29.0,0.008334999999999999,['Fail'],Fail,0.6300000000000004,-0.40777777777777824,2.0,9.0,0.5
482.0,10.0,wc_10,,0.0,,,,0.0,,,,Fail,,,,,
482.0,10.0,wc_10,wc_3,0.0,"[('wc_3', 0.39000000000000024), ('wc_1', 0.2400000000000001), ('wc_2', 0.6300000000000004)]",0.8284680000000003,,,34.0,0.012078000000000002,['Pass'],Fail,0.39000000000000024,-0.39000000000000024,0.0,6.0,0.3
482.0,10.0,wc_10,,0.0,,,,202.0,,,,Fail,,,,,
482.0,10.0,wc_10,wc_15,0.0,"[('wc_15', 0.28000000000000014), ('wc_10', 0.40000000000000024), ('wc_6', 0.6200000000000004)]",0.8358400000000004,,,36.0,0.012509,['Fail'],Fail,0.28000000000000014,-0.28000000000000014,0.0,0.0,0.1
482.0,10.0,wc_10,,0.0,,,,362.0,,,,Fail,,,,,
482.0,10.0,wc_10,wc_9,1.0,"[('wc_9', 0.6500000000000005), ('wc_10', 0.40000000000000024), ('wc_6', 0.6200000000000004), ('wc_15', 0.28000000000000014)]",0.9425440000000002,,,28.0,0.044907,['Fail'],Fail,0.6500000000000005,-0.40000000000000047,2.0,8.0,0.6
490.0,10.0,wc_10,,0.0,,,,0.0,,,,Fail,,,,,
490.0,10.0,wc_10,,0.0,,,74.0,,,,,Fail,,,,,
490.0,10.0,wc_10,,0.0,,,,0.0,,,,Fail,,,,,
490.0,10.0,wc_10,wc_10,0.0,"[('wc_10', 0.41000000000000025)]",0.41000000000000025,,,33.0,0.002586,['Fail'],Fail,0.41000000000000025,0.18999999999999972,3.0,5.0,0.4
490.0,10.0,wc_10,,0.0,,,,103.0,,,,Fail,,,,,
490.0,10.0,wc_10,wc_9,0.0,"[('wc_9', 0.6500000000000005), ('wc_10', 0.41000000000000025)]",0.7935000000000003,,,39.0,0.004605,['Fail'],Fail,0.6500000000000005,-0.40000000000000047,2.0,8.0,0.6
490.0,10.0,wc_10,,0.0,,,,61.0,,,,Fail,,,,,
490.0,10.0,wc_10,wc_6,1.0,"[('wc_6', 0.6300000000000004), ('wc_10', 0.41000000000000025), ('wc_9', 0.6500000000000005)]",0.9235950000000003,,,34.0,0.06913099999999998,['Fail'],Fail,0.6400000000000005,0.35999999999999954,2.0,2.0,0.5
497.0,10.0,wc_10,,0.0,,,,0.0,,,,Pass,,,,,
497.0,10.0,wc_10,,0.0,,,77.0,,,,,Pass,,,,,
497.0,10.0,wc_10,,0.0,,,,0.0,,,,Pass,,,,,
497.0,10.0,wc_10,wc_10,0.0,"[('wc_10', 0.42000000000000026)]",0.42000000000000026,,,29.0,0.002178,['Fail'],Pass,0.42000000000000026,0.24666666666666637,4.0,6.0,0.4
497.0,10.0,wc_10,,0.0,,,,41.0,,,,Pass,,,,,
497.0,10.0,wc_10,wc_6,0.0,"[('wc_6', 0.6400000000000005), ('wc_10', 0.42000000000000026)]",0.7912000000000003,,,26.0,0.004142,['Fail'],Pass,0.6400000000000005,0.35999999999999954,2.0,2.0,0.5
497.0,10.0,wc_10,,0.0,,,,202.0,,,,Pass,,,,,
497.0,10.0,wc_10,wc_1,0.0,"[('wc_1', 0.2300000000000001), ('wc_10', 0.42000000000000026), ('wc_6', 0.6400000000000005)]",0.8392240000000003,,,30.0,0.005548,['Fail'],Pass,0.2300000000000001,-0.1050000000000001,1.0,8.0,0.1
497.0,10.0,wc_10,,0.0,,,,182.0,,,,Pass,,,,,
497.0,10.0,wc_10,wc_12,0.0,"[('wc_10', 0.42000000000000026), ('wc_6', 0.6400000000000005), ('wc_1', 0.2300000000000001)]",0.8392240000000003,,,35.0,0.0077150000000000005,['Fail'],Pass,0.5000000000000003,-0.12500000000000033,3.0,8.0,0.4
497.0,10.0,wc_10,,0.0,,,,202.0,,,,Pass,,,,,
497.0,10.0,wc_10,wc_7,0.0,"[('wc_7', 0.6900000000000005), ('wc_12', 0.5000000000000003)]",0.8450000000000004,,,30.0,0.011342999999999999,['Pass'],Pass,0.6900000000000005,-0.5233333333333339,1.0,6.0,0.6
497.0,10.0,wc_10,,0.0,,,,0.0,,,,Pass,,,,,
497.0,10.0,wc_10,wc_8,1.0,"[('wc_8', 0.7300000000000005), ('wc_12', 0.5000000000000003), ('wc_7', 0.6900000000000005)]",0.9581500000000002,,,34.0,0.045926999999999996,['Pass'],Pass,0.7300000000000005,-0.5871428571428576,1.0,7.0,0.8
511.0,12.0,wc_12,,0.0,,,,122.0,,,,Fail,,,,,
511.0,12.0,wc_12,,0.0,,,78.0,,,,,Fail,,,,,
511.0,12.0,wc_12,,0.0,,,,0.0,,,,Fail,,,,,
511.0,12.0,wc_12,wc_12,0.0,"[('wc_12', 0.5000000000000003)]",0.5000000000000003,,,28.0,0.002254,['Fail'],Fail,0.5000000000000003,-0.05555555555555591,4.0,9.0,0.4
511.0,12.0,wc_12,,0.0,,,,202.0,,,,Fail,,,,,
511.0,12.0,wc_12,wc_7,0.0,"[('wc_7', 0.6900000000000005), ('wc_12', 0.5000000000000003)]",0.8450000000000004,,,38.0,0.00403,['Fail'],Fail,0.6900000000000005,-0.4042857142857148,2.0,7.0,0.6
511.0,12.0,wc_12,,0.0,,,,301.0,,,,Fail,,,,,
511.0,12.0,wc_12,wc_3,1.0,"[('wc_3', 0.3800000000000002), ('wc_12', 0.5000000000000003), ('wc_7', 0.6900000000000005)]",0.9039000000000003,,,30.0,0.043640000000000005,['Fail'],Fail,0.3800000000000002,-0.3800000000000002,0.0,0.0,0.3
521.0,12.0,wc_12,,0.0,,,,141.0,,,,Pass,,,,,
521.0,12.0,wc_12,,0.0,,,76.0,,,,,Pass,,,,,
521.0,12.0,wc_12,,0.0,,,,0.0,,,,Pass,,,,,
521.0,12.0,wc_12,wc_12,0.0,"[('wc_12', 0.5000000000000003)]",0.5000000000000003,,,21.0,0.002315,['Fail'],Pass,0.5000000000000003,-0.5000000000000003,0.0,0.0,0.4
521.0,12.0,wc_12,,0.0,,,,361.0,,,,Pass,,,,,
521.0,12.0,wc_12,wc_11,0.0,"[('wc_11', 0.3600000000000002), ('wc_12', 0.5000000000000003)]",0.6800000000000004,,,31.0,0.004744,['Fail'],Pass,0.3600000000000002,-0.2830769230769233,0.0,0.0,0.2
521.0,12.0,wc_12,,0.0,,,,322.0,,,,Pass,,,,,
521.0,12.0,wc_12,wc_3,0.0,"[('wc_12', 0.5000000000000003), ('wc_11', 0.3600000000000002)]",0.6800000000000004,,,22.0,0.006125,['Fail'],Pass,0.3800000000000002,-0.3800000000000002,0.0,0.0,0.3
521.0,12.0,wc_12,,0.0,,,,101.0,,,,Pass,,,,,
521.0,12.0,wc_12,wc_2,0.0,"[('wc_2', 0.6200000000000004), ('wc_3', 0.3800000000000002)]",0.7644000000000004,,,28.0,0.008906,['Pass'],Pass,0.6200000000000004,-0.6200000000000004,0.0,3.0,0.5
521.0,12.0,wc_12,,0.0,,,,223.0,,,,Pass,,,,,
521.0,12.0,wc_12,wc_15,0.0,"[('wc_15', 0.29000000000000015), ('wc_3', 0.3800000000000002), ('wc_2', 0.6200000000000004)]",0.8327240000000002,,,38.0,0.009089,['Pass'],Pass,0.29000000000000015,-0.04000000000000015,1.0,4.0,0.1
521.0,12.0,wc_12,,0.0,,,,442.0,,,,Pass,,,,,
521.0,12.0,wc_12,wc_5,1.0,"[('wc_5', 0.9400000000000007), ('wc_3', 0.3800000000000002), ('wc_2', 0.6200000000000004), ('wc_15', 0.29000000000000015)]",0.9899634400000001,,,28.0,0.047573000000000004,['Pass'],Pass,0.9400000000000007,-0.9400000000000007,0.0,0.0,1.0
535.0,13.0,wc_13,,0.0,,,,121.0,,,,Pass,,,,,
535.0,13.0,wc_13,,0.0,,,78.0,,,,,Pass,,,,,
535.0,13.0,wc_13,,0.0,,,,0.0,,,,Pass,,,,,
535.0,13.0,wc_13,wc_13,0.0,"[('wc_13', 0.7400000000000005)]",0.7400000000000005,,,33.0,0.002099,['Fail'],Pass,0.7400000000000005,-0.7400000000000005,0.0,0.0,0.5
535.0,13.0,wc_13,,0.0,,,,0.0,,,,Pass,,,,,
535.0,13.0,wc_13,wc_14,0.0,"[('wc_14', 0.22000000000000008), ('wc_13', 0.7400000000000005)]",0.7972000000000005,,,37.0,0.00411,['Fail'],Pass,0.22000000000000008,-0.1700000000000001,0.0,0.0,0.1
535.0,13.0,wc_13,,0.0,,,,202.0,,,,Pass,,,,,
535.0,13.0,wc_13,wc_1,0.0,"[('wc_1', 0.22000000000000008), ('wc_13', 0.7400000000000005), ('wc_14', 0.22000000000000008)]",0.8418160000000003,,,21.0,0.005821,['Fail'],Pass,0.22000000000000008,-0.12909090909090917,0.0,0.0,0.1
535.0,13.0,wc_13,,0.0,,,,263.0,,,,Pass,,,,,
535.0,13.0,wc_13,wc_16,0.0,"[('wc_13', 0.7400000000000005), ('wc_14', 0.22000000000000008), ('wc_1', 0.22000000000000008)]",0.8418160000000003,,,28.0,0.007403000000000001,['Fail'],Pass,0.7500000000000006,-0.288461538461539,0.0,0.0,0.6
535.0,13.0,wc_13,,0.0,,,,422.0,,,,Pass,,,,,
535.0,13.0,wc_13,wc_5,0.0,"[('wc_5', 0.9400000000000007), ('wc_16', 0.7500000000000006)]",0.9850000000000002,,,39.0,0.012718,['Pass'],Pass,0.9400000000000007,-0.9400000000000007,0.0,0.0,1.0
535.0,13.0,wc_13,,0.0,,,,202.0,,,,Pass,,,,,
535.0,13.0,wc_13,wc_17,1.0,"[('wc_17', 0.7900000000000006), ('wc_16', 0.7500000000000006), ('wc_5', 0.9400000000000007)]",0.99685,,,39.0,0.05760400000000001,['Pass'],Pass,0.7900000000000006,-0.7900000000000006,0.0,0.0,1.0
543.0,14.0,wc_14,,0.0,,,,61.0,,,,Pass,,,,,
543.0,14.0,wc_14,,0.0,,,74.0,,,,,Pass,,,,,
543.0,14.0,wc_14,,0.0,,,,0.0,,,,Pass,,,,,
543.0,14.0,wc_14,wc_14,0.0,"[('wc_14', 0.21000000000000008)]",0.21000000000000008,,,36.0,0.002373,['Fail'],Pass,0.21000000000000008,-0.21000000000000008,0.0,1.0,0.1
543.0,14.0,wc_14,,0.0,,,,142.0,,,,Pass,,,,,
543.0,14.0,wc_14,wc_6,0.0,"[('wc_6', 0.6400000000000005)]",0.6400000000000005,,,38.0,0.004509,['Pass'],Pass,0.6400000000000005,-0.30666666666666714,2.0,6.0,0.5
543.0,14.0,wc_14,,0.0,,,,222.0,,,,Pass,,,,,
543.0,14.0,wc_14,wc_2,0.0,"[('wc_2', 0.6200000000000004), ('wc_14', 0.21000000000000008)]",0.6998000000000004,,,27.0,0.006273000000000001,['Fail'],Pass,0.6200000000000004,-0.42000000000000043,1.0,5.0,0.5
543.0,14.0,wc_14,,0.0,,,,223.0,,,,Pass,,,,,
543.0,14.0,wc_14,wc_11,0.0,"[('wc_11', 0.3500000000000002), ('wc_6', 0.6400000000000005)]",0.7660000000000003,,,37.0,0.008813999999999999,['Pass'],Pass,0.3500000000000002,-0.3500000000000002,0.0,2.0,0.2
543.0,14.0,wc_14,,0.0,,,,342.0,,,,Pass,,,,,
543.0,14.0,wc_14,wc_4,1.0,"[('wc_4', 0.7600000000000006), ('wc_6', 0.6400000000000005), ('wc_11', 0.3500000000000002)]",0.9438400000000002,,,38.0,0.046351,['Pass'],Pass,0.7600000000000006,-0.5377777777777784,2.0,9.0,0.7
550.0,15.0,wc_15,,0.0,,,,182.0,,,,Pass,,,,,
550.0,15.0,wc_15,,0.0,,,53.0,,,,,Pass,,,,,
550.0,15.0,wc_15,,0.0,,,,0.0,,,,Pass,,,,,
550.0,15.0,wc_15,wc_15,0.0,"[('wc_15', 0.30000000000000016)]",0.30000000000000016,,,26.0,0.002294,['Pass'],Pass,0.30000000000000016,-0.014285714285714457,2.0,7.0,0.1
550.0,15.0,wc_15,,0.0,,,,0.0,,,,Pass,,,,,
550.0,15.0,wc_15,wc_16,0.0,"[('wc_16', 0.7600000000000006), ('wc_15', 0.30000000000000016)]",0.8320000000000004,,,21.0,0.004934,['Pass'],Pass,0.7600000000000006,-0.26000000000000056,1.0,2.0,0.6
550.0,15.0,wc_15,,0.0,,,,0.0,,,,Pass,,,,,
550.0,15.0,wc_15,wc_17,1.0,"[('wc_17', 0.7900000000000006), ('wc_15', 0.30000000000000016), ('wc_16', 0.7600000000000006)]",0.9647200000000002,,,37.0,0.041238,['Pass'],Pass,0.7900000000000006,-0.2900000000000006,1.0,2.0,1.0
561.0,16.0,wc_16,,0.0,,,,103.0,,,,Pass,,,,,
561.0,16.0,wc_16,,0.0,,,51.0,,,,,Pass,,,,,
561.0,16.0,wc_16,,0.0,,,,0.0,,,,Pass,,,,,
561.0,16.0,wc_16,wc_16,0.0,"[('wc_16', 0.7600000000000006)]",0.7600000000000006,,,38.0,0.002149,['Pass'],Pass,0.7600000000000006,-0.09333333333333393,2.0,3.0,0.6
561.0,16.0,wc_16,,0.0,,,,382.0,,,,Pass,,,,,
561.0,16.0,wc_16,wc_11,0.0,"[('wc_16', 0.7600000000000006)]",0.7600000000000006,,,26.0,0.004275,['Pass'],Pass,0.3500000000000002,-0.1000000000000002,1.0,4.0,0.2
561.0,16.0,wc_16,,0.0,,,,101.0,,,,Pass,,,,,
561.0,16.0,wc_16,wc_14,0.0,"[('wc_16', 0.7600000000000006)]",0.7600000000000006,,,26.0,0.0062439999999999996,['Pass'],Pass,0.20000000000000007,-0.20000000000000007,0.0,3.0,0.1
561.0,16.0,wc_16,,0.0,,,,341.0,,,,Pass,,,,,
561.0,16.0,wc_16,wc_4,0.0,"[('wc_4', 0.7600000000000006), ('wc_16', 0.7600000000000006)]",0.9424000000000002,,,36.0,0.007081,['Pass'],Pass,0.7600000000000006,-0.5600000000000005,0.0,0.0,0.7
561.0,16.0,wc_16,,0.0,,,,142.0,,,,Pass,,,,,
561.0,16.0,wc_16,wc_9,1.0,"[('wc_9', 0.6500000000000005), ('wc_16', 0.7600000000000006), ('wc_4', 0.7600000000000006)]",0.9798400000000002,,,25.0,0.04363500000000001,['Pass'],Pass,0.6500000000000005,-0.6500000000000005,0.0,0.0,0.6
567.0,17.0,wc_17,,0.0,,,,202.0,,,,Pass,,,,,
567.0,17.0,wc_17,,0.0,,,79.0,,,,,Pass,,,,,
567.0,17.0,wc_17,,0.0,,,,0.0,,,,Pass,,,,,
567.0,17.0,wc_17,wc_17,0.0,"[('wc_17', 0.7900000000000006)]",0.7900000000000006,,,28.0,0.002205,['Pass'],Pass,0.7900000000000006,-0.4566666666666673,1.0,3.0,1.0
567.0,17.0,wc_17,,0.0,,,,362.0,,,,Pass,,,,,
567.0,17.0,wc_17,wc_3,0.0,"[('wc_17', 0.7900000000000006)]",0.7900000000000006,,,40.0,0.0035900000000000003,['Pass'],Pass,0.39000000000000024,-0.19000000000000022,1.0,5.0,0.3
567.0,17.0,wc_17,,0.0,,,,141.0,,,,Pass,,,,,
567.0,17.0,wc_17,wc_12,0.0,"[('wc_17', 0.7900000000000006)]",0.7900000000000006,,,34.0,0.00554,['Pass'],Pass,0.4900000000000003,-0.4900000000000003,0.0,5.0,0.4
567.0,17.0,wc_17,,0.0,,,,222.0,,,,Pass,,,,,
567.0,17.0,wc_17,wc_8,0.0,"[('wc_8', 0.7300000000000005), ('wc_17', 0.7900000000000006)]",0.9433000000000002,,,27.0,0.0072429999999999994,['Pass'],Pass,0.7300000000000005,-0.6530769230769236,0.0,0.0,0.8
567.0,17.0,wc_17,,0.0,,,,142.0,,,,Pass,,,,,
567.0,17.0,wc_17,wc_13,1.0,"[('wc_13', 0.7300000000000005), ('wc_17', 0.7900000000000006), ('wc_8', 0.7300000000000005)]",0.9846910000000001,,,38.0,0.041906,['Pass'],Pass,0.7300000000000005,-0.5300000000000005,1.0,5.0,0.5
