mpecck/BCQC/bcqc_with_qdt/results/raw/input_6/independent_qc/training/20_workpiece/20200429_084416/wp_4_qc_majority_0.9.csv
production_index,step_idx,production_workcell,qc,consent,winner_qc_list,score,production_time,transport_time,inspection_time,network_time,qc_results,actual_quality,qc_score,score_error,in_winner_counter,in_qc_counter,qc_capability
6.0,1.0,wc_1,,0.0,,,57.0,,,,,Pass,,,,,
6.0,1.0,wc_1,,0.0,,,,0.0,,,,Pass,,,,,
6.0,1.0,wc_1,wc_1,0.0,"[('wc_1', 0.19000000000000006)]",0.19000000000000006,,,39.0,0.002148,['Fail'],Pass,0.19000000000000006,-0.19000000000000006,0.0,5.0,0.1
6.0,1.0,wc_1,,0.0,,,,243.0,,,,Pass,,,,,
6.0,1.0,wc_1,wc_11,0.0,"[('wc_11', 0.3700000000000002), ('wc_1', 0.19000000000000006)]",0.48970000000000025,,,22.0,0.0039970000000000006,['Fail'],Pass,0.3700000000000002,0.12999999999999978,2.0,4.0,0.2
6.0,1.0,wc_1,,0.0,,,,362.0,,,,Pass,,,,,
6.0,1.0,wc_1,wc_5,0.0,"[('wc_5', 0.5800000000000004)]",0.5800000000000004,,,20.0,0.005855,['Pass'],Pass,0.5800000000000004,-0.18000000000000038,2.0,5.0,1.0
6.0,1.0,wc_1,,0.0,,,,101.0,,,,Pass,,,,,
6.0,1.0,wc_1,wc_8,0.0,"[('wc_8', 0.5500000000000004), ('wc_5', 0.5800000000000004)]",0.8110000000000004,,,20.0,0.007756,['Pass'],Pass,0.5500000000000004,0.4499999999999996,2.0,2.0,0.8
6.0,1.0,wc_1,,0.0,,,,203.0,,,,Pass,,,,,
6.0,1.0,wc_1,wc_16,1.0,"[('wc_16', 0.5000000000000003), ('wc_5', 0.5800000000000004), ('wc_8', 0.5500000000000004)]",0.9055000000000002,,,27.0,0.039727,['Pass'],Pass,0.5000000000000003,-3.3306690738754696e-16,1.0,2.0,0.6
12.0,2.0,wc_2,,0.0,,,,283.0,,,,Pass,,,,,
12.0,2.0,wc_2,,0.0,,,75.0,,,,,Pass,,,,,
12.0,2.0,wc_2,,0.0,,,,0.0,,,,Pass,,,,,
12.0,2.0,wc_2,wc_2,0.0,"[('wc_2', 0.5000000000000003)]",0.5000000000000003,,,37.0,0.002716,['Pass'],Pass,0.5000000000000003,-0.5000000000000003,0.0,4.0,0.5
12.0,2.0,wc_2,,0.0,,,,183.0,,,,Pass,,,,,
12.0,2.0,wc_2,wc_9,0.0,"[('wc_9', 0.4600000000000003), ('wc_2', 0.5000000000000003)]",0.7300000000000003,,,24.0,0.004968,['Pass'],Pass,0.4600000000000003,-0.4600000000000003,0.0,2.0,0.6
12.0,2.0,wc_2,,0.0,,,,0.0,,,,Pass,,,,,
12.0,2.0,wc_2,wc_11,0.0,"[('wc_11', 0.3700000000000002), ('wc_2', 0.5000000000000003), ('wc_9', 0.4600000000000003)]",0.8299000000000003,,,34.0,0.0060490000000000006,['Pass'],Pass,0.3700000000000002,0.029999999999999805,2.0,5.0,0.2
12.0,2.0,wc_2,,0.0,,,,362.0,,,,Pass,,,,,
12.0,2.0,wc_2,wc_5,1.0,"[('wc_5', 0.5800000000000004), ('wc_2', 0.5000000000000003), ('wc_9', 0.4600000000000003), ('wc_11', 0.3700000000000002)]",0.9285580000000002,,,40.0,0.03901400000000001,['Pass'],Pass,0.5800000000000004,-0.008571428571429007,4.0,7.0,1.0
18.0,3.0,wc_3,,0.0,,,,83.0,,,,Fail,,,,,
18.0,3.0,wc_3,,0.0,,,80.0,,,,,Fail,,,,,
18.0,3.0,wc_3,,0.0,,,,0.0,,,,Fail,,,,,
18.0,3.0,wc_3,wc_3,0.0,"[('wc_3', 0.22000000000000008)]",0.22000000000000008,,,26.0,0.002241,['Fail'],Fail,0.22000000000000008,-0.13666666666666677,0.0,0.0,0.3
18.0,3.0,wc_3,,0.0,,,,81.0,,,,Fail,,,,,
18.0,3.0,wc_3,wc_1,0.0,"[('wc_3', 0.22000000000000008)]",0.22000000000000008,,,35.0,0.0042120000000000005,['Fail'],Fail,0.18000000000000005,-0.18000000000000005,0.0,7.0,0.1
18.0,3.0,wc_3,,0.0,,,,182.0,,,,Fail,,,,,
18.0,3.0,wc_3,wc_12,0.0,"[('wc_12', 0.4900000000000003), ('wc_3', 0.22000000000000008)]",0.6022000000000003,,,37.0,0.005857,['Fail'],Fail,0.4900000000000003,-0.3847368421052635,0.0,0.0,0.4
18.0,3.0,wc_3,,0.0,,,,0.0,,,,Fail,,,,,
18.0,3.0,wc_3,wc_13,0.0,"[('wc_13', 0.5500000000000004), ('wc_3', 0.22000000000000008), ('wc_12', 0.4900000000000003)]",0.8209900000000003,,,26.0,0.007249,['Fail'],Fail,0.5500000000000004,-0.32777777777777817,2.0,9.0,0.5
18.0,3.0,wc_3,,0.0,,,,0.0,,,,Fail,,,,,
18.0,3.0,wc_3,wc_17,1.0,"[('wc_17', 0.5000000000000003), ('wc_3', 0.22000000000000008), ('wc_12', 0.4900000000000003), ('wc_13', 0.5500000000000004)]",0.9104950000000002,,,39.0,0.041372000000000006,['Fail'],Fail,0.5000000000000003,-3.3306690738754696e-16,2.0,4.0,1.0
22.0,3.0,wc_3,,0.0,,,,362.0,,,,Fail,,,,,
22.0,3.0,wc_3,,0.0,,,61.0,,,,,Fail,,,,,
22.0,3.0,wc_3,,0.0,,,,0.0,,,,Fail,,,,,
22.0,3.0,wc_3,wc_3,0.0,"[('wc_3', 0.2300000000000001)]",0.2300000000000001,,,39.0,0.002553,['Fail'],Fail,0.2300000000000001,0.7699999999999999,1.0,1.0,0.3
22.0,3.0,wc_3,,0.0,,,,101.0,,,,Fail,,,,,
22.0,3.0,wc_3,wc_6,0.0,"[('wc_6', 0.39000000000000024), ('wc_3', 0.2300000000000001)]",0.5303000000000002,,,20.0,0.0039000000000000003,['Fail'],Fail,0.39000000000000024,-0.11727272727272753,0.0,0.0,0.5
22.0,3.0,wc_3,,0.0,,,,0.0,,,,Fail,,,,,
22.0,3.0,wc_3,wc_11,0.0,"[('wc_3', 0.2300000000000001), ('wc_6', 0.39000000000000024)]",0.5303000000000002,,,38.0,0.005667,['Fail'],Fail,0.3800000000000002,0.04857142857142832,3.0,7.0,0.2
22.0,3.0,wc_3,,0.0,,,,122.0,,,,Fail,,,,,
22.0,3.0,wc_3,wc_15,0.0,"[('wc_15', 0.2500000000000001), ('wc_11', 0.3800000000000002)]",0.5350000000000003,,,29.0,0.007072999999999999,['Pass'],Fail,0.2500000000000001,-0.0277777777777779,2.0,9.0,0.1
22.0,3.0,wc_3,,0.0,,,,303.0,,,,Fail,,,,,
22.0,3.0,wc_3,wc_2,0.0,"[('wc_2', 0.5000000000000003), ('wc_11', 0.3800000000000002), ('wc_15', 0.2500000000000001)]",0.7675000000000003,,,22.0,0.010629,['Pass'],Fail,0.5000000000000003,-0.3333333333333337,1.0,6.0,0.5
22.0,3.0,wc_3,,0.0,,,,0.0,,,,Fail,,,,,
22.0,3.0,wc_3,wc_5,0.0,"[('wc_5', 0.5800000000000004), ('wc_3', 0.2300000000000001), ('wc_6', 0.39000000000000024)]",0.8027260000000003,,,26.0,0.011016,['Fail'],Fail,0.5800000000000004,-0.0800000000000004,4.0,8.0,1.0
22.0,3.0,wc_3,,0.0,,,,182.0,,,,Fail,,,,,
22.0,3.0,wc_3,wc_16,1.0,"[('wc_16', 0.5000000000000003), ('wc_3', 0.2300000000000001), ('wc_6', 0.39000000000000024), ('wc_5', 0.5800000000000004)]",0.9013630000000002,,,24.0,0.044943,['Fail'],Fail,0.5000000000000003,-0.10000000000000031,2.0,5.0,0.6
26.0,4.0,wc_4,,0.0,,,,402.0,,,,Pass,,,,,
26.0,4.0,wc_4,,0.0,,,55.0,,,,,Pass,,,,,
26.0,4.0,wc_4,,0.0,,,,0.0,,,,Pass,,,,,
26.0,4.0,wc_4,wc_4,0.0,"[('wc_4', 0.4800000000000003)]",0.4800000000000003,,,40.0,0.002259,['Pass'],Pass,0.4800000000000003,-0.3688888888888892,0.0,0.0,0.7
26.0,4.0,wc_4,,0.0,,,,162.0,,,,Pass,,,,,
26.0,4.0,wc_4,wc_10,0.0,"[('wc_10', 0.31000000000000016), ('wc_4', 0.4800000000000003)]",0.6412000000000003,,,29.0,0.00436,['Pass'],Pass,0.31000000000000016,-0.060000000000000164,2.0,8.0,0.4
26.0,4.0,wc_4,,0.0,,,,121.0,,,,Pass,,,,,
26.0,4.0,wc_4,wc_14,0.0,"[('wc_14', 0.15000000000000002), ('wc_4', 0.4800000000000003), ('wc_10', 0.31000000000000016)]",0.6950200000000002,,,38.0,0.007013,['Pass'],Pass,0.15000000000000002,0.12272727272727268,0.0,0.0,0.1
26.0,4.0,wc_4,,0.0,,,,202.0,,,,Pass,,,,,
26.0,4.0,wc_4,wc_1,0.0,"[('wc_1', 0.17000000000000004), ('wc_4', 0.4800000000000003), ('wc_10', 0.31000000000000016), ('wc_14', 0.15000000000000002)]",0.7468666000000002,,,21.0,0.007781,['Pass'],Pass,0.17000000000000004,-0.17000000000000004,0.0,9.0,0.1
26.0,4.0,wc_4,,0.0,,,,162.0,,,,Pass,,,,,
26.0,4.0,wc_4,wc_7,0.0,"[('wc_7', 0.4400000000000003), ('wc_4', 0.4800000000000003), ('wc_10', 0.31000000000000016), ('wc_14', 0.15000000000000002), ('wc_1', 0.17000000000000004)]",0.8582452960000002,,,20.0,0.009584,['Pass'],Pass,0.4400000000000003,-0.29714285714285743,1.0,7.0,0.6
26.0,4.0,wc_4,,0.0,,,,0.0,,,,Pass,,,,,
26.0,4.0,wc_4,wc_8,1.0,"[('wc_8', 0.5600000000000004), ('wc_4', 0.4800000000000003), ('wc_10', 0.31000000000000016), ('wc_14', 0.15000000000000002), ('wc_1', 0.17000000000000004), ('wc_7', 0.4400000000000003)]",0.9376279302400001,,,39.0,0.044096,['Pass'],Pass,0.5700000000000004,0.0014285714285710016,4.0,7.0,0.8
32.0,3.0,wc_3,,0.0,,,,281.0,,,,Pass,,,,,
32.0,3.0,wc_3,,0.0,,,62.0,,,,,Pass,,,,,
32.0,3.0,wc_3,,0.0,,,,0.0,,,,Pass,,,,,
32.0,3.0,wc_3,wc_3,0.0,"[('wc_3', 0.2400000000000001)]",0.2400000000000001,,,22.0,0.002113,['Pass'],Pass,0.2400000000000001,0.4266666666666665,2.0,3.0,0.3
32.0,3.0,wc_3,,0.0,,,,162.0,,,,Pass,,,,,
32.0,3.0,wc_3,wc_9,0.0,"[('wc_9', 0.4600000000000003), ('wc_3', 0.2400000000000001)]",0.5896000000000003,,,20.0,0.003824,['Pass'],Pass,0.4600000000000003,-0.29333333333333367,1.0,6.0,0.6
32.0,3.0,wc_3,,0.0,,,,182.0,,,,Pass,,,,,
32.0,3.0,wc_3,wc_16,0.0,"[('wc_16', 0.5000000000000003), ('wc_3', 0.2400000000000001), ('wc_9', 0.4600000000000003)]",0.7948000000000003,,,40.0,0.006484,['Pass'],Pass,0.5000000000000003,-0.16666666666666702,2.0,6.0,0.6
32.0,3.0,wc_3,,0.0,,,,103.0,,,,Pass,,,,,
32.0,3.0,wc_3,wc_15,0.0,"[('wc_3', 0.2400000000000001), ('wc_9', 0.4600000000000003), ('wc_16', 0.5000000000000003)]",0.7948000000000003,,,37.0,0.008656,['Pass'],Pass,0.2400000000000001,-0.2400000000000001,0.0,1.0,0.1
32.0,3.0,wc_3,,0.0,,,,422.0,,,,Pass,,,,,
32.0,3.0,wc_3,wc_4,0.0,"[('wc_4', 0.4900000000000003), ('wc_3', 0.2400000000000001), ('wc_9', 0.4600000000000003), ('wc_16', 0.5000000000000003)]",0.8953480000000003,,,34.0,0.011499,['Pass'],Pass,0.4900000000000003,0.5099999999999997,1.0,1.0,0.7
32.0,3.0,wc_3,,0.0,,,,222.0,,,,Pass,,,,,
32.0,3.0,wc_3,wc_17,1.0,"[('wc_17', 0.5000000000000003), ('wc_3', 0.2400000000000001), ('wc_9', 0.4600000000000003), ('wc_16', 0.5000000000000003), ('wc_4', 0.4900000000000003)]",0.9476740000000001,,,26.0,0.045465000000000005,['Pass'],Pass,0.5000000000000003,-0.07142857142857179,3.0,7.0,1.0
35.0,5.0,wc_5,,0.0,,,,402.0,,,,Pass,,,,,
35.0,5.0,wc_5,,0.0,,,55.0,,,,,Pass,,,,,
35.0,5.0,wc_5,,0.0,,,,0.0,,,,Pass,,,,,
35.0,5.0,wc_5,wc_5,0.0,"[('wc_5', 0.5800000000000004)]",0.5800000000000004,,,37.0,0.002068,['Pass'],Pass,0.5800000000000004,-0.12545454545454587,0.0,0.0,1.0
35.0,5.0,wc_5,,0.0,,,,61.0,,,,Pass,,,,,
35.0,5.0,wc_5,wc_2,0.0,"[('wc_2', 0.4900000000000003), ('wc_5', 0.5800000000000004)]",0.7858000000000003,,,31.0,0.003974,['Pass'],Pass,0.4900000000000003,-0.3788888888888892,1.0,9.0,0.5
35.0,5.0,wc_5,,0.0,,,,243.0,,,,Pass,,,,,
35.0,5.0,wc_5,wc_16,0.0,"[('wc_16', 0.5000000000000003), ('wc_5', 0.5800000000000004), ('wc_2', 0.4900000000000003)]",0.8929000000000002,,,28.0,0.0065179999999999995,['Pass'],Pass,0.5000000000000003,-0.07142857142857179,3.0,7.0,0.6
35.0,5.0,wc_5,,0.0,,,,382.0,,,,Pass,,,,,
35.0,5.0,wc_5,wc_11,1.0,"[('wc_11', 0.3800000000000002), ('wc_5', 0.5800000000000004), ('wc_2', 0.4900000000000003), ('wc_16', 0.5000000000000003)]",0.9335980000000001,,,26.0,0.042522000000000004,['Pass'],Pass,0.3800000000000002,-0.3800000000000002,0.0,0.0,0.2
41.0,6.0,wc_6,,0.0,,,,21.0,,,,Pass,,,,,
41.0,6.0,wc_6,,0.0,,,75.0,,,,,Pass,,,,,
41.0,6.0,wc_6,,0.0,,,,0.0,,,,Pass,,,,,
41.0,6.0,wc_6,wc_6,0.0,"[('wc_6', 0.40000000000000024)]",0.40000000000000024,,,32.0,0.002702,['Pass'],Pass,0.40000000000000024,-0.15000000000000024,1.0,4.0,0.5
41.0,6.0,wc_6,,0.0,,,,361.0,,,,Pass,,,,,
41.0,6.0,wc_6,wc_5,0.0,"[('wc_5', 0.5900000000000004), ('wc_6', 0.40000000000000024)]",0.7540000000000003,,,31.0,0.005419,['Pass'],Pass,0.5900000000000004,0.4099999999999996,1.0,1.0,1.0
41.0,6.0,wc_6,,0.0,,,,83.0,,,,Pass,,,,,
41.0,6.0,wc_6,wc_3,0.0,"[('wc_3', 0.2500000000000001), ('wc_6', 0.40000000000000024), ('wc_5', 0.5900000000000004)]",0.8155000000000003,,,25.0,0.00604,['Pass'],Pass,0.2500000000000001,0.34999999999999987,3.0,5.0,0.3
41.0,6.0,wc_6,,0.0,,,,222.0,,,,Pass,,,,,
41.0,6.0,wc_6,wc_16,1.0,"[('wc_16', 0.5000000000000003), ('wc_6', 0.40000000000000024), ('wc_5', 0.5900000000000004), ('wc_3', 0.2500000000000001)]",0.9077500000000002,,,30.0,0.043719000000000015,['Pass'],Pass,0.5100000000000003,0.04555555555555524,5.0,9.0,0.6
47.0,8.0,wc_8,,0.0,,,,243.0,,,,Fail,,,,,
47.0,8.0,wc_8,,0.0,,,74.0,,,,,Fail,,,,,
47.0,8.0,wc_8,,0.0,,,,0.0,,,,Fail,,,,,
47.0,8.0,wc_8,wc_8,0.0,"[('wc_8', 0.5700000000000004)]",0.5700000000000004,,,40.0,0.001973,['Fail'],Fail,0.5700000000000004,-0.17000000000000037,0.0,0.0,0.8
47.0,8.0,wc_8,,0.0,,,,102.0,,,,Fail,,,,,
47.0,8.0,wc_8,wc_7,0.0,"[('wc_7', 0.4400000000000003), ('wc_8', 0.5700000000000004)]",0.7592000000000003,,,39.0,0.004096,['Fail'],Fail,0.4400000000000003,-0.25818181818181846,0.0,0.0,0.6
47.0,8.0,wc_8,,0.0,,,,223.0,,,,Fail,,,,,
47.0,8.0,wc_8,wc_16,0.0,"[('wc_16', 0.5100000000000003), ('wc_8', 0.5700000000000004), ('wc_7', 0.4400000000000003)]",0.8820080000000002,,,35.0,0.005908,['Fail'],Fail,0.5100000000000003,0.04555555555555524,5.0,9.0,0.6
47.0,8.0,wc_8,,0.0,,,,203.0,,,,Fail,,,,,
47.0,8.0,wc_8,wc_6,1.0,"[('wc_6', 0.40000000000000024), ('wc_8', 0.5700000000000004), ('wc_7', 0.4400000000000003), ('wc_16', 0.5100000000000003)]",0.9292048000000002,,,27.0,0.046152999999999986,['Fail'],Fail,0.41000000000000025,0.08999999999999975,3.0,6.0,0.5
55.0,7.0,wc_7,,0.0,,,,0.0,,,,Fail,,,,,
55.0,7.0,wc_7,,0.0,,,74.0,,,,,Fail,,,,,
55.0,7.0,wc_7,,0.0,,,,0.0,,,,Fail,,,,,
55.0,7.0,wc_7,wc_7,0.0,"[('wc_7', 0.4500000000000003)]",0.4500000000000003,,,39.0,0.002105,['Fail'],Fail,0.4500000000000003,0.5499999999999997,1.0,1.0,0.6
55.0,7.0,wc_7,,0.0,,,,0.0,,,,Fail,,,,,
55.0,7.0,wc_7,wc_10,0.0,"[('wc_10', 0.3200000000000002), ('wc_7', 0.4500000000000003)]",0.6260000000000003,,,37.0,0.005772,['Fail'],Fail,0.3200000000000002,-0.08923076923076939,0.0,0.0,0.4
55.0,7.0,wc_7,,0.0,,,,382.0,,,,Fail,,,,,
55.0,7.0,wc_7,wc_5,0.0,"[('wc_5', 0.6000000000000004), ('wc_7', 0.4500000000000003), ('wc_10', 0.3200000000000002)]",0.8504000000000003,,,39.0,0.005931,['Fail'],Fail,0.6000000000000004,0.06666666666666621,2.0,3.0,1.0
55.0,7.0,wc_7,,0.0,,,,101.0,,,,Fail,,,,,
55.0,7.0,wc_7,wc_8,1.0,"[('wc_8', 0.5800000000000004), ('wc_7', 0.4500000000000003), ('wc_10', 0.3200000000000002), ('wc_5', 0.6000000000000004)]",0.9371680000000002,,,23.0,0.041507999999999996,['Fail'],Fail,0.5900000000000004,0.4099999999999996,2.0,2.0,0.8
62.0,11.0,wc_11,,0.0,,,,0.0,,,,Fail,,,,,
62.0,11.0,wc_11,,0.0,,,59.0,,,,,Fail,,,,,
62.0,11.0,wc_11,,0.0,,,,0.0,,,,Fail,,,,,
62.0,11.0,wc_11,wc_11,0.0,"[('wc_11', 0.3800000000000002)]",0.3800000000000002,,,29.0,0.001982,['Fail'],Fail,0.3800000000000002,-0.3800000000000002,0.0,3.0,0.2
62.0,11.0,wc_11,,0.0,,,,61.0,,,,Fail,,,,,
62.0,11.0,wc_11,wc_12,0.0,"[('wc_12', 0.5000000000000003), ('wc_11', 0.3800000000000002)]",0.6900000000000004,,,26.0,0.004142,['Fail'],Fail,0.5000000000000003,-0.37500000000000033,1.0,8.0,0.4
62.0,11.0,wc_11,,0.0,,,,401.0,,,,Fail,,,,,
62.0,11.0,wc_11,wc_5,0.0,"[('wc_5', 0.6100000000000004), ('wc_11', 0.3800000000000002), ('wc_12', 0.5000000000000003)]",0.8791000000000002,,,33.0,0.00618,['Fail'],Fail,0.6100000000000004,0.13999999999999957,3.0,4.0,1.0
62.0,11.0,wc_11,,0.0,,,,121.0,,,,Fail,,,,,
62.0,11.0,wc_11,wc_13,1.0,"[('wc_13', 0.5500000000000004), ('wc_11', 0.3800000000000002), ('wc_12', 0.5000000000000003), ('wc_5', 0.6100000000000004)]",0.9455950000000002,,,31.0,0.041691,['Fail'],Fail,0.5500000000000004,-0.4250000000000004,1.0,8.0,0.5
68.0,9.0,wc_9,,0.0,,,,301.0,,,,Pass,,,,,
68.0,9.0,wc_9,,0.0,,,51.0,,,,,Pass,,,,,
68.0,9.0,wc_9,,0.0,,,,0.0,,,,Pass,,,,,
68.0,9.0,wc_9,wc_9,0.0,"[('wc_9', 0.4600000000000003)]",0.4600000000000003,,,40.0,0.002438,['Pass'],Pass,0.4600000000000003,-0.29333333333333367,0.0,0.0,0.6
68.0,9.0,wc_9,,0.0,,,,402.0,,,,Pass,,,,,
68.0,9.0,wc_9,wc_5,0.0,"[('wc_5', 0.6200000000000004), ('wc_9', 0.4600000000000003)]",0.7948000000000004,,,26.0,0.004766,['Pass'],Pass,0.6200000000000004,0.1799999999999996,4.0,5.0,1.0
68.0,9.0,wc_9,,0.0,,,,162.0,,,,Pass,,,,,
68.0,9.0,wc_9,wc_15,0.0,"[('wc_15', 0.2300000000000001), ('wc_9', 0.4600000000000003), ('wc_5', 0.6200000000000004)]",0.8419960000000003,,,20.0,0.006701,['Pass'],Pass,0.2300000000000001,-0.2300000000000001,0.0,7.0,0.1
68.0,9.0,wc_9,,0.0,,,,223.0,,,,Pass,,,,,
68.0,9.0,wc_9,wc_6,0.0,"[('wc_9', 0.4600000000000003), ('wc_5', 0.6200000000000004), ('wc_15', 0.2300000000000001)]",0.8419960000000003,,,31.0,0.008273,['Pass'],Pass,0.41000000000000025,-0.03500000000000025,3.0,8.0,0.5
68.0,9.0,wc_9,,0.0,,,,162.0,,,,Pass,,,,,
68.0,9.0,wc_9,wc_12,0.0,"[('wc_9', 0.4600000000000003), ('wc_5', 0.6200000000000004), ('wc_15', 0.2300000000000001)]",0.8419960000000003,,,29.0,0.008972,['Pass'],Pass,0.5000000000000003,-0.2777777777777781,2.0,9.0,0.4
68.0,9.0,wc_9,,0.0,,,,0.0,,,,Pass,,,,,
68.0,9.0,wc_9,wc_14,0.0,"[('wc_9', 0.4600000000000003), ('wc_5', 0.6200000000000004), ('wc_15', 0.2300000000000001)]",0.8419960000000003,,,21.0,0.011517000000000001,['Pass'],Pass,0.16000000000000003,-0.017142857142857182,1.0,7.0,0.1
68.0,9.0,wc_9,,0.0,,,,0.0,,,,Pass,,,,,
68.0,9.0,wc_9,wc_17,1.0,"[('wc_17', 0.5000000000000003), ('wc_9', 0.4600000000000003), ('wc_5', 0.6200000000000004), ('wc_15', 0.2300000000000001)]",0.9209980000000002,,,25.0,0.053717,['Pass'],Pass,0.5000000000000003,-0.5000000000000003,0.0,0.0,1.0
77.0,8.0,wc_8,,0.0,,,,223.0,,,,Pass,,,,,
77.0,8.0,wc_8,,0.0,,,66.0,,,,,Pass,,,,,
77.0,8.0,wc_8,,0.0,,,,0.0,,,,Pass,,,,,
77.0,8.0,wc_8,wc_8,0.0,"[('wc_8', 0.5900000000000004)]",0.5900000000000004,,,28.0,0.002331,['Pass'],Pass,0.5900000000000004,-0.09000000000000041,2.0,4.0,0.8
77.0,8.0,wc_8,,0.0,,,,162.0,,,,Pass,,,,,
77.0,8.0,wc_8,wc_14,0.0,"[('wc_14', 0.15000000000000002), ('wc_8', 0.5900000000000004)]",0.6515000000000004,,,34.0,0.004258,['Pass'],Pass,0.15000000000000002,-0.025000000000000022,1.0,8.0,0.1
77.0,8.0,wc_8,,0.0,,,,162.0,,,,Pass,,,,,
77.0,8.0,wc_8,wc_7,0.0,"[('wc_7', 0.4600000000000003), ('wc_8', 0.5900000000000004), ('wc_14', 0.15000000000000002)]",0.8118100000000004,,,31.0,0.005889,['Pass'],Pass,0.4600000000000003,0.0399999999999997,2.0,4.0,0.6
77.0,8.0,wc_8,,0.0,,,,0.0,,,,Pass,,,,,
77.0,8.0,wc_8,wc_10,0.0,"[('wc_10', 0.3300000000000002), ('wc_8', 0.5900000000000004), ('wc_14', 0.15000000000000002), ('wc_7', 0.4600000000000003)]",0.8739127000000002,,,27.0,0.007836,['Pass'],Pass,0.3300000000000002,0.0033333333333331328,1.0,3.0,0.4
77.0,8.0,wc_8,,0.0,,,,243.0,,,,Pass,,,,,
77.0,8.0,wc_8,wc_2,1.0,"[('wc_2', 0.4900000000000003), ('wc_8', 0.5900000000000004), ('wc_14', 0.15000000000000002), ('wc_7', 0.4600000000000003), ('wc_10', 0.3300000000000002)]",0.9356954770000001,,,34.0,0.043891,['Pass'],Pass,0.4900000000000003,-0.3233333333333337,1.0,6.0,0.5
86.0,11.0,wc_11,,0.0,,,,223.0,,,,Fail,,,,,
86.0,11.0,wc_11,,0.0,,,66.0,,,,,Fail,,,,,
86.0,11.0,wc_11,,0.0,,,,0.0,,,,Fail,,,,,
86.0,11.0,wc_11,wc_11,0.0,"[('wc_11', 0.3800000000000002)]",0.3800000000000002,,,32.0,0.002172,['Pass'],Fail,0.3800000000000002,-0.21333333333333357,1.0,6.0,0.2
86.0,11.0,wc_11,,0.0,,,,103.0,,,,Fail,,,,,
86.0,11.0,wc_11,wc_10,0.0,"[('wc_11', 0.3800000000000002)]",0.3800000000000002,,,29.0,0.004299,['Pass'],Fail,0.3400000000000002,0.1599999999999998,2.0,4.0,0.4
86.0,11.0,wc_11,,0.0,,,,103.0,,,,Fail,,,,,
86.0,11.0,wc_11,wc_9,0.0,"[('wc_9', 0.4700000000000003), ('wc_11', 0.3800000000000002)]",0.6714000000000003,,,23.0,0.0061730000000000005,['Pass'],Fail,0.4700000000000003,0.029999999999999694,1.0,2.0,0.6
86.0,11.0,wc_11,,0.0,,,,362.0,,,,Fail,,,,,
86.0,11.0,wc_11,wc_3,0.0,"[('wc_11', 0.3800000000000002), ('wc_9', 0.4700000000000003)]",0.6714000000000003,,,27.0,0.0075390000000000006,['Pass'],Fail,0.2600000000000001,0.10363636363636353,0.0,0.0,0.3
86.0,11.0,wc_11,,0.0,,,,222.0,,,,Fail,,,,,
86.0,11.0,wc_11,wc_16,0.0,"[('wc_16', 0.5200000000000004), ('wc_10', 0.3400000000000002), ('wc_3', 0.2600000000000001)]",0.7655680000000002,,,24.0,0.012140999999999999,['Fail'],Fail,0.5200000000000004,-0.5200000000000004,0.0,4.0,0.6
86.0,11.0,wc_11,,0.0,,,,223.0,,,,Fail,,,,,
86.0,11.0,wc_11,wc_7,0.0,"[('wc_7', 0.4700000000000003), ('wc_10', 0.3400000000000002), ('wc_3', 0.2600000000000001), ('wc_16', 0.5200000000000004)]",0.8757510400000003,,,33.0,0.010729,['Fail'],Fail,0.4700000000000003,0.12999999999999967,3.0,5.0,0.6
86.0,11.0,wc_11,,0.0,,,,102.0,,,,Fail,,,,,
86.0,11.0,wc_11,wc_6,0.0,"[('wc_10', 0.3400000000000002), ('wc_3', 0.2600000000000001), ('wc_16', 0.5200000000000004), ('wc_7', 0.4700000000000003)]",0.8757510400000003,,,30.0,0.016355,['Fail'],Fail,0.40000000000000024,-0.10000000000000026,0.0,0.0,0.5
86.0,11.0,wc_11,,0.0,,,,202.0,,,,Fail,,,,,
86.0,11.0,wc_11,wc_1,0.0,"[('wc_1', 0.17000000000000004), ('wc_10', 0.3400000000000002), ('wc_3', 0.2600000000000001), ('wc_16', 0.5200000000000004), ('wc_7', 0.4700000000000003)]",0.8968733632000002,,,29.0,0.015111000000000001,['Fail'],Fail,0.17000000000000004,-0.17000000000000004,0.0,8.0,0.1
86.0,11.0,wc_11,,0.0,,,,202.0,,,,Fail,,,,,
86.0,11.0,wc_11,wc_13,1.0,"[('wc_13', 0.5500000000000004), ('wc_11', 0.3800000000000002), ('wc_9', 0.4700000000000003), ('wc_6', 0.40000000000000024)]",0.9112780000000003,,,20.0,0.048554,['Pass'],Fail,0.5500000000000004,-0.5500000000000004,0.0,0.0,0.5
92.0,10.0,wc_10,,0.0,,,,321.0,,,,Fail,,,,,
92.0,10.0,wc_10,,0.0,,,52.0,,,,,Fail,,,,,
92.0,10.0,wc_10,,0.0,,,,0.0,,,,Fail,,,,,
92.0,10.0,wc_10,wc_10,0.0,"[('wc_10', 0.3400000000000002)]",0.3400000000000002,,,31.0,0.002264,['Fail'],Fail,0.3400000000000002,0.05999999999999983,2.0,5.0,0.4
92.0,10.0,wc_10,,0.0,,,,223.0,,,,Fail,,,,,
92.0,10.0,wc_10,wc_1,0.0,"[('wc_10', 0.3400000000000002)]",0.3400000000000002,,,34.0,0.003929,['Fail'],Fail,0.16000000000000003,-0.16000000000000003,0.0,9.0,0.1
92.0,10.0,wc_10,,0.0,,,,222.0,,,,Fail,,,,,
92.0,10.0,wc_10,wc_14,0.0,"[('wc_14', 0.16000000000000003), ('wc_10', 0.3400000000000002)]",0.4456000000000002,,,36.0,0.006534,['Fail'],Fail,0.16000000000000003,0.03999999999999998,0.0,0.0,0.1
92.0,10.0,wc_10,,0.0,,,,182.0,,,,Fail,,,,,
92.0,10.0,wc_10,wc_8,0.0,"[('wc_8', 0.5900000000000004), ('wc_10', 0.3400000000000002), ('wc_14', 0.16000000000000003)]",0.7726960000000003,,,22.0,0.0075580000000000005,['Fail'],Fail,0.5900000000000004,-0.09000000000000041,3.0,6.0,0.8
92.0,10.0,wc_10,,0.0,,,,321.0,,,,Fail,,,,,
92.0,10.0,wc_10,wc_5,1.0,"[('wc_5', 0.6300000000000004), ('wc_10', 0.3400000000000002), ('wc_14', 0.16000000000000003), ('wc_8', 0.5900000000000004)]",0.9158975200000002,,,27.0,0.042896,['Fail'],Fail,0.6400000000000005,0.026666666666666172,6.0,9.0,1.0
99.0,10.0,wc_10,,0.0,,,,142.0,,,,Pass,,,,,
99.0,10.0,wc_10,,0.0,,,71.0,,,,,Pass,,,,,
99.0,10.0,wc_10,,0.0,,,,0.0,,,,Pass,,,,,
99.0,10.0,wc_10,wc_10,0.0,"[('wc_10', 0.3500000000000002)]",0.3500000000000002,,,35.0,0.00266,['Pass'],Pass,0.3500000000000002,0.1499999999999998,3.0,6.0,0.4
99.0,10.0,wc_10,,0.0,,,,223.0,,,,Pass,,,,,
99.0,10.0,wc_10,wc_1,0.0,"[('wc_10', 0.3500000000000002)]",0.3500000000000002,,,23.0,0.004033999999999999,['Pass'],Pass,0.15000000000000002,-0.15000000000000002,0.0,0.0,0.1
99.0,10.0,wc_10,,0.0,,,,202.0,,,,Pass,,,,,
99.0,10.0,wc_10,wc_13,0.0,"[('wc_13', 0.5500000000000004), ('wc_1', 0.15000000000000002)]",0.6175000000000004,,,28.0,0.006350999999999999,['Fail'],Pass,0.5500000000000004,-0.5500000000000004,0.0,1.0,0.5
99.0,10.0,wc_10,,0.0,,,,361.0,,,,Pass,,,,,
99.0,10.0,wc_10,wc_4,0.0,"[('wc_4', 0.5000000000000003), ('wc_10', 0.3500000000000002)]",0.6750000000000003,,,37.0,0.00732,['Pass'],Pass,0.5000000000000003,-0.3181818181818185,0.0,0.0,0.7
99.0,10.0,wc_10,,0.0,,,,161.0,,,,Pass,,,,,
99.0,10.0,wc_10,wc_14,0.0,"[('wc_14', 0.17000000000000004), ('wc_1', 0.15000000000000002), ('wc_13', 0.5500000000000004)]",0.6825250000000003,,,31.0,0.009364,['Fail'],Pass,0.17000000000000004,0.83,1.0,1.0,0.1
99.0,10.0,wc_10,,0.0,,,,0.0,,,,Pass,,,,,
99.0,10.0,wc_10,wc_16,0.0,"[('wc_16', 0.5100000000000003), ('wc_10', 0.3500000000000002), ('wc_4', 0.5000000000000003)]",0.8407500000000003,,,26.0,0.011459,['Pass'],Pass,0.5100000000000003,-0.5100000000000003,0.0,6.0,0.6
99.0,10.0,wc_10,,0.0,,,,223.0,,,,Pass,,,,,
99.0,10.0,wc_10,wc_7,1.0,"[('wc_7', 0.4700000000000003), ('wc_10', 0.3500000000000002), ('wc_4', 0.5000000000000003), ('wc_16', 0.5100000000000003)]",0.9155975000000002,,,35.0,0.056323,['Pass'],Pass,0.4800000000000003,0.019999999999999685,4.0,8.0,0.6
106.0,11.0,wc_11,,0.0,,,,0.0,,,,Fail,,,,,
106.0,11.0,wc_11,,0.0,,,57.0,,,,,Fail,,,,,
106.0,11.0,wc_11,,0.0,,,,0.0,,,,Fail,,,,,
106.0,11.0,wc_11,wc_11,0.0,"[('wc_11', 0.3800000000000002)]",0.3800000000000002,,,26.0,0.00225,['Fail'],Fail,0.3800000000000002,-0.15777777777777802,2.0,9.0,0.2
106.0,11.0,wc_11,,0.0,,,,81.0,,,,Fail,,,,,
106.0,11.0,wc_11,wc_13,0.0,"[('wc_13', 0.5400000000000004), ('wc_11', 0.3800000000000002)]",0.7148000000000003,,,24.0,0.004344,['Fail'],Fail,0.5400000000000004,-0.5400000000000004,0.0,2.0,0.5
106.0,11.0,wc_11,,0.0,,,,361.0,,,,Fail,,,,,
106.0,11.0,wc_11,wc_4,0.0,"[('wc_4', 0.5100000000000003), ('wc_11', 0.3800000000000002), ('wc_13', 0.5400000000000004)]",0.8602520000000002,,,27.0,0.009878000000000001,['Fail'],Fail,0.5100000000000003,0.48999999999999966,1.0,1.0,0.7
106.0,11.0,wc_11,,0.0,,,,182.0,,,,Fail,,,,,
106.0,11.0,wc_11,wc_15,0.0,"[('wc_11', 0.3800000000000002), ('wc_13', 0.5400000000000004), ('wc_4', 0.5100000000000003)]",0.8602520000000002,,,30.0,0.009185,['Fail'],Fail,0.2300000000000001,-0.14666666666666678,0.0,0.0,0.1
106.0,11.0,wc_11,,0.0,,,,61.0,,,,Fail,,,,,
106.0,11.0,wc_11,wc_12,1.0,"[('wc_12', 0.4900000000000003), ('wc_11', 0.3800000000000002), ('wc_13', 0.5400000000000004), ('wc_4', 0.5100000000000003)]",0.9287285200000002,,,32.0,0.04738399999999999,['Fail'],Fail,0.4900000000000003,-0.2900000000000003,1.0,5.0,0.4
114.0,11.0,wc_11,,0.0,,,,361.0,,,,Fail,,,,,
114.0,11.0,wc_11,,0.0,,,72.0,,,,,Fail,,,,,
114.0,11.0,wc_11,,0.0,,,,0.0,,,,Fail,,,,,
114.0,11.0,wc_11,wc_11,0.0,"[('wc_11', 0.3800000000000002)]",0.3800000000000002,,,30.0,0.00239,['Fail'],Fail,0.3800000000000002,-0.3800000000000002,0.0,0.0,0.2
114.0,11.0,wc_11,,0.0,,,,203.0,,,,Fail,,,,,
114.0,11.0,wc_11,wc_1,0.0,"[('wc_11', 0.3800000000000002)]",0.3800000000000002,,,37.0,0.0045709999999999995,['Fail'],Fail,0.14,-0.14,0.0,2.0,0.1
114.0,11.0,wc_11,,0.0,,,,0.0,,,,Fail,,,,,
114.0,11.0,wc_11,wc_4,0.0,"[('wc_4', 0.5200000000000004), ('wc_1', 0.14)]",0.5872000000000004,,,38.0,0.009621000000000001,['Pass'],Fail,0.5200000000000004,0.47999999999999965,2.0,2.0,0.7
114.0,11.0,wc_11,,0.0,,,,142.0,,,,Fail,,,,,
114.0,11.0,wc_11,wc_9,0.0,"[('wc_9', 0.4800000000000003), ('wc_11', 0.3800000000000002)]",0.6776000000000003,,,35.0,0.008048999999999999,['Fail'],Fail,0.4800000000000003,-0.146666666666667,2.0,6.0,0.6
114.0,11.0,wc_11,,0.0,,,,162.0,,,,Fail,,,,,
114.0,11.0,wc_11,wc_15,0.0,"[('wc_15', 0.22000000000000008), ('wc_1', 0.14), ('wc_4', 0.5200000000000004)]",0.6780160000000003,,,38.0,0.009951999999999999,['Pass'],Fail,0.22000000000000008,-0.22000000000000008,0.0,1.0,0.1
114.0,11.0,wc_11,,0.0,,,,382.0,,,,Fail,,,,,
114.0,11.0,wc_11,wc_10,0.0,"[('wc_10', 0.3600000000000002), ('wc_1', 0.14), ('wc_4', 0.5200000000000004), ('wc_15', 0.22000000000000008)]",0.7939302400000002,,,21.0,0.013968999999999999,['Pass'],Fail,0.3600000000000002,0.1399999999999998,4.0,8.0,0.4
114.0,11.0,wc_11,,0.0,,,,342.0,,,,Fail,,,,,
114.0,11.0,wc_11,wc_3,0.0,"[('wc_3', 0.2500000000000001), ('wc_1', 0.14), ('wc_4', 0.5200000000000004), ('wc_15', 0.22000000000000008), ('wc_10', 0.3600000000000002)]",0.8454476800000001,,,26.0,0.013086,['Pass'],Fail,0.2500000000000001,-0.2500000000000001,0.0,4.0,0.3
114.0,11.0,wc_11,,0.0,,,,0.0,,,,Fail,,,,,
114.0,11.0,wc_11,wc_5,0.0,"[('wc_5', 0.6400000000000005), ('wc_11', 0.3800000000000002), ('wc_9', 0.4800000000000003)]",0.8839360000000003,,,20.0,0.015826,['Fail'],Fail,0.6400000000000005,-0.09454545454545504,0.0,0.0,1.0
114.0,11.0,wc_11,,0.0,,,,61.0,,,,Fail,,,,,
114.0,11.0,wc_11,wc_6,1.0,"[('wc_6', 0.41000000000000025), ('wc_11', 0.3800000000000002), ('wc_9', 0.4800000000000003), ('wc_5', 0.6400000000000005)]",0.9315222400000002,,,23.0,0.05049100000000001,['Fail'],Fail,0.41000000000000025,-0.010000000000000231,2.0,5.0,0.5
122.0,11.0,wc_11,,0.0,,,,0.0,,,,Fail,,,,,
122.0,11.0,wc_11,,0.0,,,58.0,,,,,Fail,,,,,
122.0,11.0,wc_11,,0.0,,,,0.0,,,,Fail,,,,,
122.0,11.0,wc_11,wc_11,0.0,"[('wc_11', 0.39000000000000024)]",0.39000000000000024,,,27.0,0.002276,['Fail'],Fail,0.39000000000000024,0.6099999999999998,1.0,1.0,0.2
122.0,11.0,wc_11,,0.0,,,,21.0,,,,Fail,,,,,
122.0,11.0,wc_11,wc_6,0.0,"[('wc_6', 0.41000000000000025), ('wc_11', 0.39000000000000024)]",0.6401000000000003,,,30.0,0.004852,['Fail'],Fail,0.41000000000000025,-0.010000000000000231,2.0,5.0,0.5
122.0,11.0,wc_11,,0.0,,,,243.0,,,,Fail,,,,,
122.0,11.0,wc_11,wc_16,0.0,"[('wc_11', 0.39000000000000024), ('wc_6', 0.41000000000000025)]",0.6401000000000003,,,20.0,0.006383,['Fail'],Fail,0.5100000000000003,-0.39888888888888924,1.0,9.0,0.6
122.0,11.0,wc_11,,0.0,,,,342.0,,,,Fail,,,,,
122.0,11.0,wc_11,wc_9,0.0,"[('wc_9', 0.4800000000000003), ('wc_11', 0.39000000000000024), ('wc_6', 0.41000000000000025)]",0.8128520000000002,,,40.0,0.008447,['Fail'],Fail,0.4800000000000003,-0.05142857142857177,3.0,7.0,0.6
122.0,11.0,wc_11,,0.0,,,,243.0,,,,Fail,,,,,
122.0,11.0,wc_11,wc_1,0.0,"[('wc_11', 0.39000000000000024), ('wc_6', 0.41000000000000025), ('wc_9', 0.4800000000000003)]",0.8128520000000002,,,36.0,0.009939,['Fail'],Fail,0.13,-0.13,0.0,3.0,0.1
122.0,11.0,wc_11,,0.0,,,,0.0,,,,Fail,,,,,
122.0,11.0,wc_11,wc_4,1.0,"[('wc_4', 0.5200000000000004), ('wc_11', 0.39000000000000024), ('wc_6', 0.41000000000000025), ('wc_9', 0.4800000000000003)]",0.9101689600000002,,,24.0,0.051007000000000004,['Fail'],Fail,0.5300000000000004,0.21999999999999964,3.0,4.0,0.7
129.0,11.0,wc_11,,0.0,,,,182.0,,,,Fail,,,,,
129.0,11.0,wc_11,,0.0,,,52.0,,,,,Fail,,,,,
129.0,11.0,wc_11,,0.0,,,,0.0,,,,Fail,,,,,
129.0,11.0,wc_11,wc_11,0.0,"[('wc_11', 0.40000000000000024)]",0.40000000000000024,,,24.0,0.002398,['Pass'],Fail,0.40000000000000024,0.5999999999999998,2.0,2.0,0.2
129.0,11.0,wc_11,,0.0,,,,21.0,,,,Fail,,,,,
129.0,11.0,wc_11,wc_6,0.0,"[('wc_6', 0.42000000000000026), ('wc_11', 0.40000000000000024)]",0.6520000000000004,,,24.0,0.005221,['Pass'],Fail,0.42000000000000026,0.07999999999999974,3.0,6.0,0.5
129.0,11.0,wc_11,,0.0,,,,341.0,,,,Fail,,,,,
129.0,11.0,wc_11,wc_4,0.0,"[('wc_4', 0.5300000000000004), ('wc_11', 0.40000000000000024), ('wc_6', 0.42000000000000026)]",0.8364400000000003,,,30.0,0.006612,['Pass'],Fail,0.5300000000000004,0.21999999999999964,3.0,4.0,0.7
129.0,11.0,wc_11,,0.0,,,,141.0,,,,Fail,,,,,
129.0,11.0,wc_11,wc_13,0.0,"[('wc_11', 0.40000000000000024), ('wc_6', 0.42000000000000026), ('wc_4', 0.5300000000000004)]",0.8364400000000003,,,38.0,0.007686,['Pass'],Fail,0.5400000000000004,-0.34000000000000036,1.0,5.0,0.5
129.0,11.0,wc_11,,0.0,,,,222.0,,,,Fail,,,,,
129.0,11.0,wc_11,wc_1,0.0,"[('wc_11', 0.40000000000000024), ('wc_6', 0.42000000000000026), ('wc_4', 0.5300000000000004)]",0.8364400000000003,,,38.0,0.00958,['Pass'],Fail,0.12000000000000001,-0.12000000000000001,0.0,4.0,0.1
129.0,11.0,wc_11,,0.0,,,,283.0,,,,Fail,,,,,
129.0,11.0,wc_11,wc_17,0.0,"[('wc_11', 0.40000000000000024), ('wc_6', 0.42000000000000026), ('wc_4', 0.5300000000000004)]",0.8364400000000003,,,32.0,0.011143,['Pass'],Fail,0.5000000000000003,-0.5000000000000003,0.0,7.0,1.0
129.0,11.0,wc_11,,0.0,,,,263.0,,,,Fail,,,,,
129.0,11.0,wc_11,wc_2,0.0,"[('wc_2', 0.4900000000000003), ('wc_13', 0.5400000000000004), ('wc_1', 0.12000000000000001), ('wc_17', 0.5000000000000003)]",0.8967760000000002,,,28.0,0.014976,['Fail'],Fail,0.4900000000000003,-0.406666666666667,0.0,0.0,0.5
129.0,11.0,wc_11,,0.0,,,,162.0,,,,Fail,,,,,
129.0,11.0,wc_11,wc_12,1.0,"[('wc_12', 0.4900000000000003), ('wc_11', 0.40000000000000024), ('wc_6', 0.42000000000000026), ('wc_4', 0.5300000000000004)]",0.9165844000000002,,,25.0,0.050996999999999994,['Pass'],Fail,0.4900000000000003,-0.24000000000000032,2.0,8.0,0.4
139.0,11.0,wc_11,,0.0,,,,361.0,,,,Pass,,,,,
139.0,11.0,wc_11,,0.0,,,61.0,,,,,Pass,,,,,
139.0,11.0,wc_11,,0.0,,,,0.0,,,,Pass,,,,,
139.0,11.0,wc_11,wc_11,0.0,"[('wc_11', 0.41000000000000025)]",0.41000000000000025,,,26.0,0.002273,['Fail'],Pass,0.41000000000000025,0.5899999999999997,3.0,3.0,0.2
139.0,11.0,wc_11,,0.0,,,,162.0,,,,Pass,,,,,
139.0,11.0,wc_11,wc_17,0.0,"[('wc_17', 0.4900000000000003)]",0.4900000000000003,,,28.0,0.004125,['Pass'],Pass,0.4900000000000003,-0.4900000000000003,0.0,8.0,1.0
139.0,11.0,wc_11,,0.0,,,,362.0,,,,Pass,,,,,
139.0,11.0,wc_11,wc_3,0.0,"[('wc_3', 0.2400000000000001), ('wc_11', 0.41000000000000025)]",0.5516000000000003,,,37.0,0.006135,['Fail'],Pass,0.2400000000000001,-0.2400000000000001,0.0,7.0,0.3
139.0,11.0,wc_11,,0.0,,,,161.0,,,,Pass,,,,,
139.0,11.0,wc_11,wc_13,0.0,"[('wc_13', 0.5300000000000004), ('wc_17', 0.4900000000000003)]",0.7603000000000003,,,22.0,0.008221,['Pass'],Pass,0.5300000000000004,-0.36333333333333373,1.0,6.0,0.5
139.0,11.0,wc_11,,0.0,,,,381.0,,,,Pass,,,,,
139.0,11.0,wc_11,wc_5,1.0,"[('wc_5', 0.6500000000000005), ('wc_17', 0.4900000000000003), ('wc_13', 0.5300000000000004)]",0.9161050000000002,,,23.0,0.046426999999999996,['Pass'],Pass,0.6500000000000005,-0.15000000000000047,2.0,4.0,1.0
149.0,7.0,wc_7,,0.0,,,,81.0,,,,Pass,,,,,
149.0,7.0,wc_7,,0.0,,,74.0,,,,,Pass,,,,,
149.0,7.0,wc_7,,0.0,,,,0.0,,,,Pass,,,,,
149.0,7.0,wc_7,wc_7,0.0,"[('wc_7', 0.4800000000000003)]",0.4800000000000003,,,37.0,0.002229,['Pass'],Pass,0.4800000000000003,-0.1723076923076926,0.0,0.0,0.6
149.0,7.0,wc_7,,0.0,,,,202.0,,,,Pass,,,,,
149.0,7.0,wc_7,wc_2,0.0,"[('wc_2', 0.4800000000000003), ('wc_7', 0.4800000000000003)]",0.7296000000000002,,,39.0,0.0041530000000000004,['Pass'],Pass,0.4800000000000003,-0.4800000000000003,0.0,2.0,0.5
149.0,7.0,wc_7,,0.0,,,,122.0,,,,Pass,,,,,
149.0,7.0,wc_7,wc_6,0.0,"[('wc_6', 0.43000000000000027), ('wc_7', 0.4800000000000003), ('wc_2', 0.4800000000000003)]",0.8458720000000003,,,29.0,0.006677,['Pass'],Pass,0.43000000000000027,0.06999999999999973,4.0,8.0,0.5
149.0,7.0,wc_7,,0.0,,,,182.0,,,,Pass,,,,,
149.0,7.0,wc_7,wc_13,1.0,"[('wc_13', 0.5300000000000004), ('wc_7', 0.4800000000000003), ('wc_2', 0.4800000000000003), ('wc_6', 0.43000000000000027)]",0.9275598400000001,,,20.0,0.046792,['Pass'],Pass,0.5300000000000004,-0.15500000000000036,3.0,8.0,0.5
167.0,12.0,wc_12,,0.0,,,,102.0,,,,Pass,,,,,
167.0,12.0,wc_12,,0.0,,,63.0,,,,,Pass,,,,,
167.0,12.0,wc_12,,0.0,,,,0.0,,,,Pass,,,,,
167.0,12.0,wc_12,wc_12,0.0,"[('wc_12', 0.4900000000000003)]",0.4900000000000003,,,39.0,0.001958,['Pass'],Pass,0.4900000000000003,-0.2900000000000003,0.0,0.0,0.4
167.0,12.0,wc_12,,0.0,,,,0.0,,,,Pass,,,,,
167.0,12.0,wc_12,wc_16,0.0,"[('wc_16', 0.5000000000000003), ('wc_12', 0.4900000000000003)]",0.7450000000000003,,,32.0,0.004,['Pass'],Pass,0.5000000000000003,-0.5000000000000003,0.0,3.0,0.6
167.0,12.0,wc_12,,0.0,,,,402.0,,,,Pass,,,,,
167.0,12.0,wc_12,wc_4,0.0,"[('wc_4', 0.5400000000000004), ('wc_12', 0.4900000000000003), ('wc_16', 0.5000000000000003)]",0.8827000000000003,,,20.0,0.005515,['Pass'],Pass,0.5400000000000004,0.03142857142857103,4.0,7.0,0.7
167.0,12.0,wc_12,,0.0,,,,141.0,,,,Pass,,,,,
167.0,12.0,wc_12,wc_13,1.0,"[('wc_13', 0.5300000000000004), ('wc_12', 0.4900000000000003), ('wc_16', 0.5000000000000003), ('wc_4', 0.5400000000000004)]",0.9448690000000002,,,38.0,0.042151999999999995,['Pass'],Pass,0.5300000000000004,-0.08555555555555594,4.0,9.0,0.5
179.0,13.0,wc_13,,0.0,,,,0.0,,,,Pass,,,,,
179.0,13.0,wc_13,,0.0,,,67.0,,,,,Pass,,,,,
179.0,13.0,wc_13,,0.0,,,,0.0,,,,Pass,,,,,
179.0,13.0,wc_13,wc_13,0.0,"[('wc_13', 0.5300000000000004)]",0.5300000000000004,,,24.0,0.00218,['Fail'],Pass,0.5300000000000004,-0.08555555555555594,4.0,9.0,0.5
179.0,13.0,wc_13,,0.0,,,,202.0,,,,Pass,,,,,
179.0,13.0,wc_13,wc_8,0.0,"[('wc_8', 0.5900000000000004), ('wc_13', 0.5300000000000004)]",0.8073000000000004,,,32.0,0.003859,['Fail'],Pass,0.5900000000000004,-0.32333333333333375,0.0,0.0,0.8
179.0,13.0,wc_13,,0.0,,,,183.0,,,,Pass,,,,,
179.0,13.0,wc_13,wc_15,0.0,"[('wc_15', 0.21000000000000008), ('wc_13', 0.5300000000000004), ('wc_8', 0.5900000000000004)]",0.8477670000000003,,,28.0,0.006756999999999999,['Fail'],Pass,0.21000000000000008,-0.21000000000000008,0.0,7.0,0.1
179.0,13.0,wc_13,,0.0,,,,362.0,,,,Pass,,,,,
179.0,13.0,wc_13,wc_9,1.0,"[('wc_9', 0.4900000000000003), ('wc_13', 0.5300000000000004), ('wc_8', 0.5900000000000004), ('wc_15', 0.21000000000000008)]",0.9223611700000002,,,37.0,0.04297900000000001,['Fail'],Pass,0.4900000000000003,-0.4900000000000003,0.0,0.0,0.6
188.0,16.0,wc_16,,0.0,,,,182.0,,,,Fail,,,,,
188.0,16.0,wc_16,,0.0,,,60.0,,,,,Fail,,,,,
188.0,16.0,wc_16,,0.0,,,,0.0,,,,Fail,,,,,
188.0,16.0,wc_16,wc_16,0.0,"[('wc_16', 0.5000000000000003)]",0.5000000000000003,,,25.0,0.002253,['Fail'],Fail,0.5000000000000003,-0.3000000000000003,1.0,5.0,0.6
188.0,16.0,wc_16,,0.0,,,,81.0,,,,Fail,,,,,
188.0,16.0,wc_16,wc_14,0.0,"[('wc_16', 0.5000000000000003)]",0.5000000000000003,,,20.0,0.0039959999999999996,['Fail'],Fail,0.17000000000000004,-0.07000000000000003,0.0,0.0,0.1
188.0,16.0,wc_16,,0.0,,,,361.0,,,,Fail,,,,,
188.0,16.0,wc_16,wc_5,0.0,"[('wc_5', 0.6500000000000005), ('wc_16', 0.5000000000000003)]",0.8250000000000004,,,32.0,0.007604999999999999,['Fail'],Fail,0.6500000000000005,-0.36428571428571477,2.0,7.0,1.0
188.0,16.0,wc_16,,0.0,,,,61.0,,,,Fail,,,,,
188.0,16.0,wc_16,wc_2,1.0,"[('wc_2', 0.4800000000000003), ('wc_16', 0.5000000000000003), ('wc_5', 0.6500000000000005)]",0.9090000000000003,,,22.0,0.040743,['Fail'],Fail,0.4800000000000003,-0.146666666666667,2.0,6.0,0.5
199.0,16.0,wc_16,,0.0,,,,243.0,,,,Fail,,,,,
199.0,16.0,wc_16,,0.0,,,61.0,,,,,Fail,,,,,
199.0,16.0,wc_16,,0.0,,,,0.0,,,,Fail,,,,,
199.0,16.0,wc_16,wc_16,0.0,"[('wc_16', 0.5000000000000003)]",0.5000000000000003,,,29.0,0.002303,['Fail'],Fail,0.5000000000000003,-0.16666666666666702,2.0,6.0,0.6
199.0,16.0,wc_16,,0.0,,,,223.0,,,,Fail,,,,,
199.0,16.0,wc_16,wc_7,0.0,"[('wc_7', 0.4900000000000003), ('wc_16', 0.5000000000000003)]",0.7450000000000003,,,38.0,0.004065,['Fail'],Fail,0.4900000000000003,-0.24000000000000032,1.0,4.0,0.6
199.0,16.0,wc_16,,0.0,,,,341.0,,,,Fail,,,,,
199.0,16.0,wc_16,wc_5,1.0,"[('wc_5', 0.6500000000000005), ('wc_16', 0.5000000000000003), ('wc_7', 0.4900000000000003)]",0.9107500000000002,,,30.0,0.040184,['Fail'],Fail,0.6500000000000005,-0.20555555555555605,4.0,9.0,1.0
211.0,15.0,wc_15,,0.0,,,,162.0,,,,Fail,,,,,
211.0,15.0,wc_15,,0.0,,,61.0,,,,,Fail,,,,,
211.0,15.0,wc_15,,0.0,,,,0.0,,,,Fail,,,,,
211.0,15.0,wc_15,wc_15,0.0,"[('wc_15', 0.21000000000000008)]",0.21000000000000008,,,27.0,0.00215,['Pass'],Fail,0.21000000000000008,-0.11000000000000007,0.0,0.0,0.1
211.0,15.0,wc_15,,0.0,,,,61.0,,,,Fail,,,,,
211.0,15.0,wc_15,wc_12,0.0,"[('wc_12', 0.5000000000000003)]",0.5000000000000003,,,30.0,0.004107,['Fail'],Fail,0.5000000000000003,-0.25000000000000033,1.0,4.0,0.4
211.0,15.0,wc_15,,0.0,,,,381.0,,,,Fail,,,,,
211.0,15.0,wc_15,wc_4,0.0,"[('wc_4', 0.5500000000000004), ('wc_12', 0.5000000000000003)]",0.7750000000000004,,,29.0,0.0062640000000000005,['Fail'],Fail,0.5500000000000004,-0.09545454545454585,0.0,0.0,0.7
211.0,15.0,wc_15,,0.0,,,,81.0,,,,Fail,,,,,
211.0,15.0,wc_15,wc_2,0.0,"[('wc_12', 0.5000000000000003), ('wc_4', 0.5500000000000004)]",0.7750000000000004,,,38.0,0.007587,['Fail'],Fail,0.4800000000000003,-0.19428571428571462,2.0,7.0,0.5
211.0,15.0,wc_15,,0.0,,,,0.0,,,,Fail,,,,,
211.0,15.0,wc_15,wc_5,1.0,"[('wc_5', 0.6500000000000005), ('wc_12', 0.5000000000000003), ('wc_4', 0.5500000000000004)]",0.9212500000000002,,,34.0,0.04326499999999999,['Fail'],Fail,0.6500000000000005,-0.6500000000000005,0.0,0.0,1.0
223.0,15.0,wc_15,,0.0,,,,162.0,,,,Fail,,,,,
223.0,15.0,wc_15,,0.0,,,65.0,,,,,Fail,,,,,
223.0,15.0,wc_15,,0.0,,,,0.0,,,,Fail,,,,,
223.0,15.0,wc_15,wc_15,0.0,"[('wc_15', 0.20000000000000007)]",0.20000000000000007,,,23.0,0.002264,['Pass'],Fail,0.20000000000000007,-0.20000000000000007,0.0,1.0,0.1
223.0,15.0,wc_15,,0.0,,,,283.0,,,,Fail,,,,,
223.0,15.0,wc_15,wc_1,0.0,"[('wc_1', 0.11000000000000001), ('wc_15', 0.20000000000000007)]",0.28800000000000003,,,34.0,0.004528,['Pass'],Fail,0.11000000000000001,-0.11000000000000001,0.0,0.0,0.1
223.0,15.0,wc_15,,0.0,,,,182.0,,,,Fail,,,,,
223.0,15.0,wc_15,wc_12,0.0,"[('wc_12', 0.5000000000000003)]",0.5000000000000003,,,29.0,0.0072299999999999994,['Fail'],Fail,0.5000000000000003,-0.10000000000000031,2.0,5.0,0.4
223.0,15.0,wc_15,,0.0,,,,341.0,,,,Fail,,,,,
223.0,15.0,wc_15,wc_10,0.0,"[('wc_10', 0.3600000000000002), ('wc_12', 0.5000000000000003)]",0.6800000000000004,,,25.0,0.008237,['Fail'],Fail,0.3600000000000002,-0.137777777777778,0.0,0.0,0.4
223.0,15.0,wc_15,,0.0,,,,103.0,,,,Fail,,,,,
223.0,15.0,wc_15,wc_9,0.0,"[('wc_9', 0.4900000000000003), ('wc_12', 0.5000000000000003), ('wc_10', 0.3600000000000002)]",0.8368000000000002,,,21.0,0.009303,['Fail'],Fail,0.4900000000000003,-0.4900000000000003,0.0,3.0,0.6
223.0,15.0,wc_15,,0.0,,,,121.0,,,,Fail,,,,,
223.0,15.0,wc_15,wc_13,0.0,"[('wc_12', 0.5000000000000003), ('wc_10', 0.3600000000000002), ('wc_9', 0.4900000000000003)]",0.8368000000000002,,,31.0,0.011015,['Fail'],Fail,0.5300000000000004,-0.5300000000000004,0.0,3.0,0.5
223.0,15.0,wc_15,,0.0,,,,0.0,,,,Fail,,,,,
223.0,15.0,wc_15,wc_14,0.0,"[('wc_12', 0.5000000000000003), ('wc_10', 0.3600000000000002), ('wc_9', 0.4900000000000003)]",0.8368000000000002,,,31.0,0.014871,['Fail'],Fail,0.16000000000000003,-0.16000000000000003,0.0,3.0,0.1
223.0,15.0,wc_15,,0.0,,,,321.0,,,,Fail,,,,,
223.0,15.0,wc_15,wc_11,0.0,"[('wc_12', 0.5000000000000003), ('wc_10', 0.3600000000000002), ('wc_9', 0.4900000000000003)]",0.8368000000000002,,,22.0,0.014865999999999999,['Fail'],Fail,0.41000000000000025,-0.11000000000000026,0.0,0.0,0.2
223.0,15.0,wc_15,,0.0,,,,21.0,,,,Fail,,,,,
223.0,15.0,wc_15,wc_6,1.0,"[('wc_6', 0.4400000000000003), ('wc_12', 0.5000000000000003), ('wc_10', 0.3600000000000002), ('wc_9', 0.4900000000000003)]",0.9086080000000002,,,39.0,0.053364,['Fail'],Fail,0.4400000000000003,-0.4400000000000003,0.0,0.0,0.5
237.0,15.0,wc_15,,0.0,,,,223.0,,,,Fail,,,,,
237.0,15.0,wc_15,,0.0,,,64.0,,,,,Fail,,,,,
237.0,15.0,wc_15,,0.0,,,,0.0,,,,Fail,,,,,
237.0,15.0,wc_15,wc_15,0.0,"[('wc_15', 0.19000000000000006)]",0.19000000000000006,,,28.0,0.002099,['Fail'],Fail,0.19000000000000006,-0.19000000000000006,0.0,2.0,0.1
237.0,15.0,wc_15,,0.0,,,,0.0,,,,Fail,,,,,
237.0,15.0,wc_15,wc_16,0.0,"[('wc_16', 0.5000000000000003), ('wc_15', 0.19000000000000006)]",0.5950000000000003,,,37.0,0.004102,['Fail'],Fail,0.5000000000000003,-0.16666666666666702,3.0,9.0,0.6
237.0,15.0,wc_15,,0.0,,,,342.0,,,,Fail,,,,,
237.0,15.0,wc_15,wc_9,0.0,"[('wc_9', 0.4900000000000003), ('wc_15', 0.19000000000000006), ('wc_16', 0.5000000000000003)]",0.7934500000000003,,,40.0,0.005484,['Fail'],Fail,0.4900000000000003,-0.24000000000000032,1.0,4.0,0.6
237.0,15.0,wc_15,,0.0,,,,243.0,,,,Fail,,,,,
237.0,15.0,wc_15,wc_1,0.0,"[('wc_1', 0.10000000000000002), ('wc_15', 0.19000000000000006), ('wc_16', 0.5000000000000003), ('wc_9', 0.4900000000000003)]",0.8141050000000003,,,29.0,0.007399,['Fail'],Fail,0.10000000000000002,-0.10000000000000002,0.0,1.0,0.1
237.0,15.0,wc_15,,0.0,,,,223.0,,,,Fail,,,,,
237.0,15.0,wc_15,wc_10,0.0,"[('wc_15', 0.19000000000000006), ('wc_16', 0.5000000000000003), ('wc_9', 0.4900000000000003), ('wc_1', 0.10000000000000002)]",0.8141050000000003,,,37.0,0.010251,['Fail'],Fail,0.3700000000000002,0.6299999999999998,1.0,1.0,0.4
237.0,15.0,wc_15,,0.0,,,,342.0,,,,Fail,,,,,
237.0,15.0,wc_15,wc_3,0.0,"[('wc_3', 0.2300000000000001), ('wc_15', 0.19000000000000006), ('wc_16', 0.5000000000000003), ('wc_9', 0.4900000000000003), ('wc_1', 0.10000000000000002)]",0.8568608500000002,,,28.0,0.010936,['Fail'],Fail,0.2300000000000001,-0.2300000000000001,0.0,0.0,0.3
237.0,15.0,wc_15,,0.0,,,,181.0,,,,Fail,,,,,
237.0,15.0,wc_15,wc_14,0.0,"[('wc_15', 0.19000000000000006), ('wc_16', 0.5000000000000003), ('wc_9', 0.4900000000000003), ('wc_1', 0.10000000000000002), ('wc_3', 0.2300000000000001)]",0.8568608500000002,,,37.0,0.012298,['Fail'],Fail,0.15000000000000002,-0.15000000000000002,0.0,4.0,0.1
237.0,15.0,wc_15,,0.0,,,,321.0,,,,Fail,,,,,
237.0,15.0,wc_15,wc_11,0.0,"[('wc_15', 0.19000000000000006), ('wc_16', 0.5000000000000003), ('wc_9', 0.4900000000000003), ('wc_1', 0.10000000000000002), ('wc_3', 0.2300000000000001)]",0.8568608500000002,,,23.0,0.031278,['Fail'],Fail,0.40000000000000024,-0.40000000000000024,0.0,1.0,0.2
237.0,15.0,wc_15,,0.0,,,,362.0,,,,Fail,,,,,
237.0,15.0,wc_15,wc_5,1.0,"[('wc_5', 0.6500000000000005), ('wc_15', 0.19000000000000006), ('wc_16', 0.5000000000000003), ('wc_9', 0.4900000000000003), ('wc_1', 0.10000000000000002), ('wc_3', 0.2300000000000001)]",0.9499012975000002,,,37.0,0.05346000000000001,['Fail'],Fail,0.6500000000000005,-0.15000000000000047,1.0,2.0,1.0
254.0,15.0,wc_15,,0.0,,,,162.0,,,,Fail,,,,,
254.0,15.0,wc_15,,0.0,,,79.0,,,,,Fail,,,,,
254.0,15.0,wc_15,,0.0,,,,0.0,,,,Fail,,,,,
254.0,15.0,wc_15,wc_15,0.0,"[('wc_15', 0.20000000000000007)]",0.20000000000000007,,,33.0,0.002184,['Fail'],Fail,0.20000000000000007,0.13333333333333325,1.0,3.0,0.1
254.0,15.0,wc_15,,0.0,,,,0.0,,,,Fail,,,,,
254.0,15.0,wc_15,wc_17,0.0,"[('wc_17', 0.4900000000000003), ('wc_15', 0.20000000000000007)]",0.5920000000000003,,,38.0,0.004601,['Fail'],Fail,0.4900000000000003,-0.4311764705882356,0.0,0.0,1.0
254.0,15.0,wc_15,,0.0,,,,21.0,,,,Fail,,,,,
254.0,15.0,wc_15,wc_12,0.0,"[('wc_12', 0.5000000000000003), ('wc_15', 0.20000000000000007), ('wc_17', 0.4900000000000003)]",0.7960000000000003,,,32.0,0.006109,['Fail'],Fail,0.5000000000000003,-0.07142857142857179,3.0,7.0,0.4
254.0,15.0,wc_15,,0.0,,,,222.0,,,,Fail,,,,,
254.0,15.0,wc_15,wc_8,1.0,"[('wc_8', 0.6000000000000004), ('wc_15', 0.20000000000000007), ('wc_17', 0.4900000000000003), ('wc_12', 0.5000000000000003)]",0.9184000000000002,,,37.0,0.043196,['Fail'],Fail,0.6000000000000004,-0.3142857142857147,2.0,7.0,0.8
268.0,16.0,wc_16,,0.0,,,,203.0,,,,Pass,,,,,
268.0,16.0,wc_16,,0.0,,,63.0,,,,,Pass,,,,,
268.0,16.0,wc_16,,0.0,,,,0.0,,,,Pass,,,,,
268.0,16.0,wc_16,wc_16,0.0,"[('wc_16', 0.5000000000000003)]",0.5000000000000003,,,34.0,0.00225,['Fail'],Pass,0.5000000000000003,-0.5000000000000003,0.0,1.0,0.6
268.0,16.0,wc_16,,0.0,,,,61.0,,,,Pass,,,,,
268.0,16.0,wc_16,wc_13,0.0,"[('wc_13', 0.5200000000000004)]",0.5200000000000004,,,25.0,0.004877,['Pass'],Pass,0.5200000000000004,-0.5200000000000004,0.0,6.0,0.5
268.0,16.0,wc_16,,0.0,,,,301.0,,,,Pass,,,,,
268.0,16.0,wc_16,wc_9,0.0,"[('wc_9', 0.4900000000000003), ('wc_13', 0.5200000000000004)]",0.7552000000000003,,,32.0,0.005651,['Pass'],Pass,0.4900000000000003,-0.156666666666667,2.0,6.0,0.6
268.0,16.0,wc_16,,0.0,,,,101.0,,,,Pass,,,,,
268.0,16.0,wc_16,wc_8,1.0,"[('wc_8', 0.6000000000000004), ('wc_13', 0.5200000000000004), ('wc_9', 0.4900000000000003)]",0.9020800000000002,,,29.0,0.04271799999999999,['Pass'],Pass,0.6000000000000004,-0.22500000000000042,3.0,8.0,0.8
281.0,14.0,wc_14,,0.0,,,,162.0,,,,Fail,,,,,
281.0,14.0,wc_14,,0.0,,,65.0,,,,,Fail,,,,,
281.0,14.0,wc_14,,0.0,,,,0.0,,,,Fail,,,,,
281.0,14.0,wc_14,wc_14,0.0,"[('wc_14', 0.14)]",0.14,,,29.0,0.002361,['Pass'],Fail,0.14,-0.14,0.0,7.0,0.1
281.0,14.0,wc_14,,0.0,,,,82.0,,,,Fail,,,,,
281.0,14.0,wc_14,wc_12,0.0,"[('wc_12', 0.5000000000000003)]",0.5000000000000003,,,40.0,0.00385,['Fail'],Fail,0.5000000000000003,-0.05555555555555591,4.0,9.0,0.4
281.0,14.0,wc_14,,0.0,,,,381.0,,,,Fail,,,,,
281.0,14.0,wc_14,wc_4,0.0,"[('wc_4', 0.5600000000000004), ('wc_12', 0.5000000000000003)]",0.7800000000000004,,,38.0,0.00583,['Fail'],Fail,0.5600000000000004,-0.3600000000000004,1.0,5.0,0.7
281.0,14.0,wc_14,,0.0,,,,81.0,,,,Fail,,,,,
281.0,14.0,wc_14,wc_6,0.0,"[('wc_6', 0.4400000000000003), ('wc_12', 0.5000000000000003), ('wc_4', 0.5600000000000004)]",0.8768000000000002,,,36.0,0.007609,['Fail'],Fail,0.4400000000000003,-0.4400000000000003,0.0,3.0,0.5
281.0,14.0,wc_14,,0.0,,,,222.0,,,,Fail,,,,,
281.0,14.0,wc_14,wc_2,1.0,"[('wc_2', 0.4700000000000003), ('wc_12', 0.5000000000000003), ('wc_4', 0.5600000000000004), ('wc_6', 0.4400000000000003)]",0.9347040000000002,,,32.0,0.044758000000000006,['Fail'],Fail,0.4700000000000003,-0.4700000000000003,0.0,0.0,0.5
294.0,15.0,wc_15,,0.0,,,,223.0,,,,Fail,,,,,
294.0,15.0,wc_15,,0.0,,,65.0,,,,,Fail,,,,,
294.0,15.0,wc_15,,0.0,,,,0.0,,,,Fail,,,,,
294.0,15.0,wc_15,wc_15,0.0,"[('wc_15', 0.21000000000000008)]",0.21000000000000008,,,34.0,0.002256,['Pass'],Fail,0.21000000000000008,0.12333333333333324,2.0,6.0,0.1
294.0,15.0,wc_15,,0.0,,,,243.0,,,,Fail,,,,,
294.0,15.0,wc_15,wc_7,0.0,"[('wc_7', 0.4900000000000003)]",0.4900000000000003,,,40.0,0.004945,['Fail'],Fail,0.4900000000000003,-0.3081818181818185,0.0,0.0,0.6
294.0,15.0,wc_15,,0.0,,,,202.0,,,,Fail,,,,,
294.0,15.0,wc_15,wc_2,0.0,"[('wc_2', 0.4700000000000003), ('wc_7', 0.4900000000000003)]",0.7297000000000003,,,23.0,0.010918,['Fail'],Fail,0.4700000000000003,-0.4700000000000003,0.0,0.0,0.5
294.0,15.0,wc_15,,0.0,,,,243.0,,,,Fail,,,,,
294.0,15.0,wc_15,wc_16,0.0,"[('wc_16', 0.4900000000000003), ('wc_7', 0.4900000000000003), ('wc_2', 0.4700000000000003)]",0.8621470000000002,,,29.0,0.007553,['Fail'],Fail,0.4900000000000003,-0.4900000000000003,0.0,3.0,0.6
294.0,15.0,wc_15,,0.0,,,,362.0,,,,Fail,,,,,
294.0,15.0,wc_15,wc_10,1.0,"[('wc_10', 0.3700000000000002), ('wc_7', 0.4900000000000003), ('wc_2', 0.4700000000000003), ('wc_16', 0.4900000000000003)]",0.9131526100000001,,,25.0,0.05364999999999999,['Fail'],Fail,0.3700000000000002,-0.0366666666666669,2.0,6.0,0.4
306.0,15.0,wc_15,,0.0,,,,142.0,,,,Pass,,,,,
306.0,15.0,wc_15,,0.0,,,68.0,,,,,Pass,,,,,
306.0,15.0,wc_15,,0.0,,,,0.0,,,,Pass,,,,,
306.0,15.0,wc_15,wc_15,0.0,"[('wc_15', 0.21000000000000008)]",0.21000000000000008,,,30.0,0.002343,['Fail'],Pass,0.21000000000000008,0.07571428571428562,2.0,7.0,0.1
306.0,15.0,wc_15,,0.0,,,,422.0,,,,Pass,,,,,
306.0,15.0,wc_15,wc_4,0.0,"[('wc_4', 0.5600000000000004), ('wc_15', 0.21000000000000008)]",0.6524000000000003,,,32.0,0.00441,['Fail'],Pass,0.5600000000000004,-0.2742857142857147,2.0,7.0,0.7
306.0,15.0,wc_15,,0.0,,,,0.0,,,,Pass,,,,,
306.0,15.0,wc_15,wc_5,0.0,"[('wc_15', 0.21000000000000008), ('wc_4', 0.5600000000000004)]",0.6524000000000003,,,36.0,0.0059110000000000005,['Fail'],Pass,0.6500000000000005,-0.48333333333333384,1.0,6.0,1.0
306.0,15.0,wc_15,,0.0,,,,61.0,,,,Pass,,,,,
306.0,15.0,wc_15,wc_2,0.0,"[('wc_2', 0.4800000000000003), ('wc_5', 0.6500000000000005)]",0.8180000000000004,,,37.0,0.011187,['Pass'],Pass,0.4800000000000003,0.5199999999999997,1.0,1.0,0.5
306.0,15.0,wc_15,,0.0,,,,263.0,,,,Pass,,,,,
306.0,15.0,wc_15,wc_17,1.0,"[('wc_17', 0.5000000000000003), ('wc_5', 0.6500000000000005), ('wc_2', 0.4800000000000003)]",0.9090000000000003,,,28.0,0.048862,['Pass'],Pass,0.5000000000000003,-0.10000000000000031,2.0,5.0,1.0
327.0,14.0,wc_14,,0.0,,,,61.0,,,,Fail,,,,,
327.0,14.0,wc_14,,0.0,,,75.0,,,,,Fail,,,,,
327.0,14.0,wc_14,,0.0,,,,0.0,,,,Fail,,,,,
327.0,14.0,wc_14,wc_14,0.0,"[('wc_14', 0.13)]",0.13,,,40.0,0.002174,['Pass'],Fail,0.13,-0.13,0.0,0.0,0.1
327.0,14.0,wc_14,,0.0,,,,301.0,,,,Fail,,,,,
327.0,14.0,wc_14,wc_10,0.0,"[('wc_10', 0.3700000000000002)]",0.3700000000000002,,,30.0,0.004032,['Fail'],Fail,0.3700000000000002,-0.08428571428571452,2.0,7.0,0.4
327.0,14.0,wc_14,,0.0,,,,223.0,,,,Fail,,,,,
327.0,14.0,wc_14,wc_1,0.0,"[('wc_1', 0.11000000000000001), ('wc_10', 0.3700000000000002)]",0.43930000000000013,,,21.0,0.005593000000000001,['Fail'],Fail,0.11000000000000001,0.032857142857142835,1.0,7.0,0.1
327.0,14.0,wc_14,,0.0,,,,162.0,,,,Fail,,,,,
327.0,14.0,wc_14,wc_7,0.0,"[('wc_7', 0.5000000000000003), ('wc_10', 0.3700000000000002), ('wc_1', 0.11000000000000001)]",0.7196500000000003,,,21.0,0.0078060000000000004,['Fail'],Fail,0.5000000000000003,-3.3306690738754696e-16,1.0,2.0,0.6
327.0,14.0,wc_14,,0.0,,,,341.0,,,,Fail,,,,,
327.0,14.0,wc_14,wc_5,1.0,"[('wc_5', 0.6500000000000005), ('wc_10', 0.3700000000000002), ('wc_1', 0.11000000000000001), ('wc_7', 0.5000000000000003)]",0.9018775000000002,,,36.0,0.05180099999999999,['Fail'],Fail,0.6500000000000005,-0.27500000000000047,3.0,8.0,1.0
336.0,14.0,wc_14,,0.0,,,,141.0,,,,Pass,,,,,
336.0,14.0,wc_14,,0.0,,,51.0,,,,,Pass,,,,,
336.0,14.0,wc_14,,0.0,,,,0.0,,,,Pass,,,,,
336.0,14.0,wc_14,wc_14,0.0,"[('wc_14', 0.12000000000000001)]",0.12,,,30.0,0.002331,['Fail'],Pass,0.12000000000000001,-0.12000000000000001,0.0,1.0,0.1
336.0,14.0,wc_14,,0.0,,,,321.0,,,,Pass,,,,,
336.0,14.0,wc_14,wc_3,0.0,"[('wc_3', 0.2400000000000001)]",0.2400000000000001,,,29.0,0.004294,['Pass'],Pass,0.2400000000000001,-0.09714285714285725,1.0,7.0,0.3
336.0,14.0,wc_14,,0.0,,,,242.0,,,,Pass,,,,,
336.0,14.0,wc_14,wc_17,0.0,"[('wc_17', 0.5000000000000003), ('wc_3', 0.2400000000000001)]",0.6200000000000003,,,28.0,0.005682,['Pass'],Pass,0.5000000000000003,-0.16666666666666702,2.0,6.0,1.0
336.0,14.0,wc_14,,0.0,,,,263.0,,,,Pass,,,,,
336.0,14.0,wc_14,wc_2,0.0,"[('wc_3', 0.2400000000000001), ('wc_17', 0.5000000000000003)]",0.6200000000000003,,,30.0,0.007564,['Pass'],Pass,0.4900000000000003,0.1766666666666663,2.0,3.0,0.5
336.0,14.0,wc_14,,0.0,,,,243.0,,,,Pass,,,,,
336.0,14.0,wc_14,wc_16,0.0,"[('wc_16', 0.4900000000000003), ('wc_14', 0.12000000000000001), ('wc_2', 0.4900000000000003)]",0.7711120000000002,,,24.0,0.009451,['Fail'],Pass,0.4900000000000003,-0.3233333333333337,1.0,6.0,0.6
336.0,14.0,wc_14,,0.0,,,,223.0,,,,Pass,,,,,
336.0,14.0,wc_14,wc_7,0.0,"[('wc_7', 0.5100000000000003), ('wc_14', 0.12000000000000001), ('wc_2', 0.4900000000000003), ('wc_16', 0.4900000000000003)]",0.8878448800000003,,,28.0,0.010781,['Fail'],Pass,0.5100000000000003,0.1566666666666663,2.0,3.0,0.6
336.0,14.0,wc_14,,0.0,,,,142.0,,,,Pass,,,,,
336.0,14.0,wc_14,wc_12,0.0,"[('wc_14', 0.12000000000000001), ('wc_2', 0.4900000000000003), ('wc_16', 0.4900000000000003), ('wc_7', 0.5100000000000003)]",0.8878448800000003,,,40.0,0.012995000000000001,['Fail'],Pass,0.5000000000000003,-0.5000000000000003,0.0,3.0,0.4
336.0,14.0,wc_14,,0.0,,,,321.0,,,,Pass,,,,,
336.0,14.0,wc_14,wc_9,1.0,"[('wc_9', 0.4900000000000003), ('wc_14', 0.12000000000000001), ('wc_2', 0.4900000000000003), ('wc_16', 0.4900000000000003), ('wc_7', 0.5100000000000003)]",0.9428008888000001,,,38.0,0.050675,['Fail'],Pass,0.4900000000000003,-0.4900000000000003,0.0,0.0,0.6
347.0,17.0,wc_17,,0.0,,,,202.0,,,,Fail,,,,,
347.0,17.0,wc_17,,0.0,,,57.0,,,,,Fail,,,,,
347.0,17.0,wc_17,,0.0,,,,0.0,,,,Fail,,,,,
347.0,17.0,wc_17,wc_17,0.0,"[('wc_17', 0.4900000000000003)]",0.4900000000000003,,,37.0,0.002169,['Fail'],Fail,0.4900000000000003,-0.20428571428571463,2.0,7.0,1.0
347.0,17.0,wc_17,,0.0,,,,402.0,,,,Fail,,,,,
347.0,17.0,wc_17,wc_5,0.0,"[('wc_5', 0.6500000000000005), ('wc_17', 0.4900000000000003)]",0.8215000000000003,,,37.0,0.004146,['Fail'],Fail,0.6500000000000005,-0.31666666666666715,3.0,9.0,1.0
347.0,17.0,wc_17,,0.0,,,,142.0,,,,Fail,,,,,
347.0,17.0,wc_17,wc_10,0.0,"[('wc_17', 0.4900000000000003), ('wc_5', 0.6500000000000005)]",0.8215000000000003,,,24.0,0.006539,['Fail'],Fail,0.3700000000000002,-0.0366666666666669,3.0,9.0,0.4
347.0,17.0,wc_17,,0.0,,,,81.0,,,,Fail,,,,,
347.0,17.0,wc_17,wc_12,0.0,"[('wc_17', 0.4900000000000003), ('wc_5', 0.6500000000000005)]",0.8215000000000003,,,40.0,0.007892000000000001,['Fail'],Fail,0.4900000000000003,-0.4900000000000003,0.0,4.0,0.4
347.0,17.0,wc_17,,0.0,,,,381.0,,,,Fail,,,,,
347.0,17.0,wc_17,wc_4,0.0,"[('wc_4', 0.5500000000000004), ('wc_10', 0.3700000000000002), ('wc_12', 0.4900000000000003)]",0.8554150000000003,,,32.0,0.009294,['Pass'],Fail,0.5500000000000004,-0.35000000000000037,0.0,0.0,0.7
347.0,17.0,wc_17,,0.0,,,,202.0,,,,Fail,,,,,
347.0,17.0,wc_17,wc_16,1.0,"[('wc_16', 0.4900000000000003), ('wc_17', 0.4900000000000003), ('wc_5', 0.6500000000000005)]",0.9089650000000002,,,37.0,0.048222,['Fail'],Fail,0.4900000000000003,-0.11500000000000032,3.0,8.0,0.6
358.0,17.0,wc_17,,0.0,,,,0.0,,,,Fail,,,,,
358.0,17.0,wc_17,,0.0,,,56.0,,,,,Fail,,,,,
358.0,17.0,wc_17,,0.0,,,,0.0,,,,Fail,,,,,
358.0,17.0,wc_17,wc_17,0.0,"[('wc_17', 0.4900000000000003)]",0.4900000000000003,,,33.0,0.001942,['Fail'],Fail,0.4900000000000003,-0.11500000000000032,3.0,8.0,1.0
358.0,17.0,wc_17,,0.0,,,,223.0,,,,Fail,,,,,
358.0,17.0,wc_17,wc_8,0.0,"[('wc_8', 0.6000000000000004), ('wc_17', 0.4900000000000003)]",0.7960000000000004,,,26.0,0.006445,['Fail'],Fail,0.6000000000000004,-0.3857142857142861,0.0,0.0,0.8
358.0,17.0,wc_17,,0.0,,,,0.0,,,,Fail,,,,,
358.0,17.0,wc_17,wc_9,0.0,"[('wc_9', 0.4900000000000003), ('wc_17', 0.4900000000000003), ('wc_8', 0.6000000000000004)]",0.8959600000000002,,,29.0,0.0059559999999999995,['Fail'],Fail,0.4900000000000003,-0.4900000000000003,0.0,1.0,0.6
358.0,17.0,wc_17,,0.0,,,,101.0,,,,Fail,,,,,
358.0,17.0,wc_17,wc_12,1.0,"[('wc_12', 0.4800000000000003), ('wc_17', 0.4900000000000003), ('wc_8', 0.6000000000000004), ('wc_9', 0.4900000000000003)]",0.9458992000000002,,,25.0,0.04303400000000001,['Fail'],Fail,0.4800000000000003,-0.3133333333333337,1.0,6.0,0.4
368.0,17.0,wc_17,,0.0,,,,0.0,,,,Fail,,,,,
368.0,17.0,wc_17,,0.0,,,59.0,,,,,Fail,,,,,
368.0,17.0,wc_17,,0.0,,,,0.0,,,,Fail,,,,,
368.0,17.0,wc_17,wc_17,0.0,"[('wc_17', 0.4900000000000003)]",0.4900000000000003,,,23.0,0.002186,['Fail'],Fail,0.4900000000000003,-0.045555555555555904,4.0,9.0,1.0
368.0,17.0,wc_17,,0.0,,,,342.0,,,,Fail,,,,,
368.0,17.0,wc_17,wc_10,0.0,"[('wc_17', 0.4900000000000003)]",0.4900000000000003,,,27.0,0.004253,['Fail'],Fail,0.3600000000000002,-0.3600000000000002,0.0,1.0,0.4
368.0,17.0,wc_17,,0.0,,,,382.0,,,,Fail,,,,,
368.0,17.0,wc_17,wc_5,0.0,"[('wc_5', 0.6500000000000005), ('wc_17', 0.4900000000000003)]",0.8215000000000003,,,28.0,0.006618,['Fail'],Fail,0.6500000000000005,-0.6500000000000005,0.0,1.0,1.0
368.0,17.0,wc_17,,0.0,,,,182.0,,,,Fail,,,,,
368.0,17.0,wc_17,wc_16,1.0,"[('wc_16', 0.4900000000000003), ('wc_17', 0.4900000000000003), ('wc_5', 0.6500000000000005)]",0.9089650000000002,,,33.0,0.048801000000000004,['Fail'],Fail,0.4900000000000003,-0.4900000000000003,0.0,0.0,0.6
390.0,17.0,wc_17,,0.0,,,,0.0,,,,Pass,,,,,
390.0,17.0,wc_17,,0.0,,,67.0,,,,,Pass,,,,,
390.0,17.0,wc_17,,0.0,,,,0.0,,,,Pass,,,,,
390.0,17.0,wc_17,wc_17,0.0,"[('wc_17', 0.4900000000000003)]",0.4900000000000003,,,32.0,0.00227,['Pass'],Pass,0.4900000000000003,-0.4900000000000003,0.0,0.0,1.0
390.0,17.0,wc_17,,0.0,,,,263.0,,,,Pass,,,,,
390.0,17.0,wc_17,wc_2,0.0,"[('wc_2', 0.5000000000000003)]",0.5000000000000003,,,38.0,0.004418,['Fail'],Pass,0.5000000000000003,-0.07142857142857179,3.0,7.0,0.5
390.0,17.0,wc_17,,0.0,,,,183.0,,,,Pass,,,,,
390.0,17.0,wc_17,wc_9,0.0,"[('wc_9', 0.4900000000000003), ('wc_17', 0.4900000000000003)]",0.7399000000000003,,,32.0,0.006069,['Pass'],Pass,0.4900000000000003,-0.156666666666667,1.0,3.0,0.6
390.0,17.0,wc_17,,0.0,,,,162.0,,,,Pass,,,,,
390.0,17.0,wc_17,wc_15,0.0,"[('wc_17', 0.4900000000000003), ('wc_9', 0.4900000000000003)]",0.7399000000000003,,,39.0,0.0072250000000000005,['Pass'],Pass,0.21000000000000008,-0.05615384615384622,0.0,0.0,0.1
390.0,17.0,wc_17,,0.0,,,,61.0,,,,Pass,,,,,
390.0,17.0,wc_17,wc_12,0.0,"[('wc_12', 0.4800000000000003), ('wc_2', 0.5000000000000003), ('wc_15', 0.21000000000000008)]",0.7946000000000003,,,30.0,0.009275,['Fail'],Pass,0.4800000000000003,-0.33714285714285747,1.0,7.0,0.4
390.0,17.0,wc_17,,0.0,,,,341.0,,,,Pass,,,,,
390.0,17.0,wc_17,wc_10,0.0,"[('wc_10', 0.3500000000000002), ('wc_17', 0.4900000000000003), ('wc_9', 0.4900000000000003)]",0.8309350000000002,,,23.0,0.012211999999999999,['Pass'],Pass,0.3500000000000002,-0.3500000000000002,0.0,2.0,0.4
390.0,17.0,wc_17,,0.0,,,,41.0,,,,Pass,,,,,
390.0,17.0,wc_17,wc_6,1.0,"[('wc_6', 0.4400000000000003), ('wc_17', 0.4900000000000003), ('wc_9', 0.4900000000000003), ('wc_10', 0.3500000000000002)]",0.9053236000000002,,,20.0,0.056008,['Pass'],Pass,0.4400000000000003,-0.4400000000000003,0.0,0.0,0.5
