mpecck/BCQC/bcqc_with_qdt/results/raw/input_6/independent_qc/training/20_workpiece/20200429_084416/wp_8_qc_majority_0.9.csv
production_index,step_idx,production_workcell,qc,consent,winner_qc_list,score,production_time,transport_time,inspection_time,network_time,qc_results,actual_quality,qc_score,score_error,in_winner_counter,in_qc_counter,qc_capability
24.0,1.0,wc_1,,0.0,,,75.0,,,,,Fail,,,,,
24.0,1.0,wc_1,,0.0,,,,0.0,,,,Fail,,,,,
24.0,1.0,wc_1,wc_1,0.0,"[('wc_1', 0.21000000000000008)]",0.21000000000000008,,,22.0,0.00215,['Fail'],Fail,0.21000000000000008,-0.11000000000000007,0.0,0.0,0.1
24.0,1.0,wc_1,,0.0,,,,202.0,,,,Fail,,,,,
24.0,1.0,wc_1,wc_13,0.0,"[('wc_13', 0.6100000000000004), ('wc_1', 0.21000000000000008)]",0.6919000000000004,,,27.0,0.003855,['Fail'],Fail,0.6100000000000004,-0.2766666666666671,3.0,9.0,0.5
24.0,1.0,wc_1,,0.0,,,,341.0,,,,Fail,,,,,
24.0,1.0,wc_1,wc_11,0.0,"[('wc_1', 0.21000000000000008), ('wc_13', 0.6100000000000004)]",0.6919000000000004,,,28.0,0.007369,['Fail'],Fail,0.3400000000000002,0.1599999999999998,1.0,2.0,0.2
24.0,1.0,wc_1,,0.0,,,,61.0,,,,Fail,,,,,
24.0,1.0,wc_1,wc_12,0.0,"[('wc_12', 0.4900000000000003), ('wc_1', 0.21000000000000008), ('wc_13', 0.6100000000000004)]",0.8428690000000003,,,22.0,0.0075970000000000005,['Fail'],Fail,0.4900000000000003,-0.156666666666667,1.0,3.0,0.4
24.0,1.0,wc_1,,0.0,,,,262.0,,,,Fail,,,,,
24.0,1.0,wc_1,wc_2,1.0,"[('wc_2', 0.5600000000000004), ('wc_1', 0.21000000000000008), ('wc_13', 0.6100000000000004), ('wc_12', 0.4900000000000003)]",0.9308623600000002,,,20.0,0.04367199999999999,['Fail'],Fail,0.5600000000000004,-0.16000000000000036,2.0,5.0,0.5
126.0,1.0,wc_1,,0.0,,,,102.0,,,,Pass,,,,,
126.0,1.0,wc_1,,0.0,,,63.0,,,,,Pass,,,,,
126.0,1.0,wc_1,,0.0,,,,0.0,,,,Pass,,,,,
126.0,1.0,wc_1,wc_1,0.0,"[('wc_1', 0.22000000000000008)]",0.22000000000000008,,,33.0,0.002348,['Pass'],Pass,0.22000000000000008,0.7799999999999999,1.0,1.0,0.1
126.0,1.0,wc_1,,0.0,,,,0.0,,,,Pass,,,,,
126.0,1.0,wc_1,wc_2,0.0,"[('wc_2', 0.5600000000000004), ('wc_1', 0.22000000000000008)]",0.6568000000000003,,,32.0,0.004145,['Pass'],Pass,0.5600000000000004,-0.16000000000000036,2.0,5.0,0.5
126.0,1.0,wc_1,,0.0,,,,142.0,,,,Pass,,,,,
126.0,1.0,wc_1,wc_7,0.0,"[('wc_7', 0.6100000000000004), ('wc_1', 0.22000000000000008), ('wc_2', 0.5600000000000004)]",0.8661520000000003,,,27.0,0.006485000000000001,['Pass'],Pass,0.6100000000000004,-0.4988888888888893,1.0,9.0,0.6
126.0,1.0,wc_1,,0.0,,,,0.0,,,,Pass,,,,,
126.0,1.0,wc_1,wc_9,1.0,"[('wc_9', 0.5600000000000004), ('wc_1', 0.22000000000000008), ('wc_2', 0.5600000000000004), ('wc_7', 0.6100000000000004)]",0.9411068800000002,,,24.0,0.041582,['Pass'],Pass,0.5600000000000004,-0.060000000000000386,1.0,2.0,0.6
146.0,2.0,wc_2,,0.0,,,,263.0,,,,Pass,,,,,
146.0,2.0,wc_2,,0.0,,,80.0,,,,,Pass,,,,,
146.0,2.0,wc_2,,0.0,,,,0.0,,,,Pass,,,,,
146.0,2.0,wc_2,wc_2,0.0,"[('wc_2', 0.5600000000000004)]",0.5600000000000004,,,32.0,0.002261,['Fail'],Pass,0.5600000000000004,-0.060000000000000386,3.0,6.0,0.5
146.0,2.0,wc_2,,0.0,,,,0.0,,,,Pass,,,,,
146.0,2.0,wc_2,wc_5,0.0,"[('wc_5', 0.7200000000000005)]",0.7200000000000005,,,32.0,0.004141,['Pass'],Pass,0.7200000000000005,-0.7200000000000005,0.0,4.0,1.0
146.0,2.0,wc_2,,0.0,,,,103.0,,,,Pass,,,,,
146.0,2.0,wc_2,wc_4,0.0,"[('wc_4', 0.6600000000000005), ('wc_5', 0.7200000000000005)]",0.9048000000000003,,,28.0,0.005546000000000001,['Pass'],Pass,0.6600000000000005,-0.16000000000000048,4.0,8.0,0.7
146.0,2.0,wc_2,,0.0,,,,61.0,,,,Pass,,,,,
146.0,2.0,wc_2,wc_1,0.0,"[('wc_5', 0.7200000000000005), ('wc_4', 0.6600000000000005)]",0.9048000000000003,,,26.0,0.0075650000000000005,['Pass'],Pass,0.2300000000000001,0.7699999999999999,2.0,2.0,0.1
146.0,2.0,wc_2,,0.0,,,,243.0,,,,Pass,,,,,
146.0,2.0,wc_2,wc_11,0.0,"[('wc_5', 0.7200000000000005), ('wc_4', 0.6600000000000005)]",0.9048000000000003,,,29.0,0.009685,['Pass'],Pass,0.3400000000000002,-0.09000000000000019,1.0,4.0,0.2
146.0,2.0,wc_2,,0.0,,,,81.0,,,,Pass,,,,,
146.0,2.0,wc_2,wc_13,1.0,"[('wc_13', 0.6100000000000004), ('wc_2', 0.5600000000000004), ('wc_1', 0.2300000000000001), ('wc_11', 0.3400000000000002)]",0.9127928800000003,,,38.0,0.043261,['Fail'],Pass,0.6100000000000004,-0.11000000000000043,1.0,2.0,0.5
161.0,4.0,wc_4,,0.0,,,,361.0,,,,Fail,,,,,
161.0,4.0,wc_4,,0.0,,,68.0,,,,,Fail,,,,,
161.0,4.0,wc_4,,0.0,,,,0.0,,,,Fail,,,,,
161.0,4.0,wc_4,wc_4,0.0,"[('wc_4', 0.6500000000000005)]",0.6500000000000005,,,31.0,0.002234,['Fail'],Fail,0.6500000000000005,-0.20555555555555605,4.0,9.0,0.7
161.0,4.0,wc_4,,0.0,,,,101.0,,,,Fail,,,,,
161.0,4.0,wc_4,wc_7,0.0,"[('wc_7', 0.6100000000000004), ('wc_4', 0.6500000000000005)]",0.8635000000000004,,,27.0,0.004224,['Fail'],Fail,0.6100000000000004,-0.6100000000000004,0.0,1.0,0.6
161.0,4.0,wc_4,,0.0,,,,0.0,,,,Fail,,,,,
161.0,4.0,wc_4,wc_11,1.0,"[('wc_11', 0.3500000000000002), ('wc_4', 0.6500000000000005), ('wc_7', 0.6100000000000004)]",0.9112750000000003,,,28.0,0.037164,['Fail'],Fail,0.3600000000000002,0.1399999999999998,3.0,6.0,0.2
170.0,3.0,wc_3,,0.0,,,,322.0,,,,Fail,,,,,
170.0,3.0,wc_3,,0.0,,,51.0,,,,,Fail,,,,,
170.0,3.0,wc_3,,0.0,,,,0.0,,,,Fail,,,,,
170.0,3.0,wc_3,wc_3,0.0,"[('wc_3', 0.30000000000000016)]",0.30000000000000016,,,20.0,0.002327,['Fail'],Fail,0.30000000000000016,-0.15000000000000016,0.0,0.0,0.3
170.0,3.0,wc_3,,0.0,,,,141.0,,,,Fail,,,,,
170.0,3.0,wc_3,wc_8,0.0,"[('wc_8', 0.6200000000000004), ('wc_3', 0.30000000000000016)]",0.7340000000000004,,,23.0,0.004144,['Fail'],Fail,0.6200000000000004,-0.37000000000000044,0.0,0.0,0.8
170.0,3.0,wc_3,,0.0,,,,321.0,,,,Fail,,,,,
170.0,3.0,wc_3,wc_5,1.0,"[('wc_5', 0.7100000000000005), ('wc_3', 0.30000000000000016), ('wc_8', 0.6200000000000004)]",0.9228600000000002,,,29.0,0.035276,['Fail'],Fail,0.7100000000000005,-0.5671428571428576,1.0,7.0,1.0
182.0,4.0,wc_4,,0.0,,,,103.0,,,,Fail,,,,,
182.0,4.0,wc_4,,0.0,,,50.0,,,,,Fail,,,,,
182.0,4.0,wc_4,,0.0,,,,0.0,,,,Fail,,,,,
182.0,4.0,wc_4,wc_4,0.0,"[('wc_4', 0.6500000000000005)]",0.6500000000000005,,,26.0,0.002151,['Fail'],Fail,0.6500000000000005,-0.6500000000000005,0.0,1.0,0.7
182.0,4.0,wc_4,,0.0,,,,103.0,,,,Fail,,,,,
182.0,4.0,wc_4,wc_3,0.0,"[('wc_4', 0.6500000000000005)]",0.6500000000000005,,,39.0,0.0041069999999999995,['Fail'],Fail,0.31000000000000016,0.6899999999999998,1.0,1.0,0.3
182.0,4.0,wc_4,,0.0,,,,141.0,,,,Fail,,,,,
182.0,4.0,wc_4,wc_12,0.0,"[('wc_4', 0.6500000000000005)]",0.6500000000000005,,,25.0,0.006191,['Fail'],Fail,0.4900000000000003,-0.24000000000000032,2.0,8.0,0.4
182.0,4.0,wc_4,,0.0,,,,0.0,,,,Fail,,,,,
182.0,4.0,wc_4,wc_16,0.0,"[('wc_16', 0.5400000000000004), ('wc_4', 0.6500000000000005)]",0.8390000000000004,,,22.0,0.008069,['Fail'],Fail,0.5400000000000004,-0.5400000000000004,0.0,5.0,0.6
182.0,4.0,wc_4,,0.0,,,,223.0,,,,Fail,,,,,
182.0,4.0,wc_4,wc_7,0.0,"[('wc_7', 0.6100000000000004), ('wc_3', 0.31000000000000016), ('wc_12', 0.4900000000000003)]",0.8627590000000003,,,27.0,0.012234,['Pass'],Fail,0.6100000000000004,-0.2766666666666671,1.0,3.0,0.6
182.0,4.0,wc_4,,0.0,,,,202.0,,,,Fail,,,,,
182.0,4.0,wc_4,wc_2,1.0,"[('wc_2', 0.5700000000000004), ('wc_4', 0.6500000000000005), ('wc_16', 0.5400000000000004)]",0.9307700000000002,,,31.0,0.040958,['Fail'],Fail,0.5700000000000004,-0.5700000000000004,0.0,0.0,0.5
205.0,4.0,wc_4,,0.0,,,,0.0,,,,Fail,,,,,
205.0,4.0,wc_4,,0.0,,,71.0,,,,,Fail,,,,,
205.0,4.0,wc_4,,0.0,,,,0.0,,,,Fail,,,,,
205.0,4.0,wc_4,wc_4,0.0,"[('wc_4', 0.6500000000000005)]",0.6500000000000005,,,29.0,0.002329,['Pass'],Fail,0.6500000000000005,-0.15000000000000047,1.0,2.0,0.7
205.0,4.0,wc_4,,0.0,,,,81.0,,,,Fail,,,,,
205.0,4.0,wc_4,wc_6,0.0,"[('wc_4', 0.6500000000000005)]",0.6500000000000005,,,27.0,0.004099,['Pass'],Fail,0.4800000000000003,-0.4800000000000003,0.0,0.0,0.5
205.0,4.0,wc_4,,0.0,,,,0.0,,,,Fail,,,,,
205.0,4.0,wc_4,wc_11,0.0,"[('wc_11', 0.3600000000000002), ('wc_4', 0.6500000000000005)]",0.7760000000000004,,,25.0,0.005986,['Pass'],Fail,0.3600000000000002,0.014999999999999791,3.0,8.0,0.2
205.0,4.0,wc_4,,0.0,,,,61.0,,,,Fail,,,,,
205.0,4.0,wc_4,wc_8,0.0,"[('wc_8', 0.6300000000000004), ('wc_6', 0.4800000000000003)]",0.8076000000000003,,,37.0,0.007901,['Fail'],Fail,0.6300000000000004,-0.13000000000000045,1.0,2.0,0.8
205.0,4.0,wc_4,,0.0,,,,223.0,,,,Fail,,,,,
205.0,4.0,wc_4,wc_17,1.0,"[('wc_17', 0.5700000000000004), ('wc_6', 0.4800000000000003), ('wc_8', 0.6300000000000004)]",0.9172680000000002,,,39.0,0.042106,['Fail'],Fail,0.5700000000000004,-0.5700000000000004,0.0,0.0,1.0
232.0,4.0,wc_4,,0.0,,,,382.0,,,,Fail,,,,,
232.0,4.0,wc_4,,0.0,,,65.0,,,,,Fail,,,,,
232.0,4.0,wc_4,,0.0,,,,0.0,,,,Fail,,,,,
232.0,4.0,wc_4,wc_4,0.0,"[('wc_4', 0.6400000000000005)]",0.6400000000000005,,,40.0,0.002113,['Fail'],Fail,0.6400000000000005,-0.30666666666666714,1.0,3.0,0.7
232.0,4.0,wc_4,,0.0,,,,81.0,,,,Fail,,,,,
232.0,4.0,wc_4,wc_2,0.0,"[('wc_2', 0.5700000000000004), ('wc_4', 0.6400000000000005)]",0.8452000000000004,,,33.0,0.004369,['Fail'],Fail,0.5700000000000004,-0.5700000000000004,0.0,1.0,0.5
232.0,4.0,wc_4,,0.0,,,,183.0,,,,Fail,,,,,
232.0,4.0,wc_4,wc_9,1.0,"[('wc_9', 0.5600000000000004), ('wc_4', 0.6400000000000005), ('wc_2', 0.5700000000000004)]",0.9318880000000003,,,28.0,0.035327,['Fail'],Fail,0.5600000000000004,-0.3100000000000004,2.0,8.0,0.6
272.0,4.0,wc_4,,0.0,,,,382.0,,,,Pass,,,,,
272.0,4.0,wc_4,,0.0,,,67.0,,,,,Pass,,,,,
272.0,4.0,wc_4,,0.0,,,,0.0,,,,Pass,,,,,
272.0,4.0,wc_4,wc_4,0.0,"[('wc_4', 0.6400000000000005)]",0.6400000000000005,,,20.0,0.002425,['Pass'],Pass,0.6400000000000005,-0.14000000000000046,2.0,4.0,0.7
272.0,4.0,wc_4,,0.0,,,,61.0,,,,Pass,,,,,
272.0,4.0,wc_4,wc_1,0.0,"[('wc_1', 0.2400000000000001), ('wc_4', 0.6400000000000005)]",0.7264000000000004,,,30.0,0.003869,['Pass'],Pass,0.2400000000000001,0.1349999999999999,3.0,8.0,0.1
272.0,4.0,wc_4,,0.0,,,,0.0,,,,Pass,,,,,
272.0,4.0,wc_4,wc_5,1.0,"[('wc_5', 0.7100000000000005), ('wc_4', 0.6400000000000005), ('wc_1', 0.2400000000000001)]",0.9206560000000003,,,38.0,0.04115,['Pass'],Pass,0.7100000000000005,-0.7100000000000005,0.0,0.0,1.0
302.0,3.0,wc_3,,0.0,,,,83.0,,,,Pass,,,,,
302.0,3.0,wc_3,,0.0,,,67.0,,,,,Pass,,,,,
302.0,3.0,wc_3,,0.0,,,,0.0,,,,Pass,,,,,
302.0,3.0,wc_3,wc_3,0.0,"[('wc_3', 0.31000000000000016)]",0.31000000000000016,,,32.0,0.002184,['Fail'],Pass,0.31000000000000016,-0.11000000000000015,1.0,5.0,0.3
302.0,3.0,wc_3,,0.0,,,,222.0,,,,Pass,,,,,
302.0,3.0,wc_3,wc_16,0.0,"[('wc_16', 0.5400000000000004)]",0.5400000000000004,,,28.0,0.004827,['Pass'],Pass,0.5400000000000004,-0.42888888888888926,1.0,9.0,0.6
302.0,3.0,wc_3,,0.0,,,,0.0,,,,Pass,,,,,
302.0,3.0,wc_3,wc_17,0.0,"[('wc_17', 0.5700000000000004), ('wc_16', 0.5400000000000004)]",0.8022000000000004,,,37.0,0.005889999999999999,['Pass'],Pass,0.5700000000000004,-0.5700000000000004,0.0,2.0,1.0
302.0,3.0,wc_3,,0.0,,,,342.0,,,,Pass,,,,,
302.0,3.0,wc_3,wc_10,0.0,"[('wc_10', 0.3400000000000002), ('wc_16', 0.5400000000000004), ('wc_17', 0.5700000000000004)]",0.8694520000000003,,,22.0,0.007844,['Pass'],Pass,0.3400000000000002,-0.19714285714285734,0.0,0.0,0.4
302.0,3.0,wc_3,,0.0,,,,223.0,,,,Pass,,,,,
302.0,3.0,wc_3,wc_1,0.0,"[('wc_16', 0.5400000000000004), ('wc_17', 0.5700000000000004), ('wc_10', 0.3400000000000002)]",0.8694520000000002,,,21.0,0.008909,['Pass'],Pass,0.2500000000000001,0.1944444444444443,4.0,9.0,0.1
302.0,3.0,wc_3,,0.0,,,,243.0,,,,Pass,,,,,
302.0,3.0,wc_3,wc_15,1.0,"[('wc_15', 0.2400000000000001), ('wc_16', 0.5400000000000004), ('wc_17', 0.5700000000000004), ('wc_10', 0.3400000000000002)]",0.9007835200000002,,,21.0,0.047356,['Pass'],Pass,0.2400000000000001,-0.2400000000000001,0.0,0.0,0.1
340.0,3.0,wc_3,,0.0,,,,402.0,,,,Fail,,,,,
340.0,3.0,wc_3,,0.0,,,58.0,,,,,Fail,,,,,
340.0,3.0,wc_3,,0.0,,,,0.0,,,,Fail,,,,,
340.0,3.0,wc_3,wc_3,0.0,"[('wc_3', 0.30000000000000016)]",0.30000000000000016,,,22.0,0.002424,['Pass'],Fail,0.30000000000000016,-0.1333333333333335,1.0,6.0,0.3
340.0,3.0,wc_3,,0.0,,,,162.0,,,,Fail,,,,,
340.0,3.0,wc_3,wc_9,0.0,"[('wc_9', 0.5600000000000004)]",0.5600000000000004,,,24.0,0.005167,['Fail'],Fail,0.5600000000000004,-0.3600000000000004,0.0,0.0,0.6
340.0,3.0,wc_3,,0.0,,,,382.0,,,,Fail,,,,,
340.0,3.0,wc_3,wc_4,0.0,"[('wc_4', 0.6400000000000005), ('wc_9', 0.5600000000000004)]",0.8416000000000003,,,38.0,0.007298000000000001,['Fail'],Fail,0.6400000000000005,-0.14000000000000046,3.0,6.0,0.7
340.0,3.0,wc_3,,0.0,,,,161.0,,,,Fail,,,,,
340.0,3.0,wc_3,wc_14,0.0,"[('wc_14', 0.19000000000000006), ('wc_9', 0.5600000000000004), ('wc_4', 0.6400000000000005)]",0.8716960000000002,,,40.0,0.008822,['Fail'],Fail,0.19000000000000006,-0.0025000000000000577,0.0,0.0,0.1
340.0,3.0,wc_3,,0.0,,,,321.0,,,,Fail,,,,,
340.0,3.0,wc_3,wc_11,1.0,"[('wc_11', 0.3500000000000002), ('wc_9', 0.5600000000000004), ('wc_4', 0.6400000000000005), ('wc_14', 0.19000000000000006)]",0.9166024000000002,,,24.0,0.04861,['Fail'],Fail,0.3500000000000002,-0.3500000000000002,0.0,0.0,0.2
382.0,3.0,wc_3,,0.0,,,,322.0,,,,Fail,,,,,
382.0,3.0,wc_3,,0.0,,,71.0,,,,,Fail,,,,,
382.0,3.0,wc_3,,0.0,,,,0.0,,,,Fail,,,,,
382.0,3.0,wc_3,wc_3,0.0,"[('wc_3', 0.29000000000000015)]",0.29000000000000015,,,23.0,0.00201,['Fail'],Fail,0.29000000000000015,-0.1471428571428573,1.0,7.0,0.3
382.0,3.0,wc_3,,0.0,,,,0.0,,,,Fail,,,,,
382.0,3.0,wc_3,wc_4,0.0,"[('wc_4', 0.6400000000000005)]",0.6400000000000005,,,26.0,0.004635,['Pass'],Fail,0.6400000000000005,-0.06857142857142906,4.0,7.0,0.7
382.0,3.0,wc_3,,0.0,,,,202.0,,,,Fail,,,,,
382.0,3.0,wc_3,wc_16,0.0,"[('wc_16', 0.5400000000000004), ('wc_3', 0.29000000000000015)]",0.6734000000000003,,,33.0,0.011128,['Fail'],Fail,0.5400000000000004,-0.5400000000000004,0.0,1.0,0.6
382.0,3.0,wc_3,,0.0,,,,61.0,,,,Fail,,,,,
382.0,3.0,wc_3,wc_13,0.0,"[('wc_13', 0.6100000000000004), ('wc_4', 0.6400000000000005)]",0.8596000000000004,,,28.0,0.010525,['Pass'],Fail,0.6100000000000004,-0.5100000000000005,0.0,0.0,0.5
382.0,3.0,wc_3,,0.0,,,,102.0,,,,Fail,,,,,
382.0,3.0,wc_3,wc_12,0.0,"[('wc_4', 0.6400000000000005), ('wc_13', 0.6100000000000004)]",0.8596000000000004,,,20.0,0.015399,['Pass'],Fail,0.4800000000000003,-0.33714285714285747,0.0,0.0,0.4
382.0,3.0,wc_3,,0.0,,,,401.0,,,,Fail,,,,,
382.0,3.0,wc_3,wc_5,1.0,"[('wc_5', 0.7100000000000005), ('wc_3', 0.29000000000000015), ('wc_16', 0.5400000000000004), ('wc_12', 0.4800000000000003)]",0.9507487200000002,,,37.0,0.05413900000000001,['Fail'],Fail,0.7100000000000005,-0.3766666666666672,1.0,3.0,1.0
425.0,3.0,wc_3,,0.0,,,,83.0,,,,Pass,,,,,
425.0,3.0,wc_3,,0.0,,,74.0,,,,,Pass,,,,,
425.0,3.0,wc_3,,0.0,,,,0.0,,,,Pass,,,,,
425.0,3.0,wc_3,wc_3,0.0,"[('wc_3', 0.29000000000000015)]",0.29000000000000015,,,28.0,0.002837,['Pass'],Pass,0.29000000000000015,-0.04000000000000015,2.0,8.0,0.3
425.0,3.0,wc_3,,0.0,,,,242.0,,,,Pass,,,,,
425.0,3.0,wc_3,wc_17,0.0,"[('wc_17', 0.5700000000000004), ('wc_3', 0.29000000000000015)]",0.6947000000000003,,,33.0,0.0049440000000000005,['Pass'],Pass,0.5700000000000004,-0.3700000000000004,1.0,5.0,1.0
425.0,3.0,wc_3,,0.0,,,,322.0,,,,Pass,,,,,
425.0,3.0,wc_3,wc_9,0.0,"[('wc_9', 0.5700000000000004), ('wc_3', 0.29000000000000015), ('wc_17', 0.5700000000000004)]",0.8687210000000003,,,28.0,0.006798,['Pass'],Pass,0.5700000000000004,-0.0700000000000004,1.0,2.0,0.6
425.0,3.0,wc_3,,0.0,,,,101.0,,,,Pass,,,,,
425.0,3.0,wc_3,wc_8,0.0,"[('wc_3', 0.29000000000000015), ('wc_17', 0.5700000000000004), ('wc_9', 0.5700000000000004)]",0.8687210000000003,,,31.0,0.008638999999999999,['Pass'],Pass,0.6400000000000005,-0.39000000000000046,2.0,8.0,0.8
425.0,3.0,wc_3,,0.0,,,,301.0,,,,Pass,,,,,
425.0,3.0,wc_3,wc_4,1.0,"[('wc_4', 0.6300000000000004), ('wc_3', 0.29000000000000015), ('wc_17', 0.5700000000000004), ('wc_9', 0.5700000000000004)]",0.9514267700000002,,,30.0,0.05055,['Pass'],Pass,0.6300000000000004,-0.07444444444444487,5.0,9.0,0.7
433.0,5.0,wc_5,,0.0,,,,0.0,,,,Pass,,,,,
433.0,5.0,wc_5,,0.0,,,66.0,,,,,Pass,,,,,
433.0,5.0,wc_5,,0.0,,,,0.0,,,,Pass,,,,,
433.0,5.0,wc_5,wc_5,0.0,"[('wc_5', 0.7100000000000005)]",0.7100000000000005,,,23.0,0.002323,['Pass'],Pass,0.7100000000000005,-0.4600000000000005,1.0,4.0,1.0
433.0,5.0,wc_5,,0.0,,,,101.0,,,,Pass,,,,,
433.0,5.0,wc_5,wc_12,0.0,"[('wc_12', 0.4900000000000003), ('wc_5', 0.7100000000000005)]",0.8521000000000003,,,22.0,0.003857,['Pass'],Pass,0.4900000000000003,0.009999999999999676,1.0,2.0,0.4
433.0,5.0,wc_5,,0.0,,,,0.0,,,,Pass,,,,,
433.0,5.0,wc_5,wc_13,1.0,"[('wc_13', 0.6000000000000004), ('wc_5', 0.7100000000000005), ('wc_12', 0.4900000000000003)]",0.9408400000000002,,,32.0,0.03863200000000001,['Pass'],Pass,0.6000000000000004,-0.2666666666666671,1.0,3.0,0.5
443.0,6.0,wc_6,,0.0,,,,162.0,,,,Fail,,,,,
443.0,6.0,wc_6,,0.0,,,52.0,,,,,Fail,,,,,
443.0,6.0,wc_6,,0.0,,,,0.0,,,,Fail,,,,,
443.0,6.0,wc_6,wc_6,0.0,"[('wc_6', 0.4900000000000003)]",0.4900000000000003,,,34.0,0.002444,['Pass'],Fail,0.4900000000000003,-0.3650000000000003,1.0,8.0,0.5
443.0,6.0,wc_6,,0.0,,,,341.0,,,,Fail,,,,,
443.0,6.0,wc_6,wc_4,0.0,"[('wc_4', 0.6300000000000004)]",0.6300000000000004,,,35.0,0.004345,['Fail'],Fail,0.6300000000000004,-0.13000000000000045,0.0,0.0,0.7
443.0,6.0,wc_6,,0.0,,,,161.0,,,,Fail,,,,,
443.0,6.0,wc_6,wc_14,0.0,"[('wc_14', 0.20000000000000007), ('wc_4', 0.6300000000000004)]",0.7040000000000004,,,23.0,0.005853,['Fail'],Fail,0.20000000000000007,0.04999999999999993,1.0,4.0,0.1
443.0,6.0,wc_6,,0.0,,,,0.0,,,,Fail,,,,,
443.0,6.0,wc_6,wc_17,0.0,"[('wc_17', 0.5700000000000004), ('wc_4', 0.6300000000000004), ('wc_14', 0.20000000000000007)]",0.8727200000000003,,,23.0,0.010366,['Fail'],Fail,0.5700000000000004,-0.2842857142857147,2.0,7.0,1.0
443.0,6.0,wc_6,,0.0,,,,203.0,,,,Fail,,,,,
443.0,6.0,wc_6,wc_7,1.0,"[('wc_7', 0.6000000000000004), ('wc_4', 0.6300000000000004), ('wc_14', 0.20000000000000007), ('wc_17', 0.5700000000000004)]",0.9490880000000002,,,20.0,0.043380999999999996,['Fail'],Fail,0.6000000000000004,-0.6000000000000004,0.0,0.0,0.6
468.0,6.0,wc_6,,0.0,,,,102.0,,,,Fail,,,,,
468.0,6.0,wc_6,,0.0,,,77.0,,,,,Fail,,,,,
468.0,6.0,wc_6,,0.0,,,,0.0,,,,Fail,,,,,
468.0,6.0,wc_6,wc_6,0.0,"[('wc_6', 0.4800000000000003)]",0.4800000000000003,,,36.0,0.002105,['Fail'],Fail,0.4800000000000003,-0.3688888888888892,1.0,9.0,0.5
468.0,6.0,wc_6,,0.0,,,,321.0,,,,Fail,,,,,
468.0,6.0,wc_6,wc_3,0.0,"[('wc_6', 0.4800000000000003)]",0.4800000000000003,,,35.0,0.004872,['Fail'],Fail,0.30000000000000016,-0.02727272727272745,0.0,0.0,0.3
468.0,6.0,wc_6,,0.0,,,,202.0,,,,Fail,,,,,
468.0,6.0,wc_6,wc_15,0.0,"[('wc_6', 0.4800000000000003)]",0.4800000000000003,,,25.0,0.007907,['Fail'],Fail,0.2400000000000001,-0.2400000000000001,0.0,5.0,0.1
468.0,6.0,wc_6,,0.0,,,,81.0,,,,Fail,,,,,
468.0,6.0,wc_6,wc_13,0.0,"[('wc_13', 0.6000000000000004), ('wc_3', 0.30000000000000016), ('wc_15', 0.2400000000000001)]",0.7872000000000003,,,34.0,0.009602,['Pass'],Fail,0.6000000000000004,-0.3500000000000004,1.0,4.0,0.5
468.0,6.0,wc_6,,0.0,,,,341.0,,,,Fail,,,,,
468.0,6.0,wc_6,wc_11,0.0,"[('wc_11', 0.3500000000000002), ('wc_3', 0.30000000000000016), ('wc_15', 0.2400000000000001), ('wc_13', 0.6000000000000004)]",0.8616800000000002,,,35.0,0.010187,['Pass'],Fail,0.3500000000000002,-0.3500000000000002,0.0,4.0,0.2
468.0,6.0,wc_6,,0.0,,,,83.0,,,,Fail,,,,,
468.0,6.0,wc_6,wc_9,0.0,"[('wc_3', 0.30000000000000016), ('wc_15', 0.2400000000000001), ('wc_13', 0.6000000000000004), ('wc_11', 0.3500000000000002)]",0.8616800000000002,,,32.0,0.011537,['Pass'],Fail,0.5800000000000004,-0.18000000000000038,2.0,5.0,0.6
468.0,6.0,wc_6,,0.0,,,,182.0,,,,Fail,,,,,
468.0,6.0,wc_6,wc_16,0.0,"[('wc_16', 0.5400000000000004), ('wc_6', 0.4800000000000003), ('wc_9', 0.5800000000000004)]",0.8995360000000002,,,37.0,0.012618999999999998,['Fail'],Fail,0.5400000000000004,-0.34000000000000036,1.0,5.0,0.6
468.0,6.0,wc_6,,0.0,,,,41.0,,,,Fail,,,,,
468.0,6.0,wc_6,wc_12,1.0,"[('wc_12', 0.5000000000000003), ('wc_3', 0.30000000000000016), ('wc_15', 0.2400000000000001), ('wc_13', 0.6000000000000004), ('wc_11', 0.3500000000000002)]",0.9308400000000001,,,38.0,0.05005,['Pass'],Fail,0.5100000000000003,0.08999999999999964,3.0,5.0,0.4
493.0,6.0,wc_6,,0.0,,,,182.0,,,,Pass,,,,,
493.0,6.0,wc_6,,0.0,,,65.0,,,,,Pass,,,,,
493.0,6.0,wc_6,,0.0,,,,0.0,,,,Pass,,,,,
493.0,6.0,wc_6,wc_6,0.0,"[('wc_6', 0.4700000000000003)]",0.4700000000000003,,,32.0,0.002,['Pass'],Pass,0.4700000000000003,-0.4700000000000003,0.0,0.0,0.5
493.0,6.0,wc_6,,0.0,,,,162.0,,,,Pass,,,,,
493.0,6.0,wc_6,wc_12,0.0,"[('wc_12', 0.5100000000000003), ('wc_6', 0.4700000000000003)]",0.7403000000000004,,,26.0,0.003883,['Pass'],Pass,0.5100000000000003,0.08999999999999964,3.0,5.0,0.4
493.0,6.0,wc_6,,0.0,,,,0.0,,,,Pass,,,,,
493.0,6.0,wc_6,wc_17,0.0,"[('wc_17', 0.5700000000000004), ('wc_6', 0.4700000000000003), ('wc_12', 0.5100000000000003)]",0.8883290000000003,,,35.0,0.0063479999999999995,['Pass'],Pass,0.5700000000000004,-0.23666666666666708,3.0,9.0,1.0
493.0,6.0,wc_6,,0.0,,,,41.0,,,,Pass,,,,,
493.0,6.0,wc_6,wc_13,1.0,"[('wc_13', 0.6000000000000004), ('wc_6', 0.4700000000000003), ('wc_12', 0.5100000000000003), ('wc_17', 0.5700000000000004)]",0.9553316000000002,,,37.0,0.042603999999999996,['Pass'],Pass,0.6000000000000004,-0.10000000000000042,3.0,6.0,0.5
499.0,8.0,wc_8,,0.0,,,,202.0,,,,Pass,,,,,
499.0,8.0,wc_8,,0.0,,,67.0,,,,,Pass,,,,,
499.0,8.0,wc_8,,0.0,,,,0.0,,,,Pass,,,,,
499.0,8.0,wc_8,wc_8,0.0,"[('wc_8', 0.6300000000000004)]",0.6300000000000004,,,37.0,0.002086,['Pass'],Pass,0.6300000000000004,-0.4761538461538466,0.0,0.0,0.8
499.0,8.0,wc_8,,0.0,,,,122.0,,,,Pass,,,,,
499.0,8.0,wc_8,wc_12,0.0,"[('wc_12', 0.5200000000000004), ('wc_8', 0.6300000000000004)]",0.8224000000000004,,,22.0,0.004567,['Pass'],Pass,0.5200000000000004,0.14666666666666628,4.0,6.0,0.4
499.0,8.0,wc_8,,0.0,,,,381.0,,,,Pass,,,,,
499.0,8.0,wc_8,wc_4,1.0,"[('wc_4', 0.6400000000000005), ('wc_8', 0.6300000000000004), ('wc_12', 0.5200000000000004)]",0.9360640000000002,,,20.0,0.042556,['Pass'],Pass,0.6400000000000005,-0.14000000000000046,2.0,4.0,0.7
505.0,10.0,wc_10,,0.0,,,,162.0,,,,Fail,,,,,
505.0,10.0,wc_10,,0.0,,,63.0,,,,,Fail,,,,,
505.0,10.0,wc_10,,0.0,,,,0.0,,,,Fail,,,,,
505.0,10.0,wc_10,wc_10,0.0,"[('wc_10', 0.3500000000000002)]",0.3500000000000002,,,27.0,0.002412,['Pass'],Fail,0.3500000000000002,-0.2388888888888891,1.0,9.0,0.4
505.0,10.0,wc_10,,0.0,,,,41.0,,,,Fail,,,,,
505.0,10.0,wc_10,wc_6,0.0,"[('wc_6', 0.4800000000000003)]",0.4800000000000003,,,31.0,0.004183,['Fail'],Fail,0.4800000000000003,0.019999999999999685,1.0,2.0,0.5
505.0,10.0,wc_10,,0.0,,,,341.0,,,,Fail,,,,,
505.0,10.0,wc_10,wc_4,0.0,"[('wc_4', 0.6400000000000005), ('wc_6', 0.4800000000000003)]",0.8128000000000004,,,29.0,0.005823,['Fail'],Fail,0.6400000000000005,-0.14000000000000046,2.0,4.0,0.7
505.0,10.0,wc_10,,0.0,,,,202.0,,,,Fail,,,,,
505.0,10.0,wc_10,wc_16,1.0,"[('wc_16', 0.5300000000000004), ('wc_6', 0.4800000000000003), ('wc_4', 0.6400000000000005)]",0.9120160000000003,,,28.0,0.043496999999999994,['Fail'],Fail,0.5300000000000004,-0.30777777777777815,2.0,9.0,0.6
509.0,11.0,wc_11,,0.0,,,,382.0,,,,Pass,,,,,
509.0,11.0,wc_11,,0.0,,,64.0,,,,,Pass,,,,,
509.0,11.0,wc_11,,0.0,,,,0.0,,,,Pass,,,,,
509.0,11.0,wc_11,wc_11,0.0,"[('wc_11', 0.3500000000000002)]",0.3500000000000002,,,25.0,0.002637,['Pass'],Pass,0.3500000000000002,-0.2250000000000002,1.0,8.0,0.2
509.0,11.0,wc_11,,0.0,,,,81.0,,,,Pass,,,,,
509.0,11.0,wc_11,wc_13,0.0,"[('wc_13', 0.6000000000000004), ('wc_11', 0.3500000000000002)]",0.7400000000000004,,,40.0,0.004001,['Pass'],Pass,0.6000000000000004,-0.22500000000000042,3.0,8.0,0.5
509.0,11.0,wc_11,,0.0,,,,301.0,,,,Pass,,,,,
509.0,11.0,wc_11,wc_9,0.0,"[('wc_9', 0.5700000000000004), ('wc_11', 0.3500000000000002), ('wc_13', 0.6000000000000004)]",0.8882000000000003,,,34.0,0.007998,['Pass'],Pass,0.5700000000000004,-0.3477777777777782,2.0,9.0,0.6
509.0,11.0,wc_11,,0.0,,,,402.0,,,,Pass,,,,,
509.0,11.0,wc_11,wc_5,1.0,"[('wc_5', 0.7100000000000005), ('wc_11', 0.3500000000000002), ('wc_13', 0.6000000000000004), ('wc_9', 0.5700000000000004)]",0.9675780000000002,,,20.0,0.041298,['Pass'],Pass,0.7100000000000005,-0.7100000000000005,0.0,0.0,1.0
519.0,10.0,wc_10,,0.0,,,,142.0,,,,Pass,,,,,
519.0,10.0,wc_10,,0.0,,,79.0,,,,,Pass,,,,,
519.0,10.0,wc_10,,0.0,,,,0.0,,,,Pass,,,,,
519.0,10.0,wc_10,wc_10,0.0,"[('wc_10', 0.3400000000000002)]",0.3400000000000002,,,37.0,0.002446,['Fail'],Pass,0.3400000000000002,-0.3400000000000002,0.0,1.0,0.4
519.0,10.0,wc_10,,0.0,,,,243.0,,,,Pass,,,,,
519.0,10.0,wc_10,wc_2,0.0,"[('wc_2', 0.5700000000000004)]",0.5700000000000004,,,25.0,0.004247,['Pass'],Pass,0.5700000000000004,-0.498571428571429,0.0,0.0,0.5
519.0,10.0,wc_10,,0.0,,,,162.0,,,,Pass,,,,,
519.0,10.0,wc_10,wc_8,0.0,"[('wc_8', 0.6400000000000005), ('wc_2', 0.5700000000000004)]",0.8452000000000004,,,27.0,0.005811,['Pass'],Pass,0.6400000000000005,-0.30666666666666714,1.0,3.0,0.8
519.0,10.0,wc_10,,0.0,,,,122.0,,,,Pass,,,,,
519.0,10.0,wc_10,wc_12,1.0,"[('wc_12', 0.5300000000000004), ('wc_2', 0.5700000000000004), ('wc_8', 0.6400000000000005)]",0.9272440000000002,,,28.0,0.045056,['Pass'],Pass,0.5400000000000004,-0.5400000000000004,0.0,0.0,0.4
529.0,9.0,wc_9,,0.0,,,,321.0,,,,Fail,,,,,
529.0,9.0,wc_9,,0.0,,,58.0,,,,,Fail,,,,,
529.0,9.0,wc_9,,0.0,,,,0.0,,,,Fail,,,,,
529.0,9.0,wc_9,wc_9,0.0,"[('wc_9', 0.5700000000000004)]",0.5700000000000004,,,27.0,0.002536,['Fail'],Fail,0.5700000000000004,-0.5700000000000004,0.0,1.0,0.6
529.0,9.0,wc_9,,0.0,,,,0.0,,,,Fail,,,,,
529.0,9.0,wc_9,wc_11,0.0,"[('wc_11', 0.3500000000000002), ('wc_9', 0.5700000000000004)]",0.7205000000000004,,,32.0,0.00442,['Fail'],Fail,0.3500000000000002,-0.1500000000000002,0.0,0.0,0.2
529.0,9.0,wc_9,,0.0,,,,162.0,,,,Fail,,,,,
529.0,9.0,wc_9,wc_17,0.0,"[('wc_17', 0.5700000000000004), ('wc_9', 0.5700000000000004), ('wc_11', 0.3500000000000002)]",0.8798150000000002,,,20.0,0.006158,['Fail'],Fail,0.5700000000000004,-0.5700000000000004,0.0,4.0,1.0
529.0,9.0,wc_9,,0.0,,,,243.0,,,,Fail,,,,,
529.0,9.0,wc_9,wc_1,1.0,"[('wc_1', 0.2500000000000001), ('wc_9', 0.5700000000000004), ('wc_11', 0.3500000000000002), ('wc_17', 0.5700000000000004)]",0.9098612500000002,,,27.0,0.040859,['Fail'],Fail,0.2500000000000001,-0.2500000000000001,0.0,0.0,0.1
537.0,7.0,wc_7,,0.0,,,,162.0,,,,Fail,,,,,
537.0,7.0,wc_7,,0.0,,,70.0,,,,,Fail,,,,,
537.0,7.0,wc_7,,0.0,,,,0.0,,,,Fail,,,,,
537.0,7.0,wc_7,wc_7,0.0,"[('wc_7', 0.6000000000000004)]",0.6000000000000004,,,40.0,0.002357,['Fail'],Fail,0.6000000000000004,-0.6000000000000004,0.0,7.0,0.6
537.0,7.0,wc_7,,0.0,,,,202.0,,,,Fail,,,,,
537.0,7.0,wc_7,wc_2,0.0,"[('wc_2', 0.5800000000000004), ('wc_7', 0.6000000000000004)]",0.8320000000000003,,,27.0,0.004398,['Fail'],Fail,0.5800000000000004,-0.0800000000000004,1.0,2.0,0.5
537.0,7.0,wc_7,,0.0,,,,223.0,,,,Fail,,,,,
537.0,7.0,wc_7,wc_15,0.0,"[('wc_15', 0.2400000000000001), ('wc_7', 0.6000000000000004), ('wc_2', 0.5800000000000004)]",0.8723200000000002,,,25.0,0.006051000000000001,['Fail'],Fail,0.2400000000000001,-0.1566666666666668,0.0,0.0,0.1
537.0,7.0,wc_7,,0.0,,,,0.0,,,,Fail,,,,,
537.0,7.0,wc_7,wc_16,1.0,"[('wc_16', 0.5300000000000004), ('wc_7', 0.6000000000000004), ('wc_2', 0.5800000000000004), ('wc_15', 0.2400000000000001)]",0.9399904000000002,,,35.0,0.040154,['Fail'],Fail,0.5300000000000004,-0.5300000000000004,0.0,0.0,0.6
545.0,7.0,wc_7,,0.0,,,,223.0,,,,Pass,,,,,
545.0,7.0,wc_7,,0.0,,,56.0,,,,,Pass,,,,,
545.0,7.0,wc_7,,0.0,,,,0.0,,,,Pass,,,,,
545.0,7.0,wc_7,wc_7,0.0,"[('wc_7', 0.6000000000000004)]",0.6000000000000004,,,20.0,0.002257,['Pass'],Pass,0.6000000000000004,-0.4750000000000004,1.0,8.0,0.6
545.0,7.0,wc_7,,0.0,,,,182.0,,,,Pass,,,,,
545.0,7.0,wc_7,wc_14,0.0,"[('wc_7', 0.6000000000000004)]",0.6000000000000004,,,36.0,0.004376,['Pass'],Pass,0.21000000000000008,-0.05615384615384622,0.0,0.0,0.1
545.0,7.0,wc_7,,0.0,,,,0.0,,,,Pass,,,,,
545.0,7.0,wc_7,wc_15,0.0,"[('wc_7', 0.6000000000000004)]",0.6000000000000004,,,31.0,0.006306,['Pass'],Pass,0.2500000000000001,0.7499999999999999,1.0,1.0,0.1
545.0,7.0,wc_7,,0.0,,,,402.0,,,,Pass,,,,,
545.0,7.0,wc_7,wc_3,0.0,"[('wc_3', 0.31000000000000016), ('wc_7', 0.6000000000000004)]",0.7240000000000004,,,33.0,0.007584,['Pass'],Pass,0.31000000000000016,-0.18500000000000016,1.0,8.0,0.3
545.0,7.0,wc_7,,0.0,,,,202.0,,,,Pass,,,,,
545.0,7.0,wc_7,wc_11,0.0,"[('wc_11', 0.3600000000000002), ('wc_7', 0.6000000000000004), ('wc_3', 0.31000000000000016)]",0.8233600000000003,,,29.0,0.009115,['Pass'],Pass,0.3600000000000002,0.1399999999999998,1.0,2.0,0.2
545.0,7.0,wc_7,,0.0,,,,162.0,,,,Pass,,,,,
545.0,7.0,wc_7,wc_17,1.0,"[('wc_17', 0.5700000000000004), ('wc_7', 0.6000000000000004), ('wc_3', 0.31000000000000016), ('wc_11', 0.3600000000000002)]",0.9240448000000002,,,27.0,0.046727,['Pass'],Pass,0.5700000000000004,-0.2842857142857147,2.0,7.0,1.0
555.0,9.0,wc_9,,0.0,,,,322.0,,,,Fail,,,,,
555.0,9.0,wc_9,,0.0,,,69.0,,,,,Fail,,,,,
555.0,9.0,wc_9,,0.0,,,,0.0,,,,Fail,,,,,
555.0,9.0,wc_9,wc_9,0.0,"[('wc_9', 0.5700000000000004)]",0.5700000000000004,,,28.0,0.002489,['Fail'],Fail,0.5700000000000004,-0.3200000000000004,1.0,4.0,0.6
555.0,9.0,wc_9,,0.0,,,,0.0,,,,Fail,,,,,
555.0,9.0,wc_9,wc_11,0.0,"[('wc_11', 0.3700000000000002), ('wc_9', 0.5700000000000004)]",0.7291000000000003,,,25.0,0.004616,['Fail'],Fail,0.3700000000000002,0.2966666666666664,2.0,3.0,0.2
555.0,9.0,wc_9,,0.0,,,,103.0,,,,Fail,,,,,
555.0,9.0,wc_9,wc_10,0.0,"[('wc_10', 0.3300000000000002), ('wc_9', 0.5700000000000004), ('wc_11', 0.3700000000000002)]",0.8184970000000003,,,27.0,0.0057929999999999995,['Fail'],Fail,0.3300000000000002,-0.3300000000000002,0.0,5.0,0.4
555.0,9.0,wc_9,,0.0,,,,243.0,,,,Fail,,,,,
555.0,9.0,wc_9,wc_2,1.0,"[('wc_2', 0.5900000000000004), ('wc_9', 0.5700000000000004), ('wc_11', 0.3700000000000002), ('wc_10', 0.3300000000000002)]",0.9255837700000002,,,39.0,0.041426,['Fail'],Fail,0.5900000000000004,0.009999999999999565,3.0,5.0,0.5
568.0,9.0,wc_9,,0.0,,,,183.0,,,,Pass,,,,,
568.0,9.0,wc_9,,0.0,,,67.0,,,,,Pass,,,,,
568.0,9.0,wc_9,,0.0,,,,0.0,,,,Pass,,,,,
568.0,9.0,wc_9,wc_9,0.0,"[('wc_9', 0.5700000000000004)]",0.5700000000000004,,,30.0,0.002302,['Pass'],Pass,0.5700000000000004,-0.17000000000000037,2.0,5.0,0.6
568.0,9.0,wc_9,,0.0,,,,0.0,,,,Pass,,,,,
568.0,9.0,wc_9,wc_10,0.0,"[('wc_10', 0.3300000000000002), ('wc_9', 0.5700000000000004)]",0.7119000000000004,,,35.0,0.004093,['Pass'],Pass,0.3300000000000002,-0.16333333333333352,1.0,6.0,0.4
568.0,9.0,wc_9,,0.0,,,,223.0,,,,Pass,,,,,
568.0,9.0,wc_9,wc_1,0.0,"[('wc_9', 0.5700000000000004), ('wc_10', 0.3300000000000002)]",0.7119000000000004,,,31.0,0.006352,['Pass'],Pass,0.2500000000000001,-0.2500000000000001,0.0,3.0,0.1
568.0,9.0,wc_9,,0.0,,,,202.0,,,,Pass,,,,,
568.0,9.0,wc_9,wc_13,0.0,"[('wc_13', 0.6000000000000004), ('wc_9', 0.5700000000000004), ('wc_10', 0.3300000000000002)]",0.8847600000000002,,,39.0,0.008074999999999999,['Pass'],Pass,0.6000000000000004,-0.3142857142857147,0.0,0.0,0.5
568.0,9.0,wc_9,,0.0,,,,162.0,,,,Pass,,,,,
568.0,9.0,wc_9,wc_6,0.0,"[('wc_9', 0.5700000000000004), ('wc_10', 0.3300000000000002), ('wc_13', 0.6000000000000004)]",0.8847600000000002,,,39.0,0.012483,['Pass'],Pass,0.4900000000000003,-0.2677777777777781,2.0,9.0,0.5
568.0,9.0,wc_9,,0.0,,,,222.0,,,,Pass,,,,,
568.0,9.0,wc_9,wc_2,0.0,"[('wc_9', 0.5700000000000004), ('wc_10', 0.3300000000000002), ('wc_13', 0.6000000000000004)]",0.8847600000000002,,,37.0,0.017071999999999997,['Pass'],Pass,0.5900000000000004,0.009999999999999565,3.0,5.0,0.5
568.0,9.0,wc_9,,0.0,,,,0.0,,,,Pass,,,,,
568.0,9.0,wc_9,wc_5,1.0,"[('wc_5', 0.7100000000000005), ('wc_1', 0.2500000000000001), ('wc_6', 0.4900000000000003), ('wc_2', 0.5900000000000004)]",0.9545207500000001,,,33.0,0.047588,['Fail'],Pass,0.7100000000000005,-0.5433333333333339,1.0,6.0,1.0
574.0,12.0,wc_12,,0.0,,,,101.0,,,,Fail,,,,,
574.0,12.0,wc_12,,0.0,,,69.0,,,,,Fail,,,,,
574.0,12.0,wc_12,,0.0,,,,0.0,,,,Fail,,,,,
574.0,12.0,wc_12,wc_12,0.0,"[('wc_12', 0.5400000000000004)]",0.5400000000000004,,,35.0,0.002112,['Pass'],Fail,0.5400000000000004,-0.5400000000000004,0.0,5.0,0.4
574.0,12.0,wc_12,,0.0,,,,0.0,,,,Fail,,,,,
574.0,12.0,wc_12,wc_16,0.0,"[('wc_12', 0.5400000000000004)]",0.5400000000000004,,,34.0,0.00412,['Pass'],Fail,0.5300000000000004,-0.5300000000000004,0.0,3.0,0.6
574.0,12.0,wc_12,,0.0,,,,0.0,,,,Fail,,,,,
574.0,12.0,wc_12,wc_17,0.0,"[('wc_17', 0.5700000000000004), ('wc_16', 0.5300000000000004)]",0.7979000000000003,,,32.0,0.005967999999999999,['Fail'],Fail,0.5700000000000004,-0.3477777777777782,2.0,9.0,1.0
574.0,12.0,wc_12,,0.0,,,,402.0,,,,Fail,,,,,
574.0,12.0,wc_12,wc_5,1.0,"[('wc_5', 0.7100000000000005), ('wc_16', 0.5300000000000004), ('wc_17', 0.5700000000000004)]",0.9413910000000002,,,24.0,0.04333599999999999,['Fail'],Fail,0.7100000000000005,-0.4242857142857148,2.0,7.0,1.0
579.0,12.0,wc_12,,0.0,,,,101.0,,,,Pass,,,,,
579.0,12.0,wc_12,,0.0,,,55.0,,,,,Pass,,,,,
579.0,12.0,wc_12,,0.0,,,,0.0,,,,Pass,,,,,
579.0,12.0,wc_12,wc_12,0.0,"[('wc_12', 0.5300000000000004)]",0.5300000000000004,,,22.0,0.002198,['Fail'],Pass,0.5300000000000004,-0.5300000000000004,0.0,6.0,0.4
579.0,12.0,wc_12,,0.0,,,,182.0,,,,Pass,,,,,
579.0,12.0,wc_12,wc_6,0.0,"[('wc_12', 0.5300000000000004)]",0.5300000000000004,,,30.0,0.004153,['Fail'],Pass,0.4900000000000003,-0.4900000000000003,0.0,1.0,0.5
579.0,12.0,wc_12,,0.0,,,,321.0,,,,Pass,,,,,
579.0,12.0,wc_12,wc_3,0.0,"[('wc_3', 0.31000000000000016), ('wc_6', 0.4900000000000003)]",0.6481000000000003,,,40.0,0.0060160000000000005,['Pass'],Pass,0.31000000000000016,-0.1433333333333335,0.0,0.0,0.3
579.0,12.0,wc_12,,0.0,,,,242.0,,,,Pass,,,,,
579.0,12.0,wc_12,wc_17,0.0,"[('wc_17', 0.5700000000000004), ('wc_6', 0.4900000000000003), ('wc_3', 0.31000000000000016)]",0.8486830000000003,,,31.0,0.007961,['Pass'],Pass,0.5700000000000004,-0.5700000000000004,0.0,0.0,1.0
579.0,12.0,wc_12,,0.0,,,,203.0,,,,Pass,,,,,
579.0,12.0,wc_12,wc_7,1.0,"[('wc_7', 0.6000000000000004), ('wc_6', 0.4900000000000003), ('wc_3', 0.31000000000000016), ('wc_17', 0.5700000000000004)]",0.9394732000000001,,,34.0,0.050885999999999994,['Pass'],Pass,0.6000000000000004,-0.6000000000000004,0.0,0.0,0.6
586.0,13.0,wc_13,,0.0,,,,162.0,,,,Fail,,,,,
586.0,13.0,wc_13,,0.0,,,56.0,,,,,Fail,,,,,
586.0,13.0,wc_13,,0.0,,,,0.0,,,,Fail,,,,,
586.0,13.0,wc_13,wc_13,0.0,"[('wc_13', 0.5900000000000004)]",0.5900000000000004,,,22.0,0.002235,['Fail'],Fail,0.5900000000000004,-0.5900000000000004,0.0,3.0,0.5
586.0,13.0,wc_13,,0.0,,,,341.0,,,,Fail,,,,,
586.0,13.0,wc_13,wc_3,0.0,"[('wc_3', 0.3200000000000002), ('wc_13', 0.5900000000000004)]",0.7212000000000003,,,40.0,0.0043289999999999995,['Fail'],Fail,0.3200000000000002,0.6799999999999998,1.0,1.0,0.3
586.0,13.0,wc_13,,0.0,,,,0.0,,,,Fail,,,,,
586.0,13.0,wc_13,wc_5,1.0,"[('wc_5', 0.7100000000000005), ('wc_13', 0.5900000000000004), ('wc_3', 0.3200000000000002)]",0.9191480000000003,,,38.0,0.04578,['Fail'],Fail,0.7100000000000005,-0.3766666666666672,3.0,9.0,1.0
592.0,13.0,wc_13,,0.0,,,,121.0,,,,Pass,,,,,
592.0,13.0,wc_13,,0.0,,,70.0,,,,,Pass,,,,,
592.0,13.0,wc_13,,0.0,,,,0.0,,,,Pass,,,,,
592.0,13.0,wc_13,wc_13,0.0,"[('wc_13', 0.5900000000000004)]",0.5900000000000004,,,38.0,0.002099,['Fail'],Pass,0.5900000000000004,-0.3400000000000004,1.0,4.0,0.5
592.0,13.0,wc_13,,0.0,,,,0.0,,,,Pass,,,,,
592.0,13.0,wc_13,wc_17,0.0,"[('wc_13', 0.5900000000000004)]",0.5900000000000004,,,28.0,0.004047,['Fail'],Pass,0.5800000000000004,-0.0800000000000004,1.0,2.0,1.0
592.0,13.0,wc_13,,0.0,,,,203.0,,,,Pass,,,,,
592.0,13.0,wc_13,wc_7,0.0,"[('wc_7', 0.6000000000000004), ('wc_17', 0.5800000000000004)]",0.8320000000000003,,,33.0,0.005968,['Pass'],Pass,0.6000000000000004,-0.6000000000000004,0.0,1.0,0.6
592.0,13.0,wc_13,,0.0,,,,202.0,,,,Pass,,,,,
592.0,13.0,wc_13,wc_2,0.0,"[('wc_2', 0.6000000000000004), ('wc_13', 0.5900000000000004)]",0.8360000000000003,,,38.0,0.007799,['Fail'],Pass,0.6000000000000004,-0.155555555555556,4.0,9.0,0.5
592.0,13.0,wc_13,,0.0,,,,162.0,,,,Pass,,,,,
592.0,13.0,wc_13,wc_12,1.0,"[('wc_12', 0.5200000000000004), ('wc_17', 0.5800000000000004), ('wc_7', 0.6000000000000004)]",0.9193600000000002,,,34.0,0.048959,['Pass'],Pass,0.5200000000000004,-0.40888888888888925,1.0,9.0,0.4
598.0,14.0,wc_14,,0.0,,,,0.0,,,,Fail,,,,,
598.0,14.0,wc_14,,0.0,,,58.0,,,,,Fail,,,,,
598.0,14.0,wc_14,,0.0,,,,0.0,,,,Fail,,,,,
598.0,14.0,wc_14,wc_14,0.0,"[('wc_14', 0.20000000000000007)]",0.20000000000000007,,,36.0,0.00223,['Fail'],Fail,0.20000000000000007,-0.20000000000000007,0.0,7.0,0.1
598.0,14.0,wc_14,,0.0,,,,0.0,,,,Fail,,,,,
598.0,14.0,wc_14,wc_16,0.0,"[('wc_16', 0.5300000000000004)]",0.5300000000000004,,,25.0,0.00424,['Pass'],Fail,0.5300000000000004,-0.3871428571428575,1.0,7.0,0.6
598.0,14.0,wc_14,,0.0,,,,203.0,,,,Fail,,,,,
598.0,14.0,wc_14,wc_6,0.0,"[('wc_6', 0.4900000000000003), ('wc_14', 0.20000000000000007)]",0.5920000000000003,,,25.0,0.0057929999999999995,['Fail'],Fail,0.4900000000000003,-0.24000000000000032,1.0,4.0,0.5
598.0,14.0,wc_14,,0.0,,,,0.0,,,,Fail,,,,,
598.0,14.0,wc_14,wc_7,0.0,"[('wc_7', 0.6000000000000004), ('wc_16', 0.5300000000000004)]",0.8120000000000003,,,39.0,0.007448,['Pass'],Fail,0.6000000000000004,-0.10000000000000042,1.0,2.0,0.6
598.0,14.0,wc_14,,0.0,,,,162.0,,,,Fail,,,,,
598.0,14.0,wc_14,wc_13,0.0,"[('wc_13', 0.5800000000000004), ('wc_14', 0.20000000000000007), ('wc_6', 0.4900000000000003)]",0.8286400000000003,,,24.0,0.010274,['Fail'],Fail,0.5800000000000004,-0.3800000000000004,1.0,5.0,0.5
598.0,14.0,wc_14,,0.0,,,,0.0,,,,Fail,,,,,
598.0,14.0,wc_14,wc_17,1.0,"[('wc_17', 0.5900000000000004), ('wc_14', 0.20000000000000007), ('wc_6', 0.4900000000000003), ('wc_13', 0.5800000000000004)]",0.9297424000000002,,,35.0,0.046206,['Fail'],Fail,0.6000000000000004,0.14999999999999958,3.0,4.0,1.0
603.0,16.0,wc_16,,0.0,,,,103.0,,,,Pass,,,,,
603.0,16.0,wc_16,,0.0,,,54.0,,,,,Pass,,,,,
603.0,16.0,wc_16,,0.0,,,,0.0,,,,Pass,,,,,
603.0,16.0,wc_16,wc_16,0.0,"[('wc_16', 0.5200000000000004)]",0.5200000000000004,,,29.0,0.002273,['Pass'],Pass,0.5200000000000004,-0.39500000000000035,1.0,8.0,0.6
603.0,16.0,wc_16,,0.0,,,,283.0,,,,Pass,,,,,
603.0,16.0,wc_16,wc_2,0.0,"[('wc_2', 0.5900000000000004), ('wc_16', 0.5200000000000004)]",0.8032000000000004,,,23.0,0.003568,['Pass'],Pass,0.5900000000000004,-0.5900000000000004,0.0,1.0,0.5
603.0,16.0,wc_16,,0.0,,,,223.0,,,,Pass,,,,,
603.0,16.0,wc_16,wc_11,0.0,"[('wc_16', 0.5200000000000004), ('wc_2', 0.5900000000000004)]",0.8032000000000004,,,24.0,0.005568,['Pass'],Pass,0.3800000000000002,-0.08000000000000024,0.0,0.0,0.2
603.0,16.0,wc_16,,0.0,,,,41.0,,,,Pass,,,,,
603.0,16.0,wc_16,wc_7,0.0,"[('wc_16', 0.5200000000000004), ('wc_2', 0.5900000000000004)]",0.8032000000000004,,,34.0,0.007516999999999999,['Pass'],Pass,0.5900000000000004,-0.2566666666666671,1.0,3.0,0.6
603.0,16.0,wc_16,,0.0,,,,182.0,,,,Pass,,,,,
603.0,16.0,wc_16,wc_1,0.0,"[('wc_1', 0.2500000000000001), ('wc_16', 0.5200000000000004), ('wc_2', 0.5900000000000004)]",0.8524000000000003,,,29.0,0.009118000000000001,['Pass'],Pass,0.2500000000000001,-0.138888888888889,1.0,9.0,0.1
603.0,16.0,wc_16,,0.0,,,,203.0,,,,Pass,,,,,
603.0,16.0,wc_16,wc_9,1.0,"[('wc_9', 0.5600000000000004), ('wc_16', 0.5200000000000004), ('wc_2', 0.5900000000000004), ('wc_1', 0.2500000000000001)]",0.9350560000000002,,,21.0,0.04897699999999999,['Pass'],Pass,0.5600000000000004,-0.5600000000000004,0.0,0.0,0.6
614.0,15.0,wc_15,,0.0,,,,162.0,,,,Pass,,,,,
614.0,15.0,wc_15,,0.0,,,64.0,,,,,Pass,,,,,
614.0,15.0,wc_15,,0.0,,,,0.0,,,,Pass,,,,,
614.0,15.0,wc_15,wc_15,0.0,"[('wc_15', 0.2500000000000001)]",0.2500000000000001,,,30.0,0.00228,['Pass'],Pass,0.2500000000000001,-0.1500000000000001,0.0,0.0,0.1
614.0,15.0,wc_15,,0.0,,,,0.0,,,,Pass,,,,,
614.0,15.0,wc_15,wc_17,0.0,"[('wc_17', 0.6000000000000004), ('wc_15', 0.2500000000000001)]",0.7000000000000004,,,21.0,0.004418,['Pass'],Pass,0.6000000000000004,-4.440892098500626e-16,3.0,5.0,1.0
614.0,15.0,wc_15,,0.0,,,,223.0,,,,Pass,,,,,
614.0,15.0,wc_15,wc_8,0.0,"[('wc_8', 0.6400000000000005), ('wc_15', 0.2500000000000001), ('wc_17', 0.6000000000000004)]",0.8920000000000002,,,21.0,0.005773,['Pass'],Pass,0.6400000000000005,-0.5066666666666672,0.0,0.0,0.8
614.0,15.0,wc_15,,0.0,,,,182.0,,,,Pass,,,,,
614.0,15.0,wc_15,wc_2,0.0,"[('wc_15', 0.2500000000000001), ('wc_17', 0.6000000000000004), ('wc_8', 0.6400000000000005)]",0.8920000000000002,,,21.0,0.007837,['Pass'],Pass,0.5900000000000004,-0.09000000000000041,1.0,2.0,0.5
614.0,15.0,wc_15,,0.0,,,,203.0,,,,Pass,,,,,
614.0,15.0,wc_15,wc_10,1.0,"[('wc_10', 0.3200000000000002), ('wc_15', 0.2500000000000001), ('wc_17', 0.6000000000000004), ('wc_8', 0.6400000000000005)]",0.9265600000000002,,,38.0,0.04356600000000001,['Pass'],Pass,0.3200000000000002,-0.3200000000000002,0.0,0.0,0.4
619.0,14.0,wc_14,,0.0,,,,121.0,,,,Fail,,,,,
619.0,14.0,wc_14,,0.0,,,52.0,,,,,Fail,,,,,
619.0,14.0,wc_14,,0.0,,,,0.0,,,,Fail,,,,,
619.0,14.0,wc_14,wc_14,0.0,"[('wc_14', 0.20000000000000007)]",0.20000000000000007,,,24.0,0.002325,['Pass'],Fail,0.20000000000000007,-0.10000000000000006,0.0,0.0,0.1
619.0,14.0,wc_14,,0.0,,,,281.0,,,,Fail,,,,,
619.0,14.0,wc_14,wc_9,0.0,"[('wc_9', 0.5600000000000004), ('wc_14', 0.20000000000000007)]",0.6480000000000004,,,35.0,0.004066,['Pass'],Fail,0.5600000000000004,-0.5600000000000004,0.0,1.0,0.6
619.0,14.0,wc_14,,0.0,,,,243.0,,,,Fail,,,,,
619.0,14.0,wc_14,wc_1,0.0,"[('wc_14', 0.20000000000000007), ('wc_9', 0.5600000000000004)]",0.6480000000000004,,,30.0,0.0071730000000000006,['Pass'],Fail,0.2500000000000001,-0.2500000000000001,0.0,1.0,0.1
619.0,14.0,wc_14,,0.0,,,,263.0,,,,Fail,,,,,
619.0,14.0,wc_14,wc_16,0.0,"[('wc_14', 0.20000000000000007), ('wc_9', 0.5600000000000004)]",0.6480000000000004,,,30.0,0.007705999999999999,['Pass'],Fail,0.5200000000000004,-0.32000000000000034,0.0,0.0,0.6
619.0,14.0,wc_14,,0.0,,,,382.0,,,,Fail,,,,,
619.0,14.0,wc_14,wc_11,0.0,"[('wc_11', 0.3700000000000002), ('wc_14', 0.20000000000000007), ('wc_9', 0.5600000000000004)]",0.7782400000000003,,,40.0,0.009510000000000001,['Pass'],Fail,0.3700000000000002,-0.3700000000000002,0.0,2.0,0.2
619.0,14.0,wc_14,,0.0,,,,103.0,,,,Fail,,,,,
619.0,14.0,wc_14,wc_10,0.0,"[('wc_10', 0.3200000000000002), ('wc_14', 0.20000000000000007), ('wc_9', 0.5600000000000004), ('wc_11', 0.3700000000000002)]",0.8492032000000003,,,37.0,0.010345,['Pass'],Fail,0.3200000000000002,-0.3200000000000002,0.0,0.0,0.4
619.0,14.0,wc_14,,0.0,,,,61.0,,,,Fail,,,,,
619.0,14.0,wc_14,wc_7,1.0,"[('wc_7', 0.5800000000000004), ('wc_14', 0.20000000000000007), ('wc_9', 0.5600000000000004), ('wc_11', 0.3700000000000002), ('wc_10', 0.3200000000000002)]",0.9366653440000001,,,21.0,0.052099,['Pass'],Fail,0.5800000000000004,-0.2466666666666671,2.0,6.0,0.6
625.0,14.0,wc_14,,0.0,,,,182.0,,,,Fail,,,,,
625.0,14.0,wc_14,,0.0,,,74.0,,,,,Fail,,,,,
625.0,14.0,wc_14,,0.0,,,,0.0,,,,Fail,,,,,
625.0,14.0,wc_14,wc_14,0.0,"[('wc_14', 0.21000000000000008)]",0.21000000000000008,,,22.0,0.002285,['Pass'],Fail,0.21000000000000008,0.7899999999999999,1.0,1.0,0.1
625.0,14.0,wc_14,,0.0,,,,301.0,,,,Fail,,,,,
625.0,14.0,wc_14,wc_10,0.0,"[('wc_10', 0.3300000000000002)]",0.3300000000000002,,,24.0,0.005168,['Fail'],Fail,0.3300000000000002,0.6699999999999998,1.0,1.0,0.4
625.0,14.0,wc_14,,0.0,,,,362.0,,,,Fail,,,,,
625.0,14.0,wc_14,wc_4,0.0,"[('wc_4', 0.6400000000000005), ('wc_10', 0.3300000000000002)]",0.7588000000000004,,,26.0,0.00613,['Fail'],Fail,0.6400000000000005,-0.49000000000000044,0.0,0.0,0.7
625.0,14.0,wc_14,,0.0,,,,103.0,,,,Fail,,,,,
625.0,14.0,wc_14,wc_3,0.0,"[('wc_3', 0.3300000000000002), ('wc_10', 0.3300000000000002), ('wc_4', 0.6400000000000005)]",0.8383960000000004,,,38.0,0.007575,['Fail'],Fail,0.3300000000000002,-0.044285714285714484,2.0,7.0,0.3
625.0,14.0,wc_14,,0.0,,,,101.0,,,,Fail,,,,,
625.0,14.0,wc_14,wc_2,1.0,"[('wc_2', 0.5800000000000004), ('wc_10', 0.3300000000000002), ('wc_4', 0.6400000000000005), ('wc_3', 0.3300000000000002)]",0.9321263200000002,,,25.0,0.048740000000000006,['Fail'],Fail,0.5800000000000004,-0.18000000000000038,2.0,5.0,0.5
630.0,14.0,wc_14,,0.0,,,,202.0,,,,Fail,,,,,
630.0,14.0,wc_14,,0.0,,,50.0,,,,,Fail,,,,,
630.0,14.0,wc_14,,0.0,,,,0.0,,,,Fail,,,,,
630.0,14.0,wc_14,wc_14,0.0,"[('wc_14', 0.21000000000000008)]",0.21000000000000008,,,40.0,0.002187,['Fail'],Fail,0.21000000000000008,0.2899999999999999,1.0,2.0,0.1
630.0,14.0,wc_14,,0.0,,,,361.0,,,,Fail,,,,,
630.0,14.0,wc_14,wc_5,0.0,"[('wc_5', 0.7100000000000005), ('wc_14', 0.21000000000000008)]",0.7709000000000005,,,35.0,0.004186,['Fail'],Fail,0.7100000000000005,-0.5100000000000005,0.0,0.0,1.0
630.0,14.0,wc_14,,0.0,,,,162.0,,,,Fail,,,,,
630.0,14.0,wc_14,wc_11,0.0,"[('wc_11', 0.3700000000000002), ('wc_14', 0.21000000000000008), ('wc_5', 0.7100000000000005)]",0.8556670000000003,,,38.0,0.006253999999999999,['Fail'],Fail,0.3700000000000002,-0.12000000000000022,1.0,4.0,0.2
630.0,14.0,wc_14,,0.0,,,,81.0,,,,Fail,,,,,
630.0,14.0,wc_14,wc_13,1.0,"[('wc_13', 0.5800000000000004), ('wc_14', 0.21000000000000008), ('wc_5', 0.7100000000000005), ('wc_11', 0.3700000000000002)]",0.9393801400000001,,,32.0,0.044403000000000005,['Fail'],Fail,0.5800000000000004,-0.5800000000000004,0.0,0.0,0.5
636.0,14.0,wc_14,,0.0,,,,0.0,,,,Pass,,,,,
636.0,14.0,wc_14,,0.0,,,78.0,,,,,Pass,,,,,
636.0,14.0,wc_14,,0.0,,,,0.0,,,,Pass,,,,,
636.0,14.0,wc_14,wc_14,0.0,"[('wc_14', 0.22000000000000008)]",0.22000000000000008,,,34.0,0.002229,['Fail'],Pass,0.22000000000000008,0.44666666666666655,2.0,3.0,0.1
636.0,14.0,wc_14,,0.0,,,,321.0,,,,Pass,,,,,
636.0,14.0,wc_14,wc_11,0.0,"[('wc_11', 0.3800000000000002)]",0.3800000000000002,,,29.0,0.004096000000000001,['Pass'],Pass,0.3800000000000002,0.019999999999999796,2.0,5.0,0.2
636.0,14.0,wc_14,,0.0,,,,342.0,,,,Pass,,,,,
636.0,14.0,wc_14,wc_4,0.0,"[('wc_4', 0.6500000000000005), ('wc_11', 0.3800000000000002)]",0.7830000000000004,,,27.0,0.006006,['Pass'],Pass,0.6500000000000005,-0.15000000000000047,1.0,2.0,0.7
636.0,14.0,wc_14,,0.0,,,,121.0,,,,Pass,,,,,
636.0,14.0,wc_14,wc_12,0.0,"[('wc_11', 0.3800000000000002), ('wc_4', 0.6500000000000005)]",0.7830000000000004,,,31.0,0.008014,['Pass'],Pass,0.5200000000000004,-0.4533333333333337,0.0,0.0,0.4
636.0,14.0,wc_14,,0.0,,,,182.0,,,,Pass,,,,,
636.0,14.0,wc_14,wc_6,0.0,"[('wc_6', 0.4900000000000003), ('wc_14', 0.22000000000000008), ('wc_12', 0.5200000000000004)]",0.8090560000000002,,,40.0,0.009128,['Fail'],Pass,0.4900000000000003,-0.2900000000000003,0.0,0.0,0.5
636.0,14.0,wc_14,,0.0,,,,182.0,,,,Pass,,,,,
636.0,14.0,wc_14,wc_13,1.0,"[('wc_13', 0.5800000000000004), ('wc_14', 0.22000000000000008), ('wc_12', 0.5200000000000004), ('wc_6', 0.4900000000000003)]",0.9198035200000002,,,40.0,0.048974,['Fail'],Pass,0.5900000000000004,0.4099999999999996,1.0,1.0,0.5
645.0,17.0,wc_17,,0.0,,,,0.0,,,,Pass,,,,,
645.0,17.0,wc_17,,0.0,,,74.0,,,,,Pass,,,,,
645.0,17.0,wc_17,,0.0,,,,0.0,,,,Pass,,,,,
645.0,17.0,wc_17,wc_17,0.0,"[('wc_17', 0.6100000000000004)]",0.6100000000000004,,,21.0,0.002269,['Pass'],Pass,0.6100000000000004,-0.2100000000000004,0.0,0.0,1.0
645.0,17.0,wc_17,,0.0,,,,382.0,,,,Pass,,,,,
645.0,17.0,wc_17,wc_4,0.0,"[('wc_4', 0.6400000000000005), ('wc_17', 0.6100000000000004)]",0.8596000000000004,,,33.0,0.00401,['Pass'],Pass,0.6400000000000005,-0.30666666666666714,1.0,3.0,0.7
645.0,17.0,wc_17,,0.0,,,,121.0,,,,Pass,,,,,
645.0,17.0,wc_17,wc_8,1.0,"[('wc_8', 0.6500000000000005), ('wc_17', 0.6100000000000004), ('wc_4', 0.6400000000000005)]",0.9508600000000001,,,32.0,0.042305999999999996,['Pass'],Pass,0.6500000000000005,-0.31666666666666715,2.0,6.0,0.8
