mpecck/BCQC/bcqc_with_qdt/results/raw/input_6/independent_qc/training/20_workpiece/20200429_084416/wp_9_qc_majority_0.9.csv
production_index,step_idx,production_workcell,qc,consent,winner_qc_list,score,production_time,transport_time,inspection_time,network_time,qc_results,actual_quality,qc_score,score_error,in_winner_counter,in_qc_counter,qc_capability
30.0,1.0,wc_1,,0.0,,,56.0,,,,,Fail,,,,,
30.0,1.0,wc_1,,0.0,,,,0.0,,,,Fail,,,,,
30.0,1.0,wc_1,wc_1,0.0,"[('wc_1', 0.2400000000000001)]",0.2400000000000001,,,36.0,0.002032,['Fail'],Fail,0.2400000000000001,-0.2400000000000001,0.0,6.0,0.1
30.0,1.0,wc_1,,0.0,,,,283.0,,,,Fail,,,,,
30.0,1.0,wc_1,wc_17,0.0,"[('wc_17', 0.6200000000000004), ('wc_1', 0.2400000000000001)]",0.7112000000000004,,,37.0,0.004765999999999999,['Fail'],Fail,0.6200000000000004,0.37999999999999956,1.0,1.0,1.0
30.0,1.0,wc_1,,0.0,,,,103.0,,,,Fail,,,,,
30.0,1.0,wc_1,wc_16,0.0,"[('wc_16', 0.5100000000000003), ('wc_1', 0.2400000000000001), ('wc_17', 0.6200000000000004)]",0.8584880000000003,,,32.0,0.006131,['Fail'],Fail,0.5100000000000003,-0.5100000000000003,0.0,5.0,0.6
30.0,1.0,wc_1,,0.0,,,,203.0,,,,Fail,,,,,
30.0,1.0,wc_1,wc_6,1.0,"[('wc_6', 0.5000000000000003), ('wc_1', 0.2400000000000001), ('wc_17', 0.6200000000000004), ('wc_16', 0.5100000000000003)]",0.9292440000000002,,,30.0,0.04069400000000001,['Fail'],Fail,0.5100000000000003,0.1566666666666663,2.0,3.0,0.5
134.0,1.0,wc_1,,0.0,,,,202.0,,,,Pass,,,,,
134.0,1.0,wc_1,,0.0,,,64.0,,,,,Pass,,,,,
134.0,1.0,wc_1,,0.0,,,,0.0,,,,Pass,,,,,
134.0,1.0,wc_1,wc_1,0.0,"[('wc_1', 0.2400000000000001)]",0.2400000000000001,,,24.0,0.002374,['Pass'],Pass,0.2400000000000001,-0.09714285714285725,1.0,7.0,0.1
134.0,1.0,wc_1,,0.0,,,,223.0,,,,Pass,,,,,
134.0,1.0,wc_1,wc_10,0.0,"[('wc_10', 0.3400000000000002)]",0.3400000000000002,,,22.0,0.0041670000000000006,['Fail'],Pass,0.3400000000000002,-0.006666666666666876,2.0,6.0,0.4
134.0,1.0,wc_1,,0.0,,,,342.0,,,,Pass,,,,,
134.0,1.0,wc_1,wc_3,0.0,"[('wc_3', 0.3400000000000002), ('wc_1', 0.2400000000000001)]",0.4984000000000002,,,25.0,0.006541,['Pass'],Pass,0.3400000000000002,-0.09000000000000019,0.0,0.0,0.3
134.0,1.0,wc_1,,0.0,,,,161.0,,,,Pass,,,,,
134.0,1.0,wc_1,wc_13,0.0,"[('wc_13', 0.5900000000000004), ('wc_1', 0.2400000000000001), ('wc_3', 0.3400000000000002)]",0.7943440000000003,,,27.0,0.007448,['Pass'],Pass,0.5900000000000004,-0.2566666666666671,1.0,3.0,0.5
134.0,1.0,wc_1,,0.0,,,,102.0,,,,Pass,,,,,
134.0,1.0,wc_1,wc_12,1.0,"[('wc_12', 0.5300000000000004), ('wc_1', 0.2400000000000001), ('wc_3', 0.3400000000000002), ('wc_13', 0.5900000000000004)]",0.9033416800000003,,,26.0,0.044508000000000006,['Pass'],Pass,0.5300000000000004,-0.03000000000000036,2.0,4.0,0.4
143.0,4.0,wc_4,,0.0,,,,381.0,,,,Fail,,,,,
143.0,4.0,wc_4,,0.0,,,56.0,,,,,Fail,,,,,
143.0,4.0,wc_4,,0.0,,,,0.0,,,,Fail,,,,,
143.0,4.0,wc_4,wc_4,0.0,"[('wc_4', 0.6400000000000005)]",0.6400000000000005,,,37.0,0.00222,['Fail'],Fail,0.6400000000000005,-0.30666666666666714,2.0,6.0,0.7
143.0,4.0,wc_4,,0.0,,,,142.0,,,,Fail,,,,,
143.0,4.0,wc_4,wc_9,0.0,"[('wc_9', 0.5600000000000004), ('wc_4', 0.6400000000000005)]",0.8416000000000003,,,37.0,0.004118,['Fail'],Fail,0.5600000000000004,-0.4350000000000004,1.0,8.0,0.6
143.0,4.0,wc_4,,0.0,,,,182.0,,,,Fail,,,,,
143.0,4.0,wc_4,wc_16,1.0,"[('wc_16', 0.5100000000000003), ('wc_4', 0.6400000000000005), ('wc_9', 0.5600000000000004)]",0.9223840000000002,,,25.0,0.039538,['Fail'],Fail,0.5100000000000003,-0.26000000000000034,2.0,8.0,0.6
154.0,2.0,wc_2,,0.0,,,,283.0,,,,Fail,,,,,
154.0,2.0,wc_2,,0.0,,,58.0,,,,,Fail,,,,,
154.0,2.0,wc_2,,0.0,,,,0.0,,,,Fail,,,,,
154.0,2.0,wc_2,wc_2,0.0,"[('wc_2', 0.5800000000000004)]",0.5800000000000004,,,29.0,0.002161,['Fail'],Fail,0.5800000000000004,-0.3981818181818186,0.0,0.0,0.5
154.0,2.0,wc_2,,0.0,,,,263.0,,,,Fail,,,,,
154.0,2.0,wc_2,wc_17,0.0,"[('wc_17', 0.6300000000000004), ('wc_2', 0.5800000000000004)]",0.8446000000000004,,,31.0,0.004456,['Fail'],Fail,0.6300000000000004,-0.13000000000000045,2.0,4.0,1.0
154.0,2.0,wc_2,,0.0,,,,362.0,,,,Fail,,,,,
154.0,2.0,wc_2,wc_11,0.0,"[('wc_2', 0.5800000000000004), ('wc_17', 0.6300000000000004)]",0.8446000000000004,,,30.0,0.005954000000000001,['Fail'],Fail,0.3700000000000002,-0.1700000000000002,0.0,0.0,0.2
154.0,2.0,wc_2,,0.0,,,,41.0,,,,Fail,,,,,
154.0,2.0,wc_2,wc_7,1.0,"[('wc_7', 0.5800000000000004), ('wc_2', 0.5800000000000004), ('wc_17', 0.6300000000000004)]",0.9347320000000002,,,39.0,0.047637000000000006,['Fail'],Fail,0.5800000000000004,-0.5800000000000004,0.0,0.0,0.6
163.0,2.0,wc_2,,0.0,,,,202.0,,,,Fail,,,,,
163.0,2.0,wc_2,,0.0,,,56.0,,,,,Fail,,,,,
163.0,2.0,wc_2,,0.0,,,,0.0,,,,Fail,,,,,
163.0,2.0,wc_2,wc_2,0.0,"[('wc_2', 0.5900000000000004)]",0.5900000000000004,,,30.0,0.002179,['Fail'],Fail,0.5900000000000004,0.4099999999999996,1.0,1.0,0.5
163.0,2.0,wc_2,,0.0,,,,202.0,,,,Fail,,,,,
163.0,2.0,wc_2,wc_14,0.0,"[('wc_2', 0.5900000000000004)]",0.5900000000000004,,,20.0,0.0051389999999999995,['Fail'],Fail,0.2300000000000001,0.10333333333333322,3.0,9.0,0.1
163.0,2.0,wc_2,,0.0,,,,321.0,,,,Fail,,,,,
163.0,2.0,wc_2,wc_11,0.0,"[('wc_2', 0.5900000000000004)]",0.5900000000000004,,,24.0,0.007300000000000001,['Fail'],Fail,0.3600000000000002,-0.3600000000000002,0.0,1.0,0.2
163.0,2.0,wc_2,,0.0,,,,81.0,,,,Fail,,,,,
163.0,2.0,wc_2,wc_13,0.0,"[('wc_13', 0.5900000000000004), ('wc_14', 0.2300000000000001), ('wc_11', 0.3600000000000002)]",0.7979520000000003,,,23.0,0.008392,['Pass'],Fail,0.5900000000000004,-0.2566666666666671,2.0,6.0,0.5
163.0,2.0,wc_2,,0.0,,,,0.0,,,,Fail,,,,,
163.0,2.0,wc_2,wc_15,0.0,"[('wc_14', 0.2300000000000001), ('wc_11', 0.3600000000000002), ('wc_13', 0.5900000000000004)]",0.7979520000000003,,,28.0,0.010995000000000001,['Pass'],Fail,0.2600000000000001,-0.16000000000000011,0.0,0.0,0.1
163.0,2.0,wc_2,,0.0,,,,0.0,,,,Fail,,,,,
163.0,2.0,wc_2,wc_17,0.0,"[('wc_17', 0.6300000000000004), ('wc_2', 0.5900000000000004), ('wc_15', 0.2600000000000001)]",0.8877420000000003,,,36.0,0.01204,['Fail'],Fail,0.6300000000000004,-0.03000000000000047,3.0,5.0,1.0
163.0,2.0,wc_2,,0.0,,,,223.0,,,,Fail,,,,,
163.0,2.0,wc_2,wc_8,1.0,"[('wc_8', 0.6500000000000005), ('wc_2', 0.5900000000000004), ('wc_15', 0.2600000000000001), ('wc_17', 0.6300000000000004)]",0.9607097000000001,,,40.0,0.05194,['Fail'],Fail,0.6500000000000005,-0.6500000000000005,0.0,0.0,0.8
176.0,3.0,wc_3,,0.0,,,,281.0,,,,Fail,,,,,
176.0,3.0,wc_3,,0.0,,,54.0,,,,,Fail,,,,,
176.0,3.0,wc_3,,0.0,,,,0.0,,,,Fail,,,,,
176.0,3.0,wc_3,wc_3,0.0,"[('wc_3', 0.3500000000000002)]",0.3500000000000002,,,34.0,0.001912,['Pass'],Fail,0.3500000000000002,-0.1000000000000002,1.0,4.0,0.3
176.0,3.0,wc_3,,0.0,,,,202.0,,,,Fail,,,,,
176.0,3.0,wc_3,wc_15,0.0,"[('wc_15', 0.27000000000000013), ('wc_3', 0.3500000000000002)]",0.5255000000000003,,,28.0,0.004309,['Pass'],Fail,0.27000000000000013,0.7299999999999999,1.0,1.0,0.1
176.0,3.0,wc_3,,0.0,,,,243.0,,,,Fail,,,,,
176.0,3.0,wc_3,wc_7,0.0,"[('wc_7', 0.5800000000000004)]",0.5800000000000004,,,37.0,0.006033999999999999,['Fail'],Fail,0.5800000000000004,-0.5800000000000004,0.0,1.0,0.6
176.0,3.0,wc_3,,0.0,,,,341.0,,,,Fail,,,,,
176.0,3.0,wc_3,wc_5,0.0,"[('wc_5', 0.7200000000000005), ('wc_7', 0.5800000000000004)]",0.8824000000000003,,,25.0,0.008238,['Fail'],Fail,0.7200000000000005,-0.5950000000000005,1.0,8.0,1.0
176.0,3.0,wc_3,,0.0,,,,202.0,,,,Fail,,,,,
176.0,3.0,wc_3,wc_17,1.0,"[('wc_17', 0.6400000000000005), ('wc_7', 0.5800000000000004), ('wc_5', 0.7200000000000005)]",0.9576640000000002,,,27.0,0.044915,['Fail'],Fail,0.6500000000000005,0.06428571428571384,5.0,7.0,1.0
189.0,2.0,wc_2,,0.0,,,,263.0,,,,Pass,,,,,
189.0,2.0,wc_2,,0.0,,,57.0,,,,,Pass,,,,,
189.0,2.0,wc_2,,0.0,,,,0.0,,,,Pass,,,,,
189.0,2.0,wc_2,wc_2,0.0,"[('wc_2', 0.6000000000000004)]",0.6000000000000004,,,36.0,0.002605,['Pass'],Pass,0.6000000000000004,0.06666666666666621,2.0,3.0,0.5
189.0,2.0,wc_2,,0.0,,,,102.0,,,,Pass,,,,,
189.0,2.0,wc_2,wc_1,0.0,"[('wc_2', 0.6000000000000004)]",0.6000000000000004,,,32.0,0.004295,['Pass'],Pass,0.2400000000000001,-0.07333333333333344,0.0,0.0,0.1
189.0,2.0,wc_2,,0.0,,,,142.0,,,,Pass,,,,,
189.0,2.0,wc_2,wc_6,0.0,"[('wc_6', 0.5100000000000003), ('wc_1', 0.2400000000000001)]",0.6276000000000004,,,33.0,0.006477999999999999,['Fail'],Pass,0.5100000000000003,-0.26000000000000034,2.0,8.0,0.5
189.0,2.0,wc_2,,0.0,,,,321.0,,,,Pass,,,,,
189.0,2.0,wc_2,wc_3,0.0,"[('wc_3', 0.3400000000000002), ('wc_1', 0.2400000000000001), ('wc_6', 0.5100000000000003)]",0.7542160000000002,,,20.0,0.008335,['Fail'],Pass,0.3400000000000002,-0.14000000000000018,1.0,5.0,0.3
189.0,2.0,wc_2,,0.0,,,,0.0,,,,Pass,,,,,
189.0,2.0,wc_2,wc_5,0.0,"[('wc_5', 0.7200000000000005), ('wc_2', 0.6000000000000004)]",0.8880000000000003,,,37.0,0.010758,['Pass'],Pass,0.7200000000000005,-0.4977777777777783,2.0,9.0,1.0
189.0,2.0,wc_2,,0.0,,,,81.0,,,,Pass,,,,,
189.0,2.0,wc_2,wc_7,1.0,"[('wc_7', 0.5800000000000004), ('wc_2', 0.6000000000000004), ('wc_5', 0.7200000000000005)]",0.9529600000000001,,,39.0,0.044808,['Pass'],Pass,0.5900000000000004,0.07666666666666622,2.0,3.0,0.6
206.0,3.0,wc_3,,0.0,,,,301.0,,,,Pass,,,,,
206.0,3.0,wc_3,,0.0,,,60.0,,,,,Pass,,,,,
206.0,3.0,wc_3,,0.0,,,,0.0,,,,Pass,,,,,
206.0,3.0,wc_3,wc_3,0.0,"[('wc_3', 0.3300000000000002)]",0.3300000000000002,,,24.0,0.002191,['Pass'],Pass,0.3300000000000002,-0.16333333333333352,1.0,6.0,0.3
206.0,3.0,wc_3,,0.0,,,,121.0,,,,Pass,,,,,
206.0,3.0,wc_3,wc_7,0.0,"[('wc_7', 0.5900000000000004), ('wc_3', 0.3300000000000002)]",0.7253000000000003,,,20.0,0.004423,['Pass'],Pass,0.5900000000000004,0.07666666666666622,2.0,3.0,0.6
206.0,3.0,wc_3,,0.0,,,,223.0,,,,Pass,,,,,
206.0,3.0,wc_3,wc_16,0.0,"[('wc_16', 0.5100000000000003), ('wc_3', 0.3300000000000002), ('wc_7', 0.5900000000000004)]",0.8653970000000002,,,30.0,0.0060349999999999996,['Pass'],Pass,0.5100000000000003,-0.3433333333333337,0.0,0.0,0.6
206.0,3.0,wc_3,,0.0,,,,243.0,,,,Pass,,,,,
206.0,3.0,wc_3,wc_8,1.0,"[('wc_8', 0.6500000000000005), ('wc_3', 0.3300000000000002), ('wc_7', 0.5900000000000004), ('wc_16', 0.5100000000000003)]",0.9528889500000002,,,34.0,0.043594,['Pass'],Pass,0.6500000000000005,-0.31666666666666715,1.0,3.0,0.8
245.0,4.0,wc_4,,0.0,,,,301.0,,,,Pass,,,,,
245.0,4.0,wc_4,,0.0,,,60.0,,,,,Pass,,,,,
245.0,4.0,wc_4,,0.0,,,,0.0,,,,Pass,,,,,
245.0,4.0,wc_4,wc_4,0.0,"[('wc_4', 0.6400000000000005)]",0.6400000000000005,,,32.0,0.002094,['Pass'],Pass,0.6400000000000005,-0.39000000000000046,0.0,0.0,0.7
245.0,4.0,wc_4,,0.0,,,,103.0,,,,Pass,,,,,
245.0,4.0,wc_4,wc_3,0.0,"[('wc_3', 0.3300000000000002), ('wc_4', 0.6400000000000005)]",0.7588000000000004,,,27.0,0.004589,['Pass'],Pass,0.3300000000000002,-0.044285714285714484,2.0,7.0,0.3
245.0,4.0,wc_4,,0.0,,,,161.0,,,,Pass,,,,,
245.0,4.0,wc_4,wc_13,0.0,"[('wc_13', 0.5800000000000004), ('wc_4', 0.6400000000000005), ('wc_3', 0.3300000000000002)]",0.8986960000000003,,,31.0,0.006208,['Pass'],Pass,0.5800000000000004,-0.3800000000000004,0.0,0.0,0.5
245.0,4.0,wc_4,,0.0,,,,301.0,,,,Pass,,,,,
245.0,4.0,wc_4,wc_9,1.0,"[('wc_9', 0.5600000000000004), ('wc_4', 0.6400000000000005), ('wc_3', 0.3300000000000002), ('wc_13', 0.5800000000000004)]",0.9554262400000002,,,34.0,0.040451999999999995,['Pass'],Pass,0.5600000000000004,-0.5600000000000004,0.0,0.0,0.6
269.0,5.0,wc_5,,0.0,,,,402.0,,,,Fail,,,,,
269.0,5.0,wc_5,,0.0,,,62.0,,,,,Fail,,,,,
269.0,5.0,wc_5,,0.0,,,,0.0,,,,Fail,,,,,
269.0,5.0,wc_5,wc_5,0.0,"[('wc_5', 0.7200000000000005)]",0.7200000000000005,,,20.0,0.001999,['Fail'],Fail,0.7200000000000005,-0.7200000000000005,0.0,2.0,1.0
269.0,5.0,wc_5,,0.0,,,,81.0,,,,Fail,,,,,
269.0,5.0,wc_5,wc_7,0.0,"[('wc_7', 0.6000000000000004), ('wc_5', 0.7200000000000005)]",0.8880000000000003,,,27.0,0.004385,['Fail'],Fail,0.6000000000000004,-4.440892098500626e-16,3.0,5.0,0.6
269.0,5.0,wc_5,,0.0,,,,182.0,,,,Fail,,,,,
269.0,5.0,wc_5,wc_14,0.0,"[('wc_5', 0.7200000000000005), ('wc_7', 0.6000000000000004)]",0.8880000000000003,,,24.0,0.0056879999999999995,['Fail'],Fail,0.2300000000000001,-0.2300000000000001,0.0,4.0,0.1
269.0,5.0,wc_5,,0.0,,,,102.0,,,,Fail,,,,,
269.0,5.0,wc_5,wc_13,0.0,"[('wc_5', 0.7200000000000005), ('wc_7', 0.6000000000000004)]",0.8880000000000003,,,36.0,0.007966,['Fail'],Fail,0.5900000000000004,0.4099999999999996,1.0,1.0,0.5
269.0,5.0,wc_5,,0.0,,,,341.0,,,,Fail,,,,,
269.0,5.0,wc_5,wc_11,1.0,"[('wc_11', 0.3500000000000002), ('wc_5', 0.7200000000000005), ('wc_7', 0.6000000000000004)]",0.9272000000000002,,,20.0,0.042497,['Fail'],Fail,0.3500000000000002,-0.20714285714285735,1.0,7.0,0.2
312.0,5.0,wc_5,,0.0,,,,362.0,,,,Fail,,,,,
312.0,5.0,wc_5,,0.0,,,79.0,,,,,Fail,,,,,
312.0,5.0,wc_5,,0.0,,,,0.0,,,,Fail,,,,,
312.0,5.0,wc_5,wc_5,0.0,"[('wc_5', 0.7200000000000005)]",0.7200000000000005,,,36.0,0.002082,['Fail'],Fail,0.7200000000000005,-0.3866666666666672,1.0,3.0,1.0
312.0,5.0,wc_5,,0.0,,,,41.0,,,,Fail,,,,,
312.0,5.0,wc_5,wc_1,0.0,"[('wc_5', 0.7200000000000005)]",0.7200000000000005,,,40.0,0.0044740000000000005,['Fail'],Fail,0.2300000000000001,-0.2300000000000001,0.0,4.0,0.1
312.0,5.0,wc_5,,0.0,,,,222.0,,,,Fail,,,,,
312.0,5.0,wc_5,wc_14,0.0,"[('wc_5', 0.7200000000000005)]",0.7200000000000005,,,28.0,0.005788000000000001,['Fail'],Fail,0.22000000000000008,-0.22000000000000008,0.0,5.0,0.1
312.0,5.0,wc_5,,0.0,,,,222.0,,,,Fail,,,,,
312.0,5.0,wc_5,wc_2,0.0,"[('wc_2', 0.6100000000000004), ('wc_5', 0.7200000000000005)]",0.8908000000000004,,,29.0,0.008747,['Fail'],Fail,0.6100000000000004,-0.18142857142857188,3.0,7.0,0.5
312.0,5.0,wc_5,,0.0,,,,182.0,,,,Fail,,,,,
312.0,5.0,wc_5,wc_13,1.0,"[('wc_13', 0.5800000000000004), ('wc_5', 0.7200000000000005), ('wc_2', 0.6100000000000004)]",0.9541360000000002,,,36.0,0.044453000000000006,['Fail'],Fail,0.5900000000000004,0.07666666666666622,2.0,3.0,0.5
346.0,5.0,wc_5,,0.0,,,,381.0,,,,Fail,,,,,
346.0,5.0,wc_5,,0.0,,,52.0,,,,,Fail,,,,,
346.0,5.0,wc_5,,0.0,,,,0.0,,,,Fail,,,,,
346.0,5.0,wc_5,wc_5,0.0,"[('wc_5', 0.7200000000000005)]",0.7200000000000005,,,25.0,0.002376,['Fail'],Fail,0.7200000000000005,-0.22000000000000053,2.0,4.0,1.0
346.0,5.0,wc_5,,0.0,,,,142.0,,,,Fail,,,,,
346.0,5.0,wc_5,wc_10,0.0,"[('wc_10', 0.3300000000000002), ('wc_5', 0.7200000000000005)]",0.8124000000000005,,,22.0,0.004808,['Fail'],Fail,0.3300000000000002,-0.20500000000000018,0.0,0.0,0.4
346.0,5.0,wc_5,,0.0,,,,61.0,,,,Fail,,,,,
346.0,5.0,wc_5,wc_7,1.0,"[('wc_7', 0.6100000000000004), ('wc_5', 0.7200000000000005), ('wc_10', 0.3300000000000002)]",0.9268360000000002,,,29.0,0.041488,['Fail'],Fail,0.6200000000000004,0.00499999999999956,5.0,8.0,0.6
402.0,5.0,wc_5,,0.0,,,,341.0,,,,Pass,,,,,
402.0,5.0,wc_5,,0.0,,,65.0,,,,,Pass,,,,,
402.0,5.0,wc_5,,0.0,,,,0.0,,,,Pass,,,,,
402.0,5.0,wc_5,wc_5,0.0,"[('wc_5', 0.7200000000000005)]",0.7200000000000005,,,22.0,0.002349,['Pass'],Pass,0.7200000000000005,-0.12000000000000055,3.0,5.0,1.0
402.0,5.0,wc_5,,0.0,,,,162.0,,,,Pass,,,,,
402.0,5.0,wc_5,wc_11,0.0,"[('wc_5', 0.7200000000000005)]",0.7200000000000005,,,28.0,0.00413,['Pass'],Pass,0.3500000000000002,-0.2388888888888891,1.0,9.0,0.2
402.0,5.0,wc_5,,0.0,,,,142.0,,,,Pass,,,,,
402.0,5.0,wc_5,wc_16,0.0,"[('wc_16', 0.5200000000000004), ('wc_5', 0.7200000000000005)]",0.8656000000000004,,,21.0,0.0058779999999999995,['Pass'],Pass,0.5200000000000004,-0.32000000000000034,1.0,5.0,0.6
402.0,5.0,wc_5,,0.0,,,,0.0,,,,Pass,,,,,
402.0,5.0,wc_5,wc_17,1.0,"[('wc_17', 0.6500000000000005), ('wc_5', 0.7200000000000005), ('wc_16', 0.5200000000000004)]",0.9529600000000001,,,34.0,0.040504,['Pass'],Pass,0.6500000000000005,-0.6500000000000005,0.0,0.0,1.0
420.0,6.0,wc_6,,0.0,,,,183.0,,,,Fail,,,,,
420.0,6.0,wc_6,,0.0,,,63.0,,,,,Fail,,,,,
420.0,6.0,wc_6,,0.0,,,,0.0,,,,Fail,,,,,
420.0,6.0,wc_6,wc_6,0.0,"[('wc_6', 0.5000000000000003)]",0.5000000000000003,,,31.0,0.00231,['Fail'],Fail,0.5000000000000003,-0.36666666666666703,0.0,0.0,0.5
420.0,6.0,wc_6,,0.0,,,,0.0,,,,Fail,,,,,
420.0,6.0,wc_6,wc_8,0.0,"[('wc_8', 0.6500000000000005), ('wc_6', 0.5000000000000003)]",0.8250000000000004,,,37.0,0.004208,['Fail'],Fail,0.6500000000000005,-0.5250000000000005,1.0,8.0,0.8
420.0,6.0,wc_6,,0.0,,,,203.0,,,,Fail,,,,,
420.0,6.0,wc_6,wc_16,0.0,"[('wc_6', 0.5000000000000003), ('wc_8', 0.6500000000000005)]",0.8250000000000004,,,27.0,0.005785,['Fail'],Fail,0.5200000000000004,-0.18666666666666704,2.0,6.0,0.6
420.0,6.0,wc_6,,0.0,,,,223.0,,,,Fail,,,,,
420.0,6.0,wc_6,wc_7,1.0,"[('wc_7', 0.6200000000000004), ('wc_6', 0.5000000000000003), ('wc_8', 0.6500000000000005)]",0.9335000000000002,,,27.0,0.040631,['Fail'],Fail,0.6200000000000004,-0.6200000000000004,0.0,0.0,0.6
436.0,6.0,wc_6,,0.0,,,,102.0,,,,Fail,,,,,
436.0,6.0,wc_6,,0.0,,,60.0,,,,,Fail,,,,,
436.0,6.0,wc_6,,0.0,,,,0.0,,,,Fail,,,,,
436.0,6.0,wc_6,wc_6,0.0,"[('wc_6', 0.5100000000000003)]",0.5100000000000003,,,27.0,0.002052,['Fail'],Fail,0.5100000000000003,0.48999999999999966,1.0,1.0,0.5
436.0,6.0,wc_6,,0.0,,,,202.0,,,,Fail,,,,,
436.0,6.0,wc_6,wc_14,0.0,"[('wc_6', 0.5100000000000003)]",0.5100000000000003,,,33.0,0.004429,['Fail'],Fail,0.21000000000000008,-0.21000000000000008,0.0,9.0,0.1
436.0,6.0,wc_6,,0.0,,,,301.0,,,,Fail,,,,,
436.0,6.0,wc_6,wc_10,0.0,"[('wc_10', 0.3400000000000002), ('wc_6', 0.5100000000000003)]",0.6766000000000003,,,35.0,0.006314999999999999,['Fail'],Fail,0.3400000000000002,-0.006666666666666876,1.0,3.0,0.4
436.0,6.0,wc_6,,0.0,,,,162.0,,,,Fail,,,,,
436.0,6.0,wc_6,wc_16,0.0,"[('wc_16', 0.5100000000000003), ('wc_6', 0.5100000000000003), ('wc_10', 0.3400000000000002)]",0.8415340000000002,,,20.0,0.007332000000000001,['Fail'],Fail,0.5100000000000003,-0.22428571428571464,2.0,7.0,0.6
436.0,6.0,wc_6,,0.0,,,,382.0,,,,Fail,,,,,
436.0,6.0,wc_6,wc_3,0.0,"[('wc_3', 0.3400000000000002), ('wc_6', 0.5100000000000003), ('wc_10', 0.3400000000000002), ('wc_16', 0.5100000000000003)]",0.8954124400000002,,,20.0,0.010426999999999999,['Fail'],Fail,0.3400000000000002,-0.10923076923076941,0.0,0.0,0.3
436.0,6.0,wc_6,,0.0,,,,101.0,,,,Fail,,,,,
436.0,6.0,wc_6,wc_2,1.0,"[('wc_2', 0.6100000000000004), ('wc_6', 0.5100000000000003), ('wc_10', 0.3400000000000002), ('wc_16', 0.5100000000000003), ('wc_3', 0.3400000000000002)]",0.9592108516000001,,,34.0,0.06425600000000001,['Fail'],Fail,0.6100000000000004,-0.6100000000000004,0.0,0.0,0.5
452.0,6.0,wc_6,,0.0,,,,122.0,,,,Pass,,,,,
452.0,6.0,wc_6,,0.0,,,52.0,,,,,Pass,,,,,
452.0,6.0,wc_6,,0.0,,,,0.0,,,,Pass,,,,,
452.0,6.0,wc_6,wc_6,0.0,"[('wc_6', 0.5200000000000004)]",0.5200000000000004,,,22.0,0.001915,['Pass'],Pass,0.5200000000000004,0.47999999999999965,2.0,2.0,0.5
452.0,6.0,wc_6,,0.0,,,,243.0,,,,Pass,,,,,
452.0,6.0,wc_6,wc_16,0.0,"[('wc_16', 0.5100000000000003), ('wc_6', 0.5200000000000004)]",0.7648000000000004,,,22.0,0.004007,['Pass'],Pass,0.5100000000000003,-0.13500000000000034,3.0,8.0,0.6
452.0,6.0,wc_6,,0.0,,,,41.0,,,,Pass,,,,,
452.0,6.0,wc_6,wc_12,0.0,"[('wc_6', 0.5200000000000004), ('wc_16', 0.5100000000000003)]",0.7648000000000004,,,27.0,0.006479,['Pass'],Pass,0.5300000000000004,-0.4123529411764709,0.0,0.0,0.4
452.0,6.0,wc_6,,0.0,,,,381.0,,,,Pass,,,,,
452.0,6.0,wc_6,wc_4,1.0,"[('wc_4', 0.6500000000000005), ('wc_6', 0.5200000000000004), ('wc_16', 0.5100000000000003)]",0.9176800000000003,,,27.0,0.041542,['Pass'],Pass,0.6500000000000005,-0.40000000000000047,2.0,8.0,0.7
463.0,9.0,wc_9,,0.0,,,,142.0,,,,Fail,,,,,
463.0,9.0,wc_9,,0.0,,,77.0,,,,,Fail,,,,,
463.0,9.0,wc_9,,0.0,,,,0.0,,,,Fail,,,,,
463.0,9.0,wc_9,wc_9,0.0,"[('wc_9', 0.5600000000000004)]",0.5600000000000004,,,39.0,0.002204,['Fail'],Fail,0.5600000000000004,-0.5600000000000004,0.0,7.0,0.6
463.0,9.0,wc_9,,0.0,,,,141.0,,,,Fail,,,,,
463.0,9.0,wc_9,wc_14,0.0,"[('wc_14', 0.20000000000000007), ('wc_9', 0.5600000000000004)]",0.6480000000000004,,,31.0,0.004315,['Fail'],Fail,0.20000000000000007,-0.20000000000000007,0.0,1.0,0.1
463.0,9.0,wc_9,,0.0,,,,361.0,,,,Fail,,,,,
463.0,9.0,wc_9,wc_5,1.0,"[('wc_5', 0.7200000000000005), ('wc_9', 0.5600000000000004), ('wc_14', 0.20000000000000007)]",0.9014400000000002,,,33.0,0.04352299999999999,['Fail'],Fail,0.7200000000000005,-0.7200000000000005,0.0,0.0,1.0
473.0,10.0,wc_10,,0.0,,,,142.0,,,,Pass,,,,,
473.0,10.0,wc_10,,0.0,,,80.0,,,,,Pass,,,,,
473.0,10.0,wc_10,,0.0,,,,0.0,,,,Pass,,,,,
473.0,10.0,wc_10,wc_10,0.0,"[('wc_10', 0.3500000000000002)]",0.3500000000000002,,,30.0,0.002337,['Pass'],Pass,0.3500000000000002,-0.016666666666666885,2.0,6.0,0.4
473.0,10.0,wc_10,,0.0,,,,342.0,,,,Pass,,,,,
473.0,10.0,wc_10,wc_3,0.0,"[('wc_10', 0.3500000000000002)]",0.3500000000000002,,,32.0,0.003807,['Pass'],Pass,0.3500000000000002,-0.016666666666666885,1.0,3.0,0.3
473.0,10.0,wc_10,,0.0,,,,101.0,,,,Pass,,,,,
473.0,10.0,wc_10,wc_2,0.0,"[('wc_2', 0.6100000000000004), ('wc_10', 0.3500000000000002)]",0.7465000000000004,,,31.0,0.0062109999999999995,['Pass'],Pass,0.6100000000000004,-0.6100000000000004,0.0,2.0,0.5
473.0,10.0,wc_10,,0.0,,,,182.0,,,,Pass,,,,,
473.0,10.0,wc_10,wc_13,0.0,"[('wc_13', 0.5900000000000004), ('wc_10', 0.3500000000000002), ('wc_2', 0.6100000000000004)]",0.8960650000000002,,,24.0,0.008227,['Pass'],Pass,0.5900000000000004,-0.3677777777777782,2.0,9.0,0.5
473.0,10.0,wc_10,,0.0,,,,341.0,,,,Pass,,,,,
473.0,10.0,wc_10,wc_11,1.0,"[('wc_11', 0.3400000000000002), ('wc_10', 0.3500000000000002), ('wc_2', 0.6100000000000004), ('wc_13', 0.5900000000000004)]",0.9314029000000001,,,23.0,0.053418,['Pass'],Pass,0.3400000000000002,-0.14000000000000018,1.0,5.0,0.2
483.0,8.0,wc_8,,0.0,,,,61.0,,,,Pass,,,,,
483.0,8.0,wc_8,,0.0,,,80.0,,,,,Pass,,,,,
483.0,8.0,wc_8,,0.0,,,,0.0,,,,Pass,,,,,
483.0,8.0,wc_8,wc_8,0.0,"[('wc_8', 0.6500000000000005)]",0.6500000000000005,,,24.0,0.002125,['Pass'],Pass,0.6500000000000005,-0.4961538461538466,0.0,0.0,0.8
483.0,8.0,wc_8,,0.0,,,,0.0,,,,Pass,,,,,
483.0,8.0,wc_8,wc_10,0.0,"[('wc_10', 0.3600000000000002), ('wc_8', 0.6500000000000005)]",0.7760000000000004,,,31.0,0.003862,['Pass'],Pass,0.3600000000000002,0.06857142857142834,3.0,7.0,0.4
483.0,8.0,wc_8,,0.0,,,,0.0,,,,Pass,,,,,
483.0,8.0,wc_8,wc_11,0.0,"[('wc_8', 0.6500000000000005), ('wc_10', 0.3600000000000002)]",0.7760000000000004,,,23.0,0.0060669999999999995,['Pass'],Pass,0.3400000000000002,-0.14000000000000018,1.0,5.0,0.2
483.0,8.0,wc_8,,0.0,,,,61.0,,,,Pass,,,,,
483.0,8.0,wc_8,wc_12,0.0,"[('wc_12', 0.5200000000000004), ('wc_8', 0.6500000000000005), ('wc_10', 0.3600000000000002)]",0.8924800000000003,,,36.0,0.009017999999999998,['Pass'],Pass,0.5200000000000004,-0.5200000000000004,0.0,3.0,0.4
483.0,8.0,wc_8,,0.0,,,,0.0,,,,Pass,,,,,
483.0,8.0,wc_8,wc_16,1.0,"[('wc_16', 0.5100000000000003), ('wc_8', 0.6500000000000005), ('wc_10', 0.3600000000000002), ('wc_12', 0.5200000000000004)]",0.9473152000000001,,,38.0,0.049469,['Pass'],Pass,0.5100000000000003,-0.5100000000000003,0.0,0.0,0.6
491.0,11.0,wc_11,,0.0,,,,382.0,,,,Pass,,,,,
491.0,11.0,wc_11,,0.0,,,79.0,,,,,Pass,,,,,
491.0,11.0,wc_11,,0.0,,,,0.0,,,,Pass,,,,,
491.0,11.0,wc_11,wc_11,0.0,"[('wc_11', 0.3300000000000002)]",0.3300000000000002,,,30.0,0.002209,['Pass'],Pass,0.3300000000000002,-0.16333333333333352,1.0,6.0,0.2
491.0,11.0,wc_11,,0.0,,,,83.0,,,,Pass,,,,,
491.0,11.0,wc_11,wc_9,0.0,"[('wc_9', 0.5600000000000004)]",0.5600000000000004,,,26.0,0.004121,['Fail'],Pass,0.5600000000000004,-0.4600000000000004,0.0,0.0,0.6
491.0,11.0,wc_11,,0.0,,,,121.0,,,,Pass,,,,,
491.0,11.0,wc_11,wc_13,0.0,"[('wc_13', 0.5900000000000004), ('wc_9', 0.5600000000000004)]",0.8196000000000003,,,27.0,0.006814,['Fail'],Pass,0.5900000000000004,-0.5900000000000004,0.0,1.0,0.5
491.0,11.0,wc_11,,0.0,,,,242.0,,,,Pass,,,,,
491.0,11.0,wc_11,wc_2,0.0,"[('wc_9', 0.5600000000000004), ('wc_13', 0.5900000000000004)]",0.8196000000000003,,,23.0,0.009046,['Fail'],Pass,0.6100000000000004,-0.36000000000000043,1.0,4.0,0.5
491.0,11.0,wc_11,,0.0,,,,102.0,,,,Pass,,,,,
491.0,11.0,wc_11,wc_1,0.0,"[('wc_9', 0.5600000000000004), ('wc_13', 0.5900000000000004)]",0.8196000000000003,,,37.0,0.009183,['Fail'],Pass,0.22000000000000008,-0.22000000000000008,0.0,0.0,0.1
491.0,11.0,wc_11,,0.0,,,,0.0,,,,Pass,,,,,
491.0,11.0,wc_11,wc_3,0.0,"[('wc_3', 0.3400000000000002), ('wc_11', 0.3300000000000002), ('wc_2', 0.6100000000000004), ('wc_1', 0.22000000000000008)]",0.8654827600000002,,,26.0,0.010715,['Pass'],Pass,0.3400000000000002,-0.14000000000000018,1.0,5.0,0.3
491.0,11.0,wc_11,,0.0,,,,181.0,,,,Pass,,,,,
491.0,11.0,wc_11,wc_14,0.0,"[('wc_11', 0.3300000000000002), ('wc_2', 0.6100000000000004), ('wc_1', 0.22000000000000008), ('wc_3', 0.3400000000000002)]",0.8654827600000002,,,20.0,0.01238,['Pass'],Pass,0.21000000000000008,0.039999999999999925,1.0,4.0,0.1
491.0,11.0,wc_11,,0.0,,,,0.0,,,,Pass,,,,,
491.0,11.0,wc_11,wc_17,1.0,"[('wc_17', 0.6500000000000005), ('wc_11', 0.3300000000000002), ('wc_2', 0.6100000000000004), ('wc_1', 0.22000000000000008), ('wc_3', 0.3400000000000002)]",0.9529189660000001,,,40.0,0.055287,['Pass'],Pass,0.6500000000000005,-0.5071428571428576,1.0,7.0,1.0
501.0,9.0,wc_9,,0.0,,,,322.0,,,,Fail,,,,,
501.0,9.0,wc_9,,0.0,,,80.0,,,,,Fail,,,,,
501.0,9.0,wc_9,,0.0,,,,0.0,,,,Fail,,,,,
501.0,9.0,wc_9,wc_9,0.0,"[('wc_9', 0.5500000000000004)]",0.5500000000000004,,,37.0,0.002557,['Fail'],Fail,0.5500000000000004,-0.5500000000000004,0.0,1.0,0.6
501.0,9.0,wc_9,,0.0,,,,263.0,,,,Fail,,,,,
501.0,9.0,wc_9,wc_2,0.0,"[('wc_2', 0.6100000000000004), ('wc_9', 0.5500000000000004)]",0.8245000000000003,,,24.0,0.004175,['Fail'],Fail,0.6100000000000004,-0.2100000000000004,2.0,5.0,0.5
501.0,9.0,wc_9,,0.0,,,,142.0,,,,Fail,,,,,
501.0,9.0,wc_9,wc_7,0.0,"[('wc_9', 0.5500000000000004), ('wc_2', 0.6100000000000004)]",0.8245000000000003,,,24.0,0.005686999999999999,['Fail'],Fail,0.6200000000000004,-0.6200000000000004,0.0,6.0,0.6
501.0,9.0,wc_9,,0.0,,,,341.0,,,,Fail,,,,,
501.0,9.0,wc_9,wc_5,1.0,"[('wc_5', 0.7200000000000005), ('wc_9', 0.5500000000000004), ('wc_2', 0.6100000000000004)]",0.9508600000000001,,,31.0,0.04549000000000001,['Fail'],Fail,0.7200000000000005,-0.47000000000000053,1.0,4.0,1.0
508.0,7.0,wc_7,,0.0,,,,81.0,,,,Pass,,,,,
508.0,7.0,wc_7,,0.0,,,77.0,,,,,Pass,,,,,
508.0,7.0,wc_7,,0.0,,,,0.0,,,,Pass,,,,,
508.0,7.0,wc_7,wc_7,0.0,"[('wc_7', 0.6100000000000004)]",0.6100000000000004,,,37.0,0.002714,['Pass'],Pass,0.6100000000000004,-0.6100000000000004,0.0,7.0,0.6
508.0,7.0,wc_7,,0.0,,,,0.0,,,,Pass,,,,,
508.0,7.0,wc_7,wc_9,0.0,"[('wc_7', 0.6100000000000004)]",0.6100000000000004,,,35.0,0.003939,['Pass'],Pass,0.5500000000000004,-0.05000000000000038,1.0,2.0,0.6
508.0,7.0,wc_7,,0.0,,,,162.0,,,,Pass,,,,,
508.0,7.0,wc_7,wc_15,0.0,"[('wc_15', 0.27000000000000013), ('wc_7', 0.6100000000000004)]",0.7153000000000004,,,32.0,0.005602,['Pass'],Pass,0.27000000000000013,-0.2111764705882354,0.0,0.0,0.1
508.0,7.0,wc_7,,0.0,,,,402.0,,,,Pass,,,,,
508.0,7.0,wc_7,wc_3,0.0,"[('wc_3', 0.3400000000000002), ('wc_7', 0.6100000000000004), ('wc_15', 0.27000000000000013)]",0.8120980000000003,,,31.0,0.007516,['Pass'],Pass,0.3400000000000002,-0.05428571428571449,2.0,7.0,0.3
508.0,7.0,wc_7,,0.0,,,,181.0,,,,Pass,,,,,
508.0,7.0,wc_7,wc_14,0.0,"[('wc_7', 0.6100000000000004), ('wc_15', 0.27000000000000013), ('wc_3', 0.3400000000000002)]",0.8120980000000003,,,38.0,0.010345,['Pass'],Pass,0.20000000000000007,-0.03333333333333341,1.0,6.0,0.1
508.0,7.0,wc_7,,0.0,,,,321.0,,,,Pass,,,,,
508.0,7.0,wc_7,wc_11,0.0,"[('wc_7', 0.6100000000000004), ('wc_15', 0.27000000000000013), ('wc_3', 0.3400000000000002)]",0.8120980000000003,,,36.0,0.010811,['Pass'],Pass,0.3300000000000002,-0.08000000000000018,2.0,8.0,0.2
508.0,7.0,wc_7,,0.0,,,,21.0,,,,Pass,,,,,
508.0,7.0,wc_7,wc_6,1.0,"[('wc_6', 0.5300000000000004), ('wc_7', 0.6100000000000004), ('wc_15', 0.27000000000000013), ('wc_3', 0.3400000000000002)]",0.9116860600000002,,,27.0,0.047552,['Pass'],Pass,0.5300000000000004,-0.08555555555555594,4.0,9.0,0.5
522.0,9.0,wc_9,,0.0,,,,0.0,,,,Fail,,,,,
522.0,9.0,wc_9,,0.0,,,80.0,,,,,Fail,,,,,
522.0,9.0,wc_9,,0.0,,,,0.0,,,,Fail,,,,,
522.0,9.0,wc_9,wc_9,0.0,"[('wc_9', 0.5400000000000004)]",0.5400000000000004,,,24.0,0.00225,['Fail'],Fail,0.5400000000000004,-0.20666666666666705,1.0,3.0,0.6
522.0,9.0,wc_9,,0.0,,,,162.0,,,,Fail,,,,,
522.0,9.0,wc_9,wc_15,0.0,"[('wc_9', 0.5400000000000004)]",0.5400000000000004,,,35.0,0.003915,['Fail'],Fail,0.28000000000000014,0.7199999999999999,1.0,1.0,0.1
522.0,9.0,wc_9,,0.0,,,,382.0,,,,Fail,,,,,
522.0,9.0,wc_9,wc_10,0.0,"[('wc_10', 0.3700000000000002), ('wc_15', 0.28000000000000014)]",0.5464000000000002,,,39.0,0.006708,['Pass'],Fail,0.3700000000000002,-0.006363636363636571,0.0,0.0,0.4
522.0,9.0,wc_9,,0.0,,,,342.0,,,,Fail,,,,,
522.0,9.0,wc_9,wc_3,0.0,"[('wc_3', 0.3500000000000002), ('wc_9', 0.5400000000000004)]",0.7010000000000003,,,22.0,0.008594,['Fail'],Fail,0.3500000000000002,0.0249999999999998,3.0,8.0,0.3
522.0,9.0,wc_9,,0.0,,,,202.0,,,,Fail,,,,,
522.0,9.0,wc_9,wc_11,0.0,"[('wc_9', 0.5400000000000004), ('wc_3', 0.3500000000000002)]",0.7010000000000003,,,28.0,0.011289000000000002,['Fail'],Fail,0.3200000000000002,-0.09777777777777796,2.0,9.0,0.2
522.0,9.0,wc_9,,0.0,,,,162.0,,,,Fail,,,,,
522.0,9.0,wc_9,wc_17,0.0,"[('wc_17', 0.6500000000000005), ('wc_9', 0.5400000000000004), ('wc_3', 0.3500000000000002)]",0.8953500000000003,,,24.0,0.011156000000000001,['Fail'],Fail,0.6500000000000005,-0.5388888888888894,1.0,9.0,1.0
522.0,9.0,wc_9,,0.0,,,,223.0,,,,Fail,,,,,
522.0,9.0,wc_9,wc_8,0.0,"[('wc_9', 0.5400000000000004), ('wc_3', 0.3500000000000002), ('wc_17', 0.6500000000000005)]",0.8953500000000003,,,20.0,0.014272,['Fail'],Fail,0.6600000000000005,-0.4100000000000005,1.0,4.0,0.8
522.0,9.0,wc_9,,0.0,,,,301.0,,,,Fail,,,,,
522.0,9.0,wc_9,wc_4,1.0,"[('wc_4', 0.6500000000000005), ('wc_9', 0.5400000000000004), ('wc_3', 0.3500000000000002), ('wc_17', 0.6500000000000005)]",0.9633725000000002,,,38.0,0.04767099999999999,['Fail'],Fail,0.6500000000000005,-0.6500000000000005,0.0,0.0,0.7
536.0,9.0,wc_9,,0.0,,,,142.0,,,,Pass,,,,,
536.0,9.0,wc_9,,0.0,,,76.0,,,,,Pass,,,,,
536.0,9.0,wc_9,,0.0,,,,0.0,,,,Pass,,,,,
536.0,9.0,wc_9,wc_9,0.0,"[('wc_9', 0.5400000000000004)]",0.5400000000000004,,,39.0,0.002261,['Pass'],Pass,0.5400000000000004,-0.04000000000000037,2.0,4.0,0.6
536.0,9.0,wc_9,,0.0,,,,141.0,,,,Pass,,,,,
536.0,9.0,wc_9,wc_14,0.0,"[('wc_9', 0.5400000000000004)]",0.5400000000000004,,,34.0,0.004252000000000001,['Pass'],Pass,0.19000000000000006,-0.06500000000000006,1.0,8.0,0.1
536.0,9.0,wc_9,,0.0,,,,301.0,,,,Pass,,,,,
536.0,9.0,wc_9,wc_10,0.0,"[('wc_10', 0.3600000000000002), ('wc_9', 0.5400000000000004)]",0.7056000000000003,,,21.0,0.005789000000000001,['Pass'],Pass,0.3600000000000002,-0.3600000000000002,0.0,1.0,0.4
536.0,9.0,wc_9,,0.0,,,,142.0,,,,Pass,,,,,
536.0,9.0,wc_9,wc_15,0.0,"[('wc_15', 0.28000000000000014), ('wc_9', 0.5400000000000004), ('wc_10', 0.3600000000000002)]",0.7880320000000003,,,24.0,0.007613,['Pass'],Pass,0.28000000000000014,0.21999999999999986,1.0,2.0,0.1
536.0,9.0,wc_9,,0.0,,,,303.0,,,,Pass,,,,,
536.0,9.0,wc_9,wc_2,0.0,"[('wc_9', 0.5400000000000004), ('wc_10', 0.3600000000000002), ('wc_15', 0.28000000000000014)]",0.7880320000000003,,,24.0,0.009812,['Pass'],Pass,0.6100000000000004,-0.23500000000000043,3.0,8.0,0.5
536.0,9.0,wc_9,,0.0,,,,0.0,,,,Pass,,,,,
536.0,9.0,wc_9,wc_5,1.0,"[('wc_5', 0.7200000000000005), ('wc_9', 0.5400000000000004), ('wc_10', 0.3600000000000002), ('wc_15', 0.28000000000000014)]",0.9406489600000002,,,25.0,0.06539099999999999,['Pass'],Pass,0.7200000000000005,-0.43428571428571483,2.0,7.0,1.0
544.0,12.0,wc_12,,0.0,,,,101.0,,,,Fail,,,,,
544.0,12.0,wc_12,,0.0,,,78.0,,,,,Fail,,,,,
544.0,12.0,wc_12,,0.0,,,,0.0,,,,Fail,,,,,
544.0,12.0,wc_12,wc_12,0.0,"[('wc_12', 0.5200000000000004)]",0.5200000000000004,,,32.0,0.00222,['Fail'],Fail,0.5200000000000004,-0.40888888888888925,1.0,9.0,0.4
544.0,12.0,wc_12,,0.0,,,,0.0,,,,Fail,,,,,
544.0,12.0,wc_12,wc_13,0.0,"[('wc_13', 0.5800000000000004), ('wc_12', 0.5200000000000004)]",0.7984000000000003,,,21.0,0.004645,['Fail'],Fail,0.5800000000000004,-0.5800000000000004,0.0,6.0,0.5
544.0,12.0,wc_12,,0.0,,,,182.0,,,,Fail,,,,,
544.0,12.0,wc_12,wc_7,1.0,"[('wc_7', 0.6100000000000004), ('wc_12', 0.5200000000000004), ('wc_13', 0.5800000000000004)]",0.9213760000000002,,,38.0,0.050245000000000005,['Fail'],Fail,0.6100000000000004,-0.6100000000000004,0.0,0.0,0.6
551.0,12.0,wc_12,,0.0,,,,142.0,,,,Pass,,,,,
551.0,12.0,wc_12,,0.0,,,54.0,,,,,Pass,,,,,
551.0,12.0,wc_12,,0.0,,,,0.0,,,,Pass,,,,,
551.0,12.0,wc_12,wc_12,0.0,"[('wc_12', 0.5200000000000004)]",0.5200000000000004,,,31.0,0.002387,['Pass'],Pass,0.5200000000000004,-0.5200000000000004,0.0,0.0,0.4
551.0,12.0,wc_12,,0.0,,,,0.0,,,,Pass,,,,,
551.0,12.0,wc_12,wc_16,0.0,"[('wc_16', 0.5100000000000003), ('wc_12', 0.5200000000000004)]",0.7648000000000004,,,30.0,0.004868,['Pass'],Pass,0.5100000000000003,-0.5100000000000003,0.0,6.0,0.6
551.0,12.0,wc_12,,0.0,,,,103.0,,,,Pass,,,,,
551.0,12.0,wc_12,wc_15,0.0,"[('wc_15', 0.29000000000000015), ('wc_12', 0.5200000000000004), ('wc_16', 0.5100000000000003)]",0.8330080000000003,,,21.0,0.00643,['Pass'],Pass,0.29000000000000015,0.20999999999999985,2.0,4.0,0.1
551.0,12.0,wc_12,,0.0,,,,0.0,,,,Pass,,,,,
551.0,12.0,wc_12,wc_17,1.0,"[('wc_17', 0.6500000000000005), ('wc_12', 0.5200000000000004), ('wc_16', 0.5100000000000003), ('wc_15', 0.29000000000000015)]",0.9415528000000002,,,21.0,0.05743600000000001,['Pass'],Pass,0.6500000000000005,-0.31666666666666715,1.0,3.0,1.0
558.0,13.0,wc_13,,0.0,,,,41.0,,,,Fail,,,,,
558.0,13.0,wc_13,,0.0,,,70.0,,,,,Fail,,,,,
558.0,13.0,wc_13,,0.0,,,,0.0,,,,Fail,,,,,
558.0,13.0,wc_13,wc_13,0.0,"[('wc_13', 0.5800000000000004)]",0.5800000000000004,,,33.0,0.002512,['Pass'],Fail,0.5800000000000004,-0.4550000000000004,1.0,8.0,0.5
558.0,13.0,wc_13,,0.0,,,,202.0,,,,Fail,,,,,
558.0,13.0,wc_13,wc_8,0.0,"[('wc_8', 0.6500000000000005)]",0.6500000000000005,,,36.0,0.004568,['Fail'],Fail,0.6500000000000005,-0.5250000000000005,1.0,8.0,0.8
558.0,13.0,wc_13,,0.0,,,,223.0,,,,Fail,,,,,
558.0,13.0,wc_13,wc_17,0.0,"[('wc_17', 0.6500000000000005), ('wc_8', 0.6500000000000005)]",0.8775000000000003,,,40.0,0.007155999999999999,['Fail'],Fail,0.6500000000000005,-0.31666666666666715,1.0,3.0,1.0
558.0,13.0,wc_13,,0.0,,,,83.0,,,,Fail,,,,,
558.0,13.0,wc_13,wc_15,0.0,"[('wc_8', 0.6500000000000005), ('wc_17', 0.6500000000000005)]",0.8775000000000003,,,26.0,0.009441,['Fail'],Fail,0.30000000000000016,0.2999999999999998,3.0,5.0,0.1
558.0,13.0,wc_13,,0.0,,,,402.0,,,,Fail,,,,,
558.0,13.0,wc_13,wc_3,0.0,"[('wc_8', 0.6500000000000005), ('wc_17', 0.6500000000000005)]",0.8775000000000003,,,31.0,0.010440999999999999,['Fail'],Fail,0.3600000000000002,-0.026666666666666894,0.0,0.0,0.3
558.0,13.0,wc_13,,0.0,,,,121.0,,,,Fail,,,,,
558.0,13.0,wc_13,wc_7,1.0,"[('wc_7', 0.6100000000000004), ('wc_8', 0.6500000000000005), ('wc_17', 0.6500000000000005)]",0.9522250000000002,,,35.0,0.058892000000000014,['Fail'],Fail,0.6100000000000004,-0.11000000000000043,1.0,2.0,0.6
565.0,13.0,wc_13,,0.0,,,,162.0,,,,Fail,,,,,
565.0,13.0,wc_13,,0.0,,,72.0,,,,,Fail,,,,,
565.0,13.0,wc_13,,0.0,,,,0.0,,,,Fail,,,,,
565.0,13.0,wc_13,wc_13,0.0,"[('wc_13', 0.5700000000000004)]",0.5700000000000004,,,23.0,0.003918,['Fail'],Fail,0.5700000000000004,-0.4588888888888893,1.0,9.0,0.5
565.0,13.0,wc_13,,0.0,,,,361.0,,,,Fail,,,,,
565.0,13.0,wc_13,wc_4,0.0,"[('wc_4', 0.6500000000000005), ('wc_13', 0.5700000000000004)]",0.8495000000000004,,,35.0,0.004214,['Fail'],Fail,0.6500000000000005,-0.6500000000000005,0.0,4.0,0.7
565.0,13.0,wc_13,,0.0,,,,103.0,,,,Fail,,,,,
565.0,13.0,wc_13,wc_3,1.0,"[('wc_3', 0.3500000000000002), ('wc_13', 0.5700000000000004), ('wc_4', 0.6500000000000005)]",0.9021750000000003,,,40.0,0.04170299999999999,['Fail'],Fail,0.3600000000000002,0.1399999999999998,1.0,2.0,0.3
571.0,13.0,wc_13,,0.0,,,,161.0,,,,Pass,,,,,
571.0,13.0,wc_13,,0.0,,,50.0,,,,,Pass,,,,,
571.0,13.0,wc_13,,0.0,,,,0.0,,,,Pass,,,,,
571.0,13.0,wc_13,wc_13,0.0,"[('wc_13', 0.5700000000000004)]",0.5700000000000004,,,21.0,0.00256,['Pass'],Pass,0.5700000000000004,-0.5700000000000004,0.0,0.0,0.5
571.0,13.0,wc_13,,0.0,,,,0.0,,,,Pass,,,,,
571.0,13.0,wc_13,wc_16,0.0,"[('wc_16', 0.5100000000000003), ('wc_13', 0.5700000000000004)]",0.7893000000000003,,,37.0,0.004018,['Pass'],Pass,0.5100000000000003,-0.39888888888888924,1.0,9.0,0.6
571.0,13.0,wc_13,,0.0,,,,382.0,,,,Pass,,,,,
571.0,13.0,wc_13,wc_3,0.0,"[('wc_3', 0.3600000000000002), ('wc_13', 0.5700000000000004), ('wc_16', 0.5100000000000003)]",0.8651520000000003,,,39.0,0.0057859999999999995,['Pass'],Pass,0.3600000000000002,0.1399999999999998,1.0,2.0,0.3
571.0,13.0,wc_13,,0.0,,,,202.0,,,,Pass,,,,,
571.0,13.0,wc_13,wc_15,0.0,"[('wc_13', 0.5700000000000004), ('wc_16', 0.5100000000000003), ('wc_3', 0.3600000000000002)]",0.8651520000000003,,,35.0,0.008444,['Pass'],Pass,0.30000000000000016,0.1285714285714284,3.0,7.0,0.1
571.0,13.0,wc_13,,0.0,,,,263.0,,,,Pass,,,,,
571.0,13.0,wc_13,wc_8,1.0,"[('wc_8', 0.6500000000000005), ('wc_13', 0.5700000000000004), ('wc_16', 0.5100000000000003), ('wc_3', 0.3600000000000002)]",0.9528032000000002,,,33.0,0.046058,['Pass'],Pass,0.6500000000000005,-0.6500000000000005,0.0,0.0,0.8
577.0,16.0,wc_16,,0.0,,,,203.0,,,,Fail,,,,,
577.0,16.0,wc_16,,0.0,,,80.0,,,,,Fail,,,,,
577.0,16.0,wc_16,,0.0,,,,0.0,,,,Fail,,,,,
577.0,16.0,wc_16,wc_16,0.0,"[('wc_16', 0.5100000000000003)]",0.5100000000000003,,,36.0,0.002587,['Fail'],Fail,0.5100000000000003,-0.5100000000000003,0.0,0.0,0.6
577.0,16.0,wc_16,,0.0,,,,263.0,,,,Fail,,,,,
577.0,16.0,wc_16,wc_1,0.0,"[('wc_16', 0.5100000000000003)]",0.5100000000000003,,,29.0,0.004442,['Fail'],Fail,0.2300000000000001,-0.1300000000000001,0.0,0.0,0.1
577.0,16.0,wc_16,,0.0,,,,0.0,,,,Fail,,,,,
577.0,16.0,wc_16,wc_3,0.0,"[('wc_3', 0.3700000000000002), ('wc_16', 0.5100000000000003)]",0.6913000000000002,,,36.0,0.005972999999999999,['Fail'],Fail,0.3700000000000002,0.2966666666666664,2.0,3.0,0.3
577.0,16.0,wc_16,,0.0,,,,162.0,,,,Fail,,,,,
577.0,16.0,wc_16,wc_9,0.0,"[('wc_16', 0.5100000000000003), ('wc_3', 0.3700000000000002)]",0.6913000000000002,,,21.0,0.007716000000000001,['Fail'],Fail,0.5500000000000004,-0.2500000000000004,0.0,0.0,0.6
577.0,16.0,wc_16,,0.0,,,,81.0,,,,Fail,,,,,
577.0,16.0,wc_16,wc_7,0.0,"[('wc_7', 0.6100000000000004), ('wc_16', 0.5100000000000003), ('wc_3', 0.3700000000000002)]",0.8796070000000002,,,28.0,0.010063,['Fail'],Fail,0.6100000000000004,-0.36000000000000043,1.0,4.0,0.6
577.0,16.0,wc_16,,0.0,,,,341.0,,,,Fail,,,,,
577.0,16.0,wc_16,wc_5,1.0,"[('wc_5', 0.7200000000000005), ('wc_16', 0.5100000000000003), ('wc_3', 0.3700000000000002), ('wc_7', 0.6100000000000004)]",0.9662899600000001,,,32.0,0.052507,['Fail'],Fail,0.7200000000000005,-0.7200000000000005,0.0,0.0,1.0
584.0,14.0,wc_14,,0.0,,,,141.0,,,,Fail,,,,,
584.0,14.0,wc_14,,0.0,,,58.0,,,,,Fail,,,,,
584.0,14.0,wc_14,,0.0,,,,0.0,,,,Fail,,,,,
584.0,14.0,wc_14,wc_14,0.0,"[('wc_14', 0.18000000000000005)]",0.18000000000000005,,,29.0,0.002393,['Pass'],Fail,0.18000000000000005,-0.11333333333333338,0.0,0.0,0.1
584.0,14.0,wc_14,,0.0,,,,102.0,,,,Fail,,,,,
584.0,14.0,wc_14,wc_13,0.0,"[('wc_13', 0.5800000000000004), ('wc_14', 0.18000000000000005)]",0.6556000000000004,,,25.0,0.004579,['Pass'],Fail,0.5800000000000004,-0.0800000000000004,1.0,2.0,0.5
584.0,14.0,wc_14,,0.0,,,,381.0,,,,Fail,,,,,
584.0,14.0,wc_14,wc_5,0.0,"[('wc_5', 0.7200000000000005)]",0.7200000000000005,,,24.0,0.006645,['Fail'],Fail,0.7200000000000005,-0.7200000000000005,0.0,0.0,1.0
584.0,14.0,wc_14,,0.0,,,,101.0,,,,Fail,,,,,
584.0,14.0,wc_14,wc_8,0.0,"[('wc_8', 0.6500000000000005), ('wc_14', 0.18000000000000005), ('wc_13', 0.5800000000000004)]",0.8794600000000002,,,22.0,0.009366,['Pass'],Fail,0.6500000000000005,-0.6500000000000005,0.0,1.0,0.8
584.0,14.0,wc_14,,0.0,,,,122.0,,,,Fail,,,,,
584.0,14.0,wc_14,wc_12,0.0,"[('wc_14', 0.18000000000000005), ('wc_13', 0.5800000000000004), ('wc_8', 0.6500000000000005)]",0.8794600000000002,,,23.0,0.009904999999999999,['Pass'],Fail,0.5300000000000004,-0.33000000000000035,1.0,5.0,0.4
584.0,14.0,wc_14,,0.0,,,,0.0,,,,Fail,,,,,
584.0,14.0,wc_14,wc_15,1.0,"[('wc_15', 0.30000000000000016), ('wc_14', 0.18000000000000005), ('wc_13', 0.5800000000000004), ('wc_8', 0.6500000000000005)]",0.9156220000000002,,,25.0,0.052124000000000004,['Pass'],Fail,0.31000000000000016,-0.31000000000000016,0.0,0.0,0.1
590.0,15.0,wc_15,,0.0,,,,0.0,,,,Fail,,,,,
590.0,15.0,wc_15,,0.0,,,74.0,,,,,Fail,,,,,
590.0,15.0,wc_15,,0.0,,,,0.0,,,,Fail,,,,,
590.0,15.0,wc_15,wc_15,0.0,"[('wc_15', 0.31000000000000016)]",0.31000000000000016,,,30.0,0.002856,['Fail'],Fail,0.31000000000000016,-0.31000000000000016,0.0,0.0,0.1
590.0,15.0,wc_15,,0.0,,,,362.0,,,,Fail,,,,,
590.0,15.0,wc_15,wc_9,0.0,"[('wc_9', 0.5400000000000004), ('wc_15', 0.31000000000000016)]",0.6826000000000003,,,31.0,0.004273,['Fail'],Fail,0.5400000000000004,-0.5400000000000004,0.0,2.0,0.6
590.0,15.0,wc_15,,0.0,,,,121.0,,,,Fail,,,,,
590.0,15.0,wc_15,wc_13,0.0,"[('wc_15', 0.31000000000000016), ('wc_9', 0.5400000000000004)]",0.6826000000000003,,,27.0,0.00624,['Fail'],Fail,0.5900000000000004,0.07666666666666622,2.0,3.0,0.5
590.0,15.0,wc_15,,0.0,,,,0.0,,,,Fail,,,,,
590.0,15.0,wc_15,wc_16,0.0,"[('wc_16', 0.5200000000000004), ('wc_15', 0.31000000000000016), ('wc_9', 0.5400000000000004)]",0.8476480000000003,,,28.0,0.009152,['Fail'],Fail,0.5200000000000004,-0.02000000000000035,1.0,2.0,0.6
590.0,15.0,wc_15,,0.0,,,,203.0,,,,Fail,,,,,
590.0,15.0,wc_15,wc_6,1.0,"[('wc_6', 0.5300000000000004), ('wc_15', 0.31000000000000016), ('wc_9', 0.5400000000000004), ('wc_16', 0.5200000000000004)]",0.9283945600000002,,,29.0,0.069352,['Fail'],Fail,0.5300000000000004,-0.5300000000000004,0.0,0.0,0.5
596.0,15.0,wc_15,,0.0,,,,223.0,,,,Fail,,,,,
596.0,15.0,wc_15,,0.0,,,60.0,,,,,Fail,,,,,
596.0,15.0,wc_15,,0.0,,,,0.0,,,,Fail,,,,,
596.0,15.0,wc_15,wc_15,0.0,"[('wc_15', 0.3200000000000002)]",0.3200000000000002,,,38.0,0.0022,['Pass'],Fail,0.3200000000000002,0.6799999999999998,1.0,1.0,0.1
596.0,15.0,wc_15,,0.0,,,,362.0,,,,Fail,,,,,
596.0,15.0,wc_15,wc_9,0.0,"[('wc_9', 0.5400000000000004)]",0.5400000000000004,,,31.0,0.004062,['Fail'],Fail,0.5400000000000004,-0.20666666666666705,1.0,3.0,0.6
596.0,15.0,wc_15,,0.0,,,,382.0,,,,Fail,,,,,
596.0,15.0,wc_15,wc_4,0.0,"[('wc_4', 0.6500000000000005), ('wc_9', 0.5400000000000004)]",0.8390000000000004,,,33.0,0.006245,['Fail'],Fail,0.6500000000000005,-0.5388888888888894,1.0,9.0,0.7
596.0,15.0,wc_15,,0.0,,,,121.0,,,,Fail,,,,,
596.0,15.0,wc_15,wc_12,1.0,"[('wc_12', 0.5200000000000004), ('wc_9', 0.5400000000000004), ('wc_4', 0.6500000000000005)]",0.9227200000000002,,,36.0,0.043178,['Fail'],Fail,0.5200000000000004,-0.27000000000000035,2.0,8.0,0.4
602.0,15.0,wc_15,,0.0,,,,0.0,,,,Fail,,,,,
602.0,15.0,wc_15,,0.0,,,71.0,,,,,Fail,,,,,
602.0,15.0,wc_15,,0.0,,,,0.0,,,,Fail,,,,,
602.0,15.0,wc_15,wc_15,0.0,"[('wc_15', 0.3200000000000002)]",0.3200000000000002,,,37.0,0.002338,['Fail'],Fail,0.3200000000000002,0.17999999999999983,1.0,2.0,0.1
602.0,15.0,wc_15,,0.0,,,,402.0,,,,Fail,,,,,
602.0,15.0,wc_15,wc_11,0.0,"[('wc_15', 0.3200000000000002)]",0.3200000000000002,,,33.0,0.004013,['Fail'],Fail,0.31000000000000016,-0.31000000000000016,0.0,0.0,0.2
602.0,15.0,wc_15,,0.0,,,,162.0,,,,Fail,,,,,
602.0,15.0,wc_15,wc_17,0.0,"[('wc_17', 0.6500000000000005), ('wc_15', 0.3200000000000002)]",0.7620000000000003,,,23.0,0.006075,['Fail'],Fail,0.6500000000000005,-0.45000000000000046,0.0,0.0,1.0
602.0,15.0,wc_15,,0.0,,,,61.0,,,,Fail,,,,,
602.0,15.0,wc_15,wc_14,0.0,"[('wc_15', 0.3200000000000002), ('wc_17', 0.6500000000000005)]",0.7620000000000003,,,34.0,0.007787,['Fail'],Fail,0.19000000000000006,0.14333333333333326,1.0,3.0,0.1
602.0,15.0,wc_15,,0.0,,,,162.0,,,,Fail,,,,,
602.0,15.0,wc_15,wc_7,1.0,"[('wc_7', 0.6100000000000004), ('wc_15', 0.3200000000000002), ('wc_17', 0.6500000000000005)]",0.9071800000000002,,,32.0,0.049145999999999995,['Fail'],Fail,0.6100000000000004,-0.2766666666666671,3.0,9.0,0.6
609.0,14.0,wc_14,,0.0,,,,182.0,,,,Pass,,,,,
609.0,14.0,wc_14,,0.0,,,74.0,,,,,Pass,,,,,
609.0,14.0,wc_14,,0.0,,,,0.0,,,,Pass,,,,,
609.0,14.0,wc_14,wc_14,0.0,"[('wc_14', 0.19000000000000006)]",0.19000000000000006,,,27.0,0.00213,['Pass'],Pass,0.19000000000000006,0.05999999999999994,1.0,4.0,0.1
609.0,14.0,wc_14,,0.0,,,,102.0,,,,Pass,,,,,
609.0,14.0,wc_14,wc_13,0.0,"[('wc_13', 0.5800000000000004), ('wc_14', 0.19000000000000006)]",0.6598000000000004,,,30.0,0.004059999999999999,['Pass'],Pass,0.5800000000000004,-0.2466666666666671,2.0,6.0,0.5
609.0,14.0,wc_14,,0.0,,,,162.0,,,,Pass,,,,,
609.0,14.0,wc_14,wc_6,0.0,"[('wc_6', 0.5300000000000004), ('wc_14', 0.19000000000000006), ('wc_13', 0.5800000000000004)]",0.8401060000000002,,,21.0,0.005830999999999999,['Pass'],Pass,0.5300000000000004,-0.5300000000000004,0.0,2.0,0.5
609.0,14.0,wc_14,,0.0,,,,341.0,,,,Pass,,,,,
609.0,14.0,wc_14,wc_4,1.0,"[('wc_4', 0.6500000000000005), ('wc_14', 0.19000000000000006), ('wc_13', 0.5800000000000004), ('wc_6', 0.5300000000000004)]",0.9440371000000002,,,20.0,0.04819,['Pass'],Pass,0.6500000000000005,-0.15000000000000047,1.0,2.0,0.7
617.0,16.0,wc_16,,0.0,,,,202.0,,,,Pass,,,,,
617.0,16.0,wc_16,,0.0,,,76.0,,,,,Pass,,,,,
617.0,16.0,wc_16,,0.0,,,,0.0,,,,Pass,,,,,
617.0,16.0,wc_16,wc_16,0.0,"[('wc_16', 0.5300000000000004)]",0.5300000000000004,,,24.0,0.002219,['Pass'],Pass,0.5300000000000004,-0.19666666666666704,2.0,6.0,0.6
617.0,16.0,wc_16,,0.0,,,,41.0,,,,Pass,,,,,
617.0,16.0,wc_16,wc_12,0.0,"[('wc_16', 0.5300000000000004)]",0.5300000000000004,,,22.0,0.003887,['Pass'],Pass,0.5200000000000004,-0.32000000000000034,0.0,0.0,0.4
617.0,16.0,wc_16,,0.0,,,,262.0,,,,Pass,,,,,
617.0,16.0,wc_16,wc_2,0.0,"[('wc_2', 0.6000000000000004), ('wc_12', 0.5200000000000004)]",0.8080000000000003,,,37.0,0.0057870000000000005,['Fail'],Pass,0.6000000000000004,-0.4500000000000004,0.0,0.0,0.5
617.0,16.0,wc_16,,0.0,,,,0.0,,,,Pass,,,,,
617.0,16.0,wc_16,wc_5,0.0,"[('wc_5', 0.7100000000000005), ('wc_16', 0.5300000000000004)]",0.8637000000000004,,,36.0,0.008542000000000001,['Pass'],Pass,0.7100000000000005,-0.7100000000000005,0.0,5.0,1.0
617.0,16.0,wc_16,,0.0,,,,122.0,,,,Pass,,,,,
617.0,16.0,wc_16,wc_9,1.0,"[('wc_9', 0.5400000000000004), ('wc_16', 0.5300000000000004), ('wc_5', 0.7100000000000005)]",0.9373020000000002,,,20.0,0.04606,['Pass'],Pass,0.5400000000000004,-0.11142857142857182,3.0,7.0,0.6
627.0,15.0,wc_15,,0.0,,,,162.0,,,,Pass,,,,,
627.0,15.0,wc_15,,0.0,,,70.0,,,,,Pass,,,,,
627.0,15.0,wc_15,,0.0,,,,0.0,,,,Pass,,,,,
627.0,15.0,wc_15,wc_15,0.0,"[('wc_15', 0.3300000000000002)]",0.3300000000000002,,,23.0,0.002596,['Fail'],Pass,0.3300000000000002,0.06999999999999984,2.0,5.0,0.1
627.0,15.0,wc_15,,0.0,,,,61.0,,,,Pass,,,,,
627.0,15.0,wc_15,wc_12,0.0,"[('wc_12', 0.5100000000000003)]",0.5100000000000003,,,32.0,0.004324,['Pass'],Pass,0.5100000000000003,-0.5100000000000003,0.0,1.0,0.4
627.0,15.0,wc_15,,0.0,,,,222.0,,,,Pass,,,,,
627.0,15.0,wc_15,wc_8,0.0,"[('wc_8', 0.6500000000000005), ('wc_12', 0.5100000000000003)]",0.8285000000000003,,,34.0,0.0058200000000000005,['Pass'],Pass,0.6500000000000005,-0.5071428571428576,1.0,7.0,0.8
627.0,15.0,wc_15,,0.0,,,,162.0,,,,Pass,,,,,
627.0,15.0,wc_15,wc_1,0.0,"[('wc_1', 0.22000000000000008), ('wc_12', 0.5100000000000003), ('wc_8', 0.6500000000000005)]",0.8662300000000003,,,23.0,0.007629,['Pass'],Pass,0.22000000000000008,-0.22000000000000008,0.0,7.0,0.1
627.0,15.0,wc_15,,0.0,,,,162.0,,,,Pass,,,,,
627.0,15.0,wc_15,wc_7,1.0,"[('wc_7', 0.6100000000000004), ('wc_12', 0.5100000000000003), ('wc_8', 0.6500000000000005), ('wc_1', 0.22000000000000008)]",0.9478297000000002,,,32.0,0.04427,['Pass'],Pass,0.6100000000000004,-0.6100000000000004,0.0,0.0,0.6
632.0,17.0,wc_17,,0.0,,,,243.0,,,,Fail,,,,,
632.0,17.0,wc_17,,0.0,,,53.0,,,,,Fail,,,,,
632.0,17.0,wc_17,,0.0,,,,0.0,,,,Fail,,,,,
632.0,17.0,wc_17,wc_17,0.0,"[('wc_17', 0.6600000000000005)]",0.6600000000000005,,,22.0,0.002291,['Fail'],Fail,0.6600000000000005,-0.4100000000000005,1.0,4.0,1.0
632.0,17.0,wc_17,,0.0,,,,183.0,,,,Fail,,,,,
632.0,17.0,wc_17,wc_6,0.0,"[('wc_6', 0.5300000000000004), ('wc_17', 0.6600000000000005)]",0.8402000000000003,,,36.0,0.004343,['Fail'],Fail,0.5300000000000004,-0.33000000000000035,1.0,5.0,0.5
632.0,17.0,wc_17,,0.0,,,,361.0,,,,Fail,,,,,
632.0,17.0,wc_17,wc_5,1.0,"[('wc_5', 0.7100000000000005), ('wc_17', 0.6600000000000005), ('wc_6', 0.5300000000000004)]",0.9536580000000002,,,22.0,0.041864,['Fail'],Fail,0.7100000000000005,-0.4600000000000005,2.0,8.0,1.0
635.0,17.0,wc_17,,0.0,,,,202.0,,,,Fail,,,,,
635.0,17.0,wc_17,,0.0,,,51.0,,,,,Fail,,,,,
635.0,17.0,wc_17,,0.0,,,,0.0,,,,Fail,,,,,
635.0,17.0,wc_17,wc_17,0.0,"[('wc_17', 0.6600000000000005)]",0.6600000000000005,,,24.0,0.002421,['Fail'],Fail,0.6600000000000005,-0.26000000000000045,2.0,5.0,1.0
635.0,17.0,wc_17,,0.0,,,,322.0,,,,Fail,,,,,
635.0,17.0,wc_17,wc_9,0.0,"[('wc_9', 0.5400000000000004), ('wc_17', 0.6600000000000005)]",0.8436000000000003,,,25.0,0.004269,['Fail'],Fail,0.5400000000000004,-0.20666666666666705,3.0,9.0,0.6
635.0,17.0,wc_17,,0.0,,,,81.0,,,,Fail,,,,,
635.0,17.0,wc_17,wc_7,1.0,"[('wc_7', 0.6100000000000004), ('wc_17', 0.6600000000000005), ('wc_9', 0.5400000000000004)]",0.9390040000000002,,,26.0,0.045682,['Fail'],Fail,0.6100000000000004,-0.11000000000000043,1.0,2.0,0.6
640.0,17.0,wc_17,,0.0,,,,243.0,,,,Fail,,,,,
640.0,17.0,wc_17,,0.0,,,66.0,,,,,Fail,,,,,
640.0,17.0,wc_17,,0.0,,,,0.0,,,,Fail,,,,,
640.0,17.0,wc_17,wc_17,0.0,"[('wc_17', 0.6600000000000005)]",0.6600000000000005,,,38.0,0.002192,['Fail'],Fail,0.6600000000000005,-0.16000000000000048,3.0,6.0,1.0
640.0,17.0,wc_17,,0.0,,,,243.0,,,,Fail,,,,,
640.0,17.0,wc_17,wc_1,0.0,"[('wc_17', 0.6600000000000005)]",0.6600000000000005,,,35.0,0.004099,['Fail'],Fail,0.22000000000000008,-0.12000000000000008,0.0,0.0,0.1
640.0,17.0,wc_17,,0.0,,,,222.0,,,,Fail,,,,,
640.0,17.0,wc_17,wc_14,0.0,"[('wc_14', 0.20000000000000007), ('wc_17', 0.6600000000000005)]",0.7280000000000004,,,34.0,0.0061719999999999995,['Fail'],Fail,0.20000000000000007,0.022222222222222143,2.0,9.0,0.1
640.0,17.0,wc_17,,0.0,,,,142.0,,,,Fail,,,,,
640.0,17.0,wc_17,wc_6,0.0,"[('wc_17', 0.6600000000000005), ('wc_14', 0.20000000000000007)]",0.7280000000000004,,,25.0,0.007884,['Fail'],Fail,0.5300000000000004,-0.24428571428571466,2.0,7.0,0.5
640.0,17.0,wc_17,,0.0,,,,0.0,,,,Fail,,,,,
640.0,17.0,wc_17,wc_10,0.0,"[('wc_10', 0.3700000000000002), ('wc_17', 0.6600000000000005), ('wc_14', 0.20000000000000007)]",0.8286400000000003,,,30.0,0.010289000000000001,['Fail'],Fail,0.3700000000000002,-0.3111764705882355,0.0,0.0,0.4
640.0,17.0,wc_17,,0.0,,,,362.0,,,,Fail,,,,,
640.0,17.0,wc_17,wc_4,1.0,"[('wc_4', 0.6500000000000005), ('wc_17', 0.6600000000000005), ('wc_14', 0.20000000000000007), ('wc_10', 0.3700000000000002)]",0.9400240000000002,,,26.0,0.049646,['Fail'],Fail,0.6500000000000005,-0.36428571428571477,2.0,7.0,0.7
649.0,17.0,wc_17,,0.0,,,,222.0,,,,Fail,,,,,
649.0,17.0,wc_17,,0.0,,,61.0,,,,,Fail,,,,,
649.0,17.0,wc_17,,0.0,,,,0.0,,,,Fail,,,,,
649.0,17.0,wc_17,wc_17,0.0,"[('wc_17', 0.6600000000000005)]",0.6600000000000005,,,21.0,0.002263,['Fail'],Fail,0.6600000000000005,-0.08857142857142908,4.0,7.0,1.0
649.0,17.0,wc_17,,0.0,,,,21.0,,,,Fail,,,,,
649.0,17.0,wc_17,wc_12,0.0,"[('wc_12', 0.5100000000000003), ('wc_17', 0.6600000000000005)]",0.8334000000000004,,,39.0,0.004815,['Fail'],Fail,0.5100000000000003,-0.31000000000000033,1.0,5.0,0.4
649.0,17.0,wc_17,,0.0,,,,262.0,,,,Fail,,,,,
649.0,17.0,wc_17,wc_2,1.0,"[('wc_2', 0.5900000000000004), ('wc_17', 0.6600000000000005), ('wc_12', 0.5100000000000003)]",0.9316940000000002,,,35.0,0.044494,['Fail'],Fail,0.5900000000000004,-0.4233333333333338,1.0,6.0,0.5
653.0,17.0,wc_17,,0.0,,,,263.0,,,,Pass,,,,,
653.0,17.0,wc_17,,0.0,,,50.0,,,,,Pass,,,,,
653.0,17.0,wc_17,,0.0,,,,0.0,,,,Pass,,,,,
653.0,17.0,wc_17,wc_17,0.0,"[('wc_17', 0.6600000000000005)]",0.6600000000000005,,,30.0,0.002516,['Pass'],Pass,0.6600000000000005,-0.035000000000000475,5.0,8.0,1.0
653.0,17.0,wc_17,,0.0,,,,362.0,,,,Pass,,,,,
653.0,17.0,wc_17,wc_11,0.0,"[('wc_17', 0.6600000000000005)]",0.6600000000000005,,,20.0,0.004475,['Pass'],Pass,0.30000000000000016,-0.30000000000000016,0.0,8.0,0.2
653.0,17.0,wc_17,,0.0,,,,203.0,,,,Pass,,,,,
653.0,17.0,wc_17,wc_1,0.0,"[('wc_17', 0.6600000000000005)]",0.6600000000000005,,,37.0,0.0055839999999999996,['Pass'],Pass,0.21000000000000008,-0.21000000000000008,0.0,2.0,0.1
653.0,17.0,wc_17,,0.0,,,,142.0,,,,Pass,,,,,
653.0,17.0,wc_17,wc_6,0.0,"[('wc_6', 0.5200000000000004), ('wc_17', 0.6600000000000005)]",0.8368000000000003,,,38.0,0.007092,['Pass'],Pass,0.5200000000000004,-0.29777777777777814,2.0,9.0,0.5
653.0,17.0,wc_17,,0.0,,,,222.0,,,,Pass,,,,,
653.0,17.0,wc_17,wc_2,0.0,"[('wc_17', 0.6600000000000005), ('wc_6', 0.5200000000000004)]",0.8368000000000003,,,24.0,0.009214,['Pass'],Pass,0.5900000000000004,-0.4233333333333338,1.0,6.0,0.5
653.0,17.0,wc_17,,0.0,,,,202.0,,,,Pass,,,,,
653.0,17.0,wc_17,wc_14,0.0,"[('wc_17', 0.6600000000000005), ('wc_6', 0.5200000000000004)]",0.8368000000000003,,,31.0,0.011221,['Pass'],Pass,0.21000000000000008,-0.21000000000000008,0.0,1.0,0.1
653.0,17.0,wc_17,,0.0,,,,0.0,,,,Pass,,,,,
653.0,17.0,wc_17,wc_16,1.0,"[('wc_16', 0.5300000000000004), ('wc_17', 0.6600000000000005), ('wc_6', 0.5200000000000004)]",0.9232960000000002,,,34.0,0.052752999999999994,['Pass'],Pass,0.5300000000000004,-0.5300000000000004,0.0,0.0,0.6
