mpecck/BCQC/bcqc_with_qdt/results/raw/input_14/independent_qc/training/20_workpiece/20200429_095223/wp_14_qc_majority_0.9.csv
production_index,step_idx,production_workcell,qc,consent,winner_qc_list,score,production_time,transport_time,inspection_time,network_time,qc_results,actual_quality,qc_score,score_error,in_winner_counter,in_qc_counter,qc_capability
49.0,1.0,wc_1,,0.0,,,70.0,,,,,Fail,,,,,
49.0,1.0,wc_1,,0.0,,,,0.0,,,,Fail,,,,,
49.0,1.0,wc_1,wc_1,0.0,"[('wc_1', 0.29000000000000015)]",0.29000000000000015,,,24.0,0.002362,['Pass'],Fail,0.29000000000000015,-0.17888888888888904,1.0,9.0,0.1
49.0,1.0,wc_1,,0.0,,,,0.0,,,,Fail,,,,,
49.0,1.0,wc_1,wc_2,0.0,"[('wc_2', 0.7600000000000006)]",0.7600000000000006,,,36.0,0.004555999999999999,['Fail'],Fail,0.7600000000000006,0.23999999999999944,1.0,1.0,1.0
49.0,1.0,wc_1,,0.0,,,,183.0,,,,Fail,,,,,
49.0,1.0,wc_1,wc_9,0.0,"[('wc_9', 0.7400000000000005), ('wc_2', 0.7600000000000006)]",0.9376000000000003,,,36.0,0.005866,['Fail'],Fail,0.7400000000000005,-0.40666666666666723,2.0,6.0,0.6
49.0,1.0,wc_1,,0.0,,,,362.0,,,,Fail,,,,,
49.0,1.0,wc_1,wc_3,0.0,"[('wc_2', 0.7600000000000006), ('wc_9', 0.7400000000000005)]",0.9376000000000003,,,39.0,0.007730999999999999,['Fail'],Fail,0.3200000000000002,-0.3200000000000002,0.0,0.0,0.2
49.0,1.0,wc_1,,0.0,,,,121.0,,,,Fail,,,,,
49.0,1.0,wc_1,wc_7,1.0,"[('wc_7', 0.6700000000000005), ('wc_2', 0.7600000000000006), ('wc_9', 0.7400000000000005)]",0.9794080000000002,,,33.0,0.051011,['Fail'],Fail,0.6700000000000005,-0.6700000000000005,0.0,0.0,0.9
158.0,1.0,wc_1,,0.0,,,,182.0,,,,Pass,,,,,
158.0,1.0,wc_1,,0.0,,,76.0,,,,,Pass,,,,,
158.0,1.0,wc_1,,0.0,,,,0.0,,,,Pass,,,,,
158.0,1.0,wc_1,wc_1,0.0,"[('wc_1', 0.28000000000000014)]",0.28000000000000014,,,40.0,0.003463,['Fail'],Pass,0.28000000000000014,-0.28000000000000014,0.0,0.0,0.1
158.0,1.0,wc_1,,0.0,,,,0.0,,,,Pass,,,,,
158.0,1.0,wc_1,wc_2,0.0,"[('wc_2', 0.7700000000000006)]",0.7700000000000006,,,33.0,0.004981,['Pass'],Pass,0.7700000000000006,0.22999999999999943,2.0,2.0,1.0
158.0,1.0,wc_1,,0.0,,,,0.0,,,,Pass,,,,,
158.0,1.0,wc_1,wc_3,0.0,"[('wc_2', 0.7700000000000006)]",0.7700000000000006,,,33.0,0.006435000000000001,['Pass'],Pass,0.31000000000000016,-0.31000000000000016,0.0,1.0,0.2
158.0,1.0,wc_1,,0.0,,,,202.0,,,,Pass,,,,,
158.0,1.0,wc_1,wc_11,0.0,"[('wc_11', 0.3600000000000002), ('wc_2', 0.7700000000000006)]",0.8528000000000004,,,29.0,0.007887,['Pass'],Pass,0.3600000000000002,-0.07428571428571451,2.0,7.0,0.2
158.0,1.0,wc_1,,0.0,,,,101.0,,,,Pass,,,,,
158.0,1.0,wc_1,wc_14,0.0,"[('wc_2', 0.7700000000000006), ('wc_11', 0.3600000000000002)]",0.8528000000000004,,,40.0,0.011575,['Pass'],Pass,0.6500000000000005,-0.31666666666666715,1.0,3.0,0.5
158.0,1.0,wc_1,,0.0,,,,361.0,,,,Pass,,,,,
158.0,1.0,wc_1,wc_5,1.0,"[('wc_5', 0.5700000000000004), ('wc_1', 0.28000000000000014), ('wc_3', 0.31000000000000016), ('wc_14', 0.6500000000000005)]",0.9252316000000003,,,26.0,0.04367800000000001,['Fail'],Pass,0.5700000000000004,-0.5700000000000004,0.0,0.0,0.3
177.0,4.0,wc_4,,0.0,,,,103.0,,,,Pass,,,,,
177.0,4.0,wc_4,,0.0,,,78.0,,,,,Pass,,,,,
177.0,4.0,wc_4,,0.0,,,,0.0,,,,Pass,,,,,
177.0,4.0,wc_4,wc_4,0.0,"[('wc_4', 0.7700000000000006)]",0.7700000000000006,,,26.0,0.002166,['Pass'],Pass,0.7700000000000006,-0.4128571428571434,0.0,0.0,0.5
177.0,4.0,wc_4,,0.0,,,,0.0,,,,Pass,,,,,
177.0,4.0,wc_4,wc_5,0.0,"[('wc_4', 0.7700000000000006)]",0.7700000000000006,,,27.0,0.004345,['Pass'],Pass,0.5700000000000004,-0.5700000000000004,0.0,0.0,0.3
177.0,4.0,wc_4,,0.0,,,,162.0,,,,Pass,,,,,
177.0,4.0,wc_4,wc_15,0.0,"[('wc_15', 0.6400000000000005), ('wc_4', 0.7700000000000006)]",0.9172000000000003,,,22.0,0.006248,['Pass'],Pass,0.6400000000000005,-0.30666666666666714,3.0,9.0,0.4
177.0,4.0,wc_4,,0.0,,,,243.0,,,,Pass,,,,,
177.0,4.0,wc_4,wc_7,1.0,"[('wc_7', 0.6700000000000005), ('wc_4', 0.7700000000000006), ('wc_15', 0.6400000000000005)]",0.9726760000000001,,,26.0,0.04155300000000001,['Pass'],Pass,0.6700000000000005,-0.17000000000000048,1.0,2.0,0.9
204.0,2.0,wc_2,,0.0,,,,202.0,,,,Pass,,,,,
204.0,2.0,wc_2,,0.0,,,76.0,,,,,Pass,,,,,
204.0,2.0,wc_2,,0.0,,,,0.0,,,,Pass,,,,,
204.0,2.0,wc_2,wc_2,0.0,"[('wc_2', 0.7600000000000006)]",0.7600000000000006,,,25.0,0.00229,['Pass'],Pass,0.7600000000000006,-0.26000000000000056,2.0,4.0,1.0
204.0,2.0,wc_2,,0.0,,,,263.0,,,,Pass,,,,,
204.0,2.0,wc_2,wc_17,0.0,"[('wc_17', 0.12000000000000001), ('wc_2', 0.7600000000000006)]",0.7888000000000005,,,34.0,0.004139,['Pass'],Pass,0.12000000000000001,0.08,1.0,5.0,0.1
204.0,2.0,wc_2,,0.0,,,,203.0,,,,Pass,,,,,
204.0,2.0,wc_2,wc_7,1.0,"[('wc_7', 0.6700000000000005), ('wc_2', 0.7600000000000006), ('wc_17', 0.12000000000000001)]",0.9303040000000002,,,27.0,0.040527,['Pass'],Pass,0.6700000000000005,-0.0033333333333338544,2.0,3.0,0.9
218.0,3.0,wc_3,,0.0,,,,301.0,,,,Fail,,,,,
218.0,3.0,wc_3,,0.0,,,62.0,,,,,Fail,,,,,
218.0,3.0,wc_3,,0.0,,,,0.0,,,,Fail,,,,,
218.0,3.0,wc_3,wc_3,0.0,"[('wc_3', 0.3200000000000002)]",0.3200000000000002,,,38.0,0.002402,['Fail'],Fail,0.3200000000000002,-0.07000000000000017,1.0,4.0,0.2
218.0,3.0,wc_3,,0.0,,,,101.0,,,,Fail,,,,,
218.0,3.0,wc_3,wc_6,0.0,"[('wc_6', 0.6200000000000004), ('wc_3', 0.3200000000000002)]",0.7416000000000004,,,21.0,0.004102,['Fail'],Fail,0.6200000000000004,-0.548571428571429,0.0,0.0,0.5
218.0,3.0,wc_3,,0.0,,,,243.0,,,,Fail,,,,,
218.0,3.0,wc_3,wc_16,0.0,"[('wc_16', 0.28000000000000014), ('wc_3', 0.3200000000000002), ('wc_6', 0.6200000000000004)]",0.8139520000000003,,,40.0,0.006059,['Fail'],Fail,0.28000000000000014,-0.12615384615384628,0.0,0.0,0.2
218.0,3.0,wc_3,,0.0,,,,263.0,,,,Fail,,,,,
218.0,3.0,wc_3,wc_1,0.0,"[('wc_1', 0.29000000000000015), ('wc_3', 0.3200000000000002), ('wc_6', 0.6200000000000004), ('wc_16', 0.28000000000000014)]",0.8679059200000002,,,21.0,0.007837,['Fail'],Fail,0.29000000000000015,0.04333333333333317,1.0,3.0,0.1
218.0,3.0,wc_3,,0.0,,,,243.0,,,,Fail,,,,,
218.0,3.0,wc_3,wc_15,1.0,"[('wc_15', 0.6400000000000005), ('wc_3', 0.3200000000000002), ('wc_6', 0.6200000000000004), ('wc_16', 0.28000000000000014), ('wc_1', 0.29000000000000015)]",0.9524461312000001,,,22.0,0.042875,['Fail'],Fail,0.6400000000000005,-0.14000000000000046,1.0,2.0,0.4
272.0,3.0,wc_3,,0.0,,,,402.0,,,,Fail,,,,,
272.0,3.0,wc_3,,0.0,,,55.0,,,,,Fail,,,,,
272.0,3.0,wc_3,,0.0,,,,0.0,,,,Fail,,,,,
272.0,3.0,wc_3,wc_3,0.0,"[('wc_3', 0.3300000000000002)]",0.3300000000000002,,,39.0,0.00212,['Fail'],Fail,0.3300000000000002,0.06999999999999984,2.0,5.0,0.2
272.0,3.0,wc_3,,0.0,,,,0.0,,,,Fail,,,,,
272.0,3.0,wc_3,wc_4,0.0,"[('wc_4', 0.7800000000000006), ('wc_3', 0.3300000000000002)]",0.8526000000000005,,,25.0,0.004663,['Fail'],Fail,0.7800000000000006,-0.44666666666666727,1.0,3.0,0.5
272.0,3.0,wc_3,,0.0,,,,61.0,,,,Fail,,,,,
272.0,3.0,wc_3,wc_1,0.0,"[('wc_3', 0.3300000000000002), ('wc_4', 0.7800000000000006)]",0.8526000000000005,,,20.0,0.0062770000000000005,['Fail'],Fail,0.30000000000000016,0.19999999999999984,2.0,4.0,0.1
272.0,3.0,wc_3,,0.0,,,,202.0,,,,Fail,,,,,
272.0,3.0,wc_3,wc_13,0.0,"[('wc_13', 0.30000000000000016), ('wc_3', 0.3300000000000002), ('wc_4', 0.7800000000000006)]",0.8968200000000003,,,32.0,0.007941,['Fail'],Fail,0.30000000000000016,-0.11818181818181833,0.0,0.0,0.1
272.0,3.0,wc_3,,0.0,,,,381.0,,,,Fail,,,,,
272.0,3.0,wc_3,wc_5,1.0,"[('wc_5', 0.5600000000000004), ('wc_3', 0.3300000000000002), ('wc_4', 0.7800000000000006), ('wc_13', 0.30000000000000016)]",0.9546008000000001,,,35.0,0.046744999999999995,['Fail'],Fail,0.5600000000000004,-0.3100000000000004,1.0,4.0,0.3
315.0,3.0,wc_3,,0.0,,,,83.0,,,,Pass,,,,,
315.0,3.0,wc_3,,0.0,,,53.0,,,,,Pass,,,,,
315.0,3.0,wc_3,,0.0,,,,0.0,,,,Pass,,,,,
315.0,3.0,wc_3,wc_3,0.0,"[('wc_3', 0.3400000000000002)]",0.3400000000000002,,,27.0,0.001978,['Pass'],Pass,0.3400000000000002,0.1599999999999998,3.0,6.0,0.2
315.0,3.0,wc_3,,0.0,,,,141.0,,,,Pass,,,,,
315.0,3.0,wc_3,wc_12,0.0,"[('wc_3', 0.3400000000000002)]",0.3400000000000002,,,27.0,0.0038919999999999996,['Pass'],Pass,0.3400000000000002,-0.24000000000000019,0.0,0.0,0.1
315.0,3.0,wc_3,,0.0,,,,242.0,,,,Pass,,,,,
315.0,3.0,wc_3,wc_1,0.0,"[('wc_1', 0.30000000000000016), ('wc_3', 0.3400000000000002)]",0.5380000000000003,,,24.0,0.007084,['Pass'],Pass,0.30000000000000016,0.09999999999999987,2.0,5.0,0.1
315.0,3.0,wc_3,,0.0,,,,243.0,,,,Pass,,,,,
315.0,3.0,wc_3,wc_11,0.0,"[('wc_11', 0.3500000000000002), ('wc_3', 0.3400000000000002), ('wc_1', 0.30000000000000016)]",0.6997000000000002,,,33.0,0.007935999999999999,['Pass'],Pass,0.3500000000000002,-0.18333333333333354,0.0,0.0,0.2
315.0,3.0,wc_3,,0.0,,,,142.0,,,,Pass,,,,,
315.0,3.0,wc_3,wc_16,0.0,"[('wc_3', 0.3400000000000002), ('wc_1', 0.30000000000000016), ('wc_11', 0.3500000000000002)]",0.6997000000000002,,,34.0,0.009732999999999999,['Pass'],Pass,0.29000000000000015,0.20999999999999985,1.0,2.0,0.2
315.0,3.0,wc_3,,0.0,,,,243.0,,,,Pass,,,,,
315.0,3.0,wc_3,wc_8,0.0,"[('wc_8', 0.6000000000000004), ('wc_3', 0.3400000000000002), ('wc_1', 0.30000000000000016), ('wc_11', 0.3500000000000002)]",0.8798800000000002,,,34.0,0.011837,['Pass'],Pass,0.6000000000000004,-0.4888888888888893,1.0,9.0,1.0
315.0,3.0,wc_3,,0.0,,,,82.0,,,,Pass,,,,,
315.0,3.0,wc_3,wc_6,1.0,"[('wc_6', 0.6300000000000004), ('wc_3', 0.3400000000000002), ('wc_1', 0.30000000000000016), ('wc_11', 0.3500000000000002), ('wc_8', 0.6000000000000004)]",0.9555556000000002,,,21.0,0.049557000000000004,['Pass'],Pass,0.6400000000000005,0.026666666666666172,2.0,3.0,0.5
341.0,5.0,wc_5,,0.0,,,,361.0,,,,Pass,,,,,
341.0,5.0,wc_5,,0.0,,,80.0,,,,,Pass,,,,,
341.0,5.0,wc_5,,0.0,,,,0.0,,,,Pass,,,,,
341.0,5.0,wc_5,wc_5,0.0,"[('wc_5', 0.5600000000000004)]",0.5600000000000004,,,26.0,0.002034,['Pass'],Pass,0.5600000000000004,-0.3600000000000004,1.0,5.0,0.3
341.0,5.0,wc_5,,0.0,,,,121.0,,,,Pass,,,,,
341.0,5.0,wc_5,wc_13,0.0,"[('wc_5', 0.5600000000000004)]",0.5600000000000004,,,40.0,0.004455,['Pass'],Pass,0.31000000000000016,0.18999999999999984,1.0,2.0,0.1
341.0,5.0,wc_5,,0.0,,,,222.0,,,,Pass,,,,,
341.0,5.0,wc_5,wc_1,0.0,"[('wc_1', 0.31000000000000016), ('wc_5', 0.5600000000000004)]",0.6964000000000004,,,39.0,0.006822,['Pass'],Pass,0.31000000000000016,0.18999999999999984,3.0,6.0,0.1
341.0,5.0,wc_5,,0.0,,,,243.0,,,,Pass,,,,,
341.0,5.0,wc_5,wc_15,0.0,"[('wc_15', 0.6400000000000005), ('wc_5', 0.5600000000000004), ('wc_1', 0.31000000000000016)]",0.8907040000000003,,,33.0,0.008401,['Pass'],Pass,0.6400000000000005,-0.39000000000000046,1.0,4.0,0.4
341.0,5.0,wc_5,,0.0,,,,422.0,,,,Pass,,,,,
341.0,5.0,wc_5,wc_4,1.0,"[('wc_4', 0.7800000000000006), ('wc_5', 0.5600000000000004), ('wc_1', 0.31000000000000016), ('wc_15', 0.6400000000000005)]",0.9759548800000001,,,29.0,0.042371,['Pass'],Pass,0.7800000000000006,-0.2800000000000006,3.0,6.0,0.5
355.0,6.0,wc_6,,0.0,,,,81.0,,,,Fail,,,,,
355.0,6.0,wc_6,,0.0,,,70.0,,,,,Fail,,,,,
355.0,6.0,wc_6,,0.0,,,,0.0,,,,Fail,,,,,
355.0,6.0,wc_6,wc_6,0.0,"[('wc_6', 0.6400000000000005)]",0.6400000000000005,,,26.0,0.002084,['Fail'],Fail,0.6400000000000005,-0.14000000000000046,2.0,4.0,0.5
355.0,6.0,wc_6,,0.0,,,,223.0,,,,Fail,,,,,
355.0,6.0,wc_6,wc_15,0.0,"[('wc_15', 0.6400000000000005)]",0.6400000000000005,,,34.0,0.004915,['Pass'],Fail,0.6400000000000005,-0.24000000000000044,2.0,5.0,0.4
355.0,6.0,wc_6,,0.0,,,,0.0,,,,Fail,,,,,
355.0,6.0,wc_6,wc_16,0.0,"[('wc_16', 0.29000000000000015), ('wc_15', 0.6400000000000005)]",0.7444000000000004,,,29.0,0.007048,['Pass'],Fail,0.29000000000000015,-0.04000000000000015,1.0,4.0,0.2
355.0,6.0,wc_6,,0.0,,,,422.0,,,,Fail,,,,,
355.0,6.0,wc_6,wc_5,0.0,"[('wc_5', 0.5600000000000004), ('wc_6', 0.6400000000000005)]",0.8416000000000003,,,32.0,0.009655,['Fail'],Fail,0.5600000000000004,-0.22666666666666707,2.0,6.0,0.3
355.0,6.0,wc_6,,0.0,,,,61.0,,,,Fail,,,,,
355.0,6.0,wc_6,wc_2,1.0,"[('wc_2', 0.7600000000000006), ('wc_15', 0.6400000000000005), ('wc_16', 0.29000000000000015)]",0.9386560000000003,,,20.0,0.051060999999999995,['Pass'],Fail,0.7600000000000006,-0.7600000000000006,0.0,0.0,1.0
377.0,6.0,wc_6,,0.0,,,,122.0,,,,Fail,,,,,
377.0,6.0,wc_6,,0.0,,,65.0,,,,,Fail,,,,,
377.0,6.0,wc_6,,0.0,,,,0.0,,,,Fail,,,,,
377.0,6.0,wc_6,wc_6,0.0,"[('wc_6', 0.6300000000000004)]",0.6300000000000004,,,29.0,0.002074,['Fail'],Fail,0.6300000000000004,-0.23000000000000043,2.0,5.0,0.5
377.0,6.0,wc_6,,0.0,,,,202.0,,,,Fail,,,,,
377.0,6.0,wc_6,wc_14,0.0,"[('wc_14', 0.6500000000000005), ('wc_6', 0.6300000000000004)]",0.8705000000000003,,,26.0,0.004197,['Fail'],Fail,0.6500000000000005,-0.46818181818181864,0.0,0.0,0.5
377.0,6.0,wc_6,,0.0,,,,182.0,,,,Fail,,,,,
377.0,6.0,wc_6,wc_8,1.0,"[('wc_8', 0.6000000000000004), ('wc_6', 0.6300000000000004), ('wc_14', 0.6500000000000005)]",0.9482000000000002,,,35.0,0.042501,['Fail'],Fail,0.6000000000000004,-0.2666666666666671,1.0,3.0,1.0
419.0,6.0,wc_6,,0.0,,,,82.0,,,,Fail,,,,,
419.0,6.0,wc_6,,0.0,,,50.0,,,,,Fail,,,,,
419.0,6.0,wc_6,,0.0,,,,0.0,,,,Fail,,,,,
419.0,6.0,wc_6,wc_6,0.0,"[('wc_6', 0.6300000000000004)]",0.6300000000000004,,,32.0,0.002226,['Fail'],Fail,0.6300000000000004,-0.13000000000000045,3.0,6.0,0.5
419.0,6.0,wc_6,,0.0,,,,162.0,,,,Fail,,,,,
419.0,6.0,wc_6,wc_12,0.0,"[('wc_6', 0.6300000000000004)]",0.6300000000000004,,,32.0,0.004203,['Fail'],Fail,0.3300000000000002,-0.3300000000000002,0.0,4.0,0.1
419.0,6.0,wc_6,,0.0,,,,262.0,,,,Fail,,,,,
419.0,6.0,wc_6,wc_2,0.0,"[('wc_2', 0.7600000000000006), ('wc_6', 0.6300000000000004)]",0.9112000000000003,,,39.0,0.006438000000000001,['Fail'],Fail,0.7600000000000006,-0.7600000000000006,0.0,1.0,1.0
419.0,6.0,wc_6,,0.0,,,,183.0,,,,Fail,,,,,
419.0,6.0,wc_6,wc_9,1.0,"[('wc_9', 0.7400000000000005), ('wc_6', 0.6300000000000004), ('wc_2', 0.7600000000000006)]",0.9769120000000001,,,32.0,0.042559999999999994,['Fail'],Fail,0.7400000000000005,-0.7400000000000005,0.0,0.0,0.6
439.0,6.0,wc_6,,0.0,,,,61.0,,,,Fail,,,,,
439.0,6.0,wc_6,,0.0,,,76.0,,,,,Fail,,,,,
439.0,6.0,wc_6,,0.0,,,,0.0,,,,Fail,,,,,
439.0,6.0,wc_6,wc_6,0.0,"[('wc_6', 0.6300000000000004)]",0.6300000000000004,,,26.0,0.002124,['Fail'],Fail,0.6300000000000004,-0.05857142857142905,4.0,7.0,0.5
439.0,6.0,wc_6,,0.0,,,,263.0,,,,Fail,,,,,
439.0,6.0,wc_6,wc_17,0.0,"[('wc_17', 0.13), ('wc_6', 0.6300000000000004)]",0.6781000000000004,,,23.0,0.00404,['Fail'],Fail,0.13,0.02384615384615385,0.0,0.0,0.1
439.0,6.0,wc_6,,0.0,,,,203.0,,,,Fail,,,,,
439.0,6.0,wc_6,wc_7,0.0,"[('wc_7', 0.6700000000000005), ('wc_6', 0.6300000000000004), ('wc_17', 0.13)]",0.8937730000000003,,,30.0,0.00703,['Fail'],Fail,0.6700000000000005,-0.4700000000000005,0.0,0.0,0.9
439.0,6.0,wc_6,,0.0,,,,301.0,,,,Fail,,,,,
439.0,6.0,wc_6,wc_3,1.0,"[('wc_3', 0.3500000000000002), ('wc_6', 0.6300000000000004), ('wc_17', 0.13), ('wc_7', 0.6700000000000005)]",0.9309524500000002,,,31.0,0.07032400000000001,['Fail'],Fail,0.3600000000000002,-0.3600000000000002,0.0,0.0,0.2
480.0,6.0,wc_6,,0.0,,,,101.0,,,,Fail,,,,,
480.0,6.0,wc_6,,0.0,,,54.0,,,,,Fail,,,,,
480.0,6.0,wc_6,,0.0,,,,0.0,,,,Fail,,,,,
480.0,6.0,wc_6,wc_6,0.0,"[('wc_6', 0.6300000000000004)]",0.6300000000000004,,,31.0,0.002191,['Fail'],Fail,0.6300000000000004,-0.0050000000000004485,5.0,8.0,0.5
480.0,6.0,wc_6,,0.0,,,,182.0,,,,Fail,,,,,
480.0,6.0,wc_6,wc_13,0.0,"[('wc_6', 0.6300000000000004)]",0.6300000000000004,,,21.0,0.0039900000000000005,['Fail'],Fail,0.31000000000000016,-0.16714285714285732,1.0,7.0,0.1
480.0,6.0,wc_6,,0.0,,,,321.0,,,,Fail,,,,,
480.0,6.0,wc_6,wc_10,0.0,"[('wc_10', 0.7100000000000005), ('wc_6', 0.6300000000000004)]",0.8927000000000003,,,27.0,0.007401,['Fail'],Fail,0.7100000000000005,-0.7100000000000005,0.0,0.0,0.6
480.0,6.0,wc_6,,0.0,,,,121.0,,,,Fail,,,,,
480.0,6.0,wc_6,wc_14,1.0,"[('wc_14', 0.6600000000000005), ('wc_6', 0.6300000000000004), ('wc_10', 0.7100000000000005)]",0.9635180000000002,,,21.0,0.03927200000000001,['Fail'],Fail,0.6600000000000005,-0.16000000000000048,2.0,4.0,0.5
519.0,6.0,wc_6,,0.0,,,,142.0,,,,Fail,,,,,
519.0,6.0,wc_6,,0.0,,,62.0,,,,,Fail,,,,,
519.0,6.0,wc_6,,0.0,,,,0.0,,,,Fail,,,,,
519.0,6.0,wc_6,wc_6,0.0,"[('wc_6', 0.6400000000000005)]",0.6400000000000005,,,28.0,0.001974,['Fail'],Fail,0.6400000000000005,0.026666666666666172,6.0,9.0,0.5
519.0,6.0,wc_6,,0.0,,,,361.0,,,,Fail,,,,,
519.0,6.0,wc_6,wc_5,0.0,"[('wc_5', 0.5500000000000004), ('wc_6', 0.6400000000000005)]",0.8380000000000003,,,21.0,0.003943,['Fail'],Fail,0.5500000000000004,-0.36818181818181855,0.0,0.0,0.3
519.0,6.0,wc_6,,0.0,,,,121.0,,,,Fail,,,,,
519.0,6.0,wc_6,wc_13,0.0,"[('wc_13', 0.30000000000000016), ('wc_6', 0.6400000000000005), ('wc_5', 0.5500000000000004)]",0.8866000000000003,,,39.0,0.0064540000000000005,['Fail'],Fail,0.30000000000000016,-0.17500000000000016,1.0,8.0,0.1
519.0,6.0,wc_6,,0.0,,,,341.0,,,,Fail,,,,,
519.0,6.0,wc_6,wc_3,0.0,"[('wc_6', 0.6400000000000005), ('wc_5', 0.5500000000000004), ('wc_13', 0.30000000000000016)]",0.8866000000000003,,,26.0,0.011112,['Fail'],Fail,0.3600000000000002,-0.3600000000000002,0.0,1.0,0.2
519.0,6.0,wc_6,,0.0,,,,182.0,,,,Fail,,,,,
519.0,6.0,wc_6,wc_10,1.0,"[('wc_10', 0.7200000000000005), ('wc_6', 0.6400000000000005), ('wc_5', 0.5500000000000004), ('wc_13', 0.30000000000000016)]",0.9682480000000001,,,40.0,0.04595199999999999,['Fail'],Fail,0.7300000000000005,0.26999999999999946,2.0,2.0,0.6
563.0,6.0,wc_6,,0.0,,,,41.0,,,,Fail,,,,,
563.0,6.0,wc_6,,0.0,,,79.0,,,,,Fail,,,,,
563.0,6.0,wc_6,,0.0,,,,0.0,,,,Fail,,,,,
563.0,6.0,wc_6,wc_6,0.0,"[('wc_6', 0.6500000000000005)]",0.6500000000000005,,,25.0,0.002184,['Fail'],Fail,0.6500000000000005,-0.6500000000000005,0.0,0.0,0.5
563.0,6.0,wc_6,,0.0,,,,263.0,,,,Fail,,,,,
563.0,6.0,wc_6,wc_17,0.0,"[('wc_17', 0.14), ('wc_6', 0.6500000000000005)]",0.6990000000000004,,,23.0,0.004313,['Fail'],Fail,0.14,0.1933333333333333,1.0,3.0,0.1
563.0,6.0,wc_6,,0.0,,,,21.0,,,,Fail,,,,,
563.0,6.0,wc_6,wc_12,0.0,"[('wc_6', 0.6500000000000005), ('wc_17', 0.14)]",0.6990000000000004,,,32.0,0.005873,['Fail'],Fail,0.3200000000000002,-0.3200000000000002,0.0,8.0,0.1
563.0,6.0,wc_6,,0.0,,,,222.0,,,,Fail,,,,,
563.0,6.0,wc_6,wc_8,0.0,"[('wc_8', 0.6000000000000004), ('wc_6', 0.6500000000000005), ('wc_17', 0.14)]",0.8796000000000003,,,31.0,0.009255,['Fail'],Fail,0.6000000000000004,-0.4571428571428576,1.0,7.0,1.0
563.0,6.0,wc_6,,0.0,,,,281.0,,,,Fail,,,,,
563.0,6.0,wc_6,wc_3,1.0,"[('wc_3', 0.3500000000000002), ('wc_6', 0.6500000000000005), ('wc_17', 0.14), ('wc_8', 0.6000000000000004)]",0.9217400000000002,,,39.0,0.048676999999999984,['Fail'],Fail,0.3500000000000002,-0.016666666666666885,1.0,3.0,0.2
583.0,6.0,wc_6,,0.0,,,,101.0,,,,Fail,,,,,
583.0,6.0,wc_6,,0.0,,,78.0,,,,,Fail,,,,,
583.0,6.0,wc_6,,0.0,,,,0.0,,,,Fail,,,,,
583.0,6.0,wc_6,wc_6,0.0,"[('wc_6', 0.6600000000000005)]",0.6600000000000005,,,27.0,0.002561,['Fail'],Fail,0.6600000000000005,0.3399999999999995,1.0,1.0,0.5
583.0,6.0,wc_6,,0.0,,,,321.0,,,,Fail,,,,,
583.0,6.0,wc_6,wc_3,0.0,"[('wc_6', 0.6600000000000005)]",0.6600000000000005,,,24.0,0.003991,['Fail'],Fail,0.3500000000000002,-0.016666666666666885,1.0,3.0,0.2
583.0,6.0,wc_6,,0.0,,,,182.0,,,,Fail,,,,,
583.0,6.0,wc_6,wc_10,0.0,"[('wc_10', 0.7300000000000005), ('wc_6', 0.6600000000000005)]",0.9082000000000003,,,35.0,0.006912,['Fail'],Fail,0.7300000000000005,-0.06333333333333391,2.0,3.0,0.6
583.0,6.0,wc_6,,0.0,,,,362.0,,,,Fail,,,,,
583.0,6.0,wc_6,wc_4,0.0,"[('wc_6', 0.6600000000000005), ('wc_10', 0.7300000000000005)]",0.9082000000000003,,,35.0,0.007666,['Fail'],Fail,0.7800000000000006,-0.5492307692307699,0.0,0.0,0.5
583.0,6.0,wc_6,,0.0,,,,202.0,,,,Fail,,,,,
583.0,6.0,wc_6,wc_16,0.0,"[('wc_6', 0.6600000000000005), ('wc_10', 0.7300000000000005)]",0.9082000000000003,,,23.0,0.00931,['Fail'],Fail,0.30000000000000016,-0.11818181818181833,0.0,0.0,0.2
583.0,6.0,wc_6,,0.0,,,,41.0,,,,Fail,,,,,
583.0,6.0,wc_6,wc_12,1.0,"[('wc_12', 0.31000000000000016), ('wc_3', 0.3500000000000002), ('wc_4', 0.7800000000000006), ('wc_16', 0.30000000000000016)]",0.9309310000000003,,,25.0,0.045908000000000004,['Pass'],Fail,0.31000000000000016,-0.31000000000000016,0.0,0.0,0.1
600.0,6.0,wc_6,,0.0,,,,182.0,,,,Fail,,,,,
600.0,6.0,wc_6,,0.0,,,77.0,,,,,Fail,,,,,
600.0,6.0,wc_6,,0.0,,,,0.0,,,,Fail,,,,,
600.0,6.0,wc_6,wc_6,0.0,"[('wc_6', 0.6500000000000005)]",0.6500000000000005,,,34.0,0.002172,['Fail'],Fail,0.6500000000000005,-0.15000000000000047,1.0,2.0,0.5
600.0,6.0,wc_6,,0.0,,,,162.0,,,,Fail,,,,,
600.0,6.0,wc_6,wc_12,0.0,"[('wc_12', 0.31000000000000016), ('wc_6', 0.6500000000000005)]",0.7585000000000004,,,28.0,0.004389,['Fail'],Fail,0.31000000000000016,-0.31000000000000016,0.0,0.0,0.1
600.0,6.0,wc_6,,0.0,,,,0.0,,,,Fail,,,,,
600.0,6.0,wc_6,wc_13,0.0,"[('wc_13', 0.30000000000000016), ('wc_6', 0.6500000000000005), ('wc_12', 0.31000000000000016)]",0.8309500000000003,,,25.0,0.007049,['Fail'],Fail,0.30000000000000016,-0.11818181818181833,0.0,0.0,0.1
600.0,6.0,wc_6,,0.0,,,,381.0,,,,Fail,,,,,
600.0,6.0,wc_6,wc_5,1.0,"[('wc_5', 0.5600000000000004), ('wc_6', 0.6500000000000005), ('wc_12', 0.31000000000000016), ('wc_13', 0.30000000000000016)]",0.9256180000000002,,,27.0,0.044266000000000014,['Fail'],Fail,0.5600000000000004,-0.060000000000000386,2.0,4.0,0.3
611.0,6.0,wc_6,,0.0,,,,61.0,,,,Fail,,,,,
611.0,6.0,wc_6,,0.0,,,75.0,,,,,Fail,,,,,
611.0,6.0,wc_6,,0.0,,,,0.0,,,,Fail,,,,,
611.0,6.0,wc_6,wc_6,0.0,"[('wc_6', 0.6600000000000005)]",0.6600000000000005,,,28.0,0.002234,['Fail'],Fail,0.6600000000000005,0.0066666666666661545,2.0,3.0,0.5
611.0,6.0,wc_6,,0.0,,,,341.0,,,,Fail,,,,,
611.0,6.0,wc_6,wc_4,0.0,"[('wc_4', 0.7900000000000006), ('wc_6', 0.6600000000000005)]",0.9286000000000003,,,39.0,0.004744,['Fail'],Fail,0.7900000000000006,-0.2900000000000006,1.0,2.0,0.5
611.0,6.0,wc_6,,0.0,,,,202.0,,,,Fail,,,,,
611.0,6.0,wc_6,wc_16,1.0,"[('wc_16', 0.31000000000000016), ('wc_6', 0.6600000000000005), ('wc_4', 0.7900000000000006)]",0.9507340000000002,,,29.0,0.046880000000000005,['Fail'],Fail,0.3200000000000002,0.34666666666666646,2.0,3.0,0.2
620.0,6.0,wc_6,,0.0,,,,203.0,,,,Fail,,,,,
620.0,6.0,wc_6,,0.0,,,54.0,,,,,Fail,,,,,
620.0,6.0,wc_6,,0.0,,,,0.0,,,,Fail,,,,,
620.0,6.0,wc_6,wc_6,0.0,"[('wc_6', 0.6700000000000005)]",0.6700000000000005,,,31.0,0.002361,['Fail'],Fail,0.6700000000000005,0.07999999999999952,3.0,4.0,0.5
620.0,6.0,wc_6,,0.0,,,,223.0,,,,Fail,,,,,
620.0,6.0,wc_6,wc_15,0.0,"[('wc_15', 0.6400000000000005), ('wc_6', 0.6700000000000005)]",0.8812000000000003,,,21.0,0.004821,['Fail'],Fail,0.6400000000000005,-0.44000000000000045,0.0,0.0,0.4
620.0,6.0,wc_6,,0.0,,,,81.0,,,,Fail,,,,,
620.0,6.0,wc_6,wc_13,1.0,"[('wc_13', 0.31000000000000016), ('wc_6', 0.6700000000000005), ('wc_15', 0.6400000000000005)]",0.9180280000000003,,,23.0,0.043805,['Fail'],Fail,0.3200000000000002,0.34666666666666646,2.0,3.0,0.1
626.0,6.0,wc_6,,0.0,,,,162.0,,,,Fail,,,,,
626.0,6.0,wc_6,,0.0,,,54.0,,,,,Fail,,,,,
626.0,6.0,wc_6,,0.0,,,,0.0,,,,Fail,,,,,
626.0,6.0,wc_6,wc_6,0.0,"[('wc_6', 0.6800000000000005)]",0.6800000000000005,,,40.0,0.002185,['Pass'],Fail,0.6800000000000005,0.11999999999999955,4.0,5.0,0.5
626.0,6.0,wc_6,,0.0,,,,223.0,,,,Fail,,,,,
626.0,6.0,wc_6,wc_15,0.0,"[('wc_6', 0.6800000000000005)]",0.6800000000000005,,,23.0,0.004337,['Pass'],Fail,0.6500000000000005,0.34999999999999953,1.0,1.0,0.4
626.0,6.0,wc_6,,0.0,,,,283.0,,,,Fail,,,,,
626.0,6.0,wc_6,wc_1,0.0,"[('wc_1', 0.3200000000000002), ('wc_15', 0.6500000000000005)]",0.7620000000000003,,,29.0,0.0064069999999999995,['Fail'],Fail,0.3200000000000002,-0.09777777777777796,0.0,0.0,0.1
626.0,6.0,wc_6,,0.0,,,,203.0,,,,Fail,,,,,
626.0,6.0,wc_6,wc_9,1.0,"[('wc_9', 0.7400000000000005), ('wc_15', 0.6500000000000005), ('wc_1', 0.3200000000000002)]",0.9381200000000002,,,39.0,0.042401999999999995,['Fail'],Fail,0.7400000000000005,-0.6288888888888895,1.0,9.0,0.6
631.0,6.0,wc_6,,0.0,,,,61.0,,,,Pass,,,,,
631.0,6.0,wc_6,,0.0,,,58.0,,,,,Pass,,,,,
631.0,6.0,wc_6,,0.0,,,,0.0,,,,Pass,,,,,
631.0,6.0,wc_6,wc_6,0.0,"[('wc_6', 0.6700000000000005)]",0.6700000000000005,,,23.0,0.002059,['Pass'],Pass,0.6700000000000005,-0.0033333333333338544,4.0,6.0,0.5
631.0,6.0,wc_6,,0.0,,,,202.0,,,,Pass,,,,,
631.0,6.0,wc_6,wc_14,0.0,"[('wc_6', 0.6700000000000005)]",0.6700000000000005,,,35.0,0.004435,['Pass'],Pass,0.6600000000000005,-0.47818181818181865,0.0,0.0,0.5
631.0,6.0,wc_6,,0.0,,,,102.0,,,,Pass,,,,,
631.0,6.0,wc_6,wc_13,0.0,"[('wc_13', 0.3200000000000002), ('wc_6', 0.6700000000000005)]",0.7756000000000004,,,26.0,0.006703000000000001,['Pass'],Pass,0.3200000000000002,0.17999999999999983,2.0,4.0,0.1
631.0,6.0,wc_6,,0.0,,,,182.0,,,,Pass,,,,,
631.0,6.0,wc_6,wc_7,0.0,"[('wc_7', 0.6800000000000005), ('wc_14', 0.6600000000000005)]",0.8912000000000003,,,25.0,0.009305,['Fail'],Pass,0.6800000000000005,-0.5688888888888894,1.0,9.0,0.9
631.0,6.0,wc_6,,0.0,,,,0.0,,,,Pass,,,,,
631.0,6.0,wc_6,wc_9,1.0,"[('wc_9', 0.7400000000000005), ('wc_6', 0.6700000000000005), ('wc_13', 0.3200000000000002)]",0.9416560000000003,,,24.0,0.043752,['Pass'],Pass,0.7400000000000005,-0.7400000000000005,0.0,0.0,0.6
637.0,10.0,wc_10,,0.0,,,,0.0,,,,Pass,,,,,
637.0,10.0,wc_10,,0.0,,,62.0,,,,,Pass,,,,,
637.0,10.0,wc_10,,0.0,,,,0.0,,,,Pass,,,,,
637.0,10.0,wc_10,wc_10,0.0,"[('wc_10', 0.7200000000000005)]",0.7200000000000005,,,27.0,0.002055,['Pass'],Pass,0.7200000000000005,-0.4977777777777783,2.0,9.0,0.6
637.0,10.0,wc_10,,0.0,,,,223.0,,,,Pass,,,,,
637.0,10.0,wc_10,wc_1,0.0,"[('wc_1', 0.3300000000000002), ('wc_10', 0.7200000000000005)]",0.8124000000000005,,,23.0,0.004308,['Pass'],Pass,0.3300000000000002,0.16999999999999982,1.0,2.0,0.1
637.0,10.0,wc_10,,0.0,,,,263.0,,,,Pass,,,,,
637.0,10.0,wc_10,wc_16,0.0,"[('wc_10', 0.7200000000000005), ('wc_1', 0.3300000000000002)]",0.8124000000000005,,,34.0,0.006501,['Pass'],Pass,0.3200000000000002,0.013333333333333142,2.0,6.0,0.2
637.0,10.0,wc_10,,0.0,,,,81.0,,,,Pass,,,,,
637.0,10.0,wc_10,wc_14,1.0,"[('wc_14', 0.6500000000000005), ('wc_10', 0.7200000000000005), ('wc_1', 0.3300000000000002)]",0.9343400000000002,,,27.0,0.045507,['Pass'],Pass,0.6500000000000005,-0.15000000000000047,1.0,2.0,0.5
645.0,7.0,wc_7,,0.0,,,,162.0,,,,Pass,,,,,
645.0,7.0,wc_7,,0.0,,,57.0,,,,,Pass,,,,,
645.0,7.0,wc_7,,0.0,,,,0.0,,,,Pass,,,,,
645.0,7.0,wc_7,wc_7,0.0,"[('wc_7', 0.6700000000000005)]",0.6700000000000005,,,25.0,0.002699,['Pass'],Pass,0.6700000000000005,-0.6700000000000005,0.0,1.0,0.9
645.0,7.0,wc_7,,0.0,,,,0.0,,,,Pass,,,,,
645.0,7.0,wc_7,wc_10,0.0,"[('wc_10', 0.7200000000000005), ('wc_7', 0.6700000000000005)]",0.9076000000000003,,,36.0,0.004475,['Pass'],Pass,0.7200000000000005,-0.7200000000000005,0.0,0.0,0.6
645.0,7.0,wc_7,,0.0,,,,121.0,,,,Pass,,,,,
645.0,7.0,wc_7,wc_14,1.0,"[('wc_14', 0.6500000000000005), ('wc_7', 0.6700000000000005), ('wc_10', 0.7200000000000005)]",0.9676600000000002,,,37.0,0.046469,['Pass'],Pass,0.6600000000000005,0.0066666666666661545,2.0,3.0,0.5
653.0,11.0,wc_11,,0.0,,,,321.0,,,,Fail,,,,,
653.0,11.0,wc_11,,0.0,,,77.0,,,,,Fail,,,,,
653.0,11.0,wc_11,,0.0,,,,0.0,,,,Fail,,,,,
653.0,11.0,wc_11,wc_11,0.0,"[('wc_11', 0.3600000000000002)]",0.3600000000000002,,,38.0,0.002138,['Pass'],Fail,0.3600000000000002,-0.3011764705882355,0.0,0.0,0.2
653.0,11.0,wc_11,,0.0,,,,21.0,,,,Fail,,,,,
653.0,11.0,wc_11,wc_6,0.0,"[('wc_6', 0.6800000000000005)]",0.6800000000000005,,,21.0,0.004801,['Fail'],Fail,0.6800000000000005,-0.12444444444444491,5.0,9.0,0.5
653.0,11.0,wc_11,,0.0,,,,321.0,,,,Fail,,,,,
653.0,11.0,wc_11,wc_3,0.0,"[('wc_6', 0.6800000000000005)]",0.6800000000000005,,,26.0,0.006222999999999999,['Fail'],Fail,0.3600000000000002,-0.17818181818181839,0.0,0.0,0.2
653.0,11.0,wc_11,,0.0,,,,141.0,,,,Fail,,,,,
653.0,11.0,wc_11,wc_8,0.0,"[('wc_8', 0.6000000000000004), ('wc_6', 0.6800000000000005)]",0.8720000000000003,,,34.0,0.009228,['Fail'],Fail,0.6000000000000004,-0.4750000000000004,0.0,0.0,1.0
653.0,11.0,wc_11,,0.0,,,,321.0,,,,Fail,,,,,
653.0,11.0,wc_11,wc_5,1.0,"[('wc_5', 0.5600000000000004), ('wc_6', 0.6800000000000005), ('wc_8', 0.6000000000000004)]",0.9436800000000002,,,39.0,0.049654,['Fail'],Fail,0.5600000000000004,-0.5600000000000004,0.0,0.0,0.3
661.0,11.0,wc_11,,0.0,,,,162.0,,,,Pass,,,,,
661.0,11.0,wc_11,,0.0,,,72.0,,,,,Pass,,,,,
661.0,11.0,wc_11,,0.0,,,,0.0,,,,Pass,,,,,
661.0,11.0,wc_11,wc_11,0.0,"[('wc_11', 0.3500000000000002)]",0.3500000000000002,,,34.0,0.002423,['Fail'],Pass,0.3500000000000002,-0.3500000000000002,0.0,1.0,0.2
661.0,11.0,wc_11,,0.0,,,,61.0,,,,Pass,,,,,
661.0,11.0,wc_11,wc_8,0.0,"[('wc_8', 0.6100000000000004), ('wc_11', 0.3500000000000002)]",0.7465000000000004,,,24.0,0.0042970000000000005,['Fail'],Pass,0.6100000000000004,0.38999999999999957,1.0,1.0,1.0
661.0,11.0,wc_11,,0.0,,,,0.0,,,,Pass,,,,,
661.0,11.0,wc_11,wc_9,0.0,"[('wc_11', 0.3500000000000002), ('wc_8', 0.6100000000000004)]",0.7465000000000004,,,28.0,0.0062970000000000005,['Fail'],Pass,0.7400000000000005,-0.7400000000000005,0.0,3.0,0.6
661.0,11.0,wc_11,,0.0,,,,61.0,,,,Pass,,,,,
661.0,11.0,wc_11,wc_6,0.0,"[('wc_6', 0.6800000000000005), ('wc_9', 0.7400000000000005)]",0.9168000000000003,,,24.0,0.008487999999999999,['Pass'],Pass,0.6800000000000005,-0.6800000000000005,0.0,0.0,0.5
661.0,11.0,wc_11,,0.0,,,,222.0,,,,Pass,,,,,
661.0,11.0,wc_11,wc_2,1.0,"[('wc_2', 0.7600000000000006), ('wc_11', 0.3500000000000002), ('wc_8', 0.6100000000000004)]",0.9391600000000002,,,23.0,0.051726999999999995,['Fail'],Pass,0.7600000000000006,-0.7600000000000006,0.0,0.0,1.0
668.0,9.0,wc_9,,0.0,,,,183.0,,,,Fail,,,,,
668.0,9.0,wc_9,,0.0,,,78.0,,,,,Fail,,,,,
668.0,9.0,wc_9,,0.0,,,,0.0,,,,Fail,,,,,
668.0,9.0,wc_9,wc_9,0.0,"[('wc_9', 0.7300000000000005)]",0.7300000000000005,,,21.0,0.002128,['Fail'],Fail,0.7300000000000005,-0.7300000000000005,0.0,4.0,0.6
668.0,9.0,wc_9,,0.0,,,,0.0,,,,Fail,,,,,
668.0,9.0,wc_9,wc_11,0.0,"[('wc_9', 0.7300000000000005)]",0.7300000000000005,,,30.0,0.004151,['Fail'],Fail,0.3600000000000002,0.1399999999999998,1.0,2.0,0.2
668.0,9.0,wc_9,,0.0,,,,203.0,,,,Fail,,,,,
668.0,9.0,wc_9,wc_1,0.0,"[('wc_1', 0.3400000000000002), ('wc_9', 0.7300000000000005)]",0.8218000000000004,,,30.0,0.0075,['Fail'],Fail,0.3400000000000002,-0.006666666666666876,2.0,6.0,0.1
668.0,9.0,wc_9,,0.0,,,,0.0,,,,Fail,,,,,
668.0,9.0,wc_9,wc_4,1.0,"[('wc_4', 0.7900000000000006), ('wc_9', 0.7300000000000005), ('wc_1', 0.3400000000000002)]",0.9625780000000002,,,35.0,0.046949000000000005,['Fail'],Fail,0.7900000000000006,-0.7900000000000006,0.0,0.0,0.5
674.0,8.0,wc_8,,0.0,,,,121.0,,,,Pass,,,,,
674.0,8.0,wc_8,,0.0,,,72.0,,,,,Pass,,,,,
674.0,8.0,wc_8,,0.0,,,,0.0,,,,Pass,,,,,
674.0,8.0,wc_8,wc_8,0.0,"[('wc_8', 0.6200000000000004)]",0.6200000000000004,,,30.0,0.001993,['Pass'],Pass,0.6200000000000004,0.04666666666666619,2.0,3.0,1.0
674.0,8.0,wc_8,,0.0,,,,0.0,,,,Pass,,,,,
674.0,8.0,wc_8,wc_10,0.0,"[('wc_10', 0.7300000000000005), ('wc_8', 0.6200000000000004)]",0.8974000000000003,,,34.0,0.004207,['Pass'],Pass,0.7300000000000005,-0.48000000000000054,1.0,4.0,0.6
674.0,8.0,wc_8,,0.0,,,,0.0,,,,Pass,,,,,
674.0,8.0,wc_8,wc_11,1.0,"[('wc_11', 0.3500000000000002), ('wc_8', 0.6200000000000004), ('wc_10', 0.7300000000000005)]",0.9333100000000002,,,29.0,0.05213100000000001,['Pass'],Pass,0.3600000000000002,0.1399999999999998,2.0,4.0,0.2
680.0,11.0,wc_11,,0.0,,,,0.0,,,,Fail,,,,,
680.0,11.0,wc_11,,0.0,,,77.0,,,,,Fail,,,,,
680.0,11.0,wc_11,,0.0,,,,0.0,,,,Fail,,,,,
680.0,11.0,wc_11,wc_11,0.0,"[('wc_11', 0.3600000000000002)]",0.3600000000000002,,,32.0,0.002369,['Fail'],Fail,0.3600000000000002,0.1399999999999998,2.0,4.0,0.2
680.0,11.0,wc_11,,0.0,,,,162.0,,,,Fail,,,,,
680.0,11.0,wc_11,wc_17,0.0,"[('wc_11', 0.3600000000000002)]",0.3600000000000002,,,28.0,0.004923,['Fail'],Fail,0.15000000000000002,-0.025000000000000022,0.0,0.0,0.1
680.0,11.0,wc_11,,0.0,,,,322.0,,,,Fail,,,,,
680.0,11.0,wc_11,wc_9,0.0,"[('wc_9', 0.7300000000000005), ('wc_11', 0.3600000000000002)]",0.8272000000000004,,,27.0,0.006801999999999999,['Fail'],Fail,0.7300000000000005,-0.5633333333333339,1.0,6.0,0.6
680.0,11.0,wc_11,,0.0,,,,101.0,,,,Fail,,,,,
680.0,11.0,wc_11,wc_8,1.0,"[('wc_8', 0.6300000000000004), ('wc_11', 0.3600000000000002), ('wc_9', 0.7300000000000005)]",0.9360640000000002,,,39.0,0.04472600000000001,['Fail'],Fail,0.6400000000000005,0.1599999999999996,4.0,5.0,1.0
686.0,11.0,wc_11,,0.0,,,,0.0,,,,Pass,,,,,
686.0,11.0,wc_11,,0.0,,,56.0,,,,,Pass,,,,,
686.0,11.0,wc_11,,0.0,,,,0.0,,,,Pass,,,,,
686.0,11.0,wc_11,wc_11,0.0,"[('wc_11', 0.3700000000000002)]",0.3700000000000002,,,21.0,0.002294,['Pass'],Pass,0.3700000000000002,0.22999999999999976,3.0,5.0,0.2
686.0,11.0,wc_11,,0.0,,,,21.0,,,,Pass,,,,,
686.0,11.0,wc_11,wc_6,0.0,"[('wc_6', 0.6700000000000005), ('wc_11', 0.3700000000000002)]",0.7921000000000004,,,31.0,0.004062,['Pass'],Pass,0.6700000000000005,-0.6700000000000005,0.0,4.0,0.5
686.0,11.0,wc_11,,0.0,,,,202.0,,,,Pass,,,,,
686.0,11.0,wc_11,wc_14,1.0,"[('wc_14', 0.6600000000000005), ('wc_11', 0.3700000000000002), ('wc_6', 0.6700000000000005)]",0.9293140000000002,,,21.0,0.042814,['Pass'],Pass,0.6600000000000005,-0.32666666666666716,3.0,9.0,0.5
692.0,9.0,wc_9,,0.0,,,,281.0,,,,Pass,,,,,
692.0,9.0,wc_9,,0.0,,,57.0,,,,,Pass,,,,,
692.0,9.0,wc_9,,0.0,,,,0.0,,,,Pass,,,,,
692.0,9.0,wc_9,wc_9,0.0,"[('wc_9', 0.7300000000000005)]",0.7300000000000005,,,25.0,0.002249,['Pass'],Pass,0.7300000000000005,-0.48000000000000054,2.0,8.0,0.6
692.0,9.0,wc_9,,0.0,,,,101.0,,,,Pass,,,,,
692.0,9.0,wc_9,wc_8,0.0,"[('wc_8', 0.6400000000000005), ('wc_9', 0.7300000000000005)]",0.9028000000000003,,,37.0,0.00494,['Pass'],Pass,0.6400000000000005,0.026666666666666172,4.0,6.0,1.0
692.0,9.0,wc_9,,0.0,,,,0.0,,,,Pass,,,,,
692.0,9.0,wc_9,wc_11,0.0,"[('wc_9', 0.7300000000000005), ('wc_8', 0.6400000000000005)]",0.9028000000000003,,,25.0,0.005854,['Pass'],Pass,0.3800000000000002,0.2866666666666664,4.0,6.0,0.2
692.0,9.0,wc_9,,0.0,,,,362.0,,,,Pass,,,,,
692.0,9.0,wc_9,wc_5,1.0,"[('wc_5', 0.5600000000000004), ('wc_9', 0.7300000000000005), ('wc_8', 0.6400000000000005)]",0.9572320000000002,,,36.0,0.045937000000000006,['Pass'],Pass,0.5600000000000004,-0.39333333333333376,1.0,6.0,0.3
696.0,12.0,wc_12,,0.0,,,,101.0,,,,Fail,,,,,
696.0,12.0,wc_12,,0.0,,,64.0,,,,,Fail,,,,,
696.0,12.0,wc_12,,0.0,,,,0.0,,,,Fail,,,,,
696.0,12.0,wc_12,wc_12,0.0,"[('wc_12', 0.3200000000000002)]",0.3200000000000002,,,26.0,0.00219,['Pass'],Fail,0.3200000000000002,-0.24857142857142875,0.0,0.0,0.1
696.0,12.0,wc_12,,0.0,,,,361.0,,,,Fail,,,,,
696.0,12.0,wc_12,wc_3,0.0,"[('wc_3', 0.3500000000000002)]",0.3500000000000002,,,31.0,0.003913,['Fail'],Fail,0.3500000000000002,-0.3500000000000002,0.0,7.0,0.2
696.0,12.0,wc_12,,0.0,,,,181.0,,,,Fail,,,,,
696.0,12.0,wc_12,wc_14,0.0,"[('wc_14', 0.6600000000000005), ('wc_3', 0.3500000000000002)]",0.7790000000000004,,,37.0,0.005928999999999999,['Fail'],Fail,0.6600000000000005,-0.3600000000000005,0.0,0.0,0.5
696.0,12.0,wc_12,,0.0,,,,162.0,,,,Fail,,,,,
696.0,12.0,wc_12,wc_7,1.0,"[('wc_7', 0.6700000000000005), ('wc_3', 0.3500000000000002), ('wc_14', 0.6600000000000005)]",0.9270700000000003,,,31.0,0.046415000000000005,['Fail'],Fail,0.6700000000000005,-0.6700000000000005,0.0,0.0,0.9
700.0,12.0,wc_12,,0.0,,,,142.0,,,,Pass,,,,,
700.0,12.0,wc_12,,0.0,,,57.0,,,,,Pass,,,,,
700.0,12.0,wc_12,,0.0,,,,0.0,,,,Pass,,,,,
700.0,12.0,wc_12,wc_12,0.0,"[('wc_12', 0.31000000000000016)]",0.31000000000000016,,,37.0,0.00209,['Fail'],Pass,0.31000000000000016,-0.31000000000000016,0.0,1.0,0.1
700.0,12.0,wc_12,,0.0,,,,0.0,,,,Pass,,,,,
700.0,12.0,wc_12,wc_15,0.0,"[('wc_15', 0.6600000000000005)]",0.6600000000000005,,,30.0,0.004562999999999999,['Pass'],Pass,0.6600000000000005,-0.5061538461538466,0.0,0.0,0.4
700.0,12.0,wc_12,,0.0,,,,0.0,,,,Pass,,,,,
700.0,12.0,wc_12,wc_16,0.0,"[('wc_16', 0.31000000000000016), ('wc_15', 0.6600000000000005)]",0.7654000000000004,,,33.0,0.005962,['Pass'],Pass,0.31000000000000016,-0.18500000000000016,0.0,0.0,0.2
700.0,12.0,wc_12,,0.0,,,,61.0,,,,Pass,,,,,
700.0,12.0,wc_12,wc_13,0.0,"[('wc_15', 0.6600000000000005), ('wc_16', 0.31000000000000016)]",0.7654000000000004,,,20.0,0.007266,['Pass'],Pass,0.3300000000000002,-0.13000000000000017,0.0,0.0,0.1
700.0,12.0,wc_12,,0.0,,,,341.0,,,,Pass,,,,,
700.0,12.0,wc_12,wc_3,0.0,"[('wc_15', 0.6600000000000005), ('wc_16', 0.31000000000000016)]",0.7654000000000004,,,28.0,0.015989,['Pass'],Pass,0.3500000000000002,-0.2250000000000002,1.0,8.0,0.2
700.0,12.0,wc_12,,0.0,,,,0.0,,,,Pass,,,,,
700.0,12.0,wc_12,wc_5,0.0,"[('wc_5', 0.5600000000000004), ('wc_12', 0.31000000000000016), ('wc_13', 0.3300000000000002), ('wc_3', 0.3500000000000002)]",0.8677822000000002,,,35.0,0.010891,['Fail'],Pass,0.5600000000000004,-0.41714285714285754,1.0,7.0,0.3
700.0,12.0,wc_12,,0.0,,,,61.0,,,,Pass,,,,,
700.0,12.0,wc_12,wc_2,1.0,"[('wc_2', 0.7600000000000006), ('wc_15', 0.6600000000000005), ('wc_16', 0.31000000000000016)]",0.9436960000000002,,,22.0,0.048277,['Pass'],Pass,0.7600000000000006,-0.6171428571428577,1.0,7.0,1.0
705.0,13.0,wc_13,,0.0,,,,182.0,,,,Pass,,,,,
705.0,13.0,wc_13,,0.0,,,72.0,,,,,Pass,,,,,
705.0,13.0,wc_13,,0.0,,,,0.0,,,,Pass,,,,,
705.0,13.0,wc_13,wc_13,0.0,"[('wc_13', 0.3200000000000002)]",0.3200000000000002,,,26.0,0.00258,['Pass'],Pass,0.3200000000000002,-0.3200000000000002,0.0,1.0,0.1
705.0,13.0,wc_13,,0.0,,,,341.0,,,,Pass,,,,,
705.0,13.0,wc_13,wc_11,0.0,"[('wc_11', 0.3800000000000002), ('wc_13', 0.3200000000000002)]",0.5784000000000002,,,35.0,0.003974,['Pass'],Pass,0.3800000000000002,0.0644444444444442,4.0,9.0,0.2
705.0,13.0,wc_13,,0.0,,,,61.0,,,,Pass,,,,,
705.0,13.0,wc_13,wc_12,0.0,"[('wc_13', 0.3200000000000002), ('wc_11', 0.3800000000000002)]",0.5784000000000002,,,38.0,0.0102,['Pass'],Pass,0.30000000000000016,-0.30000000000000016,0.0,2.0,0.1
705.0,13.0,wc_13,,0.0,,,,222.0,,,,Pass,,,,,
705.0,13.0,wc_13,wc_8,0.0,"[('wc_8', 0.6500000000000005), ('wc_13', 0.3200000000000002), ('wc_11', 0.3800000000000002)]",0.8524400000000003,,,26.0,0.009099999999999999,['Pass'],Pass,0.6500000000000005,-0.09444444444444489,5.0,9.0,1.0
705.0,13.0,wc_13,,0.0,,,,203.0,,,,Pass,,,,,
705.0,13.0,wc_13,wc_16,0.0,"[('wc_13', 0.3200000000000002), ('wc_11', 0.3800000000000002), ('wc_8', 0.6500000000000005)]",0.8524400000000003,,,35.0,0.010124000000000001,['Pass'],Pass,0.3200000000000002,0.6799999999999998,1.0,1.0,0.2
705.0,13.0,wc_13,,0.0,,,,382.0,,,,Pass,,,,,
705.0,13.0,wc_13,wc_3,1.0,"[('wc_3', 0.3400000000000002), ('wc_13', 0.3200000000000002), ('wc_11', 0.3800000000000002), ('wc_8', 0.6500000000000005)]",0.9026104000000003,,,32.0,0.050043000000000004,['Pass'],Pass,0.3400000000000002,-0.3400000000000002,0.0,0.0,0.2
708.0,15.0,wc_15,,0.0,,,,202.0,,,,Fail,,,,,
708.0,15.0,wc_15,,0.0,,,74.0,,,,,Fail,,,,,
708.0,15.0,wc_15,,0.0,,,,0.0,,,,Fail,,,,,
708.0,15.0,wc_15,wc_15,0.0,"[('wc_15', 0.6700000000000005)]",0.6700000000000005,,,23.0,0.002137,['Fail'],Fail,0.6700000000000005,-0.17000000000000048,1.0,2.0,0.4
708.0,15.0,wc_15,,0.0,,,,402.0,,,,Fail,,,,,
708.0,15.0,wc_15,wc_3,0.0,"[('wc_3', 0.3400000000000002), ('wc_15', 0.6700000000000005)]",0.7822000000000005,,,32.0,0.0041849999999999995,['Fail'],Fail,0.3400000000000002,-0.3400000000000002,0.0,0.0,0.2
708.0,15.0,wc_15,,0.0,,,,202.0,,,,Fail,,,,,
708.0,15.0,wc_15,wc_11,0.0,"[('wc_15', 0.6700000000000005), ('wc_3', 0.3400000000000002)]",0.7822000000000005,,,20.0,0.006317,['Fail'],Fail,0.39000000000000024,-0.39000000000000024,0.0,0.0,0.2
708.0,15.0,wc_15,,0.0,,,,83.0,,,,Fail,,,,,
708.0,15.0,wc_15,wc_9,1.0,"[('wc_9', 0.7300000000000005), ('wc_15', 0.6700000000000005), ('wc_3', 0.3400000000000002)]",0.9411940000000002,,,24.0,0.045502999999999995,['Fail'],Fail,0.7300000000000005,-0.7300000000000005,0.0,0.0,0.6
712.0,15.0,wc_15,,0.0,,,,162.0,,,,Pass,,,,,
712.0,15.0,wc_15,,0.0,,,57.0,,,,,Pass,,,,,
712.0,15.0,wc_15,,0.0,,,,0.0,,,,Pass,,,,,
712.0,15.0,wc_15,wc_15,0.0,"[('wc_15', 0.6700000000000005)]",0.6700000000000005,,,24.0,0.003474,['Pass'],Pass,0.6700000000000005,-0.0033333333333338544,2.0,3.0,0.4
712.0,15.0,wc_15,,0.0,,,,101.0,,,,Pass,,,,,
712.0,15.0,wc_15,wc_14,0.0,"[('wc_14', 0.6700000000000005), ('wc_15', 0.6700000000000005)]",0.8911000000000003,,,21.0,0.003977,['Pass'],Pass,0.6700000000000005,-0.4200000000000005,1.0,4.0,0.5
712.0,15.0,wc_15,,0.0,,,,321.0,,,,Pass,,,,,
712.0,15.0,wc_15,wc_11,1.0,"[('wc_11', 0.3800000000000002), ('wc_15', 0.6700000000000005), ('wc_14', 0.6700000000000005)]",0.9324820000000003,,,28.0,0.04499199999999999,['Pass'],Pass,0.39000000000000024,0.10999999999999976,1.0,2.0,0.2
715.0,16.0,wc_16,,0.0,,,,142.0,,,,Fail,,,,,
715.0,16.0,wc_16,,0.0,,,80.0,,,,,Fail,,,,,
715.0,16.0,wc_16,,0.0,,,,0.0,,,,Fail,,,,,
715.0,16.0,wc_16,wc_16,0.0,"[('wc_16', 0.3200000000000002)]",0.3200000000000002,,,33.0,0.002186,['Fail'],Fail,0.3200000000000002,-0.07000000000000017,1.0,4.0,0.2
715.0,16.0,wc_16,,0.0,,,,382.0,,,,Fail,,,,,
715.0,16.0,wc_16,wc_11,0.0,"[('wc_11', 0.39000000000000024), ('wc_16', 0.3200000000000002)]",0.5852000000000003,,,37.0,0.00406,['Fail'],Fail,0.39000000000000024,0.10999999999999976,1.0,2.0,0.2
715.0,16.0,wc_16,,0.0,,,,21.0,,,,Fail,,,,,
715.0,16.0,wc_16,wc_6,0.0,"[('wc_6', 0.6700000000000005), ('wc_16', 0.3200000000000002), ('wc_11', 0.39000000000000024)]",0.8631160000000002,,,37.0,0.005878,['Fail'],Fail,0.6700000000000005,-0.5790909090909095,0.0,0.0,0.5
715.0,16.0,wc_16,,0.0,,,,361.0,,,,Fail,,,,,
715.0,16.0,wc_16,wc_5,1.0,"[('wc_5', 0.5500000000000004), ('wc_16', 0.3200000000000002), ('wc_11', 0.39000000000000024), ('wc_6', 0.6700000000000005)]",0.9384022000000002,,,32.0,0.041962,['Fail'],Fail,0.5500000000000004,-0.5500000000000004,0.0,0.0,0.3
717.0,14.0,wc_14,,0.0,,,,141.0,,,,Fail,,,,,
717.0,14.0,wc_14,,0.0,,,51.0,,,,,Fail,,,,,
717.0,14.0,wc_14,,0.0,,,,0.0,,,,Fail,,,,,
717.0,14.0,wc_14,wc_14,0.0,"[('wc_14', 0.6700000000000005)]",0.6700000000000005,,,34.0,0.002464,['Fail'],Fail,0.6700000000000005,-0.33666666666666717,2.0,6.0,0.5
717.0,14.0,wc_14,,0.0,,,,0.0,,,,Fail,,,,,
717.0,14.0,wc_14,wc_15,0.0,"[('wc_15', 0.6800000000000005)]",0.6800000000000005,,,29.0,0.004582,['Pass'],Fail,0.6800000000000005,-0.08000000000000052,3.0,5.0,0.4
717.0,14.0,wc_14,,0.0,,,,223.0,,,,Fail,,,,,
717.0,14.0,wc_14,wc_6,0.0,"[('wc_6', 0.6800000000000005), ('wc_14', 0.6700000000000005)]",0.8944000000000003,,,31.0,0.006371,['Fail'],Fail,0.6800000000000005,0.3199999999999995,1.0,1.0,0.5
717.0,14.0,wc_14,,0.0,,,,182.0,,,,Fail,,,,,
717.0,14.0,wc_14,wc_13,0.0,"[('wc_14', 0.6700000000000005), ('wc_6', 0.6800000000000005)]",0.8944000000000003,,,40.0,0.007645,['Fail'],Fail,0.3300000000000002,-0.13000000000000017,1.0,5.0,0.1
717.0,14.0,wc_14,,0.0,,,,361.0,,,,Fail,,,,,
717.0,14.0,wc_14,wc_4,1.0,"[('wc_4', 0.7900000000000006), ('wc_14', 0.6700000000000005), ('wc_6', 0.6800000000000005)]",0.9778240000000001,,,20.0,0.05014699999999999,['Fail'],Fail,0.7900000000000006,-0.7900000000000006,0.0,0.0,0.5
720.0,16.0,wc_16,,0.0,,,,202.0,,,,Fail,,,,,
720.0,16.0,wc_16,,0.0,,,80.0,,,,,Fail,,,,,
720.0,16.0,wc_16,,0.0,,,,0.0,,,,Fail,,,,,
720.0,16.0,wc_16,wc_16,0.0,"[('wc_16', 0.3300000000000002)]",0.3300000000000002,,,21.0,0.002153,['Pass'],Fail,0.3300000000000002,0.0033333333333331328,2.0,6.0,0.2
720.0,16.0,wc_16,,0.0,,,,223.0,,,,Fail,,,,,
720.0,16.0,wc_16,wc_7,0.0,"[('wc_7', 0.6700000000000005)]",0.6700000000000005,,,20.0,0.004228,['Fail'],Fail,0.6700000000000005,-0.6700000000000005,0.0,6.0,0.9
720.0,16.0,wc_16,,0.0,,,,0.0,,,,Fail,,,,,
720.0,16.0,wc_16,wc_10,0.0,"[('wc_10', 0.7300000000000005), ('wc_16', 0.3300000000000002)]",0.8191000000000004,,,32.0,0.005877,['Pass'],Fail,0.7300000000000005,-0.5966666666666672,0.0,0.0,0.6
720.0,16.0,wc_16,,0.0,,,,81.0,,,,Fail,,,,,
720.0,16.0,wc_16,wc_12,0.0,"[('wc_16', 0.3300000000000002), ('wc_10', 0.7300000000000005)]",0.8191000000000004,,,36.0,0.008553,['Pass'],Fail,0.29000000000000015,-0.29000000000000015,0.0,7.0,0.1
720.0,16.0,wc_16,,0.0,,,,262.0,,,,Fail,,,,,
720.0,16.0,wc_16,wc_2,1.0,"[('wc_2', 0.7600000000000006), ('wc_7', 0.6700000000000005), ('wc_12', 0.29000000000000015)]",0.9437680000000003,,,30.0,0.047302,['Fail'],Fail,0.7600000000000006,-0.7600000000000006,0.0,0.0,1.0
722.0,14.0,wc_14,,0.0,,,,202.0,,,,Pass,,,,,
722.0,14.0,wc_14,,0.0,,,71.0,,,,,Pass,,,,,
722.0,14.0,wc_14,,0.0,,,,0.0,,,,Pass,,,,,
722.0,14.0,wc_14,wc_14,0.0,"[('wc_14', 0.6700000000000005)]",0.6700000000000005,,,40.0,0.00228,['Pass'],Pass,0.6700000000000005,-0.2950000000000005,3.0,8.0,0.5
722.0,14.0,wc_14,,0.0,,,,281.0,,,,Pass,,,,,
722.0,14.0,wc_14,wc_9,0.0,"[('wc_9', 0.7300000000000005), ('wc_14', 0.6700000000000005)]",0.9109000000000003,,,31.0,0.0040739999999999995,['Pass'],Pass,0.7300000000000005,-0.7300000000000005,0.0,4.0,0.6
722.0,14.0,wc_14,,0.0,,,,162.0,,,,Pass,,,,,
722.0,14.0,wc_14,wc_15,0.0,"[('wc_14', 0.6700000000000005), ('wc_9', 0.7300000000000005)]",0.9109000000000003,,,37.0,0.006255999999999999,['Pass'],Pass,0.6700000000000005,-0.24142857142857194,3.0,7.0,0.4
722.0,14.0,wc_14,,0.0,,,,402.0,,,,Pass,,,,,
722.0,14.0,wc_14,wc_11,0.0,"[('wc_14', 0.6700000000000005), ('wc_9', 0.7300000000000005)]",0.9109000000000003,,,35.0,0.008747000000000001,['Pass'],Pass,0.40000000000000024,-2.220446049250313e-16,2.0,5.0,0.2
722.0,14.0,wc_14,,0.0,,,,81.0,,,,Pass,,,,,
722.0,14.0,wc_14,wc_13,0.0,"[('wc_14', 0.6700000000000005), ('wc_9', 0.7300000000000005)]",0.9109000000000003,,,37.0,0.009804,['Pass'],Pass,0.3200000000000002,-0.17714285714285732,1.0,7.0,0.1
722.0,14.0,wc_14,,0.0,,,,102.0,,,,Pass,,,,,
722.0,14.0,wc_14,wc_12,0.0,"[('wc_14', 0.6700000000000005), ('wc_9', 0.7300000000000005)]",0.9109000000000003,,,33.0,0.014028000000000002,['Pass'],Pass,0.29000000000000015,-0.16500000000000015,1.0,8.0,0.1
722.0,14.0,wc_14,,0.0,,,,202.0,,,,Pass,,,,,
722.0,14.0,wc_14,wc_7,1.0,"[('wc_7', 0.6700000000000005), ('wc_14', 0.6700000000000005), ('wc_9', 0.7300000000000005)]",0.9705970000000002,,,34.0,0.05247699999999999,['Pass'],Pass,0.6700000000000005,-0.4200000000000005,2.0,8.0,0.9
724.0,16.0,wc_16,,0.0,,,,223.0,,,,Pass,,,,,
724.0,16.0,wc_16,,0.0,,,58.0,,,,,Pass,,,,,
724.0,16.0,wc_16,,0.0,,,,0.0,,,,Pass,,,,,
724.0,16.0,wc_16,wc_16,0.0,"[('wc_16', 0.3200000000000002)]",0.3200000000000002,,,20.0,0.002654,['Pass'],Pass,0.3200000000000002,-0.07000000000000017,2.0,8.0,0.2
724.0,16.0,wc_16,,0.0,,,,81.0,,,,Pass,,,,,
724.0,16.0,wc_16,wc_14,0.0,"[('wc_14', 0.6700000000000005), ('wc_16', 0.3200000000000002)]",0.7756000000000004,,,21.0,0.004340999999999999,['Pass'],Pass,0.6700000000000005,-0.22555555555555606,4.0,9.0,0.5
724.0,16.0,wc_16,,0.0,,,,202.0,,,,Pass,,,,,
724.0,16.0,wc_16,wc_1,0.0,"[('wc_1', 0.3500000000000002), ('wc_16', 0.3200000000000002), ('wc_14', 0.6700000000000005)]",0.8541400000000003,,,26.0,0.0056430000000000004,['Pass'],Pass,0.3500000000000002,-0.2000000000000002,0.0,0.0,0.1
724.0,16.0,wc_16,,0.0,,,,182.0,,,,Pass,,,,,
724.0,16.0,wc_16,wc_8,1.0,"[('wc_8', 0.6500000000000005), ('wc_16', 0.3200000000000002), ('wc_14', 0.6700000000000005), ('wc_1', 0.3500000000000002)]",0.9489490000000002,,,29.0,0.049939000000000004,['Pass'],Pass,0.6500000000000005,-0.5071428571428576,1.0,7.0,1.0
726.0,17.0,wc_17,,0.0,,,,223.0,,,,Fail,,,,,
726.0,17.0,wc_17,,0.0,,,76.0,,,,,Fail,,,,,
726.0,17.0,wc_17,,0.0,,,,0.0,,,,Fail,,,,,
726.0,17.0,wc_17,wc_17,0.0,"[('wc_17', 0.14)]",0.14,,,33.0,0.002104,['Pass'],Fail,0.14,-0.14,0.0,0.0,0.1
726.0,17.0,wc_17,,0.0,,,,342.0,,,,Fail,,,,,
726.0,17.0,wc_17,wc_10,0.0,"[('wc_10', 0.7200000000000005)]",0.7200000000000005,,,30.0,0.004257,['Fail'],Fail,0.7200000000000005,-0.7200000000000005,0.0,3.0,0.6
726.0,17.0,wc_17,,0.0,,,,81.0,,,,Fail,,,,,
726.0,17.0,wc_17,wc_8,0.0,"[('wc_8', 0.6500000000000005), ('wc_10', 0.7200000000000005)]",0.9020000000000004,,,34.0,0.007180000000000001,['Fail'],Fail,0.6500000000000005,-0.5071428571428576,1.0,7.0,1.0
726.0,17.0,wc_17,,0.0,,,,82.0,,,,Fail,,,,,
726.0,17.0,wc_17,wc_6,1.0,"[('wc_6', 0.6900000000000005), ('wc_10', 0.7200000000000005), ('wc_8', 0.6500000000000005)]",0.9696200000000001,,,25.0,0.04772099999999999,['Fail'],Fail,0.6900000000000005,-0.1900000000000005,3.0,6.0,0.5
730.0,17.0,wc_17,,0.0,,,,263.0,,,,Fail,,,,,
730.0,17.0,wc_17,,0.0,,,61.0,,,,,Fail,,,,,
730.0,17.0,wc_17,,0.0,,,,0.0,,,,Fail,,,,,
730.0,17.0,wc_17,wc_17,0.0,"[('wc_17', 0.13)]",0.13,,,39.0,0.002142,['Fail'],Fail,0.13,-0.13,0.0,1.0,0.1
730.0,17.0,wc_17,,0.0,,,,21.0,,,,Fail,,,,,
730.0,17.0,wc_17,wc_12,0.0,"[('wc_12', 0.28000000000000014)]",0.28000000000000014,,,33.0,0.0038900000000000002,['Pass'],Fail,0.28000000000000014,-0.18909090909090923,0.0,0.0,0.1
730.0,17.0,wc_17,,0.0,,,,381.0,,,,Fail,,,,,
730.0,17.0,wc_17,wc_4,0.0,"[('wc_4', 0.7900000000000006), ('wc_17', 0.13)]",0.8173000000000006,,,28.0,0.005812,['Fail'],Fail,0.7900000000000006,-0.7900000000000006,0.0,4.0,0.5
730.0,17.0,wc_17,,0.0,,,,103.0,,,,Fail,,,,,
730.0,17.0,wc_17,wc_3,0.0,"[('wc_3', 0.3500000000000002), ('wc_17', 0.13), ('wc_4', 0.7900000000000006)]",0.8812450000000004,,,23.0,0.007861,['Fail'],Fail,0.3500000000000002,-0.2250000000000002,1.0,8.0,0.2
730.0,17.0,wc_17,,0.0,,,,182.0,,,,Fail,,,,,
730.0,17.0,wc_17,wc_10,1.0,"[('wc_10', 0.7200000000000005), ('wc_17', 0.13), ('wc_4', 0.7900000000000006), ('wc_3', 0.3500000000000002)]",0.9667486000000002,,,22.0,0.049306,['Fail'],Fail,0.7200000000000005,-0.3200000000000005,2.0,5.0,0.6
732.0,17.0,wc_17,,0.0,,,,182.0,,,,Fail,,,,,
732.0,17.0,wc_17,,0.0,,,65.0,,,,,Fail,,,,,
732.0,17.0,wc_17,,0.0,,,,0.0,,,,Fail,,,,,
732.0,17.0,wc_17,wc_17,0.0,"[('wc_17', 0.14)]",0.14,,,20.0,0.002548,['Pass'],Fail,0.14,0.36,1.0,2.0,0.1
732.0,17.0,wc_17,,0.0,,,,223.0,,,,Fail,,,,,
732.0,17.0,wc_17,wc_8,0.0,"[('wc_8', 0.6500000000000005)]",0.6500000000000005,,,28.0,0.0044670000000000005,['Fail'],Fail,0.6500000000000005,-0.42777777777777826,2.0,9.0,1.0
732.0,17.0,wc_17,,0.0,,,,182.0,,,,Fail,,,,,
732.0,17.0,wc_17,wc_2,0.0,"[('wc_2', 0.7600000000000006), ('wc_8', 0.6500000000000005)]",0.9160000000000004,,,32.0,0.0057859999999999995,['Fail'],Fail,0.7600000000000006,-0.7600000000000006,0.0,4.0,1.0
732.0,17.0,wc_17,,0.0,,,,122.0,,,,Fail,,,,,
732.0,17.0,wc_17,wc_6,1.0,"[('wc_6', 0.6900000000000005), ('wc_8', 0.6500000000000005), ('wc_2', 0.7600000000000006)]",0.9739600000000002,,,22.0,0.04920599999999999,['Fail'],Fail,0.6900000000000005,-0.1900000000000005,4.0,8.0,0.5
734.0,17.0,wc_17,,0.0,,,,263.0,,,,Pass,,,,,
734.0,17.0,wc_17,,0.0,,,57.0,,,,,Pass,,,,,
734.0,17.0,wc_17,,0.0,,,,0.0,,,,Pass,,,,,
734.0,17.0,wc_17,wc_17,0.0,"[('wc_17', 0.14)]",0.14,,,28.0,0.002217,['Fail'],Pass,0.14,0.1933333333333333,1.0,3.0,0.1
734.0,17.0,wc_17,,0.0,,,,322.0,,,,Pass,,,,,
734.0,17.0,wc_17,wc_9,0.0,"[('wc_9', 0.7300000000000005)]",0.7300000000000005,,,36.0,0.003954,['Pass'],Pass,0.7300000000000005,-0.6188888888888895,1.0,9.0,0.6
734.0,17.0,wc_17,,0.0,,,,61.0,,,,Pass,,,,,
734.0,17.0,wc_17,wc_6,0.0,"[('wc_6', 0.6900000000000005), ('wc_9', 0.7300000000000005)]",0.9163000000000003,,,28.0,0.006157999999999999,['Pass'],Pass,0.6900000000000005,-0.1900000000000005,4.0,8.0,0.5
734.0,17.0,wc_17,,0.0,,,,0.0,,,,Pass,,,,,
734.0,17.0,wc_17,wc_11,1.0,"[('wc_11', 0.39000000000000024), ('wc_9', 0.7300000000000005), ('wc_6', 0.6900000000000005)]",0.9489430000000002,,,27.0,0.045433999999999995,['Pass'],Pass,0.39000000000000024,-0.39000000000000024,0.0,0.0,0.2
