mpecck/BCQC/bcqc_with_qdt/results/raw/input_14/independent_qc/training/20_workpiece/20200429_095223/wp_10_qc_majority_0.9.csv
production_index,step_idx,production_workcell,qc,consent,winner_qc_list,score,production_time,transport_time,inspection_time,network_time,qc_results,actual_quality,qc_score,score_error,in_winner_counter,in_qc_counter,qc_capability
28.0,1.0,wc_1,,0.0,,,51.0,,,,,Fail,,,,,
28.0,1.0,wc_1,,0.0,,,,0.0,,,,Fail,,,,,
28.0,1.0,wc_1,wc_1,0.0,"[('wc_1', 0.2600000000000001)]",0.2600000000000001,,,20.0,0.003011,['Fail'],Fail,0.2600000000000001,-0.11714285714285727,1.0,7.0,0.1
28.0,1.0,wc_1,,0.0,,,,243.0,,,,Fail,,,,,
28.0,1.0,wc_1,wc_15,0.0,"[('wc_15', 0.6300000000000004), ('wc_1', 0.2600000000000001)]",0.7262000000000004,,,35.0,0.005014,['Fail'],Fail,0.6300000000000004,0.36999999999999955,1.0,1.0,0.4
28.0,1.0,wc_1,,0.0,,,,303.0,,,,Fail,,,,,
28.0,1.0,wc_1,wc_2,1.0,"[('wc_2', 0.7100000000000005), ('wc_1', 0.2600000000000001), ('wc_15', 0.6300000000000004)]",0.9205980000000002,,,34.0,0.050237000000000004,['Fail'],Fail,0.7100000000000005,-0.4600000000000005,1.0,4.0,1.0
135.0,1.0,wc_1,,0.0,,,,102.0,,,,Fail,,,,,
135.0,1.0,wc_1,,0.0,,,68.0,,,,,Fail,,,,,
135.0,1.0,wc_1,,0.0,,,,0.0,,,,Fail,,,,,
135.0,1.0,wc_1,wc_1,0.0,"[('wc_1', 0.2600000000000001)]",0.2600000000000001,,,38.0,0.002237,['Pass'],Fail,0.2600000000000001,-0.01000000000000012,2.0,8.0,0.1
135.0,1.0,wc_1,,0.0,,,,203.0,,,,Fail,,,,,
135.0,1.0,wc_1,wc_9,0.0,"[('wc_9', 0.7100000000000005)]",0.7100000000000005,,,29.0,0.004948,['Fail'],Fail,0.7100000000000005,-0.4877777777777783,2.0,9.0,0.6
135.0,1.0,wc_1,,0.0,,,,0.0,,,,Fail,,,,,
135.0,1.0,wc_1,wc_10,0.0,"[('wc_10', 0.6600000000000005), ('wc_1', 0.2600000000000001)]",0.7484000000000004,,,36.0,0.0061860000000000005,['Pass'],Fail,0.6600000000000005,-0.08857142857142908,4.0,7.0,0.6
135.0,1.0,wc_1,,0.0,,,,382.0,,,,Fail,,,,,
135.0,1.0,wc_1,wc_5,0.0,"[('wc_5', 0.42000000000000026), ('wc_9', 0.7100000000000005)]",0.8318000000000003,,,22.0,0.010927,['Fail'],Fail,0.42000000000000026,-0.42000000000000026,0.0,1.0,0.3
135.0,1.0,wc_1,,0.0,,,,162.0,,,,Fail,,,,,
135.0,1.0,wc_1,wc_15,1.0,"[('wc_15', 0.6400000000000005), ('wc_9', 0.7100000000000005), ('wc_5', 0.42000000000000026)]",0.9394480000000002,,,36.0,0.048924999999999996,['Fail'],Fail,0.6500000000000005,0.34999999999999953,3.0,3.0,0.4
200.0,1.0,wc_1,,0.0,,,,283.0,,,,Fail,,,,,
200.0,1.0,wc_1,,0.0,,,51.0,,,,,Fail,,,,,
200.0,1.0,wc_1,,0.0,,,,0.0,,,,Fail,,,,,
200.0,1.0,wc_1,wc_1,0.0,"[('wc_1', 0.2500000000000001)]",0.2500000000000001,,,38.0,0.002449,['Pass'],Fail,0.2500000000000001,-0.0277777777777779,2.0,9.0,0.1
200.0,1.0,wc_1,,0.0,,,,263.0,,,,Fail,,,,,
200.0,1.0,wc_1,wc_16,0.0,"[('wc_16', 0.3300000000000002), ('wc_1', 0.2500000000000001)]",0.49750000000000016,,,26.0,0.004468,['Pass'],Fail,0.3300000000000002,-0.21888888888888908,1.0,9.0,0.2
200.0,1.0,wc_1,,0.0,,,,103.0,,,,Fail,,,,,
200.0,1.0,wc_1,wc_15,0.0,"[('wc_15', 0.6500000000000005), ('wc_1', 0.2500000000000001), ('wc_16', 0.3300000000000002)]",0.8241250000000003,,,24.0,0.013033,['Pass'],Fail,0.6500000000000005,0.34999999999999953,3.0,3.0,0.4
200.0,1.0,wc_1,,0.0,,,,243.0,,,,Fail,,,,,
200.0,1.0,wc_1,wc_7,0.0,"[('wc_1', 0.2500000000000001), ('wc_16', 0.3300000000000002), ('wc_15', 0.6500000000000005)]",0.8241250000000003,,,24.0,0.011794,['Pass'],Fail,0.6800000000000005,-0.6211764705882358,0.0,0.0,0.9
200.0,1.0,wc_1,,0.0,,,,0.0,,,,Fail,,,,,
200.0,1.0,wc_1,wc_9,0.0,"[('wc_9', 0.7100000000000005), ('wc_7', 0.6800000000000005)]",0.9072000000000003,,,21.0,0.013635,['Fail'],Fail,0.7100000000000005,-0.7100000000000005,0.0,0.0,0.6
200.0,1.0,wc_1,,0.0,,,,263.0,,,,Fail,,,,,
200.0,1.0,wc_1,wc_2,1.0,"[('wc_2', 0.7100000000000005), ('wc_7', 0.6800000000000005), ('wc_9', 0.7100000000000005)]",0.9730880000000002,,,33.0,0.05548899999999999,['Fail'],Fail,0.7100000000000005,-0.3766666666666672,2.0,6.0,1.0
231.0,1.0,wc_1,,0.0,,,,102.0,,,,Fail,,,,,
231.0,1.0,wc_1,,0.0,,,63.0,,,,,Fail,,,,,
231.0,1.0,wc_1,,0.0,,,,0.0,,,,Fail,,,,,
231.0,1.0,wc_1,wc_1,0.0,"[('wc_1', 0.2400000000000001)]",0.2400000000000001,,,24.0,0.002541,['Fail'],Fail,0.2400000000000001,-0.2400000000000001,0.0,0.0,0.1
231.0,1.0,wc_1,,0.0,,,,222.0,,,,Fail,,,,,
231.0,1.0,wc_1,wc_14,0.0,"[('wc_14', 0.6200000000000004), ('wc_1', 0.2400000000000001)]",0.7112000000000004,,,28.0,0.004555,['Fail'],Fail,0.6200000000000004,-0.6200000000000004,0.0,4.0,0.5
231.0,1.0,wc_1,,0.0,,,,341.0,,,,Fail,,,,,
231.0,1.0,wc_1,wc_4,1.0,"[('wc_4', 0.7200000000000005), ('wc_1', 0.2400000000000001), ('wc_14', 0.6200000000000004)]",0.9191360000000003,,,27.0,0.05285499999999999,['Fail'],Fail,0.7200000000000005,-0.7200000000000005,0.0,0.0,0.5
242.0,1.0,wc_1,,0.0,,,,61.0,,,,Fail,,,,,
242.0,1.0,wc_1,,0.0,,,73.0,,,,,Fail,,,,,
242.0,1.0,wc_1,,0.0,,,,0.0,,,,Fail,,,,,
242.0,1.0,wc_1,wc_1,0.0,"[('wc_1', 0.2500000000000001)]",0.2500000000000001,,,29.0,0.003977,['Fail'],Fail,0.2500000000000001,0.7499999999999999,1.0,1.0,0.1
242.0,1.0,wc_1,,0.0,,,,0.0,,,,Fail,,,,,
242.0,1.0,wc_1,wc_4,0.0,"[('wc_4', 0.7200000000000005), ('wc_1', 0.2500000000000001)]",0.7900000000000005,,,34.0,0.006952999999999999,['Fail'],Fail,0.7200000000000005,-0.7200000000000005,0.0,0.0,0.5
242.0,1.0,wc_1,,0.0,,,,81.0,,,,Fail,,,,,
242.0,1.0,wc_1,wc_2,1.0,"[('wc_2', 0.7100000000000005), ('wc_1', 0.2500000000000001), ('wc_4', 0.7200000000000005)]",0.9391000000000003,,,25.0,0.055964,['Fail'],Fail,0.7100000000000005,-0.3350000000000005,3.0,8.0,1.0
253.0,1.0,wc_1,,0.0,,,,102.0,,,,Fail,,,,,
253.0,1.0,wc_1,,0.0,,,58.0,,,,,Fail,,,,,
253.0,1.0,wc_1,,0.0,,,,0.0,,,,Fail,,,,,
253.0,1.0,wc_1,wc_1,0.0,"[('wc_1', 0.2600000000000001)]",0.2600000000000001,,,34.0,0.002762,['Pass'],Fail,0.2600000000000001,0.7399999999999999,2.0,2.0,0.1
253.0,1.0,wc_1,,0.0,,,,283.0,,,,Fail,,,,,
253.0,1.0,wc_1,wc_17,0.0,"[('wc_1', 0.2600000000000001)]",0.2600000000000001,,,20.0,0.007346999999999999,['Pass'],Fail,0.21000000000000008,-0.21000000000000008,0.0,5.0,0.1
253.0,1.0,wc_1,,0.0,,,,21.0,,,,Fail,,,,,
253.0,1.0,wc_1,wc_12,0.0,"[('wc_12', 0.2500000000000001), ('wc_1', 0.2600000000000001)]",0.4450000000000002,,,28.0,0.010493,['Pass'],Fail,0.2500000000000001,-0.10714285714285726,0.0,0.0,0.1
253.0,1.0,wc_1,,0.0,,,,0.0,,,,Fail,,,,,
253.0,1.0,wc_1,wc_13,0.0,"[('wc_13', 0.3400000000000002), ('wc_1', 0.2600000000000001), ('wc_12', 0.2500000000000001)]",0.6337000000000002,,,33.0,0.033999,['Pass'],Fail,0.3400000000000002,-0.1525000000000002,0.0,0.0,0.1
253.0,1.0,wc_1,,0.0,,,,361.0,,,,Fail,,,,,
253.0,1.0,wc_1,wc_4,0.0,"[('wc_4', 0.7300000000000005), ('wc_17', 0.21000000000000008)]",0.7867000000000004,,,32.0,0.030731,['Fail'],Fail,0.7300000000000005,0.26999999999999946,1.0,1.0,0.5
253.0,1.0,wc_1,,0.0,,,,81.0,,,,Fail,,,,,
253.0,1.0,wc_1,wc_6,0.0,"[('wc_6', 0.5300000000000004), ('wc_17', 0.21000000000000008), ('wc_4', 0.7300000000000005)]",0.8997490000000002,,,32.0,0.038063,['Fail'],Fail,0.5300000000000004,-0.4123529411764709,0.0,0.0,0.5
253.0,1.0,wc_1,,0.0,,,,222.0,,,,Fail,,,,,
253.0,1.0,wc_1,wc_2,1.0,"[('wc_2', 0.7100000000000005), ('wc_17', 0.21000000000000008), ('wc_4', 0.7300000000000005), ('wc_6', 0.5300000000000004)]",0.9709272100000002,,,23.0,0.18481999999999998,['Fail'],Fail,0.7100000000000005,-0.2655555555555561,4.0,9.0,1.0
263.0,1.0,wc_1,,0.0,,,,102.0,,,,Fail,,,,,
263.0,1.0,wc_1,,0.0,,,51.0,,,,,Fail,,,,,
263.0,1.0,wc_1,,0.0,,,,0.0,,,,Fail,,,,,
263.0,1.0,wc_1,wc_1,0.0,"[('wc_1', 0.2600000000000001)]",0.2600000000000001,,,22.0,0.004503,['Fail'],Fail,0.2600000000000001,0.4066666666666665,2.0,3.0,0.1
263.0,1.0,wc_1,,0.0,,,,223.0,,,,Fail,,,,,
263.0,1.0,wc_1,wc_10,0.0,"[('wc_10', 0.6500000000000005)]",0.6500000000000005,,,31.0,0.006108000000000001,['Pass'],Fail,0.6500000000000005,-0.31666666666666715,0.0,0.0,0.6
263.0,1.0,wc_1,,0.0,,,,81.0,,,,Fail,,,,,
263.0,1.0,wc_1,wc_12,0.0,"[('wc_12', 0.2400000000000001), ('wc_10', 0.6500000000000005)]",0.7340000000000004,,,38.0,0.008253,['Pass'],Fail,0.2400000000000001,-0.2400000000000001,0.0,1.0,0.1
263.0,1.0,wc_1,,0.0,,,,361.0,,,,Fail,,,,,
263.0,1.0,wc_1,wc_11,0.0,"[('wc_11', 0.3200000000000002), ('wc_10', 0.6500000000000005), ('wc_12', 0.2400000000000001)]",0.8191200000000003,,,34.0,0.013679,['Pass'],Fail,0.3200000000000002,-0.3200000000000002,0.0,7.0,0.2
263.0,1.0,wc_1,,0.0,,,,83.0,,,,Fail,,,,,
263.0,1.0,wc_1,wc_9,0.0,"[('wc_10', 0.6500000000000005), ('wc_12', 0.2400000000000001), ('wc_11', 0.3200000000000002)]",0.8191200000000003,,,21.0,0.012528999999999998,['Pass'],Fail,0.7200000000000005,-0.47000000000000053,1.0,4.0,0.6
263.0,1.0,wc_1,,0.0,,,,182.0,,,,Fail,,,,,
263.0,1.0,wc_1,wc_16,0.0,"[('wc_16', 0.3200000000000002), ('wc_10', 0.6500000000000005), ('wc_12', 0.2400000000000001), ('wc_11', 0.3200000000000002)]",0.8770016000000003,,,34.0,0.013009,['Pass'],Fail,0.3200000000000002,-0.3200000000000002,0.0,3.0,0.2
263.0,1.0,wc_1,,0.0,,,,61.0,,,,Fail,,,,,
263.0,1.0,wc_1,wc_13,1.0,"[('wc_13', 0.3300000000000002), ('wc_10', 0.6500000000000005), ('wc_12', 0.2400000000000001), ('wc_11', 0.3200000000000002), ('wc_16', 0.3200000000000002)]",0.9175910720000002,,,29.0,0.071164,['Pass'],Fail,0.3400000000000002,0.1599999999999998,1.0,2.0,0.1
273.0,1.0,wc_1,,0.0,,,,222.0,,,,Fail,,,,,
273.0,1.0,wc_1,,0.0,,,61.0,,,,,Fail,,,,,
273.0,1.0,wc_1,,0.0,,,,0.0,,,,Fail,,,,,
273.0,1.0,wc_1,wc_1,0.0,"[('wc_1', 0.2600000000000001)]",0.2600000000000001,,,23.0,0.00356,['Pass'],Fail,0.2600000000000001,0.23999999999999988,2.0,4.0,0.1
273.0,1.0,wc_1,,0.0,,,,142.0,,,,Fail,,,,,
273.0,1.0,wc_1,wc_6,0.0,"[('wc_6', 0.5400000000000004)]",0.5400000000000004,,,22.0,0.004697,['Fail'],Fail,0.5400000000000004,-0.04000000000000037,1.0,2.0,0.5
273.0,1.0,wc_1,,0.0,,,,0.0,,,,Fail,,,,,
273.0,1.0,wc_1,wc_11,0.0,"[('wc_6', 0.5400000000000004)]",0.5400000000000004,,,21.0,0.008146,['Fail'],Fail,0.3200000000000002,-0.19500000000000017,1.0,8.0,0.2
273.0,1.0,wc_1,,0.0,,,,322.0,,,,Fail,,,,,
273.0,1.0,wc_1,wc_3,0.0,"[('wc_3', 0.3500000000000002), ('wc_6', 0.5400000000000004)]",0.7010000000000003,,,37.0,0.010686,['Fail'],Fail,0.3500000000000002,-0.3500000000000002,0.0,0.0,0.2
273.0,1.0,wc_1,,0.0,,,,141.0,,,,Fail,,,,,
273.0,1.0,wc_1,wc_12,0.0,"[('wc_12', 0.2500000000000001), ('wc_6', 0.5400000000000004), ('wc_3', 0.3500000000000002)]",0.7757500000000003,,,20.0,0.01192,['Fail'],Fail,0.2500000000000001,0.2499999999999999,1.0,2.0,0.1
273.0,1.0,wc_1,,0.0,,,,222.0,,,,Fail,,,,,
273.0,1.0,wc_1,wc_8,1.0,"[('wc_8', 0.5800000000000004), ('wc_6', 0.5400000000000004), ('wc_3', 0.3500000000000002), ('wc_12', 0.2500000000000001)]",0.9058150000000003,,,28.0,0.044941999999999996,['Fail'],Fail,0.5800000000000004,-0.5800000000000004,0.0,0.0,1.0
285.0,1.0,wc_1,,0.0,,,,162.0,,,,Pass,,,,,
285.0,1.0,wc_1,,0.0,,,66.0,,,,,Pass,,,,,
285.0,1.0,wc_1,,0.0,,,,0.0,,,,Pass,,,,,
285.0,1.0,wc_1,wc_1,0.0,"[('wc_1', 0.2600000000000001)]",0.2600000000000001,,,29.0,0.002609,['Fail'],Pass,0.2600000000000001,0.1399999999999999,2.0,5.0,0.1
285.0,1.0,wc_1,,0.0,,,,222.0,,,,Pass,,,,,
285.0,1.0,wc_1,wc_14,0.0,"[('wc_14', 0.6200000000000004)]",0.6200000000000004,,,30.0,0.005537,['Pass'],Pass,0.6200000000000004,-0.5088888888888894,1.0,9.0,0.5
285.0,1.0,wc_1,,0.0,,,,321.0,,,,Pass,,,,,
285.0,1.0,wc_1,wc_3,0.0,"[('wc_3', 0.3600000000000002), ('wc_14', 0.6200000000000004)]",0.7568000000000004,,,20.0,0.00669,['Pass'],Pass,0.3600000000000002,0.6399999999999998,1.0,1.0,0.2
285.0,1.0,wc_1,,0.0,,,,0.0,,,,Pass,,,,,
285.0,1.0,wc_1,wc_4,1.0,"[('wc_4', 0.7400000000000005), ('wc_14', 0.6200000000000004), ('wc_3', 0.3600000000000002)]",0.9367680000000003,,,21.0,0.049760000000000006,['Pass'],Pass,0.7400000000000005,-0.14000000000000057,3.0,5.0,0.5
298.0,4.0,wc_4,,0.0,,,,0.0,,,,Pass,,,,,
298.0,4.0,wc_4,,0.0,,,62.0,,,,,Pass,,,,,
298.0,4.0,wc_4,,0.0,,,,0.0,,,,Pass,,,,,
298.0,4.0,wc_4,wc_4,0.0,"[('wc_4', 0.7400000000000005)]",0.7400000000000005,,,22.0,0.002714,['Pass'],Pass,0.7400000000000005,-0.14000000000000057,3.0,5.0,0.5
298.0,4.0,wc_4,,0.0,,,,81.0,,,,Pass,,,,,
298.0,4.0,wc_4,wc_6,0.0,"[('wc_6', 0.5500000000000004), ('wc_4', 0.7400000000000005)]",0.8830000000000003,,,33.0,0.005333,['Pass'],Pass,0.5500000000000004,-0.05000000000000038,2.0,4.0,0.5
298.0,4.0,wc_4,,0.0,,,,0.0,,,,Pass,,,,,
298.0,4.0,wc_4,wc_10,1.0,"[('wc_10', 0.6600000000000005), ('wc_4', 0.7400000000000005), ('wc_6', 0.5500000000000004)]",0.9602200000000002,,,32.0,0.073692,['Pass'],Pass,0.6600000000000005,-0.16000000000000048,2.0,4.0,0.6
337.0,3.0,wc_3,,0.0,,,,342.0,,,,Fail,,,,,
337.0,3.0,wc_3,,0.0,,,54.0,,,,,Fail,,,,,
337.0,3.0,wc_3,,0.0,,,,0.0,,,,Fail,,,,,
337.0,3.0,wc_3,wc_3,0.0,"[('wc_3', 0.3700000000000002)]",0.3700000000000002,,,37.0,0.002352,['Pass'],Fail,0.3700000000000002,0.2966666666666664,2.0,3.0,0.2
337.0,3.0,wc_3,,0.0,,,,141.0,,,,Fail,,,,,
337.0,3.0,wc_3,wc_8,0.0,"[('wc_8', 0.5800000000000004)]",0.5800000000000004,,,30.0,0.004007999999999999,['Fail'],Fail,0.5800000000000004,-0.5800000000000004,0.0,2.0,1.0
337.0,3.0,wc_3,,0.0,,,,321.0,,,,Fail,,,,,
337.0,3.0,wc_3,wc_5,0.0,"[('wc_5', 0.43000000000000027), ('wc_8', 0.5800000000000004)]",0.7606000000000004,,,21.0,0.006304000000000001,['Fail'],Fail,0.43000000000000027,-0.3300000000000003,0.0,0.0,0.3
337.0,3.0,wc_3,,0.0,,,,101.0,,,,Fail,,,,,
337.0,3.0,wc_3,wc_12,0.0,"[('wc_8', 0.5800000000000004), ('wc_5', 0.43000000000000027)]",0.7606000000000004,,,24.0,0.009427999999999999,['Fail'],Fail,0.2600000000000001,0.1399999999999999,2.0,5.0,0.1
337.0,3.0,wc_3,,0.0,,,,202.0,,,,Fail,,,,,
337.0,3.0,wc_3,wc_7,1.0,"[('wc_7', 0.6900000000000005), ('wc_8', 0.5800000000000004), ('wc_5', 0.43000000000000027)]",0.9257860000000002,,,25.0,0.04312100000000001,['Fail'],Fail,0.6900000000000005,-0.4677777777777783,2.0,9.0,0.9
358.0,2.0,wc_2,,0.0,,,,202.0,,,,Fail,,,,,
358.0,2.0,wc_2,,0.0,,,79.0,,,,,Fail,,,,,
358.0,2.0,wc_2,,0.0,,,,0.0,,,,Fail,,,,,
358.0,2.0,wc_2,wc_2,0.0,"[('wc_2', 0.7100000000000005)]",0.7100000000000005,,,26.0,0.002048,['Fail'],Fail,0.7100000000000005,-0.4242857142857148,0.0,0.0,1.0
358.0,2.0,wc_2,,0.0,,,,243.0,,,,Fail,,,,,
358.0,2.0,wc_2,wc_16,0.0,"[('wc_16', 0.3200000000000002), ('wc_2', 0.7100000000000005)]",0.8028000000000004,,,26.0,0.0038669999999999998,['Fail'],Fail,0.3200000000000002,-0.19500000000000017,1.0,8.0,0.2
358.0,2.0,wc_2,,0.0,,,,81.0,,,,Fail,,,,,
358.0,2.0,wc_2,wc_14,0.0,"[('wc_2', 0.7100000000000005), ('wc_16', 0.3200000000000002)]",0.8028000000000004,,,25.0,0.005482,['Fail'],Fail,0.6200000000000004,-0.6200000000000004,0.0,2.0,0.5
358.0,2.0,wc_2,,0.0,,,,281.0,,,,Fail,,,,,
358.0,2.0,wc_2,wc_9,0.0,"[('wc_9', 0.7100000000000005), ('wc_14', 0.6200000000000004)]",0.8898000000000004,,,34.0,0.007672,['Pass'],Fail,0.7100000000000005,-0.5988888888888895,1.0,9.0,0.6
358.0,2.0,wc_2,,0.0,,,,162.0,,,,Fail,,,,,
358.0,2.0,wc_2,wc_15,1.0,"[('wc_15', 0.6500000000000005), ('wc_14', 0.6200000000000004), ('wc_9', 0.7100000000000005)]",0.9614300000000001,,,35.0,0.04431199999999999,['Pass'],Fail,0.6500000000000005,-0.6500000000000005,0.0,0.0,0.4
380.0,2.0,wc_2,,0.0,,,,303.0,,,,Pass,,,,,
380.0,2.0,wc_2,,0.0,,,73.0,,,,,Pass,,,,,
380.0,2.0,wc_2,,0.0,,,,0.0,,,,Pass,,,,,
380.0,2.0,wc_2,wc_2,0.0,"[('wc_2', 0.7000000000000005)]",0.7000000000000005,,,20.0,0.002056,['Pass'],Pass,0.7000000000000005,-0.7000000000000005,0.0,1.0,1.0
380.0,2.0,wc_2,,0.0,,,,162.0,,,,Pass,,,,,
380.0,2.0,wc_2,wc_12,0.0,"[('wc_2', 0.7000000000000005)]",0.7000000000000005,,,40.0,0.0038669999999999998,['Pass'],Pass,0.2600000000000001,0.02571428571428558,2.0,7.0,0.1
380.0,2.0,wc_2,,0.0,,,,202.0,,,,Pass,,,,,
380.0,2.0,wc_2,wc_7,0.0,"[('wc_7', 0.6900000000000005), ('wc_12', 0.2600000000000001)]",0.7706000000000004,,,22.0,0.007306,['Fail'],Pass,0.6900000000000005,-0.4900000000000005,0.0,0.0,0.9
380.0,2.0,wc_2,,0.0,,,,223.0,,,,Pass,,,,,
380.0,2.0,wc_2,wc_16,0.0,"[('wc_16', 0.31000000000000016), ('wc_12', 0.2600000000000001), ('wc_7', 0.6900000000000005)]",0.8417140000000003,,,23.0,0.009021000000000001,['Fail'],Pass,0.31000000000000016,-0.19888888888888906,1.0,9.0,0.2
380.0,2.0,wc_2,,0.0,,,,422.0,,,,Pass,,,,,
380.0,2.0,wc_2,wc_5,1.0,"[('wc_5', 0.4400000000000003), ('wc_12', 0.2600000000000001), ('wc_7', 0.6900000000000005), ('wc_16', 0.31000000000000016)]",0.9113598400000003,,,26.0,0.04680000000000001,['Fail'],Pass,0.4500000000000003,0.21666666666666634,2.0,3.0,0.3
391.0,3.0,wc_3,,0.0,,,,83.0,,,,Fail,,,,,
391.0,3.0,wc_3,,0.0,,,63.0,,,,,Fail,,,,,
391.0,3.0,wc_3,,0.0,,,,0.0,,,,Fail,,,,,
391.0,3.0,wc_3,wc_3,0.0,"[('wc_3', 0.3700000000000002)]",0.3700000000000002,,,37.0,0.00216,['Pass'],Fail,0.3700000000000002,-0.0366666666666669,2.0,6.0,0.2
391.0,3.0,wc_3,,0.0,,,,222.0,,,,Fail,,,,,
391.0,3.0,wc_3,wc_16,0.0,"[('wc_16', 0.31000000000000016), ('wc_3', 0.3700000000000002)]",0.5653000000000002,,,38.0,0.004668,['Pass'],Fail,0.31000000000000016,-0.31000000000000016,0.0,0.0,0.2
391.0,3.0,wc_3,,0.0,,,,103.0,,,,Fail,,,,,
391.0,3.0,wc_3,wc_15,0.0,"[('wc_15', 0.6500000000000005)]",0.6500000000000005,,,38.0,0.0058,['Fail'],Fail,0.6500000000000005,-0.6500000000000005,0.0,1.0,0.4
391.0,3.0,wc_3,,0.0,,,,81.0,,,,Fail,,,,,
391.0,3.0,wc_3,wc_13,0.0,"[('wc_13', 0.3400000000000002), ('wc_3', 0.3700000000000002), ('wc_16', 0.31000000000000016)]",0.7130980000000002,,,25.0,0.009680999999999999,['Pass'],Fail,0.3400000000000002,-0.2150000000000002,1.0,8.0,0.1
391.0,3.0,wc_3,,0.0,,,,242.0,,,,Fail,,,,,
391.0,3.0,wc_3,wc_2,0.0,"[('wc_2', 0.6900000000000005), ('wc_15', 0.6500000000000005)]",0.8915000000000003,,,25.0,0.011154,['Fail'],Fail,0.6900000000000005,-0.6900000000000005,0.0,2.0,1.0
391.0,3.0,wc_3,,0.0,,,,183.0,,,,Fail,,,,,
391.0,3.0,wc_3,wc_9,1.0,"[('wc_9', 0.7100000000000005), ('wc_15', 0.6500000000000005), ('wc_2', 0.6900000000000005)]",0.9685350000000001,,,22.0,0.053443000000000004,['Fail'],Fail,0.7100000000000005,-0.21000000000000052,1.0,2.0,0.6
434.0,3.0,wc_3,,0.0,,,,362.0,,,,Fail,,,,,
434.0,3.0,wc_3,,0.0,,,62.0,,,,,Fail,,,,,
434.0,3.0,wc_3,,0.0,,,,0.0,,,,Fail,,,,,
434.0,3.0,wc_3,wc_3,0.0,"[('wc_3', 0.3600000000000002)]",0.3600000000000002,,,32.0,0.0023,['Pass'],Fail,0.3600000000000002,-0.07428571428571451,2.0,7.0,0.2
434.0,3.0,wc_3,,0.0,,,,162.0,,,,Fail,,,,,
434.0,3.0,wc_3,wc_9,0.0,"[('wc_9', 0.7100000000000005)]",0.7100000000000005,,,20.0,0.004717,['Fail'],Fail,0.7100000000000005,-0.21000000000000052,1.0,2.0,0.6
434.0,3.0,wc_3,,0.0,,,,182.0,,,,Fail,,,,,
434.0,3.0,wc_3,wc_16,0.0,"[('wc_16', 0.30000000000000016), ('wc_9', 0.7100000000000005)]",0.7970000000000004,,,24.0,0.007261999999999999,['Fail'],Fail,0.30000000000000016,-0.30000000000000016,0.0,1.0,0.2
434.0,3.0,wc_3,,0.0,,,,0.0,,,,Fail,,,,,
434.0,3.0,wc_3,wc_17,0.0,"[('wc_9', 0.7100000000000005), ('wc_16', 0.30000000000000016)]",0.7970000000000004,,,30.0,0.008983,['Fail'],Fail,0.21000000000000008,-0.13857142857142865,0.0,0.0,0.1
434.0,3.0,wc_3,,0.0,,,,83.0,,,,Fail,,,,,
434.0,3.0,wc_3,wc_15,1.0,"[('wc_15', 0.6500000000000005), ('wc_9', 0.7100000000000005), ('wc_16', 0.30000000000000016)]",0.9289500000000003,,,37.0,0.047326,['Fail'],Fail,0.6600000000000005,0.0066666666666661545,2.0,3.0,0.4
452.0,3.0,wc_3,,0.0,,,,402.0,,,,Pass,,,,,
452.0,3.0,wc_3,,0.0,,,56.0,,,,,Pass,,,,,
452.0,3.0,wc_3,,0.0,,,,0.0,,,,Pass,,,,,
452.0,3.0,wc_3,wc_3,0.0,"[('wc_3', 0.3500000000000002)]",0.3500000000000002,,,35.0,0.002217,['Pass'],Pass,0.3500000000000002,-0.1000000000000002,2.0,8.0,0.2
452.0,3.0,wc_3,,0.0,,,,0.0,,,,Pass,,,,,
452.0,3.0,wc_3,wc_4,0.0,"[('wc_4', 0.7400000000000005), ('wc_3', 0.3500000000000002)]",0.8310000000000004,,,35.0,0.004103,['Pass'],Pass,0.7400000000000005,-0.3763636363636369,0.0,0.0,0.5
452.0,3.0,wc_3,,0.0,,,,121.0,,,,Pass,,,,,
452.0,3.0,wc_3,wc_8,1.0,"[('wc_8', 0.5800000000000004), ('wc_3', 0.3500000000000002), ('wc_4', 0.7400000000000005)]",0.9290200000000003,,,35.0,0.044552,['Pass'],Pass,0.5800000000000004,-0.3300000000000004,2.0,8.0,1.0
479.0,5.0,wc_5,,0.0,,,,321.0,,,,Pass,,,,,
479.0,5.0,wc_5,,0.0,,,61.0,,,,,Pass,,,,,
479.0,5.0,wc_5,,0.0,,,,0.0,,,,Pass,,,,,
479.0,5.0,wc_5,wc_5,0.0,"[('wc_5', 0.4500000000000003)]",0.4500000000000003,,,22.0,0.002102,['Pass'],Pass,0.4500000000000003,-0.11666666666666697,2.0,6.0,0.3
479.0,5.0,wc_5,,0.0,,,,101.0,,,,Pass,,,,,
479.0,5.0,wc_5,wc_12,0.0,"[('wc_5', 0.4500000000000003)]",0.4500000000000003,,,30.0,0.004182,['Pass'],Pass,0.27000000000000013,0.0027272727272725783,0.0,0.0,0.1
479.0,5.0,wc_5,,0.0,,,,361.0,,,,Pass,,,,,
479.0,5.0,wc_5,wc_11,0.0,"[('wc_11', 0.31000000000000016), ('wc_5', 0.4500000000000003)]",0.6205000000000003,,,36.0,0.006148000000000001,['Pass'],Pass,0.31000000000000016,-0.25117647058823545,0.0,0.0,0.2
479.0,5.0,wc_5,,0.0,,,,103.0,,,,Pass,,,,,
479.0,5.0,wc_5,wc_10,0.0,"[('wc_10', 0.6600000000000005), ('wc_5', 0.4500000000000003), ('wc_11', 0.31000000000000016)]",0.8709700000000002,,,35.0,0.008692,['Pass'],Pass,0.6600000000000005,-0.46000000000000046,0.0,0.0,0.6
479.0,5.0,wc_5,,0.0,,,,223.0,,,,Pass,,,,,
479.0,5.0,wc_5,wc_1,0.0,"[('wc_5', 0.4500000000000003), ('wc_11', 0.31000000000000016), ('wc_10', 0.6600000000000005)]",0.8709700000000002,,,26.0,0.012579000000000002,['Pass'],Pass,0.2600000000000001,-0.10615384615384627,0.0,0.0,0.1
479.0,5.0,wc_5,,0.0,,,,0.0,,,,Pass,,,,,
479.0,5.0,wc_5,wc_3,0.0,"[('wc_5', 0.4500000000000003), ('wc_11', 0.31000000000000016), ('wc_10', 0.6600000000000005)]",0.8709700000000002,,,28.0,0.01315,['Pass'],Pass,0.3500000000000002,-0.016666666666666885,3.0,9.0,0.2
479.0,5.0,wc_5,,0.0,,,,141.0,,,,Pass,,,,,
479.0,5.0,wc_5,wc_8,0.0,"[('wc_5', 0.4500000000000003), ('wc_11', 0.31000000000000016), ('wc_10', 0.6600000000000005)]",0.8709700000000002,,,28.0,0.036479000000000004,['Pass'],Pass,0.5800000000000004,-0.3300000000000004,2.0,8.0,1.0
479.0,5.0,wc_5,,0.0,,,,102.0,,,,Pass,,,,,
479.0,5.0,wc_5,wc_7,1.0,"[('wc_7', 0.7000000000000005), ('wc_5', 0.4500000000000003), ('wc_11', 0.31000000000000016), ('wc_10', 0.6600000000000005)]",0.9612910000000001,,,29.0,0.074701,['Pass'],Pass,0.7000000000000005,-0.3000000000000005,2.0,5.0,0.9
487.0,5.0,wc_5,,0.0,,,,341.0,,,,Fail,,,,,
487.0,5.0,wc_5,,0.0,,,51.0,,,,,Fail,,,,,
487.0,5.0,wc_5,,0.0,,,,0.0,,,,Fail,,,,,
487.0,5.0,wc_5,wc_5,0.0,"[('wc_5', 0.4500000000000003)]",0.4500000000000003,,,36.0,0.002431,['Fail'],Fail,0.4500000000000003,-0.02142857142857174,3.0,7.0,0.3
487.0,5.0,wc_5,,0.0,,,,121.0,,,,Fail,,,,,
487.0,5.0,wc_5,wc_13,0.0,"[('wc_13', 0.3300000000000002), ('wc_5', 0.4500000000000003)]",0.6315000000000003,,,21.0,0.004243,['Fail'],Fail,0.3300000000000002,-0.24666666666666687,0.0,0.0,0.1
487.0,5.0,wc_5,,0.0,,,,162.0,,,,Fail,,,,,
487.0,5.0,wc_5,wc_6,0.0,"[('wc_5', 0.4500000000000003), ('wc_13', 0.3300000000000002)]",0.6315000000000003,,,28.0,0.006450999999999999,['Fail'],Fail,0.5600000000000004,-0.3100000000000004,0.0,0.0,0.5
487.0,5.0,wc_5,,0.0,,,,162.0,,,,Fail,,,,,
487.0,5.0,wc_5,wc_12,0.0,"[('wc_12', 0.2600000000000001), ('wc_5', 0.4500000000000003), ('wc_13', 0.3300000000000002)]",0.7273100000000003,,,39.0,0.009187999999999998,['Fail'],Fail,0.2600000000000001,-0.2600000000000001,0.0,1.0,0.1
487.0,5.0,wc_5,,0.0,,,,321.0,,,,Fail,,,,,
487.0,5.0,wc_5,wc_9,1.0,"[('wc_9', 0.7100000000000005), ('wc_5', 0.4500000000000003), ('wc_13', 0.3300000000000002), ('wc_12', 0.2600000000000001)]",0.9209199000000002,,,38.0,0.05904799999999999,['Fail'],Fail,0.7100000000000005,-0.21000000000000052,3.0,6.0,0.6
497.0,5.0,wc_5,,0.0,,,,402.0,,,,Fail,,,,,
497.0,5.0,wc_5,,0.0,,,69.0,,,,,Fail,,,,,
497.0,5.0,wc_5,,0.0,,,,0.0,,,,Fail,,,,,
497.0,5.0,wc_5,wc_5,0.0,"[('wc_5', 0.4600000000000003)]",0.4600000000000003,,,38.0,0.002259,['Fail'],Fail,0.4600000000000003,0.0399999999999997,4.0,8.0,0.3
497.0,5.0,wc_5,,0.0,,,,81.0,,,,Fail,,,,,
497.0,5.0,wc_5,wc_7,0.0,"[('wc_7', 0.7000000000000005), ('wc_5', 0.4600000000000003)]",0.8380000000000003,,,33.0,0.004564,['Fail'],Fail,0.7000000000000005,-0.3666666666666672,2.0,6.0,0.9
497.0,5.0,wc_5,,0.0,,,,321.0,,,,Fail,,,,,
497.0,5.0,wc_5,wc_4,1.0,"[('wc_4', 0.7500000000000006), ('wc_5', 0.4600000000000003), ('wc_7', 0.7000000000000005)]",0.9595000000000002,,,35.0,0.03964899999999999,['Fail'],Fail,0.7500000000000006,-0.25000000000000056,2.0,4.0,0.5
506.0,5.0,wc_5,,0.0,,,,0.0,,,,Fail,,,,,
506.0,5.0,wc_5,,0.0,,,68.0,,,,,Fail,,,,,
506.0,5.0,wc_5,,0.0,,,,0.0,,,,Fail,,,,,
506.0,5.0,wc_5,wc_5,0.0,"[('wc_5', 0.4700000000000003)]",0.4700000000000003,,,24.0,0.001875,['Fail'],Fail,0.4700000000000003,0.08555555555555527,5.0,9.0,0.3
506.0,5.0,wc_5,,0.0,,,,182.0,,,,Fail,,,,,
506.0,5.0,wc_5,wc_16,0.0,"[('wc_16', 0.31000000000000016), ('wc_5', 0.4700000000000003)]",0.6343000000000003,,,39.0,0.004613,['Fail'],Fail,0.31000000000000016,-0.1433333333333335,1.0,6.0,0.2
506.0,5.0,wc_5,,0.0,,,,61.0,,,,Fail,,,,,
506.0,5.0,wc_5,wc_13,0.0,"[('wc_5', 0.4700000000000003), ('wc_16', 0.31000000000000016)]",0.6343000000000003,,,22.0,0.005671,['Fail'],Fail,0.3400000000000002,0.1599999999999998,1.0,2.0,0.1
506.0,5.0,wc_5,,0.0,,,,301.0,,,,Fail,,,,,
506.0,5.0,wc_5,wc_9,0.0,"[('wc_9', 0.7100000000000005), ('wc_5', 0.4700000000000003), ('wc_16', 0.31000000000000016)]",0.8939470000000003,,,24.0,0.008331,['Fail'],Fail,0.7100000000000005,-0.28142857142857197,3.0,7.0,0.6
506.0,5.0,wc_5,,0.0,,,,243.0,,,,Fail,,,,,
506.0,5.0,wc_5,wc_1,0.0,"[('wc_5', 0.4700000000000003), ('wc_16', 0.31000000000000016), ('wc_9', 0.7100000000000005)]",0.8939470000000003,,,39.0,0.012112000000000001,['Fail'],Fail,0.2500000000000001,-0.2500000000000001,0.0,3.0,0.1
506.0,5.0,wc_5,,0.0,,,,182.0,,,,Fail,,,,,
506.0,5.0,wc_5,wc_12,1.0,"[('wc_12', 0.27000000000000013), ('wc_5', 0.4700000000000003), ('wc_16', 0.31000000000000016), ('wc_9', 0.7100000000000005)]",0.9225813100000002,,,40.0,0.050220999999999995,['Fail'],Fail,0.28000000000000014,0.21999999999999986,2.0,4.0,0.1
517.0,5.0,wc_5,,0.0,,,,401.0,,,,Pass,,,,,
517.0,5.0,wc_5,,0.0,,,76.0,,,,,Pass,,,,,
517.0,5.0,wc_5,,0.0,,,,0.0,,,,Pass,,,,,
517.0,5.0,wc_5,wc_5,0.0,"[('wc_5', 0.4800000000000003)]",0.4800000000000003,,,39.0,0.002272,['Pass'],Pass,0.4800000000000003,-0.4800000000000003,0.0,0.0,0.3
517.0,5.0,wc_5,,0.0,,,,202.0,,,,Pass,,,,,
517.0,5.0,wc_5,wc_17,0.0,"[('wc_17', 0.20000000000000007), ('wc_5', 0.4800000000000003)]",0.5840000000000003,,,21.0,0.007507999999999999,['Pass'],Pass,0.20000000000000007,-0.20000000000000007,0.0,6.0,0.1
517.0,5.0,wc_5,,0.0,,,,362.0,,,,Pass,,,,,
517.0,5.0,wc_5,wc_11,0.0,"[('wc_5', 0.4800000000000003), ('wc_17', 0.20000000000000007)]",0.5840000000000003,,,39.0,0.009644,['Pass'],Pass,0.3200000000000002,-0.07000000000000017,1.0,4.0,0.2
517.0,5.0,wc_5,,0.0,,,,61.0,,,,Pass,,,,,
517.0,5.0,wc_5,wc_8,0.0,"[('wc_8', 0.5700000000000004), ('wc_5', 0.4800000000000003), ('wc_17', 0.20000000000000007)]",0.8211200000000003,,,36.0,0.01042,['Pass'],Pass,0.5700000000000004,-0.40333333333333377,0.0,0.0,1.0
517.0,5.0,wc_5,,0.0,,,,142.0,,,,Pass,,,,,
517.0,5.0,wc_5,wc_13,0.0,"[('wc_5', 0.4800000000000003), ('wc_17', 0.20000000000000007), ('wc_8', 0.5700000000000004)]",0.8211200000000003,,,32.0,0.011611999999999999,['Pass'],Pass,0.3400000000000002,-0.006666666666666876,1.0,3.0,0.1
517.0,5.0,wc_5,,0.0,,,,0.0,,,,Pass,,,,,
517.0,5.0,wc_5,wc_15,1.0,"[('wc_15', 0.6600000000000005), ('wc_5', 0.4800000000000003), ('wc_17', 0.20000000000000007), ('wc_8', 0.5700000000000004)]",0.9391808000000001,,,30.0,0.056677,['Pass'],Pass,0.6600000000000005,-0.32666666666666716,3.0,9.0,0.4
552.0,6.0,wc_6,,0.0,,,,223.0,,,,Fail,,,,,
552.0,6.0,wc_6,,0.0,,,78.0,,,,,Fail,,,,,
552.0,6.0,wc_6,,0.0,,,,0.0,,,,Fail,,,,,
552.0,6.0,wc_6,wc_6,0.0,"[('wc_6', 0.5500000000000004)]",0.5500000000000004,,,30.0,0.002443,['Pass'],Fail,0.5500000000000004,-0.5500000000000004,0.0,4.0,0.5
552.0,6.0,wc_6,,0.0,,,,0.0,,,,Fail,,,,,
552.0,6.0,wc_6,wc_7,0.0,"[('wc_7', 0.7000000000000005)]",0.7000000000000005,,,35.0,0.004672,['Fail'],Fail,0.7000000000000005,-0.3666666666666672,3.0,9.0,0.9
552.0,6.0,wc_6,,0.0,,,,0.0,,,,Fail,,,,,
552.0,6.0,wc_6,wc_8,0.0,"[('wc_8', 0.5800000000000004), ('wc_7', 0.7000000000000005)]",0.8740000000000003,,,27.0,0.007349,['Fail'],Fail,0.5800000000000004,0.4199999999999996,1.0,1.0,1.0
552.0,6.0,wc_6,,0.0,,,,162.0,,,,Fail,,,,,
552.0,6.0,wc_6,wc_14,1.0,"[('wc_14', 0.6200000000000004), ('wc_7', 0.7000000000000005), ('wc_8', 0.5800000000000004)]",0.9521200000000002,,,38.0,0.05366,['Fail'],Fail,0.6200000000000004,-0.6200000000000004,0.0,0.0,0.5
572.0,6.0,wc_6,,0.0,,,,142.0,,,,Fail,,,,,
572.0,6.0,wc_6,,0.0,,,79.0,,,,,Fail,,,,,
572.0,6.0,wc_6,,0.0,,,,0.0,,,,Fail,,,,,
572.0,6.0,wc_6,wc_6,0.0,"[('wc_6', 0.5400000000000004)]",0.5400000000000004,,,40.0,0.002196,['Fail'],Fail,0.5400000000000004,-0.5400000000000004,0.0,5.0,0.5
572.0,6.0,wc_6,,0.0,,,,243.0,,,,Fail,,,,,
572.0,6.0,wc_6,wc_16,0.0,"[('wc_16', 0.31000000000000016), ('wc_6', 0.5400000000000004)]",0.6826000000000003,,,31.0,0.003934,['Fail'],Fail,0.31000000000000016,-0.08777777777777795,2.0,9.0,0.2
572.0,6.0,wc_6,,0.0,,,,342.0,,,,Fail,,,,,
572.0,6.0,wc_6,wc_9,0.0,"[('wc_9', 0.7100000000000005)]",0.7100000000000005,,,30.0,0.006168,['Pass'],Fail,0.7100000000000005,-0.3100000000000005,0.0,0.0,0.6
572.0,6.0,wc_6,,0.0,,,,101.0,,,,Fail,,,,,
572.0,6.0,wc_6,wc_12,0.0,"[('wc_12', 0.28000000000000014), ('wc_9', 0.7100000000000005)]",0.7912000000000003,,,23.0,0.008747,['Pass'],Fail,0.28000000000000014,0.05333333333333318,2.0,6.0,0.1
572.0,6.0,wc_6,,0.0,,,,401.0,,,,Fail,,,,,
572.0,6.0,wc_6,wc_5,0.0,"[('wc_5', 0.4900000000000003), ('wc_6', 0.5400000000000004), ('wc_16', 0.31000000000000016)]",0.8381260000000003,,,21.0,0.010098000000000001,['Fail'],Fail,0.4900000000000003,0.009999999999999676,1.0,2.0,0.3
572.0,6.0,wc_6,,0.0,,,,83.0,,,,Fail,,,,,
572.0,6.0,wc_6,wc_3,0.0,"[('wc_3', 0.3400000000000002), ('wc_6', 0.5400000000000004), ('wc_16', 0.31000000000000016), ('wc_5', 0.4900000000000003)]",0.8931631600000002,,,32.0,0.011671,['Fail'],Fail,0.3400000000000002,-0.3400000000000002,0.0,5.0,0.2
572.0,6.0,wc_6,,0.0,,,,181.0,,,,Fail,,,,,
572.0,6.0,wc_6,wc_14,1.0,"[('wc_14', 0.6200000000000004), ('wc_9', 0.7100000000000005), ('wc_12', 0.28000000000000014)]",0.9206560000000003,,,20.0,0.051414,['Pass'],Fail,0.6300000000000004,0.36999999999999955,1.0,1.0,0.5
591.0,6.0,wc_6,,0.0,,,,142.0,,,,Pass,,,,,
591.0,6.0,wc_6,,0.0,,,67.0,,,,,Pass,,,,,
591.0,6.0,wc_6,,0.0,,,,0.0,,,,Pass,,,,,
591.0,6.0,wc_6,wc_6,0.0,"[('wc_6', 0.5300000000000004)]",0.5300000000000004,,,20.0,0.002298,['Pass'],Pass,0.5300000000000004,-0.5300000000000004,0.0,6.0,0.5
591.0,6.0,wc_6,,0.0,,,,0.0,,,,Pass,,,,,
591.0,6.0,wc_6,wc_9,0.0,"[('wc_9', 0.7200000000000005)]",0.7200000000000005,,,24.0,0.004156,['Fail'],Pass,0.7200000000000005,0.27999999999999947,1.0,1.0,0.6
591.0,6.0,wc_6,,0.0,,,,202.0,,,,Pass,,,,,
591.0,6.0,wc_6,wc_17,0.0,"[('wc_17', 0.20000000000000007), ('wc_9', 0.7200000000000005)]",0.7760000000000005,,,40.0,0.006319999999999999,['Fail'],Pass,0.20000000000000007,-0.08888888888888896,1.0,9.0,0.1
591.0,6.0,wc_6,,0.0,,,,263.0,,,,Pass,,,,,
591.0,6.0,wc_6,wc_2,0.0,"[('wc_2', 0.6900000000000005), ('wc_6', 0.5300000000000004)]",0.8543000000000003,,,37.0,0.0076749999999999995,['Pass'],Pass,0.6900000000000005,-0.6066666666666671,0.0,0.0,1.0
591.0,6.0,wc_6,,0.0,,,,243.0,,,,Pass,,,,,
591.0,6.0,wc_6,wc_16,0.0,"[('wc_6', 0.5300000000000004), ('wc_2', 0.6900000000000005)]",0.8543000000000003,,,31.0,0.011809999999999998,['Pass'],Pass,0.30000000000000016,-0.30000000000000016,0.0,0.0,0.2
591.0,6.0,wc_6,,0.0,,,,61.0,,,,Pass,,,,,
591.0,6.0,wc_6,wc_13,0.0,"[('wc_13', 0.3300000000000002), ('wc_9', 0.7200000000000005), ('wc_17', 0.20000000000000007), ('wc_16', 0.30000000000000016)]",0.8949440000000003,,,34.0,0.011044,['Fail'],Pass,0.3300000000000002,-0.16333333333333352,1.0,6.0,0.1
591.0,6.0,wc_6,,0.0,,,,321.0,,,,Pass,,,,,
591.0,6.0,wc_6,wc_10,1.0,"[('wc_10', 0.6700000000000005), ('wc_6', 0.5300000000000004), ('wc_2', 0.6900000000000005)]",0.9519190000000002,,,39.0,0.05183599999999999,['Pass'],Pass,0.6700000000000005,-0.4200000000000005,2.0,8.0,0.6
598.0,9.0,wc_9,,0.0,,,,103.0,,,,Fail,,,,,
598.0,9.0,wc_9,,0.0,,,58.0,,,,,Fail,,,,,
598.0,9.0,wc_9,,0.0,,,,0.0,,,,Fail,,,,,
598.0,9.0,wc_9,wc_9,0.0,"[('wc_9', 0.7100000000000005)]",0.7100000000000005,,,29.0,0.00243,['Fail'],Fail,0.7100000000000005,-0.21000000000000052,1.0,2.0,0.6
598.0,9.0,wc_9,,0.0,,,,263.0,,,,Fail,,,,,
598.0,9.0,wc_9,wc_2,0.0,"[('wc_2', 0.7000000000000005), ('wc_9', 0.7100000000000005)]",0.9130000000000003,,,31.0,0.004142,['Fail'],Fail,0.7000000000000005,0.2999999999999995,1.0,1.0,1.0
598.0,9.0,wc_9,,0.0,,,,0.0,,,,Fail,,,,,
598.0,9.0,wc_9,wc_5,0.0,"[('wc_9', 0.7100000000000005), ('wc_2', 0.7000000000000005)]",0.9130000000000003,,,32.0,0.010178,['Fail'],Fail,0.4800000000000003,-0.23000000000000032,1.0,4.0,0.3
598.0,9.0,wc_9,,0.0,,,,162.0,,,,Fail,,,,,
598.0,9.0,wc_9,wc_15,1.0,"[('wc_15', 0.6600000000000005), ('wc_9', 0.7100000000000005), ('wc_2', 0.7000000000000005)]",0.9704200000000002,,,31.0,0.043392,['Fail'],Fail,0.6600000000000005,-0.6600000000000005,0.0,0.0,0.4
607.0,9.0,wc_9,,0.0,,,,362.0,,,,Fail,,,,,
607.0,9.0,wc_9,,0.0,,,72.0,,,,,Fail,,,,,
607.0,9.0,wc_9,,0.0,,,,0.0,,,,Fail,,,,,
607.0,9.0,wc_9,wc_9,0.0,"[('wc_9', 0.7100000000000005)]",0.7100000000000005,,,36.0,0.002101,['Pass'],Fail,0.7100000000000005,-0.04333333333333389,2.0,3.0,0.6
607.0,9.0,wc_9,,0.0,,,,61.0,,,,Fail,,,,,
607.0,9.0,wc_9,wc_6,0.0,"[('wc_9', 0.7100000000000005)]",0.7100000000000005,,,25.0,0.004388,['Pass'],Fail,0.5300000000000004,-0.40500000000000036,1.0,8.0,0.5
607.0,9.0,wc_9,,0.0,,,,202.0,,,,Fail,,,,,
607.0,9.0,wc_9,wc_14,0.0,"[('wc_14', 0.6300000000000004), ('wc_9', 0.7100000000000005)]",0.8927000000000003,,,21.0,0.014206,['Pass'],Fail,0.6300000000000004,-0.29666666666666713,1.0,3.0,0.5
607.0,9.0,wc_9,,0.0,,,,321.0,,,,Fail,,,,,
607.0,9.0,wc_9,wc_11,0.0,"[('wc_9', 0.7100000000000005), ('wc_14', 0.6300000000000004)]",0.8927000000000003,,,35.0,0.008017,['Pass'],Fail,0.31000000000000016,-0.19888888888888906,1.0,9.0,0.2
607.0,9.0,wc_9,,0.0,,,,223.0,,,,Fail,,,,,
607.0,9.0,wc_9,wc_2,1.0,"[('wc_2', 0.7100000000000005), ('wc_6', 0.5300000000000004), ('wc_11', 0.31000000000000016)]",0.9059530000000002,,,21.0,0.048638,['Fail'],Fail,0.7200000000000005,0.27999999999999947,3.0,3.0,1.0
615.0,8.0,wc_8,,0.0,,,,162.0,,,,Fail,,,,,
615.0,8.0,wc_8,,0.0,,,51.0,,,,,Fail,,,,,
615.0,8.0,wc_8,,0.0,,,,0.0,,,,Fail,,,,,
615.0,8.0,wc_8,wc_8,0.0,"[('wc_8', 0.5900000000000004)]",0.5900000000000004,,,29.0,0.002206,['Fail'],Fail,0.5900000000000004,-0.2566666666666671,2.0,6.0,1.0
615.0,8.0,wc_8,,0.0,,,,162.0,,,,Fail,,,,,
615.0,8.0,wc_8,wc_1,0.0,"[('wc_8', 0.5900000000000004)]",0.5900000000000004,,,20.0,0.004222,['Fail'],Fail,0.2400000000000001,-0.2400000000000001,0.0,0.0,0.1
615.0,8.0,wc_8,,0.0,,,,203.0,,,,Fail,,,,,
615.0,8.0,wc_8,wc_9,0.0,"[('wc_9', 0.7000000000000005), ('wc_8', 0.5900000000000004)]",0.8770000000000003,,,36.0,0.006712,['Fail'],Fail,0.7000000000000005,-0.2000000000000005,2.0,4.0,0.6
615.0,8.0,wc_8,,0.0,,,,81.0,,,,Fail,,,,,
615.0,8.0,wc_8,wc_7,1.0,"[('wc_7', 0.7000000000000005), ('wc_8', 0.5900000000000004), ('wc_9', 0.7000000000000005)]",0.9631000000000002,,,26.0,0.04599400000000001,['Fail'],Fail,0.7000000000000005,-0.5000000000000004,1.0,5.0,0.9
624.0,10.0,wc_10,,0.0,,,,0.0,,,,Pass,,,,,
624.0,10.0,wc_10,,0.0,,,75.0,,,,,Pass,,,,,
624.0,10.0,wc_10,,0.0,,,,0.0,,,,Pass,,,,,
624.0,10.0,wc_10,wc_10,0.0,"[('wc_10', 0.6700000000000005)]",0.6700000000000005,,,40.0,0.002293,['Pass'],Pass,0.6700000000000005,-0.48818181818181866,0.0,0.0,0.6
624.0,10.0,wc_10,,0.0,,,,121.0,,,,Pass,,,,,
624.0,10.0,wc_10,wc_14,0.0,"[('wc_10', 0.6700000000000005)]",0.6700000000000005,,,23.0,0.004123,['Pass'],Pass,0.6200000000000004,-0.42000000000000043,1.0,5.0,0.5
624.0,10.0,wc_10,,0.0,,,,0.0,,,,Pass,,,,,
624.0,10.0,wc_10,wc_17,0.0,"[('wc_17', 0.19000000000000006), ('wc_14', 0.6200000000000004)]",0.6922000000000004,,,38.0,0.006015000000000001,['Fail'],Pass,0.19000000000000006,-0.19000000000000006,0.0,3.0,0.1
624.0,10.0,wc_10,,0.0,,,,21.0,,,,Pass,,,,,
624.0,10.0,wc_10,wc_12,0.0,"[('wc_12', 0.29000000000000015), ('wc_10', 0.6700000000000005)]",0.7657000000000004,,,33.0,0.007925,['Pass'],Pass,0.29000000000000015,-0.01727272727272744,0.0,0.0,0.1
624.0,10.0,wc_10,,0.0,,,,0.0,,,,Pass,,,,,
624.0,10.0,wc_10,wc_13,0.0,"[('wc_13', 0.3200000000000002), ('wc_10', 0.6700000000000005), ('wc_12', 0.29000000000000015)]",0.8406760000000003,,,20.0,0.009617,['Pass'],Pass,0.3200000000000002,-0.22000000000000017,0.0,0.0,0.1
624.0,10.0,wc_10,,0.0,,,,0.0,,,,Pass,,,,,
624.0,10.0,wc_10,wc_15,1.0,"[('wc_15', 0.6600000000000005), ('wc_10', 0.6700000000000005), ('wc_12', 0.29000000000000015), ('wc_13', 0.3200000000000002)]",0.9458298400000001,,,25.0,0.04873,['Pass'],Pass,0.6600000000000005,-0.32666666666666716,1.0,3.0,0.4
633.0,7.0,wc_7,,0.0,,,,243.0,,,,Pass,,,,,
633.0,7.0,wc_7,,0.0,,,69.0,,,,,Pass,,,,,
633.0,7.0,wc_7,,0.0,,,,0.0,,,,Pass,,,,,
633.0,7.0,wc_7,wc_7,0.0,"[('wc_7', 0.7000000000000005)]",0.7000000000000005,,,34.0,0.002052,['Pass'],Pass,0.7000000000000005,-0.5333333333333339,1.0,6.0,0.9
633.0,7.0,wc_7,,0.0,,,,142.0,,,,Pass,,,,,
633.0,7.0,wc_7,wc_12,0.0,"[('wc_7', 0.7000000000000005)]",0.7000000000000005,,,27.0,0.004517,['Pass'],Pass,0.30000000000000016,0.6999999999999998,1.0,1.0,0.1
633.0,7.0,wc_7,,0.0,,,,0.0,,,,Pass,,,,,
633.0,7.0,wc_7,wc_16,0.0,"[('wc_16', 0.29000000000000015), ('wc_7', 0.7000000000000005)]",0.7870000000000004,,,34.0,0.005737,['Pass'],Pass,0.29000000000000015,-0.29000000000000015,0.0,5.0,0.2
633.0,7.0,wc_7,,0.0,,,,382.0,,,,Pass,,,,,
633.0,7.0,wc_7,wc_11,0.0,"[('wc_11', 0.31000000000000016), ('wc_7', 0.7000000000000005), ('wc_16', 0.29000000000000015)]",0.8530300000000003,,,31.0,0.008524,['Pass'],Pass,0.31000000000000016,-0.31000000000000016,0.0,2.0,0.2
633.0,7.0,wc_7,,0.0,,,,162.0,,,,Pass,,,,,
633.0,7.0,wc_7,wc_17,0.0,"[('wc_17', 0.18000000000000005), ('wc_7', 0.7000000000000005), ('wc_16', 0.29000000000000015), ('wc_11', 0.31000000000000016)]",0.8794846000000003,,,35.0,0.010349,['Pass'],Pass,0.18000000000000005,-0.18000000000000005,0.0,4.0,0.1
633.0,7.0,wc_7,,0.0,,,,342.0,,,,Pass,,,,,
633.0,7.0,wc_7,wc_10,1.0,"[('wc_10', 0.6800000000000005), ('wc_7', 0.7000000000000005), ('wc_16', 0.29000000000000015), ('wc_11', 0.31000000000000016), ('wc_17', 0.18000000000000005)]",0.9614350720000001,,,27.0,0.050781999999999994,['Pass'],Pass,0.6900000000000005,0.3099999999999995,2.0,2.0,0.6
639.0,9.0,wc_9,,0.0,,,,103.0,,,,Fail,,,,,
639.0,9.0,wc_9,,0.0,,,70.0,,,,,Fail,,,,,
639.0,9.0,wc_9,,0.0,,,,0.0,,,,Fail,,,,,
639.0,9.0,wc_9,wc_9,0.0,"[('wc_9', 0.7000000000000005)]",0.7000000000000005,,,33.0,0.002146,['Fail'],Fail,0.7000000000000005,-0.27142857142857196,3.0,7.0,0.6
639.0,9.0,wc_9,,0.0,,,,182.0,,,,Fail,,,,,
639.0,9.0,wc_9,wc_16,0.0,"[('wc_9', 0.7000000000000005)]",0.7000000000000005,,,40.0,0.0039239999999999995,['Fail'],Fail,0.29000000000000015,-0.12333333333333349,1.0,6.0,0.2
639.0,9.0,wc_9,,0.0,,,,243.0,,,,Fail,,,,,
639.0,9.0,wc_9,wc_8,0.0,"[('wc_8', 0.5900000000000004), ('wc_9', 0.7000000000000005)]",0.8770000000000003,,,25.0,0.006468,['Fail'],Fail,0.5900000000000004,-0.2566666666666671,3.0,9.0,1.0
639.0,9.0,wc_9,,0.0,,,,162.0,,,,Fail,,,,,
639.0,9.0,wc_9,wc_14,1.0,"[('wc_14', 0.6100000000000004), ('wc_9', 0.7000000000000005), ('wc_8', 0.5900000000000004)]",0.9520300000000002,,,38.0,0.045619,['Fail'],Fail,0.6100000000000004,-0.36000000000000043,2.0,8.0,0.5
647.0,8.0,wc_8,,0.0,,,,182.0,,,,Fail,,,,,
647.0,8.0,wc_8,,0.0,,,57.0,,,,,Fail,,,,,
647.0,8.0,wc_8,,0.0,,,,0.0,,,,Fail,,,,,
647.0,8.0,wc_8,wc_8,0.0,"[('wc_8', 0.5900000000000004)]",0.5900000000000004,,,20.0,0.001961,['Fail'],Fail,0.5900000000000004,-0.5900000000000004,0.0,0.0,1.0
647.0,8.0,wc_8,,0.0,,,,122.0,,,,Fail,,,,,
647.0,8.0,wc_8,wc_12,0.0,"[('wc_8', 0.5900000000000004)]",0.5900000000000004,,,34.0,0.003936,['Fail'],Fail,0.30000000000000016,0.03333333333333316,1.0,3.0,0.1
647.0,8.0,wc_8,,0.0,,,,0.0,,,,Fail,,,,,
647.0,8.0,wc_8,wc_16,0.0,"[('wc_16', 0.28000000000000014), ('wc_8', 0.5900000000000004)]",0.7048000000000003,,,38.0,0.006122,['Fail'],Fail,0.28000000000000014,-0.1371428571428573,1.0,7.0,0.2
647.0,8.0,wc_8,,0.0,,,,402.0,,,,Fail,,,,,
647.0,8.0,wc_8,wc_4,0.0,"[('wc_4', 0.7500000000000006), ('wc_12', 0.30000000000000016)]",0.8250000000000004,,,28.0,0.007389,['Pass'],Fail,0.7500000000000006,-0.6166666666666673,0.0,0.0,0.5
647.0,8.0,wc_8,,0.0,,,,81.0,,,,Fail,,,,,
647.0,8.0,wc_8,wc_2,1.0,"[('wc_2', 0.7200000000000005), ('wc_8', 0.5900000000000004), ('wc_16', 0.28000000000000014)]",0.9173440000000003,,,39.0,0.04476999999999999,['Fail'],Fail,0.7200000000000005,-0.22000000000000053,4.0,8.0,1.0
654.0,8.0,wc_8,,0.0,,,,162.0,,,,Pass,,,,,
654.0,8.0,wc_8,,0.0,,,67.0,,,,,Pass,,,,,
654.0,8.0,wc_8,,0.0,,,,0.0,,,,Pass,,,,,
654.0,8.0,wc_8,wc_8,0.0,"[('wc_8', 0.6000000000000004)]",0.6000000000000004,,,32.0,0.002347,['Pass'],Pass,0.6000000000000004,0.3999999999999996,1.0,1.0,1.0
654.0,8.0,wc_8,,0.0,,,,82.0,,,,Pass,,,,,
654.0,8.0,wc_8,wc_6,0.0,"[('wc_6', 0.5300000000000004), ('wc_8', 0.6000000000000004)]",0.8120000000000003,,,40.0,0.003909,['Pass'],Pass,0.5300000000000004,-0.3871428571428575,0.0,0.0,0.5
654.0,8.0,wc_8,,0.0,,,,0.0,,,,Pass,,,,,
654.0,8.0,wc_8,wc_10,1.0,"[('wc_10', 0.6900000000000005), ('wc_8', 0.6000000000000004), ('wc_6', 0.5300000000000004)]",0.9417200000000002,,,31.0,0.052052999999999995,['Pass'],Pass,0.6900000000000005,-0.09000000000000052,3.0,5.0,0.6
660.0,9.0,wc_9,,0.0,,,,103.0,,,,Fail,,,,,
660.0,9.0,wc_9,,0.0,,,66.0,,,,,Fail,,,,,
660.0,9.0,wc_9,,0.0,,,,0.0,,,,Fail,,,,,
660.0,9.0,wc_9,wc_9,0.0,"[('wc_9', 0.7000000000000005)]",0.7000000000000005,,,32.0,0.002439,['Pass'],Fail,0.7000000000000005,-0.3000000000000005,0.0,0.0,0.6
660.0,9.0,wc_9,,0.0,,,,182.0,,,,Fail,,,,,
660.0,9.0,wc_9,wc_16,0.0,"[('wc_9', 0.7000000000000005)]",0.7000000000000005,,,29.0,0.005287,['Pass'],Fail,0.28000000000000014,-0.05777777777777793,2.0,9.0,0.2
660.0,9.0,wc_9,,0.0,,,,223.0,,,,Fail,,,,,
660.0,9.0,wc_9,wc_7,0.0,"[('wc_7', 0.7000000000000005), ('wc_16', 0.28000000000000014)]",0.7840000000000005,,,20.0,0.005847,['Fail'],Fail,0.7000000000000005,-0.5000000000000004,0.0,0.0,0.9
660.0,9.0,wc_9,,0.0,,,,243.0,,,,Fail,,,,,
660.0,9.0,wc_9,wc_17,0.0,"[('wc_16', 0.28000000000000014), ('wc_7', 0.7000000000000005)]",0.7840000000000005,,,21.0,0.008257,['Fail'],Fail,0.19000000000000006,-0.06500000000000006,1.0,8.0,0.1
660.0,9.0,wc_9,,0.0,,,,41.0,,,,Fail,,,,,
660.0,9.0,wc_9,wc_13,0.0,"[('wc_13', 0.3300000000000002), ('wc_9', 0.7000000000000005), ('wc_17', 0.19000000000000006)]",0.8371900000000003,,,40.0,0.009326000000000001,['Pass'],Fail,0.3300000000000002,-0.13000000000000017,1.0,5.0,0.1
660.0,9.0,wc_9,,0.0,,,,0.0,,,,Fail,,,,,
660.0,9.0,wc_9,wc_15,1.0,"[('wc_15', 0.6600000000000005), ('wc_9', 0.7000000000000005), ('wc_17', 0.19000000000000006), ('wc_13', 0.3300000000000002)]",0.9446446000000002,,,20.0,0.050176,['Pass'],Fail,0.6600000000000005,-0.4100000000000005,2.0,8.0,0.4
667.0,11.0,wc_11,,0.0,,,,402.0,,,,Pass,,,,,
667.0,11.0,wc_11,,0.0,,,53.0,,,,,Pass,,,,,
667.0,11.0,wc_11,,0.0,,,,0.0,,,,Pass,,,,,
667.0,11.0,wc_11,wc_11,0.0,"[('wc_11', 0.3200000000000002)]",0.3200000000000002,,,39.0,0.002212,['Pass'],Pass,0.3200000000000002,-0.17714285714285732,1.0,7.0,0.2
667.0,11.0,wc_11,,0.0,,,,21.0,,,,Pass,,,,,
667.0,11.0,wc_11,wc_6,0.0,"[('wc_6', 0.5400000000000004), ('wc_11', 0.3200000000000002)]",0.6872000000000003,,,30.0,0.004031,['Pass'],Pass,0.5400000000000004,-0.04000000000000037,1.0,2.0,0.5
667.0,11.0,wc_11,,0.0,,,,202.0,,,,Pass,,,,,
667.0,11.0,wc_11,wc_1,0.0,"[('wc_1', 0.2300000000000001), ('wc_11', 0.3200000000000002), ('wc_6', 0.5400000000000004)]",0.7591440000000003,,,27.0,0.005883,['Pass'],Pass,0.2300000000000001,-0.2300000000000001,0.0,7.0,0.1
667.0,11.0,wc_11,,0.0,,,,0.0,,,,Pass,,,,,
667.0,11.0,wc_11,wc_4,1.0,"[('wc_4', 0.7400000000000005), ('wc_11', 0.3200000000000002), ('wc_6', 0.5400000000000004), ('wc_1', 0.2300000000000001)]",0.9373774400000002,,,22.0,0.046921,['Pass'],Pass,0.7400000000000005,-0.49000000000000055,1.0,4.0,0.5
673.0,9.0,wc_9,,0.0,,,,142.0,,,,Pass,,,,,
673.0,9.0,wc_9,,0.0,,,65.0,,,,,Pass,,,,,
673.0,9.0,wc_9,,0.0,,,,0.0,,,,Pass,,,,,
673.0,9.0,wc_9,wc_9,0.0,"[('wc_9', 0.7100000000000005)]",0.7100000000000005,,,28.0,0.002339,['Pass'],Pass,0.7100000000000005,-0.21000000000000052,1.0,2.0,0.6
673.0,9.0,wc_9,,0.0,,,,101.0,,,,Pass,,,,,
673.0,9.0,wc_9,wc_8,0.0,"[('wc_8', 0.6100000000000004), ('wc_9', 0.7100000000000005)]",0.8869000000000004,,,29.0,0.00472,['Pass'],Pass,0.6100000000000004,-0.11000000000000043,2.0,4.0,1.0
673.0,9.0,wc_9,,0.0,,,,182.0,,,,Pass,,,,,
673.0,9.0,wc_9,wc_2,1.0,"[('wc_2', 0.7200000000000005), ('wc_9', 0.7100000000000005), ('wc_8', 0.6100000000000004)]",0.9683320000000002,,,38.0,0.042746000000000006,['Pass'],Pass,0.7200000000000005,-0.7200000000000005,0.0,0.0,1.0
679.0,12.0,wc_12,,0.0,,,,162.0,,,,Pass,,,,,
679.0,12.0,wc_12,,0.0,,,65.0,,,,,Pass,,,,,
679.0,12.0,wc_12,,0.0,,,,0.0,,,,Pass,,,,,
679.0,12.0,wc_12,wc_12,0.0,"[('wc_12', 0.29000000000000015)]",0.29000000000000015,,,30.0,0.002437,['Fail'],Pass,0.29000000000000015,-0.16500000000000015,1.0,8.0,0.1
679.0,12.0,wc_12,,0.0,,,,0.0,,,,Pass,,,,,
679.0,12.0,wc_12,wc_15,0.0,"[('wc_15', 0.6600000000000005)]",0.6600000000000005,,,28.0,0.004052,['Pass'],Pass,0.6600000000000005,-0.46000000000000046,0.0,0.0,0.4
679.0,12.0,wc_12,,0.0,,,,422.0,,,,Pass,,,,,
679.0,12.0,wc_12,wc_4,0.0,"[('wc_4', 0.7400000000000005), ('wc_15', 0.6600000000000005)]",0.9116000000000003,,,24.0,0.006045,['Pass'],Pass,0.7400000000000005,-0.5400000000000005,1.0,5.0,0.5
679.0,12.0,wc_12,,0.0,,,,101.0,,,,Pass,,,,,
679.0,12.0,wc_12,wc_7,1.0,"[('wc_7', 0.6900000000000005), ('wc_15', 0.6600000000000005), ('wc_4', 0.7400000000000005)]",0.9725960000000001,,,38.0,0.047119,['Pass'],Pass,0.6900000000000005,-0.4400000000000005,1.0,4.0,0.9
685.0,13.0,wc_13,,0.0,,,,162.0,,,,Fail,,,,,
685.0,13.0,wc_13,,0.0,,,64.0,,,,,Fail,,,,,
685.0,13.0,wc_13,,0.0,,,,0.0,,,,Fail,,,,,
685.0,13.0,wc_13,wc_13,0.0,"[('wc_13', 0.3300000000000002)]",0.3300000000000002,,,33.0,0.002296,['Pass'],Fail,0.3300000000000002,-0.10777777777777797,2.0,9.0,0.1
685.0,13.0,wc_13,,0.0,,,,381.0,,,,Fail,,,,,
685.0,13.0,wc_13,wc_5,0.0,"[('wc_5', 0.4700000000000003), ('wc_13', 0.3300000000000002)]",0.6449000000000003,,,20.0,0.004482,['Pass'],Fail,0.4700000000000003,-0.4075000000000003,0.0,0.0,0.3
685.0,13.0,wc_13,,0.0,,,,101.0,,,,Fail,,,,,
685.0,13.0,wc_13,wc_12,0.0,"[('wc_13', 0.3300000000000002), ('wc_5', 0.4700000000000003)]",0.6449000000000003,,,36.0,0.007781,['Pass'],Fail,0.28000000000000014,-0.16888888888888903,1.0,9.0,0.1
685.0,13.0,wc_13,,0.0,,,,0.0,,,,Fail,,,,,
685.0,13.0,wc_13,wc_17,0.0,"[('wc_13', 0.3300000000000002), ('wc_5', 0.4700000000000003)]",0.6449000000000003,,,25.0,0.008651,['Pass'],Fail,0.20000000000000007,-0.03333333333333341,0.0,0.0,0.1
685.0,13.0,wc_13,,0.0,,,,382.0,,,,Fail,,,,,
685.0,13.0,wc_13,wc_4,0.0,"[('wc_4', 0.7400000000000005), ('wc_12', 0.28000000000000014), ('wc_17', 0.20000000000000007)]",0.8502400000000003,,,30.0,0.009893999999999998,['Fail'],Fail,0.7400000000000005,-0.40666666666666723,2.0,6.0,0.5
685.0,13.0,wc_13,,0.0,,,,182.0,,,,Fail,,,,,
685.0,13.0,wc_13,wc_15,1.0,"[('wc_15', 0.6700000000000005), ('wc_12', 0.28000000000000014), ('wc_17', 0.20000000000000007), ('wc_4', 0.7400000000000005)]",0.9505792000000002,,,20.0,0.04801799999999999,['Fail'],Fail,0.6800000000000005,0.3199999999999995,2.0,2.0,0.4
690.0,13.0,wc_13,,0.0,,,,81.0,,,,Fail,,,,,
690.0,13.0,wc_13,,0.0,,,65.0,,,,,Fail,,,,,
690.0,13.0,wc_13,,0.0,,,,0.0,,,,Fail,,,,,
690.0,13.0,wc_13,wc_13,0.0,"[('wc_13', 0.3200000000000002)]",0.3200000000000002,,,32.0,0.002403,['Pass'],Fail,0.3200000000000002,-0.3200000000000002,0.0,0.0,0.1
690.0,13.0,wc_13,,0.0,,,,301.0,,,,Fail,,,,,
690.0,13.0,wc_13,wc_9,0.0,"[('wc_9', 0.7100000000000005)]",0.7100000000000005,,,33.0,0.004052,['Fail'],Fail,0.7100000000000005,-0.3100000000000005,2.0,5.0,0.6
690.0,13.0,wc_13,,0.0,,,,382.0,,,,Fail,,,,,
690.0,13.0,wc_13,wc_4,0.0,"[('wc_4', 0.7400000000000005), ('wc_9', 0.7100000000000005)]",0.9246000000000003,,,40.0,0.00598,['Fail'],Fail,0.7400000000000005,-0.311428571428572,3.0,7.0,0.5
690.0,13.0,wc_13,,0.0,,,,222.0,,,,Fail,,,,,
690.0,13.0,wc_13,wc_17,1.0,"[('wc_17', 0.21000000000000008), ('wc_9', 0.7100000000000005), ('wc_4', 0.7400000000000005)]",0.9404340000000002,,,30.0,0.048050999999999996,['Fail'],Fail,0.22000000000000008,0.7799999999999999,2.0,2.0,0.1
695.0,13.0,wc_13,,0.0,,,,41.0,,,,Fail,,,,,
695.0,13.0,wc_13,,0.0,,,57.0,,,,,Fail,,,,,
695.0,13.0,wc_13,,0.0,,,,0.0,,,,Fail,,,,,
695.0,13.0,wc_13,wc_13,0.0,"[('wc_13', 0.31000000000000016)]",0.31000000000000016,,,26.0,0.002209,['Pass'],Fail,0.31000000000000016,-0.31000000000000016,0.0,1.0,0.1
695.0,13.0,wc_13,,0.0,,,,361.0,,,,Fail,,,,,
695.0,13.0,wc_13,wc_4,0.0,"[('wc_4', 0.7400000000000005), ('wc_13', 0.31000000000000016)]",0.8206000000000004,,,31.0,0.00415,['Pass'],Fail,0.7400000000000005,-0.24000000000000055,4.0,8.0,0.5
695.0,13.0,wc_13,,0.0,,,,0.0,,,,Fail,,,,,
695.0,13.0,wc_13,wc_5,0.0,"[('wc_13', 0.31000000000000016), ('wc_4', 0.7400000000000005)]",0.8206000000000004,,,27.0,0.006358,['Pass'],Fail,0.4600000000000003,-0.4600000000000003,0.0,2.0,0.3
695.0,13.0,wc_13,,0.0,,,,162.0,,,,Fail,,,,,
695.0,13.0,wc_13,wc_11,0.0,"[('wc_13', 0.31000000000000016), ('wc_4', 0.7400000000000005)]",0.8206000000000004,,,37.0,0.007949,['Pass'],Fail,0.3200000000000002,-0.15333333333333352,0.0,0.0,0.2
695.0,13.0,wc_13,,0.0,,,,101.0,,,,Fail,,,,,
695.0,13.0,wc_13,wc_14,0.0,"[('wc_14', 0.6100000000000004), ('wc_5', 0.4600000000000003), ('wc_11', 0.3200000000000002)]",0.8567920000000002,,,30.0,0.010464999999999999,['Fail'],Fail,0.6100000000000004,-0.48500000000000043,0.0,0.0,0.5
695.0,13.0,wc_13,,0.0,,,,301.0,,,,Fail,,,,,
695.0,13.0,wc_13,wc_10,1.0,"[('wc_10', 0.6900000000000005), ('wc_5', 0.4600000000000003), ('wc_11', 0.3200000000000002), ('wc_14', 0.6100000000000004)]",0.9556055200000002,,,37.0,0.049857,['Fail'],Fail,0.6900000000000005,-0.6900000000000005,0.0,0.0,0.6
701.0,13.0,wc_13,,0.0,,,,101.0,,,,Fail,,,,,
701.0,13.0,wc_13,,0.0,,,70.0,,,,,Fail,,,,,
701.0,13.0,wc_13,,0.0,,,,0.0,,,,Fail,,,,,
701.0,13.0,wc_13,wc_13,0.0,"[('wc_13', 0.30000000000000016)]",0.30000000000000016,,,26.0,0.002125,['Fail'],Fail,0.30000000000000016,-0.30000000000000016,0.0,2.0,0.1
701.0,13.0,wc_13,,0.0,,,,341.0,,,,Fail,,,,,
701.0,13.0,wc_13,wc_11,0.0,"[('wc_11', 0.3300000000000002)]",0.3300000000000002,,,28.0,0.0042369999999999994,['Pass'],Fail,0.3300000000000002,0.6699999999999998,1.0,1.0,0.2
701.0,13.0,wc_13,,0.0,,,,101.0,,,,Fail,,,,,
701.0,13.0,wc_13,wc_14,0.0,"[('wc_14', 0.6200000000000004), ('wc_13', 0.30000000000000016)]",0.7340000000000004,,,27.0,0.005857,['Fail'],Fail,0.6200000000000004,0.37999999999999956,1.0,1.0,0.5
701.0,13.0,wc_13,,0.0,,,,0.0,,,,Fail,,,,,
701.0,13.0,wc_13,wc_16,0.0,"[('wc_13', 0.30000000000000016), ('wc_14', 0.6200000000000004)]",0.7340000000000004,,,39.0,0.007539,['Fail'],Fail,0.27000000000000013,-0.27000000000000013,0.0,6.0,0.2
701.0,13.0,wc_13,,0.0,,,,203.0,,,,Fail,,,,,
701.0,13.0,wc_13,wc_6,0.0,"[('wc_6', 0.5500000000000004), ('wc_13', 0.30000000000000016), ('wc_14', 0.6200000000000004)]",0.8803000000000003,,,40.0,0.010201,['Fail'],Fail,0.5500000000000004,-0.3000000000000004,2.0,8.0,0.5
701.0,13.0,wc_13,,0.0,,,,0.0,,,,Fail,,,,,
701.0,13.0,wc_13,wc_7,1.0,"[('wc_7', 0.6900000000000005), ('wc_13', 0.30000000000000016), ('wc_14', 0.6200000000000004), ('wc_6', 0.5500000000000004)]",0.9628930000000001,,,37.0,0.063555,['Fail'],Fail,0.6900000000000005,-0.4400000000000005,2.0,8.0,0.9
707.0,13.0,wc_13,,0.0,,,,162.0,,,,Pass,,,,,
707.0,13.0,wc_13,,0.0,,,50.0,,,,,Pass,,,,,
707.0,13.0,wc_13,,0.0,,,,0.0,,,,Pass,,,,,
707.0,13.0,wc_13,wc_13,0.0,"[('wc_13', 0.31000000000000016)]",0.31000000000000016,,,29.0,0.00276,['Fail'],Pass,0.31000000000000016,0.02333333333333315,1.0,3.0,0.1
707.0,13.0,wc_13,,0.0,,,,162.0,,,,Pass,,,,,
707.0,13.0,wc_13,wc_6,0.0,"[('wc_6', 0.5500000000000004)]",0.5500000000000004,,,28.0,0.0047279999999999996,['Pass'],Pass,0.5500000000000004,-0.21666666666666706,3.0,9.0,0.5
707.0,13.0,wc_13,,0.0,,,,263.0,,,,Pass,,,,,
707.0,13.0,wc_13,wc_17,0.0,"[('wc_17', 0.22000000000000008), ('wc_6', 0.5500000000000004)]",0.6490000000000004,,,23.0,0.006326,['Pass'],Pass,0.22000000000000008,0.2799999999999999,2.0,4.0,0.1
707.0,13.0,wc_13,,0.0,,,,362.0,,,,Pass,,,,,
707.0,13.0,wc_13,wc_11,0.0,"[('wc_11', 0.3300000000000002), ('wc_6', 0.5500000000000004), ('wc_17', 0.22000000000000008)]",0.7648300000000003,,,32.0,0.007624,['Pass'],Pass,0.3300000000000002,0.16999999999999982,1.0,2.0,0.2
707.0,13.0,wc_13,,0.0,,,,83.0,,,,Pass,,,,,
707.0,13.0,wc_13,wc_9,1.0,"[('wc_9', 0.7100000000000005), ('wc_6', 0.5500000000000004), ('wc_17', 0.22000000000000008), ('wc_11', 0.3300000000000002)]",0.9318007000000001,,,27.0,0.05418700000000001,['Pass'],Pass,0.7100000000000005,-0.2655555555555561,4.0,9.0,0.6
711.0,14.0,wc_14,,0.0,,,,141.0,,,,Fail,,,,,
711.0,14.0,wc_14,,0.0,,,67.0,,,,,Fail,,,,,
711.0,14.0,wc_14,,0.0,,,,0.0,,,,Fail,,,,,
711.0,14.0,wc_14,wc_14,0.0,"[('wc_14', 0.6300000000000004)]",0.6300000000000004,,,38.0,0.002147,['Fail'],Fail,0.6300000000000004,0.03666666666666618,2.0,3.0,0.5
711.0,14.0,wc_14,,0.0,,,,321.0,,,,Fail,,,,,
711.0,14.0,wc_14,wc_3,0.0,"[('wc_3', 0.3300000000000002), ('wc_14', 0.6300000000000004)]",0.7521000000000004,,,32.0,0.004092,['Fail'],Fail,0.3300000000000002,-0.3300000000000002,0.0,0.0,0.2
711.0,14.0,wc_14,,0.0,,,,101.0,,,,Fail,,,,,
711.0,14.0,wc_14,wc_6,0.0,"[('wc_6', 0.5500000000000004), ('wc_14', 0.6300000000000004), ('wc_3', 0.3300000000000002)]",0.8884450000000003,,,23.0,0.00594,['Fail'],Fail,0.5500000000000004,-0.5500000000000004,0.0,0.0,0.5
711.0,14.0,wc_14,,0.0,,,,223.0,,,,Fail,,,,,
711.0,14.0,wc_14,wc_15,1.0,"[('wc_15', 0.6800000000000005), ('wc_14', 0.6300000000000004), ('wc_3', 0.3300000000000002), ('wc_6', 0.5500000000000004)]",0.9643024000000001,,,35.0,0.046131000000000005,['Fail'],Fail,0.6800000000000005,-0.25142857142857195,3.0,7.0,0.4
714.0,14.0,wc_14,,0.0,,,,101.0,,,,Fail,,,,,
714.0,14.0,wc_14,,0.0,,,69.0,,,,,Fail,,,,,
714.0,14.0,wc_14,,0.0,,,,0.0,,,,Fail,,,,,
714.0,14.0,wc_14,wc_14,0.0,"[('wc_14', 0.6400000000000005)]",0.6400000000000005,,,37.0,0.002337,['Fail'],Fail,0.6400000000000005,0.10999999999999954,3.0,4.0,0.5
714.0,14.0,wc_14,,0.0,,,,321.0,,,,Fail,,,,,
714.0,14.0,wc_14,wc_3,0.0,"[('wc_14', 0.6400000000000005)]",0.6400000000000005,,,26.0,0.004732,['Fail'],Fail,0.3400000000000002,0.6599999999999998,1.0,1.0,0.2
714.0,14.0,wc_14,,0.0,,,,182.0,,,,Fail,,,,,
714.0,14.0,wc_14,wc_10,0.0,"[('wc_10', 0.6900000000000005), ('wc_14', 0.6400000000000005)]",0.8884000000000003,,,21.0,0.006541,['Fail'],Fail,0.6900000000000005,-0.6900000000000005,0.0,3.0,0.6
714.0,14.0,wc_14,,0.0,,,,382.0,,,,Fail,,,,,
714.0,14.0,wc_14,wc_5,0.0,"[('wc_14', 0.6400000000000005), ('wc_10', 0.6900000000000005)]",0.8884000000000003,,,38.0,0.007991999999999999,['Fail'],Fail,0.4600000000000003,-0.29333333333333367,1.0,6.0,0.3
714.0,14.0,wc_14,,0.0,,,,81.0,,,,Fail,,,,,
714.0,14.0,wc_14,wc_7,1.0,"[('wc_7', 0.6900000000000005), ('wc_14', 0.6400000000000005), ('wc_10', 0.6900000000000005)]",0.9654040000000002,,,22.0,0.049663000000000006,['Fail'],Fail,0.6900000000000005,-0.6900000000000005,0.0,0.0,0.9
716.0,15.0,wc_15,,0.0,,,,203.0,,,,Pass,,,,,
716.0,15.0,wc_15,,0.0,,,70.0,,,,,Pass,,,,,
716.0,15.0,wc_15,,0.0,,,,0.0,,,,Pass,,,,,
716.0,15.0,wc_15,wc_15,0.0,"[('wc_15', 0.6800000000000005)]",0.6800000000000005,,,37.0,0.002447,['Fail'],Pass,0.6800000000000005,-0.3050000000000005,3.0,8.0,0.4
716.0,15.0,wc_15,,0.0,,,,0.0,,,,Pass,,,,,
716.0,15.0,wc_15,wc_16,0.0,"[('wc_16', 0.2600000000000001), ('wc_15', 0.6800000000000005)]",0.7632000000000004,,,37.0,0.00432,['Fail'],Pass,0.2600000000000001,-0.2600000000000001,0.0,0.0,0.2
716.0,15.0,wc_15,,0.0,,,,0.0,,,,Pass,,,,,
716.0,15.0,wc_15,wc_17,0.0,"[('wc_17', 0.2300000000000001), ('wc_15', 0.6800000000000005), ('wc_16', 0.2600000000000001)]",0.8176640000000004,,,37.0,0.006491,['Fail'],Pass,0.2300000000000001,0.19857142857142845,3.0,7.0,0.1
716.0,15.0,wc_15,,0.0,,,,263.0,,,,Pass,,,,,
716.0,15.0,wc_15,wc_2,0.0,"[('wc_15', 0.6800000000000005), ('wc_16', 0.2600000000000001), ('wc_17', 0.2300000000000001)]",0.8176640000000004,,,27.0,0.007811,['Fail'],Pass,0.7200000000000005,-0.7200000000000005,0.0,8.0,1.0
716.0,15.0,wc_15,,0.0,,,,122.0,,,,Pass,,,,,
716.0,15.0,wc_15,wc_6,0.0,"[('wc_6', 0.5600000000000004), ('wc_2', 0.7200000000000005)]",0.8768000000000004,,,34.0,0.009178,['Pass'],Pass,0.5600000000000004,-0.060000000000000386,1.0,2.0,0.5
716.0,15.0,wc_15,,0.0,,,,182.0,,,,Pass,,,,,
716.0,15.0,wc_15,wc_13,0.0,"[('wc_2', 0.7200000000000005), ('wc_6', 0.5600000000000004)]",0.8768000000000004,,,23.0,0.012665000000000001,['Pass'],Pass,0.30000000000000016,-0.1333333333333335,1.0,6.0,0.1
716.0,15.0,wc_15,,0.0,,,,202.0,,,,Pass,,,,,
716.0,15.0,wc_15,wc_8,1.0,"[('wc_8', 0.6100000000000004), ('wc_2', 0.7200000000000005), ('wc_6', 0.5600000000000004)]",0.9519520000000001,,,24.0,0.05854100000000001,['Pass'],Pass,0.6100000000000004,-0.6100000000000004,0.0,0.0,1.0
719.0,14.0,wc_14,,0.0,,,,162.0,,,,Pass,,,,,
719.0,14.0,wc_14,,0.0,,,55.0,,,,,Pass,,,,,
719.0,14.0,wc_14,,0.0,,,,0.0,,,,Pass,,,,,
719.0,14.0,wc_14,wc_14,0.0,"[('wc_14', 0.6500000000000005)]",0.6500000000000005,,,30.0,0.002771,['Pass'],Pass,0.6500000000000005,0.016666666666666163,4.0,6.0,0.5
719.0,14.0,wc_14,,0.0,,,,321.0,,,,Pass,,,,,
719.0,14.0,wc_14,wc_3,0.0,"[('wc_3', 0.3400000000000002), ('wc_14', 0.6500000000000005)]",0.7690000000000003,,,25.0,0.0037819999999999998,['Pass'],Pass,0.3400000000000002,-0.006666666666666876,1.0,3.0,0.2
719.0,14.0,wc_14,,0.0,,,,141.0,,,,Pass,,,,,
719.0,14.0,wc_14,wc_12,0.0,"[('wc_12', 0.28000000000000014), ('wc_14', 0.6500000000000005), ('wc_3', 0.3400000000000002)]",0.8336800000000003,,,28.0,0.006087,['Pass'],Pass,0.28000000000000014,-0.28000000000000014,0.0,7.0,0.1
719.0,14.0,wc_14,,0.0,,,,0.0,,,,Pass,,,,,
719.0,14.0,wc_14,wc_16,0.0,"[('wc_16', 0.2500000000000001), ('wc_14', 0.6500000000000005), ('wc_3', 0.3400000000000002), ('wc_12', 0.28000000000000014)]",0.8752600000000003,,,22.0,0.008676,['Pass'],Pass,0.2500000000000001,-0.2500000000000001,0.0,1.0,0.2
719.0,14.0,wc_14,,0.0,,,,223.0,,,,Pass,,,,,
719.0,14.0,wc_14,wc_7,1.0,"[('wc_7', 0.6900000000000005), ('wc_14', 0.6500000000000005), ('wc_3', 0.3400000000000002), ('wc_12', 0.28000000000000014), ('wc_16', 0.2500000000000001)]",0.9613306000000001,,,36.0,0.049667,['Pass'],Pass,0.6900000000000005,-0.1900000000000005,1.0,2.0,0.9
723.0,16.0,wc_16,,0.0,,,,223.0,,,,Fail,,,,,
723.0,16.0,wc_16,,0.0,,,50.0,,,,,Fail,,,,,
723.0,16.0,wc_16,,0.0,,,,0.0,,,,Fail,,,,,
723.0,16.0,wc_16,wc_16,0.0,"[('wc_16', 0.2600000000000001)]",0.2600000000000001,,,30.0,0.002312,['Fail'],Fail,0.2600000000000001,0.23999999999999988,1.0,2.0,0.2
723.0,16.0,wc_16,,0.0,,,,81.0,,,,Fail,,,,,
723.0,16.0,wc_16,wc_14,0.0,"[('wc_14', 0.6600000000000005), ('wc_16', 0.2600000000000001)]",0.7484000000000004,,,32.0,0.004293,['Fail'],Fail,0.6600000000000005,0.054285714285713826,5.0,7.0,0.5
723.0,16.0,wc_16,,0.0,,,,82.0,,,,Fail,,,,,
723.0,16.0,wc_16,wc_12,0.0,"[('wc_12', 0.28000000000000014), ('wc_16', 0.2600000000000001), ('wc_14', 0.6600000000000005)]",0.8188480000000002,,,34.0,0.0061329999999999996,['Fail'],Fail,0.28000000000000014,-0.15500000000000014,1.0,8.0,0.1
723.0,16.0,wc_16,,0.0,,,,222.0,,,,Fail,,,,,
723.0,16.0,wc_16,wc_8,1.0,"[('wc_8', 0.6100000000000004), ('wc_16', 0.2600000000000001), ('wc_14', 0.6600000000000005), ('wc_12', 0.28000000000000014)]",0.9293507200000002,,,20.0,0.048297999999999994,['Fail'],Fail,0.6100000000000004,-0.11000000000000043,1.0,2.0,1.0
727.0,16.0,wc_16,,0.0,,,,203.0,,,,Fail,,,,,
727.0,16.0,wc_16,,0.0,,,57.0,,,,,Fail,,,,,
727.0,16.0,wc_16,,0.0,,,,0.0,,,,Fail,,,,,
727.0,16.0,wc_16,wc_16,0.0,"[('wc_16', 0.27000000000000013)]",0.27000000000000013,,,40.0,0.002098,['Pass'],Fail,0.27000000000000013,0.3966666666666665,2.0,3.0,0.2
727.0,16.0,wc_16,,0.0,,,,382.0,,,,Fail,,,,,
727.0,16.0,wc_16,wc_3,0.0,"[('wc_3', 0.3500000000000002), ('wc_16', 0.27000000000000013)]",0.5255000000000003,,,25.0,0.0042190000000000005,['Pass'],Fail,0.3500000000000002,0.04999999999999982,2.0,5.0,0.2
727.0,16.0,wc_16,,0.0,,,,121.0,,,,Fail,,,,,
727.0,16.0,wc_16,wc_7,0.0,"[('wc_7', 0.6900000000000005)]",0.6900000000000005,,,24.0,0.007083,['Fail'],Fail,0.6900000000000005,-0.3566666666666672,1.0,3.0,0.9
727.0,16.0,wc_16,,0.0,,,,341.0,,,,Fail,,,,,
727.0,16.0,wc_16,wc_5,0.0,"[('wc_5', 0.4500000000000003), ('wc_7', 0.6900000000000005)]",0.8295000000000003,,,32.0,0.008823,['Fail'],Fail,0.4500000000000003,-0.3500000000000003,0.0,0.0,0.3
727.0,16.0,wc_16,,0.0,,,,101.0,,,,Fail,,,,,
727.0,16.0,wc_16,wc_12,0.0,"[('wc_7', 0.6900000000000005), ('wc_5', 0.4500000000000003)]",0.8295000000000003,,,24.0,0.010558,['Fail'],Fail,0.28000000000000014,-0.05777777777777793,2.0,9.0,0.1
727.0,16.0,wc_16,,0.0,,,,341.0,,,,Fail,,,,,
727.0,16.0,wc_16,wc_10,1.0,"[('wc_10', 0.6900000000000005), ('wc_7', 0.6900000000000005), ('wc_5', 0.4500000000000003)]",0.9471450000000002,,,23.0,0.056261,['Fail'],Fail,0.6900000000000005,-0.4400000000000005,2.0,8.0,0.6
729.0,16.0,wc_16,,0.0,,,,162.0,,,,Pass,,,,,
729.0,16.0,wc_16,,0.0,,,51.0,,,,,Pass,,,,,
729.0,16.0,wc_16,,0.0,,,,0.0,,,,Pass,,,,,
729.0,16.0,wc_16,wc_16,0.0,"[('wc_16', 0.27000000000000013)]",0.27000000000000013,,,22.0,0.002036,['Fail'],Pass,0.27000000000000013,0.22999999999999987,2.0,4.0,0.2
729.0,16.0,wc_16,,0.0,,,,223.0,,,,Pass,,,,,
729.0,16.0,wc_16,wc_7,0.0,"[('wc_7', 0.6900000000000005)]",0.6900000000000005,,,21.0,0.0041069999999999995,['Pass'],Pass,0.6900000000000005,-0.1900000000000005,2.0,4.0,0.9
729.0,16.0,wc_16,,0.0,,,,182.0,,,,Pass,,,,,
729.0,16.0,wc_16,wc_14,0.0,"[('wc_14', 0.6700000000000005), ('wc_7', 0.6900000000000005)]",0.8977000000000003,,,31.0,0.006421,['Pass'],Pass,0.6700000000000005,-0.0033333333333338544,6.0,9.0,0.5
729.0,16.0,wc_16,,0.0,,,,222.0,,,,Pass,,,,,
729.0,16.0,wc_16,wc_2,1.0,"[('wc_2', 0.7200000000000005), ('wc_7', 0.6900000000000005), ('wc_14', 0.6700000000000005)]",0.9713560000000001,,,33.0,0.049063000000000016,['Pass'],Pass,0.7200000000000005,-0.7200000000000005,0.0,0.0,1.0
731.0,17.0,wc_17,,0.0,,,,263.0,,,,Fail,,,,,
731.0,17.0,wc_17,,0.0,,,60.0,,,,,Fail,,,,,
731.0,17.0,wc_17,,0.0,,,,0.0,,,,Fail,,,,,
731.0,17.0,wc_17,wc_17,0.0,"[('wc_17', 0.2300000000000001)]",0.2300000000000001,,,25.0,0.002199,['Pass'],Fail,0.2300000000000001,0.019999999999999907,0.0,0.0,0.1
731.0,17.0,wc_17,,0.0,,,,41.0,,,,Fail,,,,,
731.0,17.0,wc_17,wc_13,0.0,"[('wc_13', 0.29000000000000015), ('wc_17', 0.2300000000000001)]",0.45330000000000015,,,30.0,0.004618000000000001,['Pass'],Fail,0.29000000000000015,-0.19909090909090923,0.0,0.0,0.1
731.0,17.0,wc_17,,0.0,,,,102.0,,,,Fail,,,,,
731.0,17.0,wc_17,wc_12,0.0,"[('wc_12', 0.27000000000000013), ('wc_17', 0.2300000000000001), ('wc_13', 0.29000000000000015)]",0.6009090000000001,,,29.0,0.006919999999999999,['Pass'],Fail,0.27000000000000013,-0.27000000000000013,0.0,1.0,0.1
731.0,17.0,wc_17,,0.0,,,,361.0,,,,Fail,,,,,
731.0,17.0,wc_17,wc_11,0.0,"[('wc_11', 0.3400000000000002), ('wc_17', 0.2300000000000001), ('wc_13', 0.29000000000000015), ('wc_12', 0.27000000000000013)]",0.7365999400000003,,,36.0,0.008354,['Pass'],Fail,0.3400000000000002,-0.14000000000000018,0.0,0.0,0.2
731.0,17.0,wc_17,,0.0,,,,83.0,,,,Fail,,,,,
731.0,17.0,wc_17,wc_9,0.0,"[('wc_17', 0.2300000000000001), ('wc_13', 0.29000000000000015), ('wc_12', 0.27000000000000013), ('wc_11', 0.3400000000000002)]",0.7365999400000003,,,37.0,0.012015000000000001,['Pass'],Fail,0.7100000000000005,-0.4600000000000005,0.0,0.0,0.6
731.0,17.0,wc_17,,0.0,,,,141.0,,,,Fail,,,,,
731.0,17.0,wc_17,wc_14,0.0,"[('wc_14', 0.6800000000000005), ('wc_9', 0.7100000000000005)]",0.9072000000000003,,,23.0,0.012656,['Fail'],Fail,0.6800000000000005,-0.6800000000000005,0.0,0.0,0.5
731.0,17.0,wc_17,,0.0,,,,202.0,,,,Fail,,,,,
731.0,17.0,wc_17,wc_1,1.0,"[('wc_1', 0.2300000000000001), ('wc_9', 0.7100000000000005), ('wc_14', 0.6800000000000005)]",0.9285440000000003,,,21.0,0.05932899999999999,['Fail'],Fail,0.2300000000000001,-0.2300000000000001,0.0,0.0,0.1
733.0,17.0,wc_17,,0.0,,,,283.0,,,,Fail,,,,,
733.0,17.0,wc_17,,0.0,,,69.0,,,,,Fail,,,,,
733.0,17.0,wc_17,,0.0,,,,0.0,,,,Fail,,,,,
733.0,17.0,wc_17,wc_17,0.0,"[('wc_17', 0.22000000000000008)]",0.22000000000000008,,,35.0,0.002256,['Pass'],Fail,0.22000000000000008,-0.22000000000000008,0.0,1.0,0.1
733.0,17.0,wc_17,,0.0,,,,382.0,,,,Fail,,,,,
733.0,17.0,wc_17,wc_4,0.0,"[('wc_4', 0.7300000000000005)]",0.7300000000000005,,,39.0,0.003953,['Fail'],Fail,0.7300000000000005,-0.5194736842105269,0.0,0.0,0.5
733.0,17.0,wc_17,,0.0,,,,81.0,,,,Fail,,,,,
733.0,17.0,wc_17,wc_6,0.0,"[('wc_6', 0.5700000000000004), ('wc_4', 0.7300000000000005)]",0.8839000000000004,,,30.0,0.006137,['Fail'],Fail,0.5700000000000004,-0.3200000000000004,2.0,8.0,0.5
733.0,17.0,wc_17,,0.0,,,,0.0,,,,Fail,,,,,
733.0,17.0,wc_17,wc_10,1.0,"[('wc_10', 0.6900000000000005), ('wc_4', 0.7300000000000005), ('wc_6', 0.5700000000000004)]",0.9640090000000001,,,30.0,0.051604000000000004,['Fail'],Fail,0.6900000000000005,-0.6900000000000005,0.0,0.0,0.6
735.0,17.0,wc_17,,0.0,,,,182.0,,,,Fail,,,,,
735.0,17.0,wc_17,,0.0,,,76.0,,,,,Fail,,,,,
735.0,17.0,wc_17,,0.0,,,,0.0,,,,Fail,,,,,
735.0,17.0,wc_17,wc_17,0.0,"[('wc_17', 0.21000000000000008)]",0.21000000000000008,,,32.0,0.002284,['Pass'],Fail,0.21000000000000008,-0.21000000000000008,0.0,2.0,0.1
735.0,17.0,wc_17,,0.0,,,,223.0,,,,Fail,,,,,
735.0,17.0,wc_17,wc_8,0.0,"[('wc_8', 0.6100000000000004)]",0.6100000000000004,,,21.0,0.004274,['Fail'],Fail,0.6100000000000004,-0.4433333333333338,1.0,6.0,1.0
735.0,17.0,wc_17,,0.0,,,,321.0,,,,Fail,,,,,
735.0,17.0,wc_17,wc_5,0.0,"[('wc_8', 0.6100000000000004)]",0.6100000000000004,,,21.0,0.005992,['Fail'],Fail,0.4600000000000003,-0.2100000000000003,1.0,4.0,0.3
735.0,17.0,wc_17,,0.0,,,,103.0,,,,Fail,,,,,
735.0,17.0,wc_17,wc_4,0.0,"[('wc_4', 0.7400000000000005), ('wc_17', 0.21000000000000008), ('wc_5', 0.4600000000000003)]",0.8890840000000003,,,23.0,0.007592999999999999,['Pass'],Fail,0.7400000000000005,0.25999999999999945,1.0,1.0,0.5
735.0,17.0,wc_17,,0.0,,,,103.0,,,,Fail,,,,,
735.0,17.0,wc_17,wc_3,1.0,"[('wc_3', 0.3400000000000002), ('wc_17', 0.21000000000000008), ('wc_5', 0.4600000000000003), ('wc_4', 0.7400000000000005)]",0.9267954400000002,,,31.0,0.049981,['Pass'],Fail,0.3400000000000002,-0.3400000000000002,0.0,0.0,0.2
736.0,17.0,wc_17,,0.0,,,,242.0,,,,Fail,,,,,
736.0,17.0,wc_17,,0.0,,,77.0,,,,,Fail,,,,,
736.0,17.0,wc_17,,0.0,,,,0.0,,,,Fail,,,,,
736.0,17.0,wc_17,wc_17,0.0,"[('wc_17', 0.22000000000000008)]",0.22000000000000008,,,24.0,0.002335,['Pass'],Fail,0.22000000000000008,0.11333333333333323,1.0,3.0,0.1
736.0,17.0,wc_17,,0.0,,,,362.0,,,,Fail,,,,,
736.0,17.0,wc_17,wc_3,0.0,"[('wc_3', 0.3400000000000002)]",0.3400000000000002,,,30.0,0.004524,['Fail'],Fail,0.3400000000000002,-0.3400000000000002,0.0,0.0,0.2
736.0,17.0,wc_17,,0.0,,,,202.0,,,,Fail,,,,,
736.0,17.0,wc_17,wc_15,0.0,"[('wc_15', 0.6700000000000005), ('wc_17', 0.22000000000000008)]",0.7426000000000004,,,26.0,0.005705,['Pass'],Fail,0.6700000000000005,-0.4825000000000005,0.0,0.0,0.4
736.0,17.0,wc_17,,0.0,,,,303.0,,,,Fail,,,,,
736.0,17.0,wc_17,wc_2,0.0,"[('wc_2', 0.7200000000000005), ('wc_3', 0.3400000000000002)]",0.8152000000000004,,,35.0,0.007951999999999999,['Fail'],Fail,0.7200000000000005,-0.7200000000000005,0.0,3.0,1.0
736.0,17.0,wc_17,,0.0,,,,162.0,,,,Fail,,,,,
736.0,17.0,wc_17,wc_12,0.0,"[('wc_3', 0.3400000000000002), ('wc_2', 0.7200000000000005)]",0.8152000000000004,,,30.0,0.010412000000000001,['Fail'],Fail,0.2600000000000001,-0.2600000000000001,0.0,4.0,0.1
736.0,17.0,wc_17,,0.0,,,,341.0,,,,Fail,,,,,
736.0,17.0,wc_17,wc_10,1.0,"[('wc_10', 0.6900000000000005), ('wc_3', 0.3400000000000002), ('wc_2', 0.7200000000000005)]",0.9427120000000002,,,38.0,0.05140700000000001,['Fail'],Fail,0.6900000000000005,-0.1900000000000005,1.0,2.0,0.6
737.0,17.0,wc_17,,0.0,,,,182.0,,,,Pass,,,,,
737.0,17.0,wc_17,,0.0,,,53.0,,,,,Pass,,,,,
737.0,17.0,wc_17,,0.0,,,,0.0,,,,Pass,,,,,
737.0,17.0,wc_17,wc_17,0.0,"[('wc_17', 0.22000000000000008)]",0.22000000000000008,,,32.0,0.002312,['Fail'],Pass,0.22000000000000008,0.029999999999999916,1.0,4.0,0.1
737.0,17.0,wc_17,,0.0,,,,103.0,,,,Pass,,,,,
737.0,17.0,wc_17,wc_16,0.0,"[('wc_16', 0.27000000000000013)]",0.27000000000000013,,,22.0,0.003976,['Pass'],Pass,0.27000000000000013,-0.04777777777777792,2.0,9.0,0.2
737.0,17.0,wc_17,,0.0,,,,422.0,,,,Pass,,,,,
737.0,17.0,wc_17,wc_5,0.0,"[('wc_5', 0.4600000000000003), ('wc_16', 0.27000000000000013)]",0.6058000000000003,,,33.0,0.005790999999999999,['Pass'],Pass,0.4600000000000003,-0.12666666666666698,2.0,6.0,0.3
737.0,17.0,wc_17,,0.0,,,,61.0,,,,Pass,,,,,
737.0,17.0,wc_17,wc_6,0.0,"[('wc_6', 0.5700000000000004), ('wc_16', 0.27000000000000013), ('wc_5', 0.4600000000000003)]",0.8304940000000003,,,26.0,0.009327,['Pass'],Pass,0.5700000000000004,-0.2972727272727277,0.0,0.0,0.5
737.0,17.0,wc_17,,0.0,,,,341.0,,,,Pass,,,,,
737.0,17.0,wc_17,wc_4,1.0,"[('wc_4', 0.7500000000000006), ('wc_16', 0.27000000000000013), ('wc_5', 0.4600000000000003), ('wc_6', 0.5700000000000004)]",0.9576235000000002,,,25.0,0.052373,['Pass'],Pass,0.7500000000000006,-5.551115123125783e-16,3.0,4.0,0.5
