mpecck/BCQC/bcqc_with_qdt/results/raw/input_14/independent_qc/training/20_workpiece/20200429_095223/wp_18_qc_majority_0.9.csv
production_index,step_idx,production_workcell,qc,consent,winner_qc_list,score,production_time,transport_time,inspection_time,network_time,qc_results,actual_quality,qc_score,score_error,in_winner_counter,in_qc_counter,qc_capability
72.0,1.0,wc_1,,0.0,,,53.0,,,,,Fail,,,,,
72.0,1.0,wc_1,,0.0,,,,0.0,,,,Fail,,,,,
72.0,1.0,wc_1,wc_1,0.0,"[('wc_1', 0.3500000000000002)]",0.3500000000000002,,,21.0,0.002359,['Fail'],Fail,0.3500000000000002,-0.3500000000000002,0.0,1.0,0.1
72.0,1.0,wc_1,,0.0,,,,223.0,,,,Fail,,,,,
72.0,1.0,wc_1,wc_10,0.0,"[('wc_10', 0.7100000000000005), ('wc_1', 0.3500000000000002)]",0.8115000000000003,,,20.0,0.014866,['Fail'],Fail,0.7100000000000005,-0.7100000000000005,0.0,6.0,0.6
72.0,1.0,wc_1,,0.0,,,,41.0,,,,Fail,,,,,
72.0,1.0,wc_1,wc_6,1.0,"[('wc_6', 0.7100000000000005), ('wc_1', 0.3500000000000002), ('wc_10', 0.7100000000000005)]",0.9453350000000003,,,28.0,0.034544000000000005,['Fail'],Fail,0.7100000000000005,-0.3766666666666672,3.0,9.0,0.5
174.0,1.0,wc_1,,0.0,,,,202.0,,,,Pass,,,,,
174.0,1.0,wc_1,,0.0,,,58.0,,,,,Pass,,,,,
174.0,1.0,wc_1,,0.0,,,,0.0,,,,Pass,,,,,
174.0,1.0,wc_1,wc_1,0.0,"[('wc_1', 0.3600000000000002)]",0.3600000000000002,,,23.0,0.004923,['Pass'],Pass,0.3600000000000002,0.1399999999999998,1.0,2.0,0.1
174.0,1.0,wc_1,,0.0,,,,0.0,,,,Pass,,,,,
174.0,1.0,wc_1,wc_4,0.0,"[('wc_4', 0.8100000000000006)]",0.8100000000000006,,,24.0,0.003991,['Fail'],Pass,0.8100000000000006,-0.6850000000000006,1.0,8.0,0.5
174.0,1.0,wc_1,,0.0,,,,142.0,,,,Pass,,,,,
174.0,1.0,wc_1,wc_9,0.0,"[('wc_9', 0.8100000000000006), ('wc_4', 0.8100000000000006)]",0.9639000000000002,,,34.0,0.006247,['Fail'],Pass,0.8100000000000006,-0.5600000000000006,0.0,0.0,0.6
174.0,1.0,wc_1,,0.0,,,,141.0,,,,Pass,,,,,
174.0,1.0,wc_1,wc_14,0.0,"[('wc_4', 0.8100000000000006), ('wc_9', 0.8100000000000006)]",0.9639000000000002,,,37.0,0.012720000000000002,['Fail'],Pass,0.6700000000000005,-0.5588888888888894,1.0,9.0,0.5
174.0,1.0,wc_1,,0.0,,,,102.0,,,,Pass,,,,,
174.0,1.0,wc_1,wc_13,1.0,"[('wc_13', 0.3600000000000002), ('wc_4', 0.8100000000000006), ('wc_9', 0.8100000000000006)]",0.9768960000000002,,,29.0,0.041095999999999994,['Fail'],Pass,0.3600000000000002,-0.3600000000000002,0.0,0.0,0.1
193.0,4.0,wc_4,,0.0,,,,361.0,,,,Fail,,,,,
193.0,4.0,wc_4,,0.0,,,50.0,,,,,Fail,,,,,
193.0,4.0,wc_4,,0.0,,,,0.0,,,,Fail,,,,,
193.0,4.0,wc_4,wc_4,0.0,"[('wc_4', 0.8100000000000006)]",0.8100000000000006,,,40.0,0.00261,['Pass'],Fail,0.8100000000000006,-0.5877777777777784,2.0,9.0,0.5
193.0,4.0,wc_4,,0.0,,,,161.0,,,,Fail,,,,,
193.0,4.0,wc_4,wc_14,0.0,"[('wc_4', 0.8100000000000006)]",0.8100000000000006,,,36.0,0.00418,['Pass'],Fail,0.6600000000000005,-0.6600000000000005,0.0,0.0,0.5
193.0,4.0,wc_4,,0.0,,,,0.0,,,,Fail,,,,,
193.0,4.0,wc_4,wc_15,0.0,"[('wc_15', 0.6600000000000005), ('wc_14', 0.6600000000000005)]",0.8844000000000003,,,29.0,0.0060550000000000005,['Fail'],Fail,0.6600000000000005,-0.32666666666666716,0.0,0.0,0.4
193.0,4.0,wc_4,,0.0,,,,382.0,,,,Fail,,,,,
193.0,4.0,wc_4,wc_10,1.0,"[('wc_10', 0.7100000000000005), ('wc_14', 0.6600000000000005), ('wc_15', 0.6600000000000005)]",0.9664760000000001,,,39.0,0.03783,['Fail'],Fail,0.7100000000000005,-0.4877777777777783,2.0,9.0,0.6
214.0,2.0,wc_2,,0.0,,,,243.0,,,,Pass,,,,,
214.0,2.0,wc_2,,0.0,,,55.0,,,,,Pass,,,,,
214.0,2.0,wc_2,,0.0,,,,0.0,,,,Pass,,,,,
214.0,2.0,wc_2,wc_2,0.0,"[('wc_2', 0.7700000000000006)]",0.7700000000000006,,,21.0,0.002934,['Pass'],Pass,0.7700000000000006,-0.5700000000000005,0.0,0.0,1.0
214.0,2.0,wc_2,,0.0,,,,142.0,,,,Pass,,,,,
214.0,2.0,wc_2,wc_7,0.0,"[('wc_7', 0.7100000000000005), ('wc_2', 0.7700000000000006)]",0.9333000000000002,,,37.0,0.004199,['Pass'],Pass,0.7100000000000005,-0.5795652173913048,0.0,0.0,0.9
214.0,2.0,wc_2,,0.0,,,,0.0,,,,Pass,,,,,
214.0,2.0,wc_2,wc_11,0.0,"[('wc_2', 0.7700000000000006), ('wc_7', 0.7100000000000005)]",0.9333000000000002,,,34.0,0.005971000000000001,['Pass'],Pass,0.3300000000000002,-0.21235294117647077,0.0,0.0,0.2
214.0,2.0,wc_2,,0.0,,,,61.0,,,,Pass,,,,,
214.0,2.0,wc_2,wc_12,1.0,"[('wc_12', 0.3500000000000002), ('wc_2', 0.7700000000000006), ('wc_7', 0.7100000000000005)]",0.9566450000000002,,,36.0,0.038501,['Pass'],Pass,0.3500000000000002,-0.1500000000000002,1.0,5.0,0.1
230.0,4.0,wc_4,,0.0,,,,381.0,,,,Fail,,,,,
230.0,4.0,wc_4,,0.0,,,66.0,,,,,Fail,,,,,
230.0,4.0,wc_4,,0.0,,,,0.0,,,,Fail,,,,,
230.0,4.0,wc_4,wc_4,0.0,"[('wc_4', 0.8000000000000006)]",0.8000000000000006,,,21.0,0.00232,['Fail'],Fail,0.8000000000000006,-0.8000000000000006,0.0,1.0,0.5
230.0,4.0,wc_4,,0.0,,,,142.0,,,,Fail,,,,,
230.0,4.0,wc_4,wc_9,0.0,"[('wc_9', 0.8200000000000006), ('wc_4', 0.8000000000000006)]",0.9640000000000002,,,30.0,0.005663,['Fail'],Fail,0.8200000000000006,-0.4866666666666673,1.0,3.0,0.6
230.0,4.0,wc_4,,0.0,,,,61.0,,,,Fail,,,,,
230.0,4.0,wc_4,wc_6,1.0,"[('wc_6', 0.7100000000000005), ('wc_4', 0.8000000000000006), ('wc_9', 0.8200000000000006)]",0.9895600000000001,,,24.0,0.04012,['Fail'],Fail,0.7100000000000005,-0.7100000000000005,0.0,0.0,0.5
262.0,4.0,wc_4,,0.0,,,,341.0,,,,Fail,,,,,
262.0,4.0,wc_4,,0.0,,,80.0,,,,,Fail,,,,,
262.0,4.0,wc_4,,0.0,,,,0.0,,,,Fail,,,,,
262.0,4.0,wc_4,wc_4,0.0,"[('wc_4', 0.8000000000000006)]",0.8000000000000006,,,22.0,0.003039,['Fail'],Fail,0.8000000000000006,-0.3000000000000006,1.0,2.0,0.5
262.0,4.0,wc_4,,0.0,,,,103.0,,,,Fail,,,,,
262.0,4.0,wc_4,wc_3,0.0,"[('wc_3', 0.3500000000000002), ('wc_4', 0.8000000000000006)]",0.8700000000000004,,,22.0,0.0041530000000000004,['Fail'],Fail,0.3500000000000002,-0.25909090909090926,0.0,0.0,0.2
262.0,4.0,wc_4,,0.0,,,,161.0,,,,Fail,,,,,
262.0,4.0,wc_4,wc_13,0.0,"[('wc_4', 0.8000000000000006), ('wc_3', 0.3500000000000002)]",0.8700000000000004,,,24.0,0.01102,['Fail'],Fail,0.3600000000000002,-0.3600000000000002,0.0,3.0,0.1
262.0,4.0,wc_4,,0.0,,,,102.0,,,,Fail,,,,,
262.0,4.0,wc_4,wc_12,1.0,"[('wc_12', 0.3500000000000002), ('wc_4', 0.8000000000000006), ('wc_3', 0.3500000000000002)]",0.9155000000000003,,,37.0,0.047787,['Fail'],Fail,0.3500000000000002,-0.0642857142857145,2.0,7.0,0.1
289.0,4.0,wc_4,,0.0,,,,381.0,,,,Fail,,,,,
289.0,4.0,wc_4,,0.0,,,74.0,,,,,Fail,,,,,
289.0,4.0,wc_4,,0.0,,,,0.0,,,,Fail,,,,,
289.0,4.0,wc_4,wc_4,0.0,"[('wc_4', 0.8000000000000006)]",0.8000000000000006,,,27.0,0.002275,['Fail'],Fail,0.8000000000000006,-0.13333333333333397,2.0,3.0,0.5
289.0,4.0,wc_4,,0.0,,,,0.0,,,,Fail,,,,,
289.0,4.0,wc_4,wc_5,0.0,"[('wc_4', 0.8000000000000006)]",0.8000000000000006,,,27.0,0.004561,['Fail'],Fail,0.4900000000000003,-0.4900000000000003,0.0,8.0,0.3
289.0,4.0,wc_4,,0.0,,,,61.0,,,,Fail,,,,,
289.0,4.0,wc_4,wc_2,0.0,"[('wc_2', 0.7800000000000006), ('wc_4', 0.8000000000000006)]",0.9560000000000003,,,30.0,0.006392999999999999,['Fail'],Fail,0.7800000000000006,-0.44666666666666727,1.0,3.0,1.0
289.0,4.0,wc_4,,0.0,,,,122.0,,,,Fail,,,,,
289.0,4.0,wc_4,wc_6,1.0,"[('wc_6', 0.7100000000000005), ('wc_4', 0.8000000000000006), ('wc_2', 0.7800000000000006)]",0.9872400000000001,,,20.0,0.042837,['Fail'],Fail,0.7100000000000005,-0.21000000000000052,1.0,2.0,0.5
307.0,4.0,wc_4,,0.0,,,,341.0,,,,Pass,,,,,
307.0,4.0,wc_4,,0.0,,,65.0,,,,,Pass,,,,,
307.0,4.0,wc_4,,0.0,,,,0.0,,,,Pass,,,,,
307.0,4.0,wc_4,wc_4,0.0,"[('wc_4', 0.8000000000000006)]",0.8000000000000006,,,33.0,0.002136,['Pass'],Pass,0.8000000000000006,-0.0500000000000006,3.0,4.0,0.5
307.0,4.0,wc_4,,0.0,,,,81.0,,,,Pass,,,,,
307.0,4.0,wc_4,wc_6,0.0,"[('wc_4', 0.8000000000000006)]",0.8000000000000006,,,34.0,0.004304,['Pass'],Pass,0.7100000000000005,-0.21000000000000052,1.0,2.0,0.5
307.0,4.0,wc_4,,0.0,,,,202.0,,,,Pass,,,,,
307.0,4.0,wc_4,wc_1,0.0,"[('wc_1', 0.3500000000000002), ('wc_6', 0.7100000000000005)]",0.8115000000000003,,,39.0,0.006229999999999999,['Fail'],Pass,0.3500000000000002,-0.2250000000000002,1.0,8.0,0.1
307.0,4.0,wc_4,,0.0,,,,202.0,,,,Pass,,,,,
307.0,4.0,wc_4,wc_13,0.0,"[('wc_13', 0.3500000000000002), ('wc_4', 0.8000000000000006)]",0.8700000000000004,,,23.0,0.0075970000000000005,['Pass'],Pass,0.3500000000000002,-0.3500000000000002,0.0,5.0,0.1
307.0,4.0,wc_4,,0.0,,,,341.0,,,,Pass,,,,,
307.0,4.0,wc_4,wc_11,0.0,"[('wc_11', 0.3200000000000002), ('wc_6', 0.7100000000000005), ('wc_1', 0.3500000000000002)]",0.8718200000000003,,,22.0,0.01022,['Fail'],Pass,0.3200000000000002,-0.3200000000000002,0.0,4.0,0.2
307.0,4.0,wc_4,,0.0,,,,223.0,,,,Pass,,,,,
307.0,4.0,wc_4,wc_2,1.0,"[('wc_2', 0.7800000000000006), ('wc_4', 0.8000000000000006), ('wc_13', 0.3500000000000002)]",0.9714000000000002,,,33.0,0.052555000000000004,['Pass'],Pass,0.7800000000000006,-0.1800000000000006,3.0,5.0,1.0
326.0,3.0,wc_3,,0.0,,,,0.0,,,,Fail,,,,,
326.0,3.0,wc_3,,0.0,,,58.0,,,,,Fail,,,,,
326.0,3.0,wc_3,,0.0,,,,0.0,,,,Fail,,,,,
326.0,3.0,wc_3,wc_3,0.0,"[('wc_3', 0.3600000000000002)]",0.3600000000000002,,,37.0,0.002141,['Fail'],Fail,0.3600000000000002,-0.026666666666666894,1.0,3.0,0.2
326.0,3.0,wc_3,,0.0,,,,202.0,,,,Fail,,,,,
326.0,3.0,wc_3,wc_11,0.0,"[('wc_3', 0.3600000000000002)]",0.3600000000000002,,,23.0,0.004324,['Fail'],Fail,0.31000000000000016,-0.31000000000000016,0.0,5.0,0.2
326.0,3.0,wc_3,,0.0,,,,21.0,,,,Fail,,,,,
326.0,3.0,wc_3,wc_6,0.0,"[('wc_6', 0.7000000000000005), ('wc_3', 0.3600000000000002)]",0.8080000000000004,,,21.0,0.011831,['Fail'],Fail,0.7000000000000005,-0.3666666666666672,1.0,3.0,0.5
326.0,3.0,wc_3,,0.0,,,,361.0,,,,Fail,,,,,
326.0,3.0,wc_3,wc_5,0.0,"[('wc_3', 0.3600000000000002), ('wc_6', 0.7000000000000005)]",0.8080000000000004,,,38.0,0.013119,['Fail'],Fail,0.4800000000000003,-0.4800000000000003,0.0,0.0,0.3
326.0,3.0,wc_3,,0.0,,,,141.0,,,,Fail,,,,,
326.0,3.0,wc_3,wc_14,1.0,"[('wc_14', 0.6700000000000005), ('wc_3', 0.3600000000000002), ('wc_6', 0.7000000000000005)]",0.9366400000000003,,,37.0,0.04329799999999999,['Fail'],Fail,0.6700000000000005,-0.3842857142857148,2.0,7.0,0.5
371.0,3.0,wc_3,,0.0,,,,321.0,,,,Fail,,,,,
371.0,3.0,wc_3,,0.0,,,54.0,,,,,Fail,,,,,
371.0,3.0,wc_3,,0.0,,,,0.0,,,,Fail,,,,,
371.0,3.0,wc_3,wc_3,0.0,"[('wc_3', 0.3700000000000002)]",0.3700000000000002,,,24.0,0.002924,['Pass'],Fail,0.3700000000000002,0.12999999999999978,2.0,4.0,0.2
371.0,3.0,wc_3,,0.0,,,,242.0,,,,Fail,,,,,
371.0,3.0,wc_3,wc_17,0.0,"[('wc_3', 0.3700000000000002)]",0.3700000000000002,,,29.0,0.004385999999999999,['Pass'],Fail,0.21000000000000008,-0.04333333333333342,0.0,0.0,0.1
371.0,3.0,wc_3,,0.0,,,,41.0,,,,Fail,,,,,
371.0,3.0,wc_3,wc_13,0.0,"[('wc_13', 0.3500000000000002), ('wc_3', 0.3700000000000002)]",0.5905000000000002,,,24.0,0.007273,['Pass'],Fail,0.3500000000000002,-0.20714285714285735,1.0,7.0,0.1
371.0,3.0,wc_3,,0.0,,,,341.0,,,,Fail,,,,,
371.0,3.0,wc_3,wc_11,0.0,"[('wc_11', 0.30000000000000016), ('wc_3', 0.3700000000000002), ('wc_13', 0.3500000000000002)]",0.7133500000000003,,,21.0,0.011231,['Pass'],Fail,0.30000000000000016,-0.30000000000000016,0.0,6.0,0.2
371.0,3.0,wc_3,,0.0,,,,342.0,,,,Fail,,,,,
371.0,3.0,wc_3,wc_4,0.0,"[('wc_4', 0.8000000000000006), ('wc_17', 0.21000000000000008)]",0.8420000000000005,,,36.0,0.009736999999999999,['Fail'],Fail,0.8000000000000006,-0.13333333333333397,4.0,6.0,0.5
371.0,3.0,wc_3,,0.0,,,,142.0,,,,Fail,,,,,
371.0,3.0,wc_3,wc_9,1.0,"[('wc_9', 0.8200000000000006), ('wc_3', 0.3700000000000002), ('wc_13', 0.3500000000000002), ('wc_11', 0.30000000000000016)]",0.9484030000000002,,,26.0,0.043184,['Pass'],Fail,0.8200000000000006,-0.4866666666666673,3.0,9.0,0.6
413.0,3.0,wc_3,,0.0,,,,362.0,,,,Pass,,,,,
413.0,3.0,wc_3,,0.0,,,76.0,,,,,Pass,,,,,
413.0,3.0,wc_3,,0.0,,,,0.0,,,,Pass,,,,,
413.0,3.0,wc_3,wc_3,0.0,"[('wc_3', 0.3800000000000002)]",0.3800000000000002,,,29.0,0.002168,['Pass'],Pass,0.3800000000000002,0.21999999999999975,3.0,5.0,0.2
413.0,3.0,wc_3,,0.0,,,,202.0,,,,Pass,,,,,
413.0,3.0,wc_3,wc_11,0.0,"[('wc_11', 0.30000000000000016), ('wc_3', 0.3800000000000002)]",0.5660000000000003,,,35.0,0.005687,['Pass'],Pass,0.30000000000000016,-0.1571428571428573,1.0,7.0,0.2
413.0,3.0,wc_3,,0.0,,,,342.0,,,,Pass,,,,,
413.0,3.0,wc_3,wc_4,1.0,"[('wc_4', 0.7900000000000006), ('wc_3', 0.3800000000000002), ('wc_11', 0.30000000000000016)]",0.9088600000000003,,,27.0,0.05238500000000001,['Pass'],Pass,0.7900000000000006,-0.1650000000000006,5.0,8.0,0.5
427.0,5.0,wc_5,,0.0,,,,0.0,,,,Pass,,,,,
427.0,5.0,wc_5,,0.0,,,73.0,,,,,Pass,,,,,
427.0,5.0,wc_5,,0.0,,,,0.0,,,,Pass,,,,,
427.0,5.0,wc_5,wc_5,0.0,"[('wc_5', 0.4700000000000003)]",0.4700000000000003,,,30.0,0.00221,['Fail'],Pass,0.4700000000000003,-0.4700000000000003,0.0,3.0,0.3
427.0,5.0,wc_5,,0.0,,,,141.0,,,,Pass,,,,,
427.0,5.0,wc_5,wc_14,0.0,"[('wc_14', 0.6700000000000005)]",0.6700000000000005,,,39.0,0.011403,['Pass'],Pass,0.6700000000000005,-0.4477777777777783,2.0,9.0,0.5
427.0,5.0,wc_5,,0.0,,,,341.0,,,,Pass,,,,,
427.0,5.0,wc_5,wc_4,0.0,"[('wc_4', 0.7900000000000006), ('wc_5', 0.4700000000000003)]",0.8887000000000004,,,35.0,0.006056,['Fail'],Pass,0.7900000000000006,-0.1650000000000006,5.0,8.0,0.5
427.0,5.0,wc_5,,0.0,,,,61.0,,,,Pass,,,,,
427.0,5.0,wc_5,wc_1,0.0,"[('wc_5', 0.4700000000000003), ('wc_4', 0.7900000000000006)]",0.8887000000000004,,,25.0,0.010261,['Fail'],Pass,0.3400000000000002,-0.2566666666666669,0.0,0.0,0.1
427.0,5.0,wc_5,,0.0,,,,283.0,,,,Pass,,,,,
427.0,5.0,wc_5,wc_17,0.0,"[('wc_5', 0.4700000000000003), ('wc_4', 0.7900000000000006)]",0.8887000000000004,,,21.0,0.010484,['Fail'],Pass,0.20000000000000007,-0.20000000000000007,0.0,2.0,0.1
427.0,5.0,wc_5,,0.0,,,,362.0,,,,Pass,,,,,
427.0,5.0,wc_5,wc_3,1.0,"[('wc_3', 0.39000000000000024), ('wc_5', 0.4700000000000003), ('wc_4', 0.7900000000000006)]",0.9321070000000002,,,31.0,0.041989,['Fail'],Pass,0.40000000000000024,0.31428571428571406,5.0,7.0,0.2
451.0,6.0,wc_6,,0.0,,,,101.0,,,,Pass,,,,,
451.0,6.0,wc_6,,0.0,,,64.0,,,,,Pass,,,,,
451.0,6.0,wc_6,,0.0,,,,0.0,,,,Pass,,,,,
451.0,6.0,wc_6,wc_6,0.0,"[('wc_6', 0.7000000000000005)]",0.7000000000000005,,,34.0,0.002219,['Pass'],Pass,0.7000000000000005,-0.4142857142857148,2.0,7.0,0.5
451.0,6.0,wc_6,,0.0,,,,222.0,,,,Pass,,,,,
451.0,6.0,wc_6,wc_2,0.0,"[('wc_2', 0.7800000000000006), ('wc_6', 0.7000000000000005)]",0.9340000000000003,,,35.0,0.004453,['Pass'],Pass,0.7800000000000006,-0.44666666666666727,3.0,9.0,1.0
451.0,6.0,wc_6,,0.0,,,,203.0,,,,Pass,,,,,
451.0,6.0,wc_6,wc_10,1.0,"[('wc_10', 0.7100000000000005), ('wc_6', 0.7000000000000005), ('wc_2', 0.7800000000000006)]",0.9808600000000001,,,25.0,0.044205,['Pass'],Pass,0.7100000000000005,-0.7100000000000005,0.0,0.0,0.6
462.0,9.0,wc_9,,0.0,,,,103.0,,,,Pass,,,,,
462.0,9.0,wc_9,,0.0,,,65.0,,,,,Pass,,,,,
462.0,9.0,wc_9,,0.0,,,,0.0,,,,Pass,,,,,
462.0,9.0,wc_9,wc_9,0.0,"[('wc_9', 0.8200000000000006)]",0.8200000000000006,,,33.0,0.002625,['Pass'],Pass,0.8200000000000006,-0.5700000000000006,0.0,0.0,0.6
462.0,9.0,wc_9,,0.0,,,,0.0,,,,Pass,,,,,
462.0,9.0,wc_9,wc_11,0.0,"[('wc_9', 0.8200000000000006)]",0.8200000000000006,,,22.0,0.005358,['Pass'],Pass,0.30000000000000016,-0.10000000000000014,0.0,0.0,0.2
462.0,9.0,wc_9,,0.0,,,,103.0,,,,Pass,,,,,
462.0,9.0,wc_9,wc_10,0.0,"[('wc_9', 0.8200000000000006)]",0.8200000000000006,,,35.0,0.006172,['Pass'],Pass,0.7100000000000005,-0.7100000000000005,0.0,0.0,0.6
462.0,9.0,wc_9,,0.0,,,,61.0,,,,Pass,,,,,
462.0,9.0,wc_9,wc_7,1.0,"[('wc_7', 0.7200000000000005), ('wc_11', 0.30000000000000016), ('wc_10', 0.7100000000000005)]",0.9431600000000002,,,26.0,0.04091,['Fail'],Pass,0.7200000000000005,-0.7200000000000005,0.0,0.0,0.9
470.0,10.0,wc_10,,0.0,,,,0.0,,,,Fail,,,,,
470.0,10.0,wc_10,,0.0,,,63.0,,,,,Fail,,,,,
470.0,10.0,wc_10,,0.0,,,,0.0,,,,Fail,,,,,
470.0,10.0,wc_10,wc_10,0.0,"[('wc_10', 0.7200000000000005)]",0.7200000000000005,,,30.0,0.003126,['Fail'],Fail,0.7200000000000005,0.27999999999999947,1.0,1.0,0.6
470.0,10.0,wc_10,,0.0,,,,61.0,,,,Fail,,,,,
470.0,10.0,wc_10,wc_7,0.0,"[('wc_7', 0.7200000000000005), ('wc_10', 0.7200000000000005)]",0.9216000000000003,,,36.0,0.010152000000000001,['Fail'],Fail,0.7200000000000005,-0.7200000000000005,0.0,0.0,0.9
470.0,10.0,wc_10,,0.0,,,,301.0,,,,Fail,,,,,
470.0,10.0,wc_10,wc_3,0.0,"[('wc_10', 0.7200000000000005), ('wc_7', 0.7200000000000005)]",0.9216000000000003,,,20.0,0.005851,['Fail'],Fail,0.40000000000000024,0.15555555555555534,5.0,9.0,0.2
470.0,10.0,wc_10,,0.0,,,,101.0,,,,Fail,,,,,
470.0,10.0,wc_10,wc_6,1.0,"[('wc_6', 0.7000000000000005), ('wc_10', 0.7200000000000005), ('wc_7', 0.7200000000000005)]",0.9764800000000001,,,36.0,0.040592,['Fail'],Fail,0.7000000000000005,-0.7000000000000005,0.0,0.0,0.5
478.0,10.0,wc_10,,0.0,,,,0.0,,,,Fail,,,,,
478.0,10.0,wc_10,,0.0,,,53.0,,,,,Fail,,,,,
478.0,10.0,wc_10,,0.0,,,,0.0,,,,Fail,,,,,
478.0,10.0,wc_10,wc_10,0.0,"[('wc_10', 0.7300000000000005)]",0.7300000000000005,,,28.0,0.002166,['Fail'],Fail,0.7300000000000005,0.26999999999999946,2.0,2.0,0.6
478.0,10.0,wc_10,,0.0,,,,81.0,,,,Fail,,,,,
478.0,10.0,wc_10,wc_12,0.0,"[('wc_10', 0.7300000000000005)]",0.7300000000000005,,,27.0,0.006787,['Fail'],Fail,0.3500000000000002,-0.2250000000000002,0.0,0.0,0.1
478.0,10.0,wc_10,,0.0,,,,381.0,,,,Fail,,,,,
478.0,10.0,wc_10,wc_4,0.0,"[('wc_4', 0.7900000000000006), ('wc_10', 0.7300000000000005)]",0.9433000000000002,,,21.0,0.005712,['Fail'],Fail,0.7900000000000006,-0.2900000000000006,0.0,0.0,0.5
478.0,10.0,wc_10,,0.0,,,,81.0,,,,Fail,,,,,
478.0,10.0,wc_10,wc_6,1.0,"[('wc_6', 0.7000000000000005), ('wc_10', 0.7300000000000005), ('wc_4', 0.7900000000000006)]",0.9829900000000001,,,34.0,0.039291000000000006,['Fail'],Fail,0.7100000000000005,0.2899999999999995,1.0,1.0,0.5
490.0,10.0,wc_10,,0.0,,,,0.0,,,,Pass,,,,,
490.0,10.0,wc_10,,0.0,,,71.0,,,,,Pass,,,,,
490.0,10.0,wc_10,,0.0,,,,0.0,,,,Pass,,,,,
490.0,10.0,wc_10,wc_10,0.0,"[('wc_10', 0.7400000000000005)]",0.7400000000000005,,,27.0,0.002871,['Fail'],Pass,0.7400000000000005,0.25999999999999945,3.0,3.0,0.6
490.0,10.0,wc_10,,0.0,,,,362.0,,,,Pass,,,,,
490.0,10.0,wc_10,wc_4,0.0,"[('wc_4', 0.8000000000000006), ('wc_10', 0.7400000000000005)]",0.9480000000000003,,,40.0,0.014052,['Fail'],Pass,0.8000000000000006,0.1999999999999994,1.0,1.0,0.5
490.0,10.0,wc_10,,0.0,,,,142.0,,,,Pass,,,,,
490.0,10.0,wc_10,wc_9,1.0,"[('wc_9', 0.8100000000000006), ('wc_10', 0.7400000000000005), ('wc_4', 0.8000000000000006)]",0.9901200000000001,,,27.0,0.04491099999999999,['Fail'],Pass,0.8100000000000006,-0.5600000000000006,1.0,4.0,0.6
499.0,7.0,wc_7,,0.0,,,,81.0,,,,Pass,,,,,
499.0,7.0,wc_7,,0.0,,,67.0,,,,,Pass,,,,,
499.0,7.0,wc_7,,0.0,,,,0.0,,,,Pass,,,,,
499.0,7.0,wc_7,wc_7,0.0,"[('wc_7', 0.7300000000000005)]",0.7300000000000005,,,36.0,0.003394,['Pass'],Pass,0.7300000000000005,-0.3966666666666672,1.0,3.0,0.9
499.0,7.0,wc_7,,0.0,,,,182.0,,,,Pass,,,,,
499.0,7.0,wc_7,wc_14,0.0,"[('wc_14', 0.6600000000000005), ('wc_7', 0.7300000000000005)]",0.9082000000000003,,,21.0,0.004968,['Pass'],Pass,0.6600000000000005,-0.6600000000000005,0.0,5.0,0.5
499.0,7.0,wc_7,,0.0,,,,0.0,,,,Pass,,,,,
499.0,7.0,wc_7,wc_15,0.0,"[('wc_7', 0.7300000000000005), ('wc_14', 0.6600000000000005)]",0.9082000000000003,,,26.0,0.005806,['Pass'],Pass,0.6700000000000005,-0.6033333333333338,0.0,0.0,0.4
499.0,7.0,wc_7,,0.0,,,,442.0,,,,Pass,,,,,
499.0,7.0,wc_7,wc_5,0.0,"[('wc_7', 0.7300000000000005), ('wc_14', 0.6600000000000005)]",0.9082000000000003,,,27.0,0.0076809999999999995,['Pass'],Pass,0.4700000000000003,-0.3588888888888892,1.0,9.0,0.3
499.0,7.0,wc_7,,0.0,,,,142.0,,,,Pass,,,,,
499.0,7.0,wc_7,wc_10,1.0,"[('wc_10', 0.7500000000000006), ('wc_15', 0.6700000000000005), ('wc_5', 0.4700000000000003)]",0.9562750000000002,,,29.0,0.043961,['Fail'],Pass,0.7600000000000006,0.23999999999999944,5.0,5.0,0.6
505.0,8.0,wc_8,,0.0,,,,81.0,,,,Pass,,,,,
505.0,8.0,wc_8,,0.0,,,51.0,,,,,Pass,,,,,
505.0,8.0,wc_8,,0.0,,,,0.0,,,,Pass,,,,,
505.0,8.0,wc_8,wc_8,0.0,"[('wc_8', 0.6800000000000005)]",0.6800000000000005,,,20.0,0.00253,['Pass'],Pass,0.6800000000000005,-0.627368421052632,0.0,0.0,1.0
505.0,8.0,wc_8,,0.0,,,,122.0,,,,Pass,,,,,
505.0,8.0,wc_8,wc_12,0.0,"[('wc_8', 0.6800000000000005)]",0.6800000000000005,,,23.0,0.0042120000000000005,['Pass'],Pass,0.3400000000000002,-0.3400000000000002,0.0,3.0,0.1
505.0,8.0,wc_8,,0.0,,,,341.0,,,,Pass,,,,,
505.0,8.0,wc_8,wc_10,0.0,"[('wc_10', 0.7600000000000006), ('wc_8', 0.6800000000000005)]",0.9232000000000002,,,31.0,0.005981,['Pass'],Pass,0.7600000000000006,0.23999999999999944,5.0,5.0,0.6
505.0,8.0,wc_8,,0.0,,,,121.0,,,,Pass,,,,,
505.0,8.0,wc_8,wc_14,1.0,"[('wc_14', 0.6500000000000005), ('wc_8', 0.6800000000000005), ('wc_10', 0.7600000000000006)]",0.9731200000000001,,,23.0,0.040847999999999995,['Pass'],Pass,0.6500000000000005,-0.5071428571428576,1.0,7.0,0.5
516.0,11.0,wc_11,,0.0,,,,321.0,,,,Fail,,,,,
516.0,11.0,wc_11,,0.0,,,68.0,,,,,Fail,,,,,
516.0,11.0,wc_11,,0.0,,,,0.0,,,,Fail,,,,,
516.0,11.0,wc_11,wc_11,0.0,"[('wc_11', 0.31000000000000016)]",0.31000000000000016,,,37.0,0.007456,['Fail'],Fail,0.31000000000000016,-0.1433333333333335,1.0,6.0,0.2
516.0,11.0,wc_11,,0.0,,,,223.0,,,,Fail,,,,,
516.0,11.0,wc_11,wc_2,0.0,"[('wc_2', 0.7800000000000006), ('wc_11', 0.31000000000000016)]",0.8482000000000004,,,35.0,0.006528,['Fail'],Fail,0.7800000000000006,-0.7800000000000006,0.0,6.0,1.0
516.0,11.0,wc_11,,0.0,,,,202.0,,,,Fail,,,,,
516.0,11.0,wc_11,wc_14,1.0,"[('wc_14', 0.6500000000000005), ('wc_11', 0.31000000000000016), ('wc_2', 0.7800000000000006)]",0.9468700000000002,,,35.0,0.03999900000000001,['Fail'],Fail,0.6500000000000005,-0.40000000000000047,2.0,8.0,0.5
525.0,11.0,wc_11,,0.0,,,,321.0,,,,Pass,,,,,
525.0,11.0,wc_11,,0.0,,,65.0,,,,,Pass,,,,,
525.0,11.0,wc_11,,0.0,,,,0.0,,,,Pass,,,,,
525.0,11.0,wc_11,wc_11,0.0,"[('wc_11', 0.31000000000000016)]",0.31000000000000016,,,23.0,0.002193,['Pass'],Pass,0.31000000000000016,-0.024285714285714466,2.0,7.0,0.2
525.0,11.0,wc_11,,0.0,,,,61.0,,,,Pass,,,,,
525.0,11.0,wc_11,wc_12,0.0,"[('wc_12', 0.3300000000000002), ('wc_11', 0.31000000000000016)]",0.5377000000000003,,,27.0,0.004006,['Pass'],Pass,0.3300000000000002,-0.3300000000000002,0.0,5.0,0.1
525.0,11.0,wc_11,,0.0,,,,262.0,,,,Pass,,,,,
525.0,11.0,wc_11,wc_2,0.0,"[('wc_2', 0.7800000000000006), ('wc_11', 0.31000000000000016), ('wc_12', 0.3300000000000002)]",0.8982940000000004,,,24.0,0.006115,['Pass'],Pass,0.7800000000000006,-0.6371428571428577,1.0,7.0,1.0
525.0,11.0,wc_11,,0.0,,,,162.0,,,,Pass,,,,,
525.0,11.0,wc_11,wc_8,1.0,"[('wc_8', 0.6900000000000005), ('wc_11', 0.31000000000000016), ('wc_12', 0.3300000000000002), ('wc_2', 0.7800000000000006)]",0.9684711400000001,,,36.0,0.043933999999999994,['Pass'],Pass,0.6900000000000005,-0.023333333333333872,2.0,3.0,1.0
535.0,12.0,wc_12,,0.0,,,,122.0,,,,Fail,,,,,
535.0,12.0,wc_12,,0.0,,,77.0,,,,,Fail,,,,,
535.0,12.0,wc_12,,0.0,,,,0.0,,,,Fail,,,,,
535.0,12.0,wc_12,wc_12,0.0,"[('wc_12', 0.3300000000000002)]",0.3300000000000002,,,36.0,0.002664,['Pass'],Fail,0.3300000000000002,-0.16333333333333352,1.0,6.0,0.1
535.0,12.0,wc_12,,0.0,,,,361.0,,,,Fail,,,,,
535.0,12.0,wc_12,wc_11,0.0,"[('wc_11', 0.3200000000000002), ('wc_12', 0.3300000000000002)]",0.5444000000000002,,,36.0,0.003999,['Pass'],Fail,0.3200000000000002,0.05499999999999983,3.0,8.0,0.2
535.0,12.0,wc_12,,0.0,,,,103.0,,,,Fail,,,,,
535.0,12.0,wc_12,wc_10,0.0,"[('wc_10', 0.7700000000000006)]",0.7700000000000006,,,23.0,0.0062699999999999995,['Fail'],Fail,0.7700000000000006,-0.020000000000000573,6.0,8.0,0.6
535.0,12.0,wc_12,,0.0,,,,101.0,,,,Fail,,,,,
535.0,12.0,wc_12,wc_13,0.0,"[('wc_13', 0.3500000000000002), ('wc_10', 0.7700000000000006)]",0.8505000000000005,,,29.0,0.015236000000000001,['Fail'],Fail,0.3500000000000002,-0.24473684210526336,0.0,0.0,0.1
535.0,12.0,wc_12,,0.0,,,,0.0,,,,Fail,,,,,
535.0,12.0,wc_12,wc_17,0.0,"[('wc_10', 0.7700000000000006), ('wc_13', 0.3500000000000002)]",0.8505000000000005,,,21.0,0.015397,['Fail'],Fail,0.19000000000000006,-0.19000000000000006,0.0,0.0,0.1
535.0,12.0,wc_12,,0.0,,,,61.0,,,,Fail,,,,,
535.0,12.0,wc_12,wc_14,1.0,"[('wc_14', 0.6500000000000005), ('wc_10', 0.7700000000000006), ('wc_13', 0.3500000000000002)]",0.9476750000000003,,,30.0,0.043375,['Fail'],Fail,0.6500000000000005,-0.6500000000000005,0.0,0.0,0.5
547.0,12.0,wc_12,,0.0,,,,82.0,,,,Fail,,,,,
547.0,12.0,wc_12,,0.0,,,78.0,,,,,Fail,,,,,
547.0,12.0,wc_12,,0.0,,,,0.0,,,,Fail,,,,,
547.0,12.0,wc_12,wc_12,0.0,"[('wc_12', 0.3200000000000002)]",0.3200000000000002,,,23.0,0.001841,['Fail'],Fail,0.3200000000000002,-0.17714285714285732,1.0,7.0,0.1
547.0,12.0,wc_12,,0.0,,,,361.0,,,,Fail,,,,,
547.0,12.0,wc_12,wc_11,0.0,"[('wc_11', 0.3200000000000002), ('wc_12', 0.3200000000000002)]",0.5376000000000003,,,23.0,0.005703,['Fail'],Fail,0.3200000000000002,0.013333333333333142,3.0,9.0,0.2
547.0,12.0,wc_12,,0.0,,,,203.0,,,,Fail,,,,,
547.0,12.0,wc_12,wc_1,0.0,"[('wc_12', 0.3200000000000002), ('wc_11', 0.3200000000000002)]",0.5376000000000003,,,23.0,0.005738,['Fail'],Fail,0.3300000000000002,-0.3300000000000002,0.0,0.0,0.1
547.0,12.0,wc_12,,0.0,,,,0.0,,,,Fail,,,,,
547.0,12.0,wc_12,wc_2,0.0,"[('wc_2', 0.7800000000000006), ('wc_12', 0.3200000000000002), ('wc_11', 0.3200000000000002)]",0.8982720000000003,,,21.0,0.008575,['Fail'],Fail,0.7800000000000006,-0.5577777777777784,2.0,9.0,1.0
547.0,12.0,wc_12,,0.0,,,,223.0,,,,Fail,,,,,
547.0,12.0,wc_12,wc_15,1.0,"[('wc_15', 0.6800000000000005), ('wc_12', 0.3200000000000002), ('wc_11', 0.3200000000000002), ('wc_2', 0.7800000000000006)]",0.9674470400000001,,,21.0,0.042051,['Fail'],Fail,0.6800000000000005,-0.3466666666666672,2.0,6.0,0.4
556.0,12.0,wc_12,,0.0,,,,61.0,,,,Pass,,,,,
556.0,12.0,wc_12,,0.0,,,55.0,,,,,Pass,,,,,
556.0,12.0,wc_12,,0.0,,,,0.0,,,,Pass,,,,,
556.0,12.0,wc_12,wc_12,0.0,"[('wc_12', 0.3200000000000002)]",0.3200000000000002,,,32.0,0.005928,['Fail'],Pass,0.3200000000000002,-0.07000000000000017,2.0,8.0,0.1
556.0,12.0,wc_12,,0.0,,,,182.0,,,,Pass,,,,,
556.0,12.0,wc_12,wc_6,0.0,"[('wc_6', 0.7100000000000005)]",0.7100000000000005,,,28.0,0.0038779999999999995,['Pass'],Pass,0.7100000000000005,-0.5850000000000005,1.0,8.0,0.5
556.0,12.0,wc_12,,0.0,,,,182.0,,,,Pass,,,,,
556.0,12.0,wc_12,wc_13,0.0,"[('wc_13', 0.3600000000000002), ('wc_6', 0.7100000000000005)]",0.8144000000000005,,,37.0,0.011811,['Pass'],Pass,0.3600000000000002,0.1399999999999998,1.0,2.0,0.1
556.0,12.0,wc_12,,0.0,,,,321.0,,,,Pass,,,,,
556.0,12.0,wc_12,wc_10,0.0,"[('wc_10', 0.7700000000000006), ('wc_12', 0.3200000000000002)]",0.8436000000000005,,,20.0,0.008154,['Fail'],Pass,0.7700000000000006,-0.07000000000000062,0.0,0.0,0.6
556.0,12.0,wc_12,,0.0,,,,342.0,,,,Pass,,,,,
556.0,12.0,wc_12,wc_3,0.0,"[('wc_3', 0.40000000000000024), ('wc_6', 0.7100000000000005), ('wc_13', 0.3600000000000002)]",0.8886400000000003,,,26.0,0.011843,['Pass'],Pass,0.40000000000000024,-0.40000000000000024,0.0,8.0,0.2
556.0,12.0,wc_12,,0.0,,,,141.0,,,,Pass,,,,,
556.0,12.0,wc_12,wc_8,1.0,"[('wc_8', 0.6900000000000005), ('wc_6', 0.7100000000000005), ('wc_13', 0.3600000000000002), ('wc_3', 0.40000000000000024)]",0.9654784000000002,,,23.0,0.042665999999999996,['Pass'],Pass,0.6900000000000005,-0.1900000000000005,3.0,6.0,1.0
567.0,13.0,wc_13,,0.0,,,,142.0,,,,Pass,,,,,
567.0,13.0,wc_13,,0.0,,,72.0,,,,,Pass,,,,,
567.0,13.0,wc_13,,0.0,,,,0.0,,,,Pass,,,,,
567.0,13.0,wc_13,wc_13,0.0,"[('wc_13', 0.3700000000000002)]",0.3700000000000002,,,38.0,0.002248,['Fail'],Pass,0.3700000000000002,0.2966666666666664,2.0,3.0,0.1
567.0,13.0,wc_13,,0.0,,,,102.0,,,,Pass,,,,,
567.0,13.0,wc_13,wc_12,0.0,"[('wc_13', 0.3700000000000002)]",0.3700000000000002,,,25.0,0.006783,['Fail'],Pass,0.31000000000000016,-0.08777777777777795,2.0,9.0,0.1
567.0,13.0,wc_13,,0.0,,,,222.0,,,,Pass,,,,,
567.0,13.0,wc_13,wc_8,0.0,"[('wc_8', 0.6900000000000005), ('wc_12', 0.31000000000000016)]",0.7861000000000005,,,26.0,0.0056500000000000005,['Pass'],Pass,0.6900000000000005,-0.1900000000000005,3.0,6.0,1.0
567.0,13.0,wc_13,,0.0,,,,162.0,,,,Pass,,,,,
567.0,13.0,wc_13,wc_1,0.0,"[('wc_1', 0.3200000000000002), ('wc_12', 0.31000000000000016), ('wc_8', 0.6900000000000005)]",0.8545480000000003,,,21.0,0.007299000000000001,['Pass'],Pass,0.3200000000000002,-0.3200000000000002,0.0,2.0,0.1
567.0,13.0,wc_13,,0.0,,,,142.0,,,,Pass,,,,,
567.0,13.0,wc_13,wc_6,1.0,"[('wc_6', 0.7100000000000005), ('wc_12', 0.31000000000000016), ('wc_8', 0.6900000000000005), ('wc_1', 0.3200000000000002)]",0.9578189200000001,,,37.0,0.049834,['Pass'],Pass,0.7100000000000005,-0.7100000000000005,0.0,0.0,0.5
578.0,14.0,wc_14,,0.0,,,,202.0,,,,Fail,,,,,
578.0,14.0,wc_14,,0.0,,,56.0,,,,,Fail,,,,,
578.0,14.0,wc_14,,0.0,,,,0.0,,,,Fail,,,,,
578.0,14.0,wc_14,wc_14,0.0,"[('wc_14', 0.6500000000000005)]",0.6500000000000005,,,21.0,0.00226,['Pass'],Fail,0.6500000000000005,-0.6500000000000005,0.0,3.0,0.5
578.0,14.0,wc_14,,0.0,,,,321.0,,,,Fail,,,,,
578.0,14.0,wc_14,wc_11,0.0,"[('wc_11', 0.3300000000000002), ('wc_14', 0.6500000000000005)]",0.7655000000000004,,,23.0,0.007516999999999999,['Pass'],Fail,0.3300000000000002,-0.3300000000000002,0.0,2.0,0.2
578.0,14.0,wc_14,,0.0,,,,41.0,,,,Fail,,,,,
578.0,14.0,wc_14,wc_7,0.0,"[('wc_14', 0.6500000000000005), ('wc_11', 0.3300000000000002)]",0.7655000000000004,,,26.0,0.005573,['Pass'],Fail,0.7200000000000005,-0.6290909090909096,0.0,0.0,0.9
578.0,14.0,wc_14,,0.0,,,,0.0,,,,Fail,,,,,
578.0,14.0,wc_14,wc_10,0.0,"[('wc_10', 0.7600000000000006), ('wc_7', 0.7200000000000005)]",0.9328000000000003,,,30.0,0.007146,['Fail'],Fail,0.7600000000000006,-0.7600000000000006,0.0,2.0,0.6
578.0,14.0,wc_14,,0.0,,,,81.0,,,,Fail,,,,,
578.0,14.0,wc_14,wc_8,1.0,"[('wc_8', 0.6900000000000005), ('wc_7', 0.7200000000000005), ('wc_10', 0.7600000000000006)]",0.9791680000000001,,,20.0,0.054998,['Fail'],Fail,0.6900000000000005,-0.0650000000000005,5.0,8.0,1.0
590.0,16.0,wc_16,,0.0,,,,203.0,,,,Fail,,,,,
590.0,16.0,wc_16,,0.0,,,76.0,,,,,Fail,,,,,
590.0,16.0,wc_16,,0.0,,,,0.0,,,,Fail,,,,,
590.0,16.0,wc_16,wc_16,0.0,"[('wc_16', 0.3300000000000002)]",0.3300000000000002,,,22.0,0.002302,['Pass'],Fail,0.3300000000000002,-0.2675000000000002,0.0,0.0,0.2
590.0,16.0,wc_16,,0.0,,,,41.0,,,,Fail,,,,,
590.0,16.0,wc_16,wc_12,0.0,"[('wc_12', 0.31000000000000016), ('wc_16', 0.3300000000000002)]",0.5377000000000003,,,29.0,0.004579,['Pass'],Fail,0.31000000000000016,-0.31000000000000016,0.0,1.0,0.1
590.0,16.0,wc_16,,0.0,,,,262.0,,,,Fail,,,,,
590.0,16.0,wc_16,wc_2,0.0,"[('wc_2', 0.7800000000000006)]",0.7800000000000006,,,25.0,0.00651,['Fail'],Fail,0.7800000000000006,-0.7800000000000006,0.0,3.0,1.0
590.0,16.0,wc_16,,0.0,,,,142.0,,,,Fail,,,,,
590.0,16.0,wc_16,wc_7,0.0,"[('wc_7', 0.7300000000000005), ('wc_2', 0.7800000000000006)]",0.9406000000000003,,,29.0,0.008424000000000001,['Fail'],Fail,0.7300000000000005,0.26999999999999946,1.0,1.0,0.9
590.0,16.0,wc_16,,0.0,,,,182.0,,,,Fail,,,,,
590.0,16.0,wc_16,wc_1,1.0,"[('wc_1', 0.3300000000000002), ('wc_2', 0.7800000000000006), ('wc_7', 0.7300000000000005)]",0.9602020000000002,,,22.0,0.047067000000000005,['Fail'],Fail,0.3400000000000002,0.05999999999999983,2.0,5.0,0.1
603.0,15.0,wc_15,,0.0,,,,243.0,,,,Fail,,,,,
603.0,15.0,wc_15,,0.0,,,53.0,,,,,Fail,,,,,
603.0,15.0,wc_15,,0.0,,,,0.0,,,,Fail,,,,,
603.0,15.0,wc_15,wc_15,0.0,"[('wc_15', 0.6800000000000005)]",0.6800000000000005,,,32.0,0.003598,['Pass'],Fail,0.6800000000000005,-0.4800000000000005,0.0,0.0,0.4
603.0,15.0,wc_15,,0.0,,,,422.0,,,,Fail,,,,,
603.0,15.0,wc_15,wc_4,0.0,"[('wc_4', 0.8100000000000006), ('wc_15', 0.6800000000000005)]",0.9392000000000003,,,35.0,0.004898,['Pass'],Fail,0.8100000000000006,-0.643333333333334,0.0,0.0,0.5
603.0,15.0,wc_15,,0.0,,,,0.0,,,,Fail,,,,,
603.0,15.0,wc_15,wc_5,1.0,"[('wc_5', 0.4700000000000003), ('wc_15', 0.6800000000000005), ('wc_4', 0.8100000000000006)]",0.9677760000000002,,,28.0,0.05280100000000001,['Pass'],Fail,0.4700000000000003,-0.4700000000000003,0.0,0.0,0.3
627.0,14.0,wc_14,,0.0,,,,141.0,,,,Pass,,,,,
627.0,14.0,wc_14,,0.0,,,64.0,,,,,Pass,,,,,
627.0,14.0,wc_14,,0.0,,,,0.0,,,,Pass,,,,,
627.0,14.0,wc_14,wc_14,0.0,"[('wc_14', 0.6400000000000005)]",0.6400000000000005,,,36.0,0.002264,['Pass'],Pass,0.6400000000000005,-0.6400000000000005,0.0,6.0,0.5
627.0,14.0,wc_14,,0.0,,,,142.0,,,,Pass,,,,,
627.0,14.0,wc_14,wc_6,0.0,"[('wc_6', 0.7100000000000005), ('wc_14', 0.6400000000000005)]",0.8956000000000003,,,39.0,0.007637,['Pass'],Pass,0.7100000000000005,-0.7100000000000005,0.0,3.0,0.5
627.0,14.0,wc_14,,0.0,,,,0.0,,,,Pass,,,,,
627.0,14.0,wc_14,wc_7,1.0,"[('wc_7', 0.7400000000000005), ('wc_14', 0.6400000000000005), ('wc_6', 0.7100000000000005)]",0.9728560000000002,,,22.0,0.078535,['Pass'],Pass,0.7400000000000005,0.009999999999999454,3.0,4.0,0.9
636.0,16.0,wc_16,,0.0,,,,223.0,,,,Fail,,,,,
636.0,16.0,wc_16,,0.0,,,80.0,,,,,Fail,,,,,
636.0,16.0,wc_16,,0.0,,,,0.0,,,,Fail,,,,,
636.0,16.0,wc_16,wc_16,0.0,"[('wc_16', 0.3200000000000002)]",0.3200000000000002,,,36.0,0.003207,['Pass'],Fail,0.3200000000000002,-0.3200000000000002,0.0,3.0,0.2
636.0,16.0,wc_16,,0.0,,,,362.0,,,,Fail,,,,,
636.0,16.0,wc_16,wc_10,0.0,"[('wc_10', 0.7600000000000006)]",0.7600000000000006,,,35.0,0.014402000000000002,['Fail'],Fail,0.7600000000000006,-0.5933333333333339,1.0,6.0,0.6
636.0,16.0,wc_16,,0.0,,,,81.0,,,,Fail,,,,,
636.0,16.0,wc_16,wc_8,0.0,"[('wc_8', 0.6900000000000005), ('wc_10', 0.7600000000000006)]",0.9256000000000003,,,21.0,0.007138,['Fail'],Fail,0.6900000000000005,-0.23545454545454597,0.0,0.0,1.0
636.0,16.0,wc_16,,0.0,,,,162.0,,,,Fail,,,,,
636.0,16.0,wc_16,wc_14,0.0,"[('wc_10', 0.7600000000000006), ('wc_8', 0.6900000000000005)]",0.9256000000000003,,,32.0,0.016038,['Fail'],Fail,0.6400000000000005,-0.4971428571428576,1.0,7.0,0.5
636.0,16.0,wc_16,,0.0,,,,202.0,,,,Fail,,,,,
636.0,16.0,wc_16,wc_1,0.0,"[('wc_10', 0.7600000000000006), ('wc_8', 0.6900000000000005)]",0.9256000000000003,,,25.0,0.0159,['Fail'],Fail,0.3400000000000002,-0.05428571428571449,2.0,7.0,0.1
636.0,16.0,wc_16,,0.0,,,,182.0,,,,Fail,,,,,
636.0,16.0,wc_16,wc_12,0.0,"[('wc_10', 0.7600000000000006), ('wc_8', 0.6900000000000005)]",0.9256000000000003,,,39.0,0.010874,['Fail'],Fail,0.30000000000000016,-0.30000000000000016,0.0,4.0,0.1
636.0,16.0,wc_16,,0.0,,,,361.0,,,,Fail,,,,,
636.0,16.0,wc_16,wc_3,1.0,"[('wc_3', 0.40000000000000024), ('wc_16', 0.3200000000000002), ('wc_14', 0.6400000000000005), ('wc_1', 0.3400000000000002), ('wc_12', 0.30000000000000016)]",0.9321414400000001,,,37.0,0.045885,['Pass'],Fail,0.40000000000000024,-0.40000000000000024,0.0,0.0,0.2
644.0,16.0,wc_16,,0.0,,,,222.0,,,,Fail,,,,,
644.0,16.0,wc_16,,0.0,,,68.0,,,,,Fail,,,,,
644.0,16.0,wc_16,,0.0,,,,0.0,,,,Fail,,,,,
644.0,16.0,wc_16,wc_16,0.0,"[('wc_16', 0.3200000000000002)]",0.3200000000000002,,,27.0,0.002441,['Fail'],Fail,0.3200000000000002,-0.07000000000000017,1.0,4.0,0.2
644.0,16.0,wc_16,,0.0,,,,203.0,,,,Fail,,,,,
644.0,16.0,wc_16,wc_6,0.0,"[('wc_6', 0.7100000000000005), ('wc_16', 0.3200000000000002)]",0.8028000000000004,,,25.0,0.005043000000000001,['Fail'],Fail,0.7100000000000005,-0.5100000000000005,1.0,5.0,0.5
644.0,16.0,wc_16,,0.0,,,,162.0,,,,Fail,,,,,
644.0,16.0,wc_16,wc_12,0.0,"[('wc_16', 0.3200000000000002), ('wc_6', 0.7100000000000005)]",0.8028000000000004,,,26.0,0.01132,['Fail'],Fail,0.30000000000000016,-0.10000000000000014,1.0,5.0,0.1
644.0,16.0,wc_16,,0.0,,,,0.0,,,,Fail,,,,,
644.0,16.0,wc_16,wc_17,0.0,"[('wc_16', 0.3200000000000002), ('wc_6', 0.7100000000000005)]",0.8028000000000004,,,21.0,0.015342,['Fail'],Fail,0.18000000000000005,-0.18000000000000005,0.0,9.0,0.1
644.0,16.0,wc_16,,0.0,,,,342.0,,,,Fail,,,,,
644.0,16.0,wc_16,wc_10,0.0,"[('wc_10', 0.7500000000000006), ('wc_12', 0.30000000000000016), ('wc_17', 0.18000000000000005)]",0.8565000000000004,,,40.0,0.014803,['Pass'],Fail,0.7500000000000006,-0.6071428571428577,1.0,7.0,0.6
644.0,16.0,wc_16,,0.0,,,,223.0,,,,Fail,,,,,
644.0,16.0,wc_16,wc_1,1.0,"[('wc_1', 0.3500000000000002), ('wc_12', 0.30000000000000016), ('wc_17', 0.18000000000000005), ('wc_10', 0.7500000000000006)]",0.9067250000000002,,,35.0,0.0452,['Pass'],Fail,0.3600000000000002,0.08444444444444421,4.0,9.0,0.1
657.0,15.0,wc_15,,0.0,,,,243.0,,,,Pass,,,,,
657.0,15.0,wc_15,,0.0,,,76.0,,,,,Pass,,,,,
657.0,15.0,wc_15,,0.0,,,,0.0,,,,Pass,,,,,
657.0,15.0,wc_15,wc_15,0.0,"[('wc_15', 0.6900000000000005)]",0.6900000000000005,,,34.0,0.002291,['Pass'],Pass,0.6900000000000005,-0.4400000000000005,1.0,4.0,0.4
657.0,15.0,wc_15,,0.0,,,,402.0,,,,Pass,,,,,
657.0,15.0,wc_15,wc_11,0.0,"[('wc_11', 0.3200000000000002), ('wc_15', 0.6900000000000005)]",0.7892000000000003,,,34.0,0.004992,['Pass'],Pass,0.3200000000000002,-0.3200000000000002,0.0,8.0,0.2
657.0,15.0,wc_15,,0.0,,,,41.0,,,,Pass,,,,,
657.0,15.0,wc_15,wc_7,1.0,"[('wc_7', 0.7400000000000005), ('wc_15', 0.6900000000000005), ('wc_11', 0.3200000000000002)]",0.9451920000000003,,,21.0,0.04647799999999999,['Pass'],Pass,0.7400000000000005,-0.16857142857142915,4.0,7.0,0.9
663.0,16.0,wc_16,,0.0,,,,223.0,,,,Fail,,,,,
663.0,16.0,wc_16,,0.0,,,66.0,,,,,Fail,,,,,
663.0,16.0,wc_16,,0.0,,,,0.0,,,,Fail,,,,,
663.0,16.0,wc_16,wc_16,0.0,"[('wc_16', 0.31000000000000016)]",0.31000000000000016,,,34.0,0.002094,['Fail'],Fail,0.31000000000000016,-0.1433333333333335,1.0,6.0,0.2
663.0,16.0,wc_16,,0.0,,,,382.0,,,,Fail,,,,,
663.0,16.0,wc_16,wc_3,0.0,"[('wc_3', 0.40000000000000024)]",0.40000000000000024,,,29.0,0.0042,['Pass'],Fail,0.40000000000000024,-0.40000000000000024,0.0,2.0,0.2
663.0,16.0,wc_16,,0.0,,,,202.0,,,,Fail,,,,,
663.0,16.0,wc_16,wc_15,0.0,"[('wc_15', 0.6900000000000005), ('wc_16', 0.31000000000000016)]",0.7861000000000005,,,33.0,0.009367,['Fail'],Fail,0.6900000000000005,-0.2900000000000005,2.0,5.0,0.4
663.0,16.0,wc_16,,0.0,,,,61.0,,,,Fail,,,,,
663.0,16.0,wc_16,wc_12,0.0,"[('wc_16', 0.31000000000000016), ('wc_15', 0.6900000000000005)]",0.7861000000000005,,,20.0,0.015276,['Fail'],Fail,0.31000000000000016,-0.024285714285714466,2.0,7.0,0.1
663.0,16.0,wc_16,,0.0,,,,262.0,,,,Fail,,,,,
663.0,16.0,wc_16,wc_2,1.0,"[('wc_2', 0.7800000000000006), ('wc_16', 0.31000000000000016), ('wc_15', 0.6900000000000005)]",0.9529420000000002,,,37.0,0.043851999999999995,['Fail'],Fail,0.7800000000000006,-0.7800000000000006,0.0,0.0,1.0
675.0,16.0,wc_16,,0.0,,,,243.0,,,,Pass,,,,,
675.0,16.0,wc_16,,0.0,,,61.0,,,,,Pass,,,,,
675.0,16.0,wc_16,,0.0,,,,0.0,,,,Pass,,,,,
675.0,16.0,wc_16,wc_16,0.0,"[('wc_16', 0.31000000000000016)]",0.31000000000000016,,,26.0,0.002227,['Fail'],Pass,0.31000000000000016,-0.024285714285714466,2.0,7.0,0.2
675.0,16.0,wc_16,,0.0,,,,362.0,,,,Pass,,,,,
675.0,16.0,wc_16,wc_10,0.0,"[('wc_10', 0.7500000000000006)]",0.7500000000000006,,,35.0,0.00404,['Pass'],Pass,0.7500000000000006,-0.5500000000000005,0.0,0.0,0.6
675.0,16.0,wc_16,,0.0,,,,223.0,,,,Pass,,,,,
675.0,16.0,wc_16,wc_1,0.0,"[('wc_10', 0.7500000000000006)]",0.7500000000000006,,,32.0,0.005614999999999999,['Pass'],Pass,0.3600000000000002,0.0036363636363634377,0.0,0.0,0.1
675.0,16.0,wc_16,,0.0,,,,182.0,,,,Pass,,,,,
675.0,16.0,wc_16,wc_12,0.0,"[('wc_10', 0.7500000000000006)]",0.7500000000000006,,,25.0,0.007712999999999999,['Pass'],Pass,0.30000000000000016,-0.050000000000000155,2.0,8.0,0.1
675.0,16.0,wc_16,,0.0,,,,182.0,,,,Pass,,,,,
675.0,16.0,wc_16,wc_6,0.0,"[('wc_6', 0.7000000000000005), ('wc_10', 0.7500000000000006)]",0.9250000000000003,,,30.0,0.019482,['Pass'],Pass,0.7000000000000005,-0.5750000000000005,1.0,8.0,0.5
675.0,16.0,wc_16,,0.0,,,,341.0,,,,Pass,,,,,
675.0,16.0,wc_16,wc_4,1.0,"[('wc_4', 0.8200000000000006), ('wc_10', 0.7500000000000006), ('wc_6', 0.7000000000000005)]",0.9865000000000002,,,31.0,0.048926000000000004,['Pass'],Pass,0.8200000000000006,-0.5342857142857149,2.0,7.0,0.5
698.0,17.0,wc_17,,0.0,,,,222.0,,,,Pass,,,,,
698.0,17.0,wc_17,,0.0,,,76.0,,,,,Pass,,,,,
698.0,17.0,wc_17,,0.0,,,,0.0,,,,Pass,,,,,
698.0,17.0,wc_17,wc_17,0.0,"[('wc_17', 0.18000000000000005)]",0.18000000000000005,,,37.0,0.002258,['Fail'],Pass,0.18000000000000005,-0.18000000000000005,0.0,3.0,0.1
698.0,17.0,wc_17,,0.0,,,,322.0,,,,Pass,,,,,
698.0,17.0,wc_17,wc_9,0.0,"[('wc_9', 0.8100000000000006)]",0.8100000000000006,,,36.0,0.0055,['Pass'],Pass,0.8100000000000006,-0.762380952380953,0.0,0.0,0.6
698.0,17.0,wc_17,,0.0,,,,101.0,,,,Pass,,,,,
698.0,17.0,wc_17,wc_8,0.0,"[('wc_9', 0.8100000000000006)]",0.8100000000000006,,,32.0,0.00872,['Pass'],Pass,0.6800000000000005,-0.6800000000000005,0.0,5.0,1.0
698.0,17.0,wc_17,,0.0,,,,162.0,,,,Pass,,,,,
698.0,17.0,wc_17,wc_14,0.0,"[('wc_14', 0.6400000000000005), ('wc_9', 0.8100000000000006)]",0.9316000000000003,,,37.0,0.011213999999999998,['Pass'],Pass,0.6400000000000005,-0.4733333333333338,0.0,0.0,0.5
698.0,17.0,wc_17,,0.0,,,,82.0,,,,Pass,,,,,
698.0,17.0,wc_17,wc_12,0.0,"[('wc_9', 0.8100000000000006), ('wc_14', 0.6400000000000005)]",0.9316000000000003,,,21.0,0.010336999999999999,['Pass'],Pass,0.29000000000000015,-0.06777777777777794,2.0,9.0,0.1
698.0,17.0,wc_17,,0.0,,,,401.0,,,,Pass,,,,,
698.0,17.0,wc_17,wc_5,0.0,"[('wc_9', 0.8100000000000006), ('wc_14', 0.6400000000000005)]",0.9316000000000003,,,33.0,0.016603,['Pass'],Pass,0.4700000000000003,-0.4700000000000003,0.0,6.0,0.3
698.0,17.0,wc_17,,0.0,,,,61.0,,,,Pass,,,,,
698.0,17.0,wc_17,wc_2,1.0,"[('wc_2', 0.7800000000000006), ('wc_9', 0.8100000000000006), ('wc_14', 0.6400000000000005)]",0.9849520000000002,,,40.0,0.047821,['Pass'],Pass,0.7800000000000006,-0.2800000000000006,1.0,2.0,1.0
