mpecck/BCQC/bcqc_with_qdt/results/raw/input_14/independent_qc/training/20_workpiece/20200429_095223/wp_16_qc_majority_0.9.csv
production_index,step_idx,production_workcell,qc,consent,winner_qc_list,score,production_time,transport_time,inspection_time,network_time,qc_results,actual_quality,qc_score,score_error,in_winner_counter,in_qc_counter,qc_capability
59.0,1.0,wc_1,,0.0,,,51.0,,,,,Pass,,,,,
59.0,1.0,wc_1,,0.0,,,,0.0,,,,Pass,,,,,
59.0,1.0,wc_1,wc_1,0.0,"[('wc_1', 0.3500000000000002)]",0.3500000000000002,,,25.0,0.002872,['Fail'],Pass,0.3500000000000002,-0.3000000000000002,0.0,0.0,0.1
59.0,1.0,wc_1,,0.0,,,,243.0,,,,Pass,,,,,
59.0,1.0,wc_1,wc_15,0.0,"[('wc_15', 0.6700000000000005)]",0.6700000000000005,,,32.0,0.0038920000000000005,['Pass'],Pass,0.6700000000000005,-0.27000000000000046,0.0,0.0,0.4
59.0,1.0,wc_1,,0.0,,,,0.0,,,,Pass,,,,,
59.0,1.0,wc_1,wc_17,0.0,"[('wc_17', 0.21000000000000008), ('wc_15', 0.6700000000000005)]",0.7393000000000004,,,30.0,0.014143,['Pass'],Pass,0.21000000000000008,0.3899999999999999,3.0,5.0,0.1
59.0,1.0,wc_1,,0.0,,,,382.0,,,,Pass,,,,,
59.0,1.0,wc_1,wc_4,1.0,"[('wc_4', 0.8100000000000006), ('wc_15', 0.6700000000000005), ('wc_17', 0.21000000000000008)]",0.9504670000000003,,,25.0,0.037891,['Pass'],Pass,0.8100000000000006,-0.4766666666666673,3.0,9.0,0.5
64.0,4.0,wc_4,,0.0,,,,0.0,,,,Fail,,,,,
64.0,4.0,wc_4,,0.0,,,53.0,,,,,Fail,,,,,
64.0,4.0,wc_4,,0.0,,,,0.0,,,,Fail,,,,,
64.0,4.0,wc_4,wc_4,0.0,"[('wc_4', 0.8100000000000006)]",0.8100000000000006,,,35.0,0.004015,['Fail'],Fail,0.8100000000000006,-0.4766666666666673,3.0,9.0,0.5
64.0,4.0,wc_4,,0.0,,,,81.0,,,,Fail,,,,,
64.0,4.0,wc_4,wc_6,0.0,"[('wc_6', 0.6700000000000005), ('wc_4', 0.8100000000000006)]",0.9373000000000002,,,21.0,0.00469,['Fail'],Fail,0.6700000000000005,-0.5450000000000005,1.0,8.0,0.5
64.0,4.0,wc_4,,0.0,,,,222.0,,,,Fail,,,,,
64.0,4.0,wc_4,wc_2,1.0,"[('wc_2', 0.7500000000000006), ('wc_4', 0.8100000000000006), ('wc_6', 0.6700000000000005)]",0.9843250000000001,,,36.0,0.042475,['Fail'],Fail,0.7500000000000006,-0.7500000000000006,0.0,0.0,1.0
70.0,2.0,wc_2,,0.0,,,,0.0,,,,Fail,,,,,
70.0,2.0,wc_2,,0.0,,,62.0,,,,,Fail,,,,,
70.0,2.0,wc_2,,0.0,,,,0.0,,,,Fail,,,,,
70.0,2.0,wc_2,wc_2,0.0,"[('wc_2', 0.7500000000000006)]",0.7500000000000006,,,36.0,0.002356,['Fail'],Fail,0.7500000000000006,-0.7500000000000006,0.0,0.0,1.0
70.0,2.0,wc_2,,0.0,,,,203.0,,,,Fail,,,,,
70.0,2.0,wc_2,wc_10,0.0,"[('wc_10', 0.7400000000000005), ('wc_2', 0.7500000000000006)]",0.9350000000000003,,,22.0,0.004391,['Fail'],Fail,0.7400000000000005,-0.5400000000000005,1.0,5.0,0.6
70.0,2.0,wc_2,,0.0,,,,61.0,,,,Fail,,,,,
70.0,2.0,wc_2,wc_7,1.0,"[('wc_7', 0.7000000000000005), ('wc_2', 0.7500000000000006), ('wc_10', 0.7400000000000005)]",0.9805000000000001,,,39.0,0.036708,['Fail'],Fail,0.7000000000000005,-0.3666666666666672,2.0,6.0,0.9
81.0,2.0,wc_2,,0.0,,,,202.0,,,,Pass,,,,,
81.0,2.0,wc_2,,0.0,,,76.0,,,,,Pass,,,,,
81.0,2.0,wc_2,,0.0,,,,0.0,,,,Pass,,,,,
81.0,2.0,wc_2,wc_2,0.0,"[('wc_2', 0.7600000000000006)]",0.7600000000000006,,,39.0,0.002146,['Pass'],Pass,0.7600000000000006,0.23999999999999944,1.0,1.0,1.0
81.0,2.0,wc_2,,0.0,,,,223.0,,,,Pass,,,,,
81.0,2.0,wc_2,wc_11,0.0,"[('wc_2', 0.7600000000000006)]",0.7600000000000006,,,35.0,0.00507,['Pass'],Pass,0.4400000000000003,-0.4400000000000003,0.0,3.0,0.2
81.0,2.0,wc_2,,0.0,,,,61.0,,,,Pass,,,,,
81.0,2.0,wc_2,wc_8,0.0,"[('wc_8', 0.6600000000000005), ('wc_2', 0.7600000000000006)]",0.9184000000000003,,,24.0,0.00659,['Pass'],Pass,0.6600000000000005,-0.5830769230769235,0.0,0.0,1.0
81.0,2.0,wc_2,,0.0,,,,183.0,,,,Pass,,,,,
81.0,2.0,wc_2,wc_15,1.0,"[('wc_15', 0.6800000000000005), ('wc_2', 0.7600000000000006), ('wc_8', 0.6600000000000005)]",0.9738880000000001,,,25.0,0.039043,['Pass'],Pass,0.6800000000000005,-0.1800000000000005,2.0,4.0,0.4
92.0,4.0,wc_4,,0.0,,,,422.0,,,,Fail,,,,,
92.0,4.0,wc_4,,0.0,,,51.0,,,,,Fail,,,,,
92.0,4.0,wc_4,,0.0,,,,0.0,,,,Fail,,,,,
92.0,4.0,wc_4,wc_4,0.0,"[('wc_4', 0.8100000000000006)]",0.8100000000000006,,,27.0,0.010156,['Pass'],Fail,0.8100000000000006,-0.8100000000000006,0.0,2.0,0.5
92.0,4.0,wc_4,,0.0,,,,0.0,,,,Fail,,,,,
92.0,4.0,wc_4,wc_5,0.0,"[('wc_4', 0.8100000000000006)]",0.8100000000000006,,,40.0,0.003978000000000001,['Pass'],Fail,0.5500000000000004,-0.40714285714285753,0.0,0.0,0.3
92.0,4.0,wc_4,,0.0,,,,202.0,,,,Fail,,,,,
92.0,4.0,wc_4,wc_17,0.0,"[('wc_17', 0.22000000000000008), ('wc_4', 0.8100000000000006)]",0.8518000000000006,,,33.0,0.005811,['Pass'],Fail,0.22000000000000008,0.22444444444444434,4.0,9.0,0.1
92.0,4.0,wc_4,,0.0,,,,183.0,,,,Fail,,,,,
92.0,4.0,wc_4,wc_6,0.0,"[('wc_4', 0.8100000000000006), ('wc_17', 0.22000000000000008)]",0.8518000000000006,,,26.0,0.007509,['Pass'],Fail,0.6700000000000005,-0.48818181818181866,0.0,0.0,0.5
92.0,4.0,wc_4,,0.0,,,,162.0,,,,Fail,,,,,
92.0,4.0,wc_4,wc_12,0.0,"[('wc_12', 0.2400000000000001), ('wc_4', 0.8100000000000006), ('wc_17', 0.22000000000000008)]",0.8873680000000004,,,24.0,0.012537,['Pass'],Fail,0.2400000000000001,-0.2400000000000001,0.0,7.0,0.1
92.0,4.0,wc_4,,0.0,,,,0.0,,,,Fail,,,,,
92.0,4.0,wc_4,wc_14,1.0,"[('wc_14', 0.6600000000000005), ('wc_4', 0.8100000000000006), ('wc_17', 0.22000000000000008), ('wc_12', 0.2400000000000001)]",0.9617051200000002,,,25.0,0.07430500000000001,['Pass'],Fail,0.6600000000000005,-0.3742857142857148,2.0,7.0,0.5
101.0,4.0,wc_4,,0.0,,,,341.0,,,,Pass,,,,,
101.0,4.0,wc_4,,0.0,,,68.0,,,,,Pass,,,,,
101.0,4.0,wc_4,,0.0,,,,0.0,,,,Pass,,,,,
101.0,4.0,wc_4,wc_4,0.0,"[('wc_4', 0.8100000000000006)]",0.8100000000000006,,,36.0,0.002117,['Pass'],Pass,0.8100000000000006,-0.4766666666666673,1.0,3.0,0.5
101.0,4.0,wc_4,,0.0,,,,81.0,,,,Pass,,,,,
101.0,4.0,wc_4,wc_2,0.0,"[('wc_2', 0.7700000000000006), ('wc_4', 0.8100000000000006)]",0.9563000000000003,,,29.0,0.004022,['Pass'],Pass,0.7700000000000006,-0.10333333333333394,2.0,3.0,1.0
101.0,4.0,wc_4,,0.0,,,,202.0,,,,Pass,,,,,
101.0,4.0,wc_4,wc_14,1.0,"[('wc_14', 0.6600000000000005), ('wc_4', 0.8100000000000006), ('wc_2', 0.7700000000000006)]",0.9851420000000001,,,31.0,0.045976,['Pass'],Pass,0.6600000000000005,-0.2850000000000005,3.0,8.0,0.5
120.0,3.0,wc_3,,0.0,,,,321.0,,,,Fail,,,,,
120.0,3.0,wc_3,,0.0,,,70.0,,,,,Fail,,,,,
120.0,3.0,wc_3,,0.0,,,,0.0,,,,Fail,,,,,
120.0,3.0,wc_3,wc_3,0.0,"[('wc_3', 0.40000000000000024)]",0.40000000000000024,,,29.0,0.002999,['Pass'],Fail,0.40000000000000024,-0.32857142857142885,0.0,0.0,0.2
120.0,3.0,wc_3,,0.0,,,,182.0,,,,Fail,,,,,
120.0,3.0,wc_3,wc_10,0.0,"[('wc_10', 0.7400000000000005)]",0.7400000000000005,,,26.0,0.004054,['Fail'],Fail,0.7400000000000005,-0.5177777777777783,2.0,9.0,0.6
120.0,3.0,wc_3,,0.0,,,,61.0,,,,Fail,,,,,
120.0,3.0,wc_3,wc_7,0.0,"[('wc_7', 0.7000000000000005), ('wc_10', 0.7400000000000005)]",0.9220000000000003,,,39.0,0.008344,['Fail'],Fail,0.7000000000000005,-0.4777777777777783,2.0,9.0,0.9
120.0,3.0,wc_3,,0.0,,,,341.0,,,,Fail,,,,,
120.0,3.0,wc_3,wc_5,0.0,"[('wc_10', 0.7400000000000005), ('wc_7', 0.7000000000000005)]",0.9220000000000003,,,24.0,0.009456,['Fail'],Fail,0.5400000000000004,-0.5400000000000004,0.0,2.0,0.3
120.0,3.0,wc_3,,0.0,,,,182.0,,,,Fail,,,,,
120.0,3.0,wc_3,wc_16,0.0,"[('wc_10', 0.7400000000000005), ('wc_7', 0.7000000000000005)]",0.9220000000000003,,,25.0,0.011692,['Fail'],Fail,0.40000000000000024,0.06153846153846132,0.0,0.0,0.2
120.0,3.0,wc_3,,0.0,,,,103.0,,,,Fail,,,,,
120.0,3.0,wc_3,wc_15,1.0,"[('wc_15', 0.6800000000000005), ('wc_10', 0.7400000000000005), ('wc_7', 0.7000000000000005)]",0.9750400000000001,,,28.0,0.046532000000000004,['Fail'],Fail,0.6800000000000005,-0.25142857142857195,3.0,7.0,0.4
144.0,3.0,wc_3,,0.0,,,,402.0,,,,Pass,,,,,
144.0,3.0,wc_3,,0.0,,,66.0,,,,,Pass,,,,,
144.0,3.0,wc_3,,0.0,,,,0.0,,,,Pass,,,,,
144.0,3.0,wc_3,wc_3,0.0,"[('wc_3', 0.39000000000000024)]",0.39000000000000024,,,24.0,0.002504,['Pass'],Pass,0.39000000000000024,-0.39000000000000024,0.0,1.0,0.2
144.0,3.0,wc_3,,0.0,,,,121.0,,,,Pass,,,,,
144.0,3.0,wc_3,wc_7,0.0,"[('wc_7', 0.7000000000000005), ('wc_3', 0.39000000000000024)]",0.8170000000000004,,,25.0,0.003996,['Pass'],Pass,0.7000000000000005,-0.7000000000000005,0.0,0.0,0.9
144.0,3.0,wc_3,,0.0,,,,162.0,,,,Pass,,,,,
144.0,3.0,wc_3,wc_13,0.0,"[('wc_3', 0.39000000000000024), ('wc_7', 0.7000000000000005)]",0.8170000000000004,,,23.0,0.007988,['Pass'],Pass,0.3500000000000002,-0.20714285714285735,0.0,0.0,0.1
144.0,3.0,wc_3,,0.0,,,,242.0,,,,Pass,,,,,
144.0,3.0,wc_3,wc_2,1.0,"[('wc_2', 0.7700000000000006), ('wc_3', 0.39000000000000024), ('wc_7', 0.7000000000000005)]",0.9579100000000002,,,32.0,0.044052999999999995,['Pass'],Pass,0.7700000000000006,-0.10333333333333394,4.0,6.0,1.0
154.0,5.0,wc_5,,0.0,,,,0.0,,,,Fail,,,,,
154.0,5.0,wc_5,,0.0,,,54.0,,,,,Fail,,,,,
154.0,5.0,wc_5,,0.0,,,,0.0,,,,Fail,,,,,
154.0,5.0,wc_5,wc_5,0.0,"[('wc_5', 0.5300000000000004)]",0.5300000000000004,,,37.0,0.002808,['Fail'],Fail,0.5300000000000004,-0.5300000000000004,0.0,4.0,0.3
154.0,5.0,wc_5,,0.0,,,,141.0,,,,Fail,,,,,
154.0,5.0,wc_5,wc_14,0.0,"[('wc_14', 0.6600000000000005)]",0.6600000000000005,,,22.0,0.00543,['Pass'],Fail,0.6600000000000005,-0.3600000000000005,0.0,0.0,0.5
154.0,5.0,wc_5,,0.0,,,,301.0,,,,Fail,,,,,
154.0,5.0,wc_5,wc_10,0.0,"[('wc_10', 0.7400000000000005), ('wc_14', 0.6600000000000005)]",0.9116000000000003,,,35.0,0.0063,['Pass'],Fail,0.7400000000000005,-0.7400000000000005,0.0,1.0,0.6
154.0,5.0,wc_5,,0.0,,,,81.0,,,,Fail,,,,,
154.0,5.0,wc_5,wc_12,1.0,"[('wc_12', 0.2400000000000001), ('wc_14', 0.6600000000000005), ('wc_10', 0.7400000000000005)]",0.9328160000000002,,,27.0,0.039258999999999995,['Pass'],Fail,0.2400000000000001,-0.2400000000000001,0.0,0.0,0.1
171.0,5.0,wc_5,,0.0,,,,401.0,,,,Fail,,,,,
171.0,5.0,wc_5,,0.0,,,67.0,,,,,Fail,,,,,
171.0,5.0,wc_5,,0.0,,,,0.0,,,,Fail,,,,,
171.0,5.0,wc_5,wc_5,0.0,"[('wc_5', 0.5200000000000004)]",0.5200000000000004,,,37.0,0.002053,['Pass'],Fail,0.5200000000000004,-0.5200000000000004,0.0,5.0,0.3
171.0,5.0,wc_5,,0.0,,,,202.0,,,,Fail,,,,,
171.0,5.0,wc_5,wc_17,0.0,"[('wc_5', 0.5200000000000004)]",0.5200000000000004,,,32.0,0.005253000000000001,['Pass'],Fail,0.2300000000000001,-0.2300000000000001,0.0,4.0,0.1
171.0,5.0,wc_5,,0.0,,,,362.0,,,,Fail,,,,,
171.0,5.0,wc_5,wc_3,0.0,"[('wc_3', 0.40000000000000024), ('wc_17', 0.2300000000000001)]",0.5380000000000003,,,23.0,0.006389000000000001,['Fail'],Fail,0.40000000000000024,-0.06666666666666693,1.0,3.0,0.2
171.0,5.0,wc_5,,0.0,,,,161.0,,,,Fail,,,,,
171.0,5.0,wc_5,wc_13,0.0,"[('wc_13', 0.3400000000000002), ('wc_17', 0.2300000000000001), ('wc_3', 0.40000000000000024)]",0.6950800000000003,,,23.0,0.007888,['Fail'],Fail,0.3400000000000002,-0.3400000000000002,0.0,2.0,0.1
171.0,5.0,wc_5,,0.0,,,,341.0,,,,Fail,,,,,
171.0,5.0,wc_5,wc_11,0.0,"[('wc_11', 0.43000000000000027), ('wc_17', 0.2300000000000001), ('wc_3', 0.40000000000000024), ('wc_13', 0.3400000000000002)]",0.8261956000000003,,,40.0,0.010215999999999998,['Fail'],Fail,0.43000000000000027,-0.43000000000000027,0.0,9.0,0.2
171.0,5.0,wc_5,,0.0,,,,103.0,,,,Fail,,,,,
171.0,5.0,wc_5,wc_10,1.0,"[('wc_10', 0.7400000000000005), ('wc_17', 0.2300000000000001), ('wc_3', 0.40000000000000024), ('wc_13', 0.3400000000000002), ('wc_11', 0.43000000000000027)]",0.9548108560000002,,,24.0,0.04761700000000001,['Fail'],Fail,0.7400000000000005,-0.07333333333333392,2.0,3.0,0.6
183.0,5.0,wc_5,,0.0,,,,382.0,,,,Fail,,,,,
183.0,5.0,wc_5,,0.0,,,79.0,,,,,Fail,,,,,
183.0,5.0,wc_5,,0.0,,,,0.0,,,,Fail,,,,,
183.0,5.0,wc_5,wc_5,0.0,"[('wc_5', 0.5100000000000003)]",0.5100000000000003,,,30.0,0.002711,['Pass'],Fail,0.5100000000000003,-0.5100000000000003,0.0,6.0,0.3
183.0,5.0,wc_5,,0.0,,,,81.0,,,,Fail,,,,,
183.0,5.0,wc_5,wc_7,0.0,"[('wc_7', 0.7100000000000005)]",0.7100000000000005,,,22.0,0.004527,['Fail'],Fail,0.7100000000000005,-0.3766666666666672,1.0,3.0,0.9
183.0,5.0,wc_5,,0.0,,,,182.0,,,,Fail,,,,,
183.0,5.0,wc_5,wc_14,0.0,"[('wc_14', 0.6700000000000005), ('wc_7', 0.7100000000000005)]",0.9043000000000003,,,26.0,0.008883,['Fail'],Fail,0.6700000000000005,-0.17000000000000048,1.0,2.0,0.5
183.0,5.0,wc_5,,0.0,,,,0.0,,,,Fail,,,,,
183.0,5.0,wc_5,wc_15,0.0,"[('wc_7', 0.7100000000000005), ('wc_14', 0.6700000000000005)]",0.9043000000000003,,,29.0,0.012471,['Fail'],Fail,0.6800000000000005,-0.3800000000000005,0.0,0.0,0.4
183.0,5.0,wc_5,,0.0,,,,0.0,,,,Fail,,,,,
183.0,5.0,wc_5,wc_17,0.0,"[('wc_7', 0.7100000000000005), ('wc_14', 0.6700000000000005)]",0.9043000000000003,,,39.0,0.008939,['Fail'],Fail,0.2300000000000001,-0.030000000000000082,1.0,5.0,0.1
183.0,5.0,wc_5,,0.0,,,,243.0,,,,Fail,,,,,
183.0,5.0,wc_5,wc_1,1.0,"[('wc_1', 0.3400000000000002), ('wc_7', 0.7100000000000005), ('wc_14', 0.6700000000000005)]",0.9368380000000003,,,26.0,0.044786,['Fail'],Fail,0.3400000000000002,-0.3400000000000002,0.0,0.0,0.1
192.0,5.0,wc_5,,0.0,,,,0.0,,,,Pass,,,,,
192.0,5.0,wc_5,,0.0,,,55.0,,,,,Pass,,,,,
192.0,5.0,wc_5,,0.0,,,,0.0,,,,Pass,,,,,
192.0,5.0,wc_5,wc_5,0.0,"[('wc_5', 0.5000000000000003)]",0.5000000000000003,,,39.0,0.004236,['Fail'],Pass,0.5000000000000003,-0.5000000000000003,0.0,7.0,0.3
192.0,5.0,wc_5,,0.0,,,,141.0,,,,Pass,,,,,
192.0,5.0,wc_5,wc_14,0.0,"[('wc_14', 0.6700000000000005), ('wc_5', 0.5000000000000003)]",0.8350000000000004,,,26.0,0.005817,['Fail'],Pass,0.6700000000000005,-0.0033333333333338544,2.0,3.0,0.5
192.0,5.0,wc_5,,0.0,,,,102.0,,,,Pass,,,,,
192.0,5.0,wc_5,wc_13,0.0,"[('wc_13', 0.3400000000000002), ('wc_5', 0.5000000000000003), ('wc_14', 0.6700000000000005)]",0.8911000000000002,,,34.0,0.006642,['Fail'],Pass,0.3400000000000002,-0.09000000000000019,1.0,4.0,0.1
192.0,5.0,wc_5,,0.0,,,,341.0,,,,Pass,,,,,
192.0,5.0,wc_5,wc_11,0.0,"[('wc_5', 0.5000000000000003), ('wc_14', 0.6700000000000005), ('wc_13', 0.3400000000000002)]",0.8911000000000002,,,40.0,0.007587,['Fail'],Pass,0.43000000000000027,-0.43000000000000027,0.0,1.0,0.2
192.0,5.0,wc_5,,0.0,,,,162.0,,,,Pass,,,,,
192.0,5.0,wc_5,wc_17,1.0,"[('wc_17', 0.22000000000000008), ('wc_5', 0.5000000000000003), ('wc_14', 0.6700000000000005), ('wc_13', 0.3400000000000002)]",0.9150580000000003,,,23.0,0.04146599999999999,['Fail'],Pass,0.2300000000000001,0.055714285714285605,2.0,7.0,0.1
205.0,6.0,wc_6,,0.0,,,,183.0,,,,Fail,,,,,
205.0,6.0,wc_6,,0.0,,,60.0,,,,,Fail,,,,,
205.0,6.0,wc_6,,0.0,,,,0.0,,,,Fail,,,,,
205.0,6.0,wc_6,wc_6,0.0,"[('wc_6', 0.6600000000000005)]",0.6600000000000005,,,36.0,0.00209,['Fail'],Fail,0.6600000000000005,-0.6600000000000005,0.0,8.0,0.5
205.0,6.0,wc_6,,0.0,,,,0.0,,,,Fail,,,,,
205.0,6.0,wc_6,wc_11,0.0,"[('wc_11', 0.42000000000000026), ('wc_6', 0.6600000000000005)]",0.8028000000000004,,,38.0,0.007308,['Fail'],Fail,0.42000000000000026,-0.42000000000000026,0.0,2.0,0.2
205.0,6.0,wc_6,,0.0,,,,322.0,,,,Fail,,,,,
205.0,6.0,wc_6,wc_3,0.0,"[('wc_6', 0.6600000000000005), ('wc_11', 0.42000000000000026)]",0.8028000000000004,,,33.0,0.006536,['Fail'],Fail,0.41000000000000025,-0.07666666666666694,2.0,6.0,0.2
205.0,6.0,wc_6,,0.0,,,,242.0,,,,Fail,,,,,
205.0,6.0,wc_6,wc_17,0.0,"[('wc_6', 0.6600000000000005), ('wc_11', 0.42000000000000026)]",0.8028000000000004,,,20.0,0.008366,['Fail'],Fail,0.2300000000000001,0.055714285714285605,2.0,7.0,0.1
205.0,6.0,wc_6,,0.0,,,,402.0,,,,Fail,,,,,
205.0,6.0,wc_6,wc_5,1.0,"[('wc_5', 0.5000000000000003), ('wc_6', 0.6600000000000005), ('wc_11', 0.42000000000000026)]",0.9014000000000002,,,39.0,0.043216000000000004,['Fail'],Fail,0.5000000000000003,-0.2777777777777781,2.0,9.0,0.3
220.0,6.0,wc_6,,0.0,,,,61.0,,,,Fail,,,,,
220.0,6.0,wc_6,,0.0,,,79.0,,,,,Fail,,,,,
220.0,6.0,wc_6,,0.0,,,,0.0,,,,Fail,,,,,
220.0,6.0,wc_6,wc_6,0.0,"[('wc_6', 0.6600000000000005)]",0.6600000000000005,,,27.0,0.002256,['Fail'],Fail,0.6600000000000005,-0.5488888888888894,1.0,9.0,0.5
220.0,6.0,wc_6,,0.0,,,,243.0,,,,Fail,,,,,
220.0,6.0,wc_6,wc_16,0.0,"[('wc_6', 0.6600000000000005)]",0.6600000000000005,,,26.0,0.004256,['Fail'],Fail,0.39000000000000024,-0.39000000000000024,0.0,7.0,0.2
220.0,6.0,wc_6,,0.0,,,,382.0,,,,Fail,,,,,
220.0,6.0,wc_6,wc_3,0.0,"[('wc_3', 0.40000000000000024), ('wc_6', 0.6600000000000005)]",0.7960000000000004,,,38.0,0.006432,['Fail'],Fail,0.40000000000000024,-0.11428571428571455,2.0,7.0,0.2
220.0,6.0,wc_6,,0.0,,,,141.0,,,,Fail,,,,,
220.0,6.0,wc_6,wc_8,1.0,"[('wc_8', 0.6700000000000005), ('wc_6', 0.6600000000000005), ('wc_3', 0.40000000000000024)]",0.9326800000000002,,,29.0,0.04017499999999999,['Fail'],Fail,0.6700000000000005,-0.6700000000000005,0.0,0.0,1.0
244.0,6.0,wc_6,,0.0,,,,82.0,,,,Fail,,,,,
244.0,6.0,wc_6,,0.0,,,74.0,,,,,Fail,,,,,
244.0,6.0,wc_6,,0.0,,,,0.0,,,,Fail,,,,,
244.0,6.0,wc_6,wc_6,0.0,"[('wc_6', 0.6600000000000005)]",0.6600000000000005,,,40.0,0.002356,['Fail'],Fail,0.6600000000000005,-0.6600000000000005,0.0,0.0,0.5
244.0,6.0,wc_6,,0.0,,,,321.0,,,,Fail,,,,,
244.0,6.0,wc_6,wc_3,0.0,"[('wc_3', 0.40000000000000024), ('wc_6', 0.6600000000000005)]",0.7960000000000004,,,26.0,0.0044329999999999994,['Fail'],Fail,0.40000000000000024,-0.025000000000000244,3.0,8.0,0.2
244.0,6.0,wc_6,,0.0,,,,101.0,,,,Fail,,,,,
244.0,6.0,wc_6,wc_2,1.0,"[('wc_2', 0.7700000000000006), ('wc_6', 0.6600000000000005), ('wc_3', 0.40000000000000024)]",0.9530800000000001,,,29.0,0.037756000000000005,['Fail'],Fail,0.7700000000000006,-0.7700000000000006,0.0,0.0,1.0
265.0,6.0,wc_6,,0.0,,,,122.0,,,,Pass,,,,,
265.0,6.0,wc_6,,0.0,,,50.0,,,,,Pass,,,,,
265.0,6.0,wc_6,,0.0,,,,0.0,,,,Pass,,,,,
265.0,6.0,wc_6,wc_6,0.0,"[('wc_6', 0.6700000000000005)]",0.6700000000000005,,,27.0,0.009231,['Pass'],Pass,0.6700000000000005,0.3299999999999995,1.0,1.0,0.5
265.0,6.0,wc_6,,0.0,,,,0.0,,,,Pass,,,,,
265.0,6.0,wc_6,wc_9,0.0,"[('wc_9', 0.7600000000000006), ('wc_6', 0.6700000000000005)]",0.9208000000000003,,,27.0,0.005073,['Pass'],Pass,0.7600000000000006,-0.7073684210526321,0.0,0.0,0.6
265.0,6.0,wc_6,,0.0,,,,121.0,,,,Pass,,,,,
265.0,6.0,wc_6,wc_13,1.0,"[('wc_13', 0.3500000000000002), ('wc_6', 0.6700000000000005), ('wc_9', 0.7600000000000006)]",0.9485200000000003,,,22.0,0.041062,['Pass'],Pass,0.3500000000000002,-0.016666666666666885,3.0,9.0,0.1
278.0,9.0,wc_9,,0.0,,,,301.0,,,,Fail,,,,,
278.0,9.0,wc_9,,0.0,,,73.0,,,,,Fail,,,,,
278.0,9.0,wc_9,,0.0,,,,0.0,,,,Fail,,,,,
278.0,9.0,wc_9,wc_9,0.0,"[('wc_9', 0.7700000000000006)]",0.7700000000000006,,,22.0,0.008191,['Fail'],Fail,0.7700000000000006,0.22999999999999943,1.0,1.0,0.6
278.0,9.0,wc_9,,0.0,,,,263.0,,,,Fail,,,,,
278.0,9.0,wc_9,wc_2,0.0,"[('wc_2', 0.7700000000000006), ('wc_9', 0.7700000000000006)]",0.9471000000000003,,,31.0,0.0058779999999999995,['Fail'],Fail,0.7700000000000006,-0.7700000000000006,0.0,1.0,1.0
278.0,9.0,wc_9,,0.0,,,,142.0,,,,Fail,,,,,
278.0,9.0,wc_9,wc_7,1.0,"[('wc_7', 0.7100000000000005), ('wc_9', 0.7700000000000006), ('wc_2', 0.7700000000000006)]",0.9846590000000001,,,29.0,0.041865,['Fail'],Fail,0.7100000000000005,-0.7100000000000005,0.0,0.0,0.9
291.0,9.0,wc_9,,0.0,,,,0.0,,,,Pass,,,,,
291.0,9.0,wc_9,,0.0,,,69.0,,,,,Pass,,,,,
291.0,9.0,wc_9,,0.0,,,,0.0,,,,Pass,,,,,
291.0,9.0,wc_9,wc_9,0.0,"[('wc_9', 0.7800000000000006)]",0.7800000000000006,,,21.0,0.003101,['Pass'],Pass,0.7800000000000006,0.21999999999999942,2.0,2.0,0.6
291.0,9.0,wc_9,,0.0,,,,141.0,,,,Pass,,,,,
291.0,9.0,wc_9,wc_14,0.0,"[('wc_9', 0.7800000000000006)]",0.7800000000000006,,,37.0,0.009638,['Pass'],Pass,0.6800000000000005,-0.3466666666666672,3.0,9.0,0.5
291.0,9.0,wc_9,,0.0,,,,0.0,,,,Pass,,,,,
291.0,9.0,wc_9,wc_17,0.0,"[('wc_17', 0.2300000000000001), ('wc_9', 0.7800000000000006)]",0.8306000000000004,,,20.0,0.009082,['Pass'],Pass,0.2300000000000001,-0.06333333333333344,0.0,0.0,0.1
291.0,9.0,wc_9,,0.0,,,,41.0,,,,Pass,,,,,
291.0,9.0,wc_9,wc_13,0.0,"[('wc_9', 0.7800000000000006), ('wc_17', 0.2300000000000001)]",0.8306000000000004,,,20.0,0.011319,['Pass'],Pass,0.3500000000000002,-0.05000000000000021,0.0,0.0,0.1
291.0,9.0,wc_9,,0.0,,,,361.0,,,,Pass,,,,,
291.0,9.0,wc_9,wc_4,1.0,"[('wc_4', 0.8100000000000006), ('wc_14', 0.6800000000000005), ('wc_13', 0.3500000000000002)]",0.9604800000000002,,,28.0,0.04237300000000001,['Fail'],Pass,0.8100000000000006,-0.8100000000000006,0.0,0.0,0.5
301.0,10.0,wc_10,,0.0,,,,162.0,,,,Pass,,,,,
301.0,10.0,wc_10,,0.0,,,71.0,,,,,Pass,,,,,
301.0,10.0,wc_10,,0.0,,,,0.0,,,,Pass,,,,,
301.0,10.0,wc_10,wc_10,0.0,"[('wc_10', 0.7400000000000005)]",0.7400000000000005,,,21.0,0.009239,['Pass'],Pass,0.7400000000000005,-0.5581818181818188,0.0,0.0,0.6
301.0,10.0,wc_10,,0.0,,,,103.0,,,,Pass,,,,,
301.0,10.0,wc_10,wc_9,0.0,"[('wc_9', 0.7700000000000006)]",0.7700000000000006,,,39.0,0.00547,['Fail'],Pass,0.7700000000000006,-0.10333333333333394,2.0,3.0,0.6
301.0,10.0,wc_10,,0.0,,,,162.0,,,,Pass,,,,,
301.0,10.0,wc_10,wc_15,0.0,"[('wc_15', 0.6700000000000005), ('wc_10', 0.7400000000000005)]",0.9142000000000003,,,27.0,0.006166,['Pass'],Pass,0.6700000000000005,-0.6700000000000005,0.0,8.0,0.4
301.0,10.0,wc_10,,0.0,,,,0.0,,,,Pass,,,,,
301.0,10.0,wc_10,wc_17,1.0,"[('wc_17', 0.22000000000000008), ('wc_10', 0.7400000000000005), ('wc_15', 0.6700000000000005)]",0.9330760000000002,,,23.0,0.041543,['Pass'],Pass,0.2300000000000001,0.2699999999999999,1.0,2.0,0.1
312.0,8.0,wc_8,,0.0,,,,223.0,,,,Fail,,,,,
312.0,8.0,wc_8,,0.0,,,67.0,,,,,Fail,,,,,
312.0,8.0,wc_8,,0.0,,,,0.0,,,,Fail,,,,,
312.0,8.0,wc_8,wc_8,0.0,"[('wc_8', 0.6700000000000005)]",0.6700000000000005,,,23.0,0.002377,['Fail'],Fail,0.6700000000000005,-0.6700000000000005,0.0,5.0,1.0
312.0,8.0,wc_8,,0.0,,,,203.0,,,,Fail,,,,,
312.0,8.0,wc_8,wc_16,0.0,"[('wc_8', 0.6700000000000005)]",0.6700000000000005,,,31.0,0.007144,['Fail'],Fail,0.3800000000000002,-0.3800000000000002,0.0,0.0,0.2
312.0,8.0,wc_8,,0.0,,,,61.0,,,,Fail,,,,,
312.0,8.0,wc_8,wc_13,0.0,"[('wc_13', 0.3600000000000002), ('wc_8', 0.6700000000000005)]",0.7888000000000004,,,33.0,0.007137,['Fail'],Fail,0.3600000000000002,0.1399999999999998,1.0,2.0,0.1
312.0,8.0,wc_8,,0.0,,,,301.0,,,,Fail,,,,,
312.0,8.0,wc_8,wc_9,1.0,"[('wc_9', 0.7600000000000006), ('wc_8', 0.6700000000000005), ('wc_13', 0.3600000000000002)]",0.9493120000000002,,,34.0,0.043335000000000005,['Fail'],Fail,0.7600000000000006,-0.1600000000000006,3.0,5.0,0.6
321.0,8.0,wc_8,,0.0,,,,101.0,,,,Pass,,,,,
321.0,8.0,wc_8,,0.0,,,53.0,,,,,Pass,,,,,
321.0,8.0,wc_8,,0.0,,,,0.0,,,,Pass,,,,,
321.0,8.0,wc_8,wc_8,0.0,"[('wc_8', 0.6700000000000005)]",0.6700000000000005,,,28.0,0.002349,['Pass'],Pass,0.6700000000000005,-0.5033333333333339,1.0,6.0,1.0
321.0,8.0,wc_8,,0.0,,,,321.0,,,,Pass,,,,,
321.0,8.0,wc_8,wc_5,0.0,"[('wc_5', 0.5000000000000003), ('wc_8', 0.6700000000000005)]",0.8350000000000004,,,22.0,0.004217,['Pass'],Pass,0.5000000000000003,-0.37500000000000033,0.0,0.0,0.3
321.0,8.0,wc_8,,0.0,,,,61.0,,,,Pass,,,,,
321.0,8.0,wc_8,wc_2,1.0,"[('wc_2', 0.7700000000000006), ('wc_8', 0.6700000000000005), ('wc_5', 0.5000000000000003)]",0.9620500000000002,,,21.0,0.0392,['Pass'],Pass,0.7700000000000006,-0.43666666666666726,2.0,6.0,1.0
329.0,8.0,wc_8,,0.0,,,,162.0,,,,Fail,,,,,
329.0,8.0,wc_8,,0.0,,,51.0,,,,,Fail,,,,,
329.0,8.0,wc_8,,0.0,,,,0.0,,,,Fail,,,,,
329.0,8.0,wc_8,wc_8,0.0,"[('wc_8', 0.6700000000000005)]",0.6700000000000005,,,32.0,0.002994,['Fail'],Fail,0.6700000000000005,-0.3842857142857148,2.0,7.0,1.0
329.0,8.0,wc_8,,0.0,,,,0.0,,,,Fail,,,,,
329.0,8.0,wc_8,wc_9,0.0,"[('wc_9', 0.7600000000000006), ('wc_8', 0.6700000000000005)]",0.9208000000000003,,,20.0,0.005944,['Fail'],Fail,0.7600000000000006,-0.26000000000000056,3.0,6.0,0.6
329.0,8.0,wc_8,,0.0,,,,182.0,,,,Fail,,,,,
329.0,8.0,wc_8,wc_16,0.0,"[('wc_8', 0.6700000000000005), ('wc_9', 0.7600000000000006)]",0.9208000000000003,,,28.0,0.006260999999999999,['Fail'],Fail,0.3700000000000002,-0.3700000000000002,0.0,2.0,0.2
329.0,8.0,wc_8,,0.0,,,,402.0,,,,Fail,,,,,
329.0,8.0,wc_8,wc_4,1.0,"[('wc_4', 0.8100000000000006), ('wc_8', 0.6700000000000005), ('wc_9', 0.7600000000000006)]",0.9849520000000002,,,37.0,0.041347,['Fail'],Fail,0.8100000000000006,-0.5600000000000006,1.0,4.0,0.5
340.0,8.0,wc_8,,0.0,,,,121.0,,,,Pass,,,,,
340.0,8.0,wc_8,,0.0,,,55.0,,,,,Pass,,,,,
340.0,8.0,wc_8,,0.0,,,,0.0,,,,Pass,,,,,
340.0,8.0,wc_8,wc_8,0.0,"[('wc_8', 0.6700000000000005)]",0.6700000000000005,,,39.0,0.002118,['Pass'],Pass,0.6700000000000005,-0.2950000000000005,3.0,8.0,1.0
340.0,8.0,wc_8,,0.0,,,,0.0,,,,Pass,,,,,
340.0,8.0,wc_8,wc_10,0.0,"[('wc_10', 0.7500000000000006), ('wc_8', 0.6700000000000005)]",0.9175000000000003,,,24.0,0.004016,['Pass'],Pass,0.7500000000000006,-0.5000000000000006,1.0,4.0,0.6
340.0,8.0,wc_8,,0.0,,,,61.0,,,,Pass,,,,,
340.0,8.0,wc_8,wc_7,1.0,"[('wc_7', 0.7100000000000005), ('wc_8', 0.6700000000000005), ('wc_10', 0.7500000000000006)]",0.9760750000000001,,,35.0,0.043425,['Pass'],Pass,0.7100000000000005,-0.5433333333333339,1.0,6.0,0.9
351.0,11.0,wc_11,,0.0,,,,0.0,,,,Fail,,,,,
351.0,11.0,wc_11,,0.0,,,59.0,,,,,Fail,,,,,
351.0,11.0,wc_11,,0.0,,,,0.0,,,,Fail,,,,,
351.0,11.0,wc_11,wc_11,0.0,"[('wc_11', 0.42000000000000026)]",0.42000000000000026,,,39.0,0.00242,['Fail'],Fail,0.42000000000000026,-0.34307692307692333,0.0,0.0,0.2
351.0,11.0,wc_11,,0.0,,,,162.0,,,,Fail,,,,,
351.0,11.0,wc_11,wc_17,0.0,"[('wc_17', 0.2300000000000001), ('wc_11', 0.42000000000000026)]",0.5534000000000003,,,20.0,0.0041930000000000005,['Fail'],Fail,0.2300000000000001,-0.06333333333333344,1.0,6.0,0.1
351.0,11.0,wc_11,,0.0,,,,83.0,,,,Fail,,,,,
351.0,11.0,wc_11,wc_15,0.0,"[('wc_15', 0.6700000000000005), ('wc_11', 0.42000000000000026), ('wc_17', 0.2300000000000001)]",0.8526220000000003,,,31.0,0.005637,['Fail'],Fail,0.6700000000000005,-0.5930769230769235,0.0,0.0,0.4
351.0,11.0,wc_11,,0.0,,,,61.0,,,,Fail,,,,,
351.0,11.0,wc_11,wc_12,0.0,"[('wc_12', 0.2400000000000001), ('wc_11', 0.42000000000000026), ('wc_17', 0.2300000000000001), ('wc_15', 0.6700000000000005)]",0.8879927200000002,,,35.0,0.009198,['Fail'],Fail,0.2400000000000001,-0.2400000000000001,0.0,0.0,0.1
351.0,11.0,wc_11,,0.0,,,,361.0,,,,Fail,,,,,
351.0,11.0,wc_11,wc_3,0.0,"[('wc_11', 0.42000000000000026), ('wc_17', 0.2300000000000001), ('wc_15', 0.6700000000000005), ('wc_12', 0.2400000000000001)]",0.8879927200000002,,,26.0,0.011198,['Fail'],Fail,0.41000000000000025,-0.17470588235294143,0.0,0.0,0.2
351.0,11.0,wc_11,,0.0,,,,0.0,,,,Fail,,,,,
351.0,11.0,wc_11,wc_5,1.0,"[('wc_5', 0.5100000000000003), ('wc_11', 0.42000000000000026), ('wc_17', 0.2300000000000001), ('wc_15', 0.6700000000000005), ('wc_12', 0.2400000000000001)]",0.9451164328000001,,,20.0,0.04921299999999999,['Fail'],Fail,0.5100000000000003,-0.010000000000000342,2.0,4.0,0.3
361.0,7.0,wc_7,,0.0,,,,81.0,,,,Fail,,,,,
361.0,7.0,wc_7,,0.0,,,51.0,,,,,Fail,,,,,
361.0,7.0,wc_7,,0.0,,,,0.0,,,,Fail,,,,,
361.0,7.0,wc_7,wc_7,0.0,"[('wc_7', 0.7100000000000005)]",0.7100000000000005,,,20.0,0.004175,['Fail'],Fail,0.7100000000000005,-0.5671428571428576,1.0,7.0,0.9
361.0,7.0,wc_7,,0.0,,,,202.0,,,,Fail,,,,,
361.0,7.0,wc_7,wc_2,0.0,"[('wc_2', 0.7700000000000006), ('wc_7', 0.7100000000000005)]",0.9333000000000002,,,32.0,0.004222,['Fail'],Fail,0.7700000000000006,-0.5477777777777784,2.0,9.0,1.0
361.0,7.0,wc_7,,0.0,,,,183.0,,,,Fail,,,,,
361.0,7.0,wc_7,wc_9,1.0,"[('wc_9', 0.7600000000000006), ('wc_7', 0.7100000000000005), ('wc_2', 0.7700000000000006)]",0.9839920000000001,,,40.0,0.04295,['Fail'],Fail,0.7600000000000006,-0.7600000000000006,0.0,0.0,0.6
372.0,7.0,wc_7,,0.0,,,,81.0,,,,Pass,,,,,
372.0,7.0,wc_7,,0.0,,,59.0,,,,,Pass,,,,,
372.0,7.0,wc_7,,0.0,,,,0.0,,,,Pass,,,,,
372.0,7.0,wc_7,wc_7,0.0,"[('wc_7', 0.7100000000000005)]",0.7100000000000005,,,22.0,0.002566,['Pass'],Pass,0.7100000000000005,-0.4600000000000005,2.0,8.0,0.9
372.0,7.0,wc_7,,0.0,,,,142.0,,,,Pass,,,,,
372.0,7.0,wc_7,wc_12,0.0,"[('wc_7', 0.7100000000000005)]",0.7100000000000005,,,38.0,0.005389,['Pass'],Pass,0.2500000000000001,0.2499999999999999,1.0,2.0,0.1
372.0,7.0,wc_7,,0.0,,,,321.0,,,,Pass,,,,,
372.0,7.0,wc_7,wc_9,0.0,"[('wc_9', 0.7600000000000006), ('wc_7', 0.7100000000000005)]",0.9304000000000003,,,38.0,0.006510999999999999,['Pass'],Pass,0.7600000000000006,-0.7600000000000006,0.0,0.0,0.6
372.0,7.0,wc_7,,0.0,,,,162.0,,,,Pass,,,,,
372.0,7.0,wc_7,wc_15,1.0,"[('wc_15', 0.6800000000000005), ('wc_7', 0.7100000000000005), ('wc_9', 0.7600000000000006)]",0.9777280000000002,,,20.0,0.050195000000000004,['Pass'],Pass,0.6800000000000005,-0.013333333333333863,2.0,3.0,0.4
385.0,11.0,wc_11,,0.0,,,,402.0,,,,Fail,,,,,
385.0,11.0,wc_11,,0.0,,,58.0,,,,,Fail,,,,,
385.0,11.0,wc_11,,0.0,,,,0.0,,,,Fail,,,,,
385.0,11.0,wc_11,wc_11,0.0,"[('wc_11', 0.43000000000000027)]",0.43000000000000027,,,24.0,0.00215,['Pass'],Fail,0.43000000000000027,-0.09666666666666696,1.0,3.0,0.2
385.0,11.0,wc_11,,0.0,,,,61.0,,,,Fail,,,,,
385.0,11.0,wc_11,wc_8,0.0,"[('wc_8', 0.6700000000000005)]",0.6700000000000005,,,38.0,0.005239,['Fail'],Fail,0.6700000000000005,-0.33666666666666717,0.0,0.0,1.0
385.0,11.0,wc_11,,0.0,,,,142.0,,,,Fail,,,,,
385.0,11.0,wc_11,wc_13,0.0,"[('wc_13', 0.3700000000000002), ('wc_8', 0.6700000000000005)]",0.7921000000000004,,,39.0,0.005663,['Fail'],Fail,0.3700000000000002,-0.147777777777778,2.0,9.0,0.1
385.0,11.0,wc_11,,0.0,,,,222.0,,,,Fail,,,,,
385.0,11.0,wc_11,wc_1,0.0,"[('wc_8', 0.6700000000000005), ('wc_13', 0.3700000000000002)]",0.7921000000000004,,,39.0,0.015768,['Fail'],Fail,0.3400000000000002,-0.3400000000000002,0.0,0.0,0.1
385.0,11.0,wc_11,,0.0,,,,203.0,,,,Fail,,,,,
385.0,11.0,wc_11,wc_9,1.0,"[('wc_9', 0.7700000000000006), ('wc_8', 0.6700000000000005), ('wc_13', 0.3700000000000002)]",0.9521830000000002,,,22.0,0.048475000000000004,['Fail'],Fail,0.7800000000000006,0.21999999999999942,2.0,2.0,0.6
395.0,11.0,wc_11,,0.0,,,,0.0,,,,Pass,,,,,
395.0,11.0,wc_11,,0.0,,,58.0,,,,,Pass,,,,,
395.0,11.0,wc_11,,0.0,,,,0.0,,,,Pass,,,,,
395.0,11.0,wc_11,wc_11,0.0,"[('wc_11', 0.42000000000000026)]",0.42000000000000026,,,25.0,0.008988,['Fail'],Pass,0.42000000000000026,-0.17000000000000026,1.0,4.0,0.2
395.0,11.0,wc_11,,0.0,,,,21.0,,,,Pass,,,,,
395.0,11.0,wc_11,wc_6,0.0,"[('wc_6', 0.6800000000000005)]",0.6800000000000005,,,39.0,0.005552,['Pass'],Pass,0.6800000000000005,-0.5261538461538466,0.0,0.0,0.5
395.0,11.0,wc_11,,0.0,,,,222.0,,,,Pass,,,,,
395.0,11.0,wc_11,wc_2,0.0,"[('wc_2', 0.7700000000000006), ('wc_6', 0.6800000000000005)]",0.9264000000000003,,,22.0,0.006637,['Pass'],Pass,0.7700000000000006,-0.7700000000000006,0.0,2.0,1.0
395.0,11.0,wc_11,,0.0,,,,203.0,,,,Pass,,,,,
395.0,11.0,wc_11,wc_10,1.0,"[('wc_10', 0.7500000000000006), ('wc_6', 0.6800000000000005), ('wc_2', 0.7700000000000006)]",0.9816000000000001,,,32.0,0.04246699999999999,['Pass'],Pass,0.7500000000000006,-0.7500000000000006,0.0,0.0,0.6
411.0,12.0,wc_12,,0.0,,,,81.0,,,,Pass,,,,,
411.0,12.0,wc_12,,0.0,,,66.0,,,,,Pass,,,,,
411.0,12.0,wc_12,,0.0,,,,0.0,,,,Pass,,,,,
411.0,12.0,wc_12,wc_12,0.0,"[('wc_12', 0.2500000000000001)]",0.2500000000000001,,,32.0,0.002391,['Pass'],Pass,0.2500000000000001,-0.0500000000000001,1.0,5.0,0.1
411.0,12.0,wc_12,,0.0,,,,361.0,,,,Pass,,,,,
411.0,12.0,wc_12,wc_3,0.0,"[('wc_3', 0.40000000000000024), ('wc_12', 0.2500000000000001)]",0.5500000000000003,,,24.0,0.004077,['Pass'],Pass,0.40000000000000024,-0.40000000000000024,0.0,5.0,0.2
411.0,12.0,wc_12,,0.0,,,,242.0,,,,Pass,,,,,
411.0,12.0,wc_12,wc_17,0.0,"[('wc_12', 0.2500000000000001), ('wc_3', 0.40000000000000024)]",0.5500000000000003,,,24.0,0.005911,['Pass'],Pass,0.2400000000000001,-0.05818181818181828,0.0,0.0,0.1
411.0,12.0,wc_12,,0.0,,,,61.0,,,,Pass,,,,,
411.0,12.0,wc_12,wc_14,0.0,"[('wc_14', 0.6800000000000005), ('wc_12', 0.2500000000000001), ('wc_3', 0.40000000000000024)]",0.8560000000000003,,,24.0,0.007771999999999999,['Pass'],Pass,0.6800000000000005,-0.6800000000000005,0.0,0.0,0.5
411.0,12.0,wc_12,,0.0,,,,0.0,,,,Pass,,,,,
411.0,12.0,wc_12,wc_16,1.0,"[('wc_16', 0.3600000000000002), ('wc_12', 0.2500000000000001), ('wc_3', 0.40000000000000024), ('wc_14', 0.6800000000000005)]",0.9078400000000002,,,26.0,0.042756,['Pass'],Pass,0.3600000000000002,-0.3600000000000002,0.0,0.0,0.2
442.0,13.0,wc_13,,0.0,,,,61.0,,,,Pass,,,,,
442.0,13.0,wc_13,,0.0,,,56.0,,,,,Pass,,,,,
442.0,13.0,wc_13,,0.0,,,,0.0,,,,Pass,,,,,
442.0,13.0,wc_13,wc_13,0.0,"[('wc_13', 0.3700000000000002)]",0.3700000000000002,,,24.0,0.002424,['Fail'],Pass,0.3700000000000002,-0.3700000000000002,0.0,2.0,0.1
442.0,13.0,wc_13,,0.0,,,,0.0,,,,Pass,,,,,
442.0,13.0,wc_13,wc_16,0.0,"[('wc_16', 0.3600000000000002), ('wc_13', 0.3700000000000002)]",0.5968000000000002,,,32.0,0.00583,['Fail'],Pass,0.3600000000000002,-0.3600000000000002,0.0,0.0,0.2
442.0,13.0,wc_13,,0.0,,,,422.0,,,,Pass,,,,,
442.0,13.0,wc_13,wc_5,0.0,"[('wc_5', 0.5100000000000003), ('wc_13', 0.3700000000000002), ('wc_16', 0.3600000000000002)]",0.8024320000000003,,,35.0,0.0066679999999999994,['Fail'],Pass,0.5100000000000003,-0.28777777777777813,2.0,9.0,0.3
442.0,13.0,wc_13,,0.0,,,,142.0,,,,Pass,,,,,
442.0,13.0,wc_13,wc_10,0.0,"[('wc_13', 0.3700000000000002), ('wc_16', 0.3600000000000002), ('wc_5', 0.5100000000000003)]",0.8024320000000003,,,24.0,0.007542,['Fail'],Pass,0.7500000000000006,-0.7500000000000006,0.0,1.0,0.6
442.0,13.0,wc_13,,0.0,,,,243.0,,,,Pass,,,,,
442.0,13.0,wc_13,wc_2,0.0,"[('wc_2', 0.7700000000000006), ('wc_10', 0.7500000000000006)]",0.9425000000000002,,,34.0,0.010037,['Pass'],Pass,0.7700000000000006,-0.5200000000000006,1.0,4.0,1.0
442.0,13.0,wc_13,,0.0,,,,0.0,,,,Pass,,,,,
442.0,13.0,wc_13,wc_3,1.0,"[('wc_3', 0.40000000000000024), ('wc_10', 0.7500000000000006), ('wc_2', 0.7700000000000006)]",0.9655000000000001,,,35.0,0.045411,['Pass'],Pass,0.40000000000000024,-0.11428571428571455,2.0,7.0,0.2
454.0,16.0,wc_16,,0.0,,,,222.0,,,,Pass,,,,,
454.0,16.0,wc_16,,0.0,,,66.0,,,,,Pass,,,,,
454.0,16.0,wc_16,,0.0,,,,0.0,,,,Pass,,,,,
454.0,16.0,wc_16,wc_16,0.0,"[('wc_16', 0.3500000000000002)]",0.3500000000000002,,,27.0,0.002826,['Pass'],Pass,0.3500000000000002,-0.3500000000000002,0.0,1.0,0.2
454.0,16.0,wc_16,,0.0,,,,283.0,,,,Pass,,,,,
454.0,16.0,wc_16,wc_2,0.0,"[('wc_2', 0.7700000000000006)]",0.7700000000000006,,,20.0,0.009347999999999999,['Fail'],Pass,0.7700000000000006,-0.37000000000000055,2.0,5.0,1.0
454.0,16.0,wc_16,,0.0,,,,203.0,,,,Pass,,,,,
454.0,16.0,wc_16,wc_10,0.0,"[('wc_10', 0.7500000000000006), ('wc_16', 0.3500000000000002)]",0.8375000000000004,,,24.0,0.0058519999999999996,['Pass'],Pass,0.7500000000000006,-0.25000000000000056,1.0,2.0,0.6
454.0,16.0,wc_16,,0.0,,,,182.0,,,,Pass,,,,,
454.0,16.0,wc_16,wc_17,0.0,"[('wc_16', 0.3500000000000002), ('wc_10', 0.7500000000000006)]",0.8375000000000004,,,37.0,0.012894,['Pass'],Pass,0.2300000000000001,-0.2300000000000001,0.0,2.0,0.1
454.0,16.0,wc_16,,0.0,,,,402.0,,,,Pass,,,,,
454.0,16.0,wc_16,wc_5,1.0,"[('wc_5', 0.5000000000000003), ('wc_2', 0.7700000000000006), ('wc_17', 0.2300000000000001)]",0.9114500000000003,,,31.0,0.04429799999999999,['Fail'],Pass,0.5100000000000003,0.48999999999999966,1.0,1.0,0.3
464.0,15.0,wc_15,,0.0,,,,162.0,,,,Pass,,,,,
464.0,15.0,wc_15,,0.0,,,65.0,,,,,Pass,,,,,
464.0,15.0,wc_15,,0.0,,,,0.0,,,,Pass,,,,,
464.0,15.0,wc_15,wc_15,0.0,"[('wc_15', 0.6800000000000005)]",0.6800000000000005,,,24.0,0.002209,['Fail'],Pass,0.6800000000000005,-0.4300000000000005,2.0,8.0,0.4
464.0,15.0,wc_15,,0.0,,,,283.0,,,,Pass,,,,,
464.0,15.0,wc_15,wc_1,0.0,"[('wc_15', 0.6800000000000005)]",0.6800000000000005,,,33.0,0.005112,['Fail'],Pass,0.3300000000000002,-0.3300000000000002,0.0,5.0,0.1
464.0,15.0,wc_15,,0.0,,,,0.0,,,,Pass,,,,,
464.0,15.0,wc_15,wc_4,0.0,"[('wc_4', 0.8100000000000006), ('wc_1', 0.3300000000000002)]",0.8727000000000005,,,32.0,0.005863999999999999,['Pass'],Pass,0.8100000000000006,-0.7330769230769236,0.0,0.0,0.5
464.0,15.0,wc_15,,0.0,,,,81.0,,,,Pass,,,,,
464.0,15.0,wc_15,wc_6,1.0,"[('wc_6', 0.6900000000000005), ('wc_1', 0.3300000000000002), ('wc_4', 0.8100000000000006)]",0.9605370000000002,,,35.0,0.04184099999999999,['Pass'],Pass,0.6900000000000005,-0.2900000000000005,2.0,5.0,0.5
484.0,14.0,wc_14,,0.0,,,,202.0,,,,Fail,,,,,
484.0,14.0,wc_14,,0.0,,,57.0,,,,,Fail,,,,,
484.0,14.0,wc_14,,0.0,,,,0.0,,,,Fail,,,,,
484.0,14.0,wc_14,wc_14,0.0,"[('wc_14', 0.6900000000000005)]",0.6900000000000005,,,35.0,0.002388,['Fail'],Fail,0.6900000000000005,-0.4400000000000005,1.0,4.0,0.5
484.0,14.0,wc_14,,0.0,,,,321.0,,,,Fail,,,,,
484.0,14.0,wc_14,wc_3,0.0,"[('wc_3', 0.40000000000000024), ('wc_14', 0.6900000000000005)]",0.8140000000000004,,,26.0,0.015437,['Fail'],Fail,0.40000000000000024,-0.17777777777777803,2.0,9.0,0.2
484.0,14.0,wc_14,,0.0,,,,202.0,,,,Fail,,,,,
484.0,14.0,wc_14,wc_15,1.0,"[('wc_15', 0.6700000000000005), ('wc_14', 0.6900000000000005), ('wc_3', 0.40000000000000024)]",0.9386200000000002,,,30.0,0.041158,['Fail'],Fail,0.6700000000000005,-0.6700000000000005,0.0,0.0,0.4
526.0,14.0,wc_14,,0.0,,,,101.0,,,,Fail,,,,,
526.0,14.0,wc_14,,0.0,,,61.0,,,,,Fail,,,,,
526.0,14.0,wc_14,,0.0,,,,0.0,,,,Fail,,,,,
526.0,14.0,wc_14,wc_14,0.0,"[('wc_14', 0.6900000000000005)]",0.6900000000000005,,,31.0,0.002119,['Fail'],Fail,0.6900000000000005,-0.2900000000000005,2.0,5.0,0.5
526.0,14.0,wc_14,,0.0,,,,0.0,,,,Fail,,,,,
526.0,14.0,wc_14,wc_16,0.0,"[('wc_14', 0.6900000000000005)]",0.6900000000000005,,,27.0,0.0057540000000000004,['Fail'],Fail,0.3400000000000002,-0.3400000000000002,0.0,4.0,0.2
526.0,14.0,wc_14,,0.0,,,,223.0,,,,Fail,,,,,
526.0,14.0,wc_14,wc_7,0.0,"[('wc_7', 0.7100000000000005), ('wc_14', 0.6900000000000005)]",0.9101000000000004,,,27.0,0.006069,['Fail'],Fail,0.7100000000000005,-0.5225000000000005,0.0,0.0,0.9
526.0,14.0,wc_14,,0.0,,,,0.0,,,,Fail,,,,,
526.0,14.0,wc_14,wc_11,1.0,"[('wc_11', 0.41000000000000025), ('wc_14', 0.6900000000000005), ('wc_7', 0.7100000000000005)]",0.9469590000000002,,,35.0,0.043263,['Fail'],Fail,0.41000000000000025,-0.41000000000000025,0.0,0.0,0.2
544.0,14.0,wc_14,,0.0,,,,101.0,,,,Fail,,,,,
544.0,14.0,wc_14,,0.0,,,57.0,,,,,Fail,,,,,
544.0,14.0,wc_14,,0.0,,,,0.0,,,,Fail,,,,,
544.0,14.0,wc_14,wc_14,0.0,"[('wc_14', 0.6900000000000005)]",0.6900000000000005,,,22.0,0.002297,['Pass'],Fail,0.6900000000000005,-0.1900000000000005,3.0,6.0,0.5
544.0,14.0,wc_14,,0.0,,,,0.0,,,,Fail,,,,,
544.0,14.0,wc_14,wc_17,0.0,"[('wc_17', 0.2400000000000001), ('wc_14', 0.6900000000000005)]",0.7644000000000004,,,26.0,0.005008,['Pass'],Fail,0.2400000000000001,-0.07333333333333344,1.0,6.0,0.1
544.0,14.0,wc_14,,0.0,,,,342.0,,,,Fail,,,,,
544.0,14.0,wc_14,wc_10,0.0,"[('wc_14', 0.6900000000000005), ('wc_17', 0.2400000000000001)]",0.7644000000000004,,,33.0,0.012412,['Pass'],Fail,0.7400000000000005,-0.5733333333333339,1.0,6.0,0.6
544.0,14.0,wc_14,,0.0,,,,142.0,,,,Fail,,,,,
544.0,14.0,wc_14,wc_15,0.0,"[('wc_15', 0.6700000000000005), ('wc_10', 0.7400000000000005)]",0.9142000000000003,,,28.0,0.0075379999999999996,['Fail'],Fail,0.6700000000000005,-0.6700000000000005,0.0,1.0,0.4
544.0,14.0,wc_14,,0.0,,,,402.0,,,,Fail,,,,,
544.0,14.0,wc_14,wc_3,0.0,"[('wc_10', 0.7400000000000005), ('wc_15', 0.6700000000000005)]",0.9142000000000003,,,29.0,0.011069,['Fail'],Fail,0.40000000000000024,-0.40000000000000024,0.0,1.0,0.2
544.0,14.0,wc_14,,0.0,,,,81.0,,,,Fail,,,,,
544.0,14.0,wc_14,wc_1,1.0,"[('wc_1', 0.3300000000000002), ('wc_10', 0.7400000000000005), ('wc_15', 0.6700000000000005)]",0.9425140000000002,,,26.0,0.04806700000000001,['Fail'],Fail,0.3300000000000002,-0.10777777777777797,2.0,9.0,0.1
571.0,14.0,wc_14,,0.0,,,,222.0,,,,Pass,,,,,
571.0,14.0,wc_14,,0.0,,,72.0,,,,,Pass,,,,,
571.0,14.0,wc_14,,0.0,,,,0.0,,,,Pass,,,,,
571.0,14.0,wc_14,wc_14,0.0,"[('wc_14', 0.6800000000000005)]",0.6800000000000005,,,29.0,0.004309,['Pass'],Pass,0.6800000000000005,-0.25142857142857195,3.0,7.0,0.5
571.0,14.0,wc_14,,0.0,,,,142.0,,,,Pass,,,,,
571.0,14.0,wc_14,wc_6,0.0,"[('wc_6', 0.6900000000000005), ('wc_14', 0.6800000000000005)]",0.9008000000000003,,,40.0,0.004158,['Pass'],Pass,0.6900000000000005,-0.4400000000000005,2.0,8.0,0.5
571.0,14.0,wc_14,,0.0,,,,222.0,,,,Pass,,,,,
571.0,14.0,wc_14,wc_2,1.0,"[('wc_2', 0.7700000000000006), ('wc_14', 0.6800000000000005), ('wc_6', 0.6900000000000005)]",0.9771840000000002,,,40.0,0.046608000000000004,['Pass'],Pass,0.7700000000000006,-0.7700000000000006,0.0,0.0,1.0
579.0,17.0,wc_17,,0.0,,,,263.0,,,,Fail,,,,,
579.0,17.0,wc_17,,0.0,,,59.0,,,,,Fail,,,,,
579.0,17.0,wc_17,,0.0,,,,0.0,,,,Fail,,,,,
579.0,17.0,wc_17,wc_17,0.0,"[('wc_17', 0.2300000000000001)]",0.2300000000000001,,,35.0,0.002716,['Pass'],Fail,0.2300000000000001,-0.1050000000000001,1.0,8.0,0.1
579.0,17.0,wc_17,,0.0,,,,61.0,,,,Fail,,,,,
579.0,17.0,wc_17,wc_14,0.0,"[('wc_14', 0.6800000000000005)]",0.6800000000000005,,,34.0,0.006679,['Fail'],Fail,0.6800000000000005,-0.1800000000000005,4.0,8.0,0.5
579.0,17.0,wc_17,,0.0,,,,162.0,,,,Fail,,,,,
579.0,17.0,wc_17,wc_7,0.0,"[('wc_7', 0.7200000000000005), ('wc_14', 0.6800000000000005)]",0.9104000000000003,,,33.0,0.0065980000000000006,['Fail'],Fail,0.7200000000000005,-0.3866666666666672,1.0,3.0,0.9
579.0,17.0,wc_17,,0.0,,,,0.0,,,,Fail,,,,,
579.0,17.0,wc_17,wc_10,1.0,"[('wc_10', 0.7400000000000005), ('wc_14', 0.6800000000000005), ('wc_7', 0.7200000000000005)]",0.9767040000000001,,,32.0,0.047687,['Fail'],Fail,0.7400000000000005,-0.40666666666666723,3.0,9.0,0.6
596.0,17.0,wc_17,,0.0,,,,182.0,,,,Pass,,,,,
596.0,17.0,wc_17,,0.0,,,63.0,,,,,Pass,,,,,
596.0,17.0,wc_17,,0.0,,,,0.0,,,,Pass,,,,,
596.0,17.0,wc_17,wc_17,0.0,"[('wc_17', 0.22000000000000008)]",0.22000000000000008,,,35.0,0.002551,['Fail'],Pass,0.22000000000000008,-0.10888888888888898,1.0,9.0,0.1
596.0,17.0,wc_17,,0.0,,,,203.0,,,,Pass,,,,,
596.0,17.0,wc_17,wc_7,0.0,"[('wc_7', 0.7200000000000005), ('wc_17', 0.22000000000000008)]",0.7816000000000004,,,25.0,0.005613,['Fail'],Pass,0.7200000000000005,-0.22000000000000053,2.0,4.0,0.9
596.0,17.0,wc_17,,0.0,,,,182.0,,,,Pass,,,,,
596.0,17.0,wc_17,wc_1,0.0,"[('wc_1', 0.3300000000000002), ('wc_17', 0.22000000000000008), ('wc_7', 0.7200000000000005)]",0.8536720000000003,,,37.0,0.0063820000000000005,['Fail'],Pass,0.3300000000000002,-0.14818181818181836,0.0,0.0,0.1
596.0,17.0,wc_17,,0.0,,,,203.0,,,,Pass,,,,,
596.0,17.0,wc_17,wc_9,1.0,"[('wc_9', 0.7800000000000006), ('wc_17', 0.22000000000000008), ('wc_7', 0.7200000000000005), ('wc_1', 0.3300000000000002)]",0.9678078400000002,,,39.0,0.046582000000000005,['Fail'],Pass,0.7800000000000006,-0.7800000000000006,0.0,0.0,0.6
