mpecck/BCQC/bcqc_with_qdt/results/raw/input_14/independent_qc/training/20_workpiece/20200429_095223/wp_20_qc_majority_0.9.csv
production_index,step_idx,production_workcell,qc,consent,winner_qc_list,score,production_time,transport_time,inspection_time,network_time,qc_results,actual_quality,qc_score,score_error,in_winner_counter,in_qc_counter,qc_capability
84.0,1.0,wc_1,,0.0,,,56.0,,,,,Fail,,,,,
84.0,1.0,wc_1,,0.0,,,,0.0,,,,Fail,,,,,
84.0,1.0,wc_1,wc_1,0.0,"[('wc_1', 0.3600000000000002)]",0.3600000000000002,,,27.0,0.002227,['Pass'],Fail,0.3600000000000002,-0.3600000000000002,0.0,4.0,0.1
84.0,1.0,wc_1,,0.0,,,,223.0,,,,Fail,,,,,
84.0,1.0,wc_1,wc_10,0.0,"[('wc_10', 0.7500000000000006), ('wc_1', 0.3600000000000002)]",0.8400000000000004,,,23.0,0.004402,['Pass'],Fail,0.7500000000000006,-0.25000000000000056,1.0,2.0,0.6
84.0,1.0,wc_1,,0.0,,,,81.0,,,,Fail,,,,,
84.0,1.0,wc_1,wc_12,0.0,"[('wc_12', 0.2500000000000001), ('wc_1', 0.3600000000000002), ('wc_10', 0.7500000000000006)]",0.8800000000000003,,,23.0,0.005671,['Pass'],Fail,0.2500000000000001,-0.2500000000000001,0.0,4.0,0.1
84.0,1.0,wc_1,,0.0,,,,401.0,,,,Fail,,,,,
84.0,1.0,wc_1,wc_5,1.0,"[('wc_5', 0.4700000000000003), ('wc_1', 0.3600000000000002), ('wc_10', 0.7500000000000006), ('wc_12', 0.2500000000000001)]",0.9364000000000002,,,26.0,0.03781,['Pass'],Fail,0.4800000000000003,0.11999999999999966,3.0,5.0,0.3
181.0,1.0,wc_1,,0.0,,,,41.0,,,,Pass,,,,,
181.0,1.0,wc_1,,0.0,,,57.0,,,,,Pass,,,,,
181.0,1.0,wc_1,,0.0,,,,0.0,,,,Pass,,,,,
181.0,1.0,wc_1,wc_1,0.0,"[('wc_1', 0.3600000000000002)]",0.3600000000000002,,,34.0,0.00231,['Pass'],Pass,0.3600000000000002,-0.1600000000000002,1.0,5.0,0.1
181.0,1.0,wc_1,,0.0,,,,222.0,,,,Pass,,,,,
181.0,1.0,wc_1,wc_14,0.0,"[('wc_14', 0.6700000000000005)]",0.6700000000000005,,,29.0,0.005372,['Fail'],Pass,0.6700000000000005,-0.3842857142857148,0.0,0.0,0.5
181.0,1.0,wc_1,,0.0,,,,142.0,,,,Pass,,,,,
181.0,1.0,wc_1,wc_6,0.0,"[('wc_6', 0.7500000000000006), ('wc_14', 0.6700000000000005)]",0.9175000000000003,,,29.0,0.006076,['Fail'],Pass,0.7500000000000006,-0.25000000000000056,2.0,4.0,0.5
181.0,1.0,wc_1,,0.0,,,,0.0,,,,Pass,,,,,
181.0,1.0,wc_1,wc_7,0.0,"[('wc_14', 0.6700000000000005), ('wc_6', 0.7500000000000006)]",0.9175000000000003,,,31.0,0.007622,['Fail'],Pass,0.7500000000000006,-0.5833333333333339,1.0,6.0,0.9
181.0,1.0,wc_1,,0.0,,,,321.0,,,,Pass,,,,,
181.0,1.0,wc_1,wc_4,1.0,"[('wc_4', 0.8400000000000006), ('wc_14', 0.6700000000000005), ('wc_6', 0.7500000000000006)]",0.9868000000000001,,,27.0,0.038800999999999995,['Fail'],Pass,0.8400000000000006,-0.8400000000000006,0.0,0.0,0.5
203.0,4.0,wc_4,,0.0,,,,0.0,,,,Pass,,,,,
203.0,4.0,wc_4,,0.0,,,65.0,,,,,Pass,,,,,
203.0,4.0,wc_4,,0.0,,,,0.0,,,,Pass,,,,,
203.0,4.0,wc_4,wc_4,0.0,"[('wc_4', 0.8400000000000006)]",0.8400000000000006,,,25.0,0.002721,['Pass'],Pass,0.8400000000000006,-0.8400000000000006,0.0,0.0,0.5
203.0,4.0,wc_4,,0.0,,,,161.0,,,,Pass,,,,,
203.0,4.0,wc_4,wc_14,0.0,"[('wc_14', 0.6800000000000005), ('wc_4', 0.8400000000000006)]",0.9488000000000003,,,20.0,0.005736,['Pass'],Pass,0.6800000000000005,0.3199999999999995,1.0,1.0,0.5
203.0,4.0,wc_4,,0.0,,,,361.0,,,,Pass,,,,,
203.0,4.0,wc_4,wc_5,0.0,"[('wc_4', 0.8400000000000006), ('wc_14', 0.6800000000000005)]",0.9488000000000003,,,28.0,0.006238,['Pass'],Pass,0.4800000000000003,0.019999999999999685,3.0,6.0,0.3
203.0,4.0,wc_4,,0.0,,,,101.0,,,,Pass,,,,,
203.0,4.0,wc_4,wc_12,0.0,"[('wc_4', 0.8400000000000006), ('wc_14', 0.6800000000000005)]",0.9488000000000003,,,26.0,0.007527000000000001,['Pass'],Pass,0.2500000000000001,-0.08333333333333345,1.0,6.0,0.1
203.0,4.0,wc_4,,0.0,,,,341.0,,,,Pass,,,,,
203.0,4.0,wc_4,wc_10,1.0,"[('wc_10', 0.7500000000000006), ('wc_4', 0.8400000000000006), ('wc_14', 0.6800000000000005)]",0.9872000000000001,,,37.0,0.046745999999999996,['Pass'],Pass,0.7500000000000006,-0.15000000000000058,3.0,5.0,0.6
227.0,2.0,wc_2,,0.0,,,,243.0,,,,Fail,,,,,
227.0,2.0,wc_2,,0.0,,,61.0,,,,,Fail,,,,,
227.0,2.0,wc_2,,0.0,,,,0.0,,,,Fail,,,,,
227.0,2.0,wc_2,wc_2,0.0,"[('wc_2', 0.7800000000000006)]",0.7800000000000006,,,37.0,0.003261,['Fail'],Fail,0.7800000000000006,-0.613333333333334,1.0,6.0,1.0
227.0,2.0,wc_2,,0.0,,,,263.0,,,,Fail,,,,,
227.0,2.0,wc_2,wc_17,0.0,"[('wc_17', 0.14), ('wc_2', 0.7800000000000006)]",0.8108000000000005,,,39.0,0.004741,['Fail'],Fail,0.14,-0.14,0.0,5.0,0.1
227.0,2.0,wc_2,,0.0,,,,322.0,,,,Fail,,,,,
227.0,2.0,wc_2,wc_9,1.0,"[('wc_9', 0.8500000000000006), ('wc_2', 0.7800000000000006), ('wc_17', 0.14)]",0.9716200000000002,,,36.0,0.035909,['Fail'],Fail,0.8500000000000006,-0.8500000000000006,0.0,0.0,0.6
241.0,3.0,wc_3,,0.0,,,,362.0,,,,Pass,,,,,
241.0,3.0,wc_3,,0.0,,,80.0,,,,,Pass,,,,,
241.0,3.0,wc_3,,0.0,,,,0.0,,,,Pass,,,,,
241.0,3.0,wc_3,wc_3,0.0,"[('wc_3', 0.3500000000000002)]",0.3500000000000002,,,31.0,0.003527,['Fail'],Pass,0.3500000000000002,-0.3500000000000002,0.0,5.0,0.2
241.0,3.0,wc_3,,0.0,,,,101.0,,,,Pass,,,,,
241.0,3.0,wc_3,wc_6,0.0,"[('wc_6', 0.7500000000000006)]",0.7500000000000006,,,38.0,0.0041600000000000005,['Pass'],Pass,0.7500000000000006,-0.321428571428572,3.0,7.0,0.5
241.0,3.0,wc_3,,0.0,,,,0.0,,,,Pass,,,,,
241.0,3.0,wc_3,wc_8,0.0,"[('wc_8', 0.7200000000000005), ('wc_6', 0.7500000000000006)]",0.9300000000000003,,,35.0,0.018008,['Pass'],Pass,0.7200000000000005,-0.5200000000000005,1.0,5.0,1.0
241.0,3.0,wc_3,,0.0,,,,223.0,,,,Pass,,,,,
241.0,3.0,wc_3,wc_17,1.0,"[('wc_17', 0.15000000000000002), ('wc_6', 0.7500000000000006), ('wc_8', 0.7200000000000005)]",0.9405000000000002,,,39.0,0.040863,['Pass'],Pass,0.16000000000000003,0.12571428571428567,2.0,7.0,0.1
274.0,2.0,wc_2,,0.0,,,,263.0,,,,Fail,,,,,
274.0,2.0,wc_2,,0.0,,,78.0,,,,,Fail,,,,,
274.0,2.0,wc_2,,0.0,,,,0.0,,,,Fail,,,,,
274.0,2.0,wc_2,wc_2,0.0,"[('wc_2', 0.7800000000000006)]",0.7800000000000006,,,28.0,0.004533,['Fail'],Fail,0.7800000000000006,-0.5300000000000006,2.0,8.0,1.0
274.0,2.0,wc_2,,0.0,,,,223.0,,,,Fail,,,,,
274.0,2.0,wc_2,wc_15,0.0,"[('wc_2', 0.7800000000000006)]",0.7800000000000006,,,27.0,0.005162,['Fail'],Fail,0.6700000000000005,-0.6700000000000005,0.0,7.0,0.4
274.0,2.0,wc_2,,0.0,,,,81.0,,,,Fail,,,,,
274.0,2.0,wc_2,wc_13,0.0,"[('wc_13', 0.3400000000000002), ('wc_15', 0.6700000000000005)]",0.7822000000000005,,,35.0,0.005931,['Pass'],Fail,0.3400000000000002,-0.24000000000000019,0.0,0.0,0.1
274.0,2.0,wc_2,,0.0,,,,202.0,,,,Fail,,,,,
274.0,2.0,wc_2,wc_8,0.0,"[('wc_8', 0.7200000000000005), ('wc_2', 0.7800000000000006)]",0.9384000000000002,,,40.0,0.017367,['Fail'],Fail,0.7200000000000005,-0.3866666666666672,2.0,6.0,1.0
274.0,2.0,wc_2,,0.0,,,,0.0,,,,Fail,,,,,
274.0,2.0,wc_2,wc_11,0.0,"[('wc_2', 0.7800000000000006), ('wc_8', 0.7200000000000005)]",0.9384000000000002,,,20.0,0.009323000000000001,['Fail'],Fail,0.3400000000000002,-0.20666666666666686,0.0,0.0,0.2
274.0,2.0,wc_2,,0.0,,,,41.0,,,,Fail,,,,,
274.0,2.0,wc_2,wc_7,1.0,"[('wc_7', 0.7400000000000005), ('wc_2', 0.7800000000000006), ('wc_8', 0.7200000000000005)]",0.9839840000000001,,,40.0,0.041486999999999996,['Fail'],Fail,0.7400000000000005,-0.7400000000000005,0.0,0.0,0.9
332.0,2.0,wc_2,,0.0,,,,202.0,,,,Pass,,,,,
332.0,2.0,wc_2,,0.0,,,73.0,,,,,Pass,,,,,
332.0,2.0,wc_2,,0.0,,,,0.0,,,,Pass,,,,,
332.0,2.0,wc_2,wc_2,0.0,"[('wc_2', 0.7800000000000006)]",0.7800000000000006,,,22.0,0.003436,['Pass'],Pass,0.7800000000000006,-0.44666666666666727,3.0,9.0,1.0
332.0,2.0,wc_2,,0.0,,,,102.0,,,,Pass,,,,,
332.0,2.0,wc_2,wc_1,0.0,"[('wc_1', 0.3500000000000002), ('wc_2', 0.7800000000000006)]",0.8570000000000004,,,26.0,0.013409999999999998,['Pass'],Pass,0.3500000000000002,-0.2500000000000002,0.0,0.0,0.1
332.0,2.0,wc_2,,0.0,,,,263.0,,,,Pass,,,,,
332.0,2.0,wc_2,wc_16,0.0,"[('wc_2', 0.7800000000000006), ('wc_1', 0.3500000000000002)]",0.8570000000000004,,,39.0,0.0057020000000000005,['Pass'],Pass,0.30000000000000016,-0.30000000000000016,0.0,6.0,0.2
332.0,2.0,wc_2,,0.0,,,,362.0,,,,Pass,,,,,
332.0,2.0,wc_2,wc_10,1.0,"[('wc_10', 0.7500000000000006), ('wc_2', 0.7800000000000006), ('wc_1', 0.3500000000000002)]",0.9642500000000002,,,27.0,0.042494000000000004,['Pass'],Pass,0.7500000000000006,-0.30555555555555614,4.0,9.0,0.6
353.0,5.0,wc_5,,0.0,,,,382.0,,,,Pass,,,,,
353.0,5.0,wc_5,,0.0,,,73.0,,,,,Pass,,,,,
353.0,5.0,wc_5,,0.0,,,,0.0,,,,Pass,,,,,
353.0,5.0,wc_5,wc_5,0.0,"[('wc_5', 0.4700000000000003)]",0.4700000000000003,,,20.0,0.002244,['Pass'],Pass,0.4700000000000003,-0.1972727272727276,0.0,0.0,0.3
353.0,5.0,wc_5,,0.0,,,,81.0,,,,Pass,,,,,
353.0,5.0,wc_5,wc_7,0.0,"[('wc_7', 0.7400000000000005), ('wc_5', 0.4700000000000003)]",0.8622000000000004,,,36.0,0.004225,['Pass'],Pass,0.7400000000000005,-0.7400000000000005,0.0,1.0,0.9
353.0,5.0,wc_5,,0.0,,,,0.0,,,,Pass,,,,,
353.0,5.0,wc_5,wc_10,1.0,"[('wc_10', 0.7500000000000006), ('wc_5', 0.4700000000000003), ('wc_7', 0.7400000000000005)]",0.9655500000000001,,,26.0,0.037457,['Pass'],Pass,0.7500000000000006,-0.7500000000000006,0.0,0.0,0.6
367.0,6.0,wc_6,,0.0,,,,41.0,,,,Fail,,,,,
367.0,6.0,wc_6,,0.0,,,69.0,,,,,Fail,,,,,
367.0,6.0,wc_6,,0.0,,,,0.0,,,,Fail,,,,,
367.0,6.0,wc_6,wc_6,0.0,"[('wc_6', 0.7500000000000006)]",0.7500000000000006,,,34.0,0.002364,['Pass'],Fail,0.7500000000000006,-0.3863636363636369,0.0,0.0,0.5
367.0,6.0,wc_6,,0.0,,,,223.0,,,,Fail,,,,,
367.0,6.0,wc_6,wc_15,0.0,"[('wc_6', 0.7500000000000006)]",0.7500000000000006,,,25.0,0.0046630000000000005,['Pass'],Fail,0.6600000000000005,-0.6600000000000005,0.0,0.0,0.4
367.0,6.0,wc_6,,0.0,,,,81.0,,,,Fail,,,,,
367.0,6.0,wc_6,wc_13,0.0,"[('wc_13', 0.3300000000000002), ('wc_6', 0.7500000000000006)]",0.8325000000000005,,,40.0,0.008275000000000001,['Pass'],Fail,0.3300000000000002,-0.3300000000000002,0.0,3.0,0.1
367.0,6.0,wc_6,,0.0,,,,321.0,,,,Fail,,,,,
367.0,6.0,wc_6,wc_10,0.0,"[('wc_10', 0.7500000000000006), ('wc_15', 0.6600000000000005)]",0.9150000000000003,,,37.0,0.007827,['Fail'],Fail,0.7500000000000006,-0.7500000000000006,0.0,0.0,0.6
367.0,6.0,wc_6,,0.0,,,,182.0,,,,Fail,,,,,
367.0,6.0,wc_6,wc_17,0.0,"[('wc_15', 0.6600000000000005), ('wc_10', 0.7500000000000006)]",0.9150000000000003,,,31.0,0.015291999999999998,['Fail'],Fail,0.16000000000000003,0.03999999999999998,0.0,0.0,0.1
367.0,6.0,wc_6,,0.0,,,,61.0,,,,Fail,,,,,
367.0,6.0,wc_6,wc_14,1.0,"[('wc_14', 0.6900000000000005), ('wc_6', 0.7500000000000006), ('wc_13', 0.3300000000000002), ('wc_17', 0.16000000000000003)]",0.9563830000000002,,,35.0,0.041195999999999997,['Pass'],Fail,0.6900000000000005,-0.3150000000000005,3.0,8.0,0.5
387.0,6.0,wc_6,,0.0,,,,142.0,,,,Pass,,,,,
387.0,6.0,wc_6,,0.0,,,60.0,,,,,Pass,,,,,
387.0,6.0,wc_6,,0.0,,,,0.0,,,,Pass,,,,,
387.0,6.0,wc_6,wc_6,0.0,"[('wc_6', 0.7600000000000006)]",0.7600000000000006,,,31.0,0.003999,['Pass'],Pass,0.7600000000000006,0.23999999999999944,1.0,1.0,0.5
387.0,6.0,wc_6,,0.0,,,,321.0,,,,Pass,,,,,
387.0,6.0,wc_6,wc_3,0.0,"[('wc_3', 0.3400000000000002), ('wc_6', 0.7600000000000006)]",0.8416000000000005,,,34.0,0.004314,['Pass'],Pass,0.3400000000000002,-0.3400000000000002,0.0,0.0,0.2
387.0,6.0,wc_6,,0.0,,,,0.0,,,,Pass,,,,,
387.0,6.0,wc_6,wc_5,1.0,"[('wc_5', 0.4800000000000003), ('wc_6', 0.7600000000000006), ('wc_3', 0.3400000000000002)]",0.9176320000000002,,,38.0,0.037125000000000005,['Pass'],Pass,0.4900000000000003,0.1766666666666663,2.0,3.0,0.3
398.0,9.0,wc_9,,0.0,,,,122.0,,,,Fail,,,,,
398.0,9.0,wc_9,,0.0,,,68.0,,,,,Fail,,,,,
398.0,9.0,wc_9,,0.0,,,,0.0,,,,Fail,,,,,
398.0,9.0,wc_9,wc_9,0.0,"[('wc_9', 0.8500000000000006)]",0.8500000000000006,,,28.0,0.001948,['Fail'],Fail,0.8500000000000006,-0.8500000000000006,0.0,6.0,0.6
398.0,9.0,wc_9,,0.0,,,,141.0,,,,Fail,,,,,
398.0,9.0,wc_9,wc_14,0.0,"[('wc_14', 0.6900000000000005), ('wc_9', 0.8500000000000006)]",0.9535000000000002,,,24.0,0.004425999999999999,['Fail'],Fail,0.6900000000000005,-0.3566666666666672,3.0,9.0,0.5
398.0,9.0,wc_9,,0.0,,,,182.0,,,,Fail,,,,,
398.0,9.0,wc_9,wc_8,1.0,"[('wc_8', 0.7200000000000005), ('wc_9', 0.8500000000000006), ('wc_14', 0.6900000000000005)]",0.9869800000000001,,,26.0,0.035563,['Fail'],Fail,0.7200000000000005,-0.7200000000000005,0.0,0.0,1.0
410.0,10.0,wc_10,,0.0,,,,0.0,,,,Fail,,,,,
410.0,10.0,wc_10,,0.0,,,71.0,,,,,Fail,,,,,
410.0,10.0,wc_10,,0.0,,,,0.0,,,,Fail,,,,,
410.0,10.0,wc_10,wc_10,0.0,"[('wc_10', 0.7400000000000005)]",0.7400000000000005,,,37.0,0.002273,['Pass'],Fail,0.7400000000000005,-0.7400000000000005,0.0,3.0,0.6
410.0,10.0,wc_10,,0.0,,,,0.0,,,,Fail,,,,,
410.0,10.0,wc_10,wc_11,0.0,"[('wc_10', 0.7400000000000005)]",0.7400000000000005,,,30.0,0.003915,['Pass'],Fail,0.3300000000000002,-0.3300000000000002,0.0,6.0,0.2
410.0,10.0,wc_10,,0.0,,,,322.0,,,,Fail,,,,,
410.0,10.0,wc_10,wc_3,0.0,"[('wc_10', 0.7400000000000005)]",0.7400000000000005,,,23.0,0.005913999999999999,['Pass'],Fail,0.3500000000000002,0.1499999999999998,1.0,2.0,0.2
410.0,10.0,wc_10,,0.0,,,,242.0,,,,Fail,,,,,
410.0,10.0,wc_10,wc_17,0.0,"[('wc_17', 0.17000000000000004), ('wc_10', 0.7400000000000005)]",0.7842000000000005,,,25.0,0.008055,['Pass'],Fail,0.17000000000000004,0.16333333333333327,1.0,3.0,0.1
410.0,10.0,wc_10,,0.0,,,,103.0,,,,Fail,,,,,
410.0,10.0,wc_10,wc_16,0.0,"[('wc_16', 0.29000000000000015), ('wc_10', 0.7400000000000005), ('wc_17', 0.17000000000000004)]",0.8467820000000004,,,25.0,0.009744,['Pass'],Fail,0.29000000000000015,-0.29000000000000015,0.0,0.0,0.2
410.0,10.0,wc_10,,0.0,,,,422.0,,,,Fail,,,,,
410.0,10.0,wc_10,wc_5,0.0,"[('wc_10', 0.7400000000000005), ('wc_17', 0.17000000000000004), ('wc_16', 0.29000000000000015)]",0.8467820000000004,,,23.0,0.011456,['Pass'],Fail,0.4900000000000003,0.009999999999999676,2.0,4.0,0.3
410.0,10.0,wc_10,,0.0,,,,81.0,,,,Fail,,,,,
410.0,10.0,wc_10,wc_7,1.0,"[('wc_7', 0.7400000000000005), ('wc_11', 0.3300000000000002), ('wc_3', 0.3500000000000002), ('wc_5', 0.4900000000000003)]",0.9422527000000002,,,21.0,0.043578,['Fail'],Fail,0.7400000000000005,-0.40666666666666723,2.0,6.0,0.9
420.0,10.0,wc_10,,0.0,,,,0.0,,,,Pass,,,,,
420.0,10.0,wc_10,,0.0,,,50.0,,,,,Pass,,,,,
420.0,10.0,wc_10,,0.0,,,,0.0,,,,Pass,,,,,
420.0,10.0,wc_10,wc_10,0.0,"[('wc_10', 0.7300000000000005)]",0.7300000000000005,,,37.0,0.002269,['Pass'],Pass,0.7300000000000005,-0.7300000000000005,0.0,4.0,0.6
420.0,10.0,wc_10,,0.0,,,,182.0,,,,Pass,,,,,
420.0,10.0,wc_10,wc_17,0.0,"[('wc_17', 0.17000000000000004), ('wc_10', 0.7300000000000005)]",0.7759000000000005,,,37.0,0.004453,['Pass'],Pass,0.17000000000000004,0.07999999999999996,1.0,4.0,0.1
420.0,10.0,wc_10,,0.0,,,,103.0,,,,Pass,,,,,
420.0,10.0,wc_10,wc_16,0.0,"[('wc_10', 0.7300000000000005), ('wc_17', 0.17000000000000004)]",0.7759000000000005,,,32.0,0.008786,['Pass'],Pass,0.28000000000000014,-0.28000000000000014,0.0,1.0,0.2
420.0,10.0,wc_10,,0.0,,,,422.0,,,,Pass,,,,,
420.0,10.0,wc_10,wc_5,0.0,"[('wc_5', 0.5000000000000003), ('wc_10', 0.7300000000000005), ('wc_17', 0.17000000000000004)]",0.8879500000000002,,,20.0,0.007775,['Pass'],Pass,0.5000000000000003,0.09999999999999964,3.0,5.0,0.3
420.0,10.0,wc_10,,0.0,,,,61.0,,,,Pass,,,,,
420.0,10.0,wc_10,wc_2,1.0,"[('wc_2', 0.7800000000000006), ('wc_10', 0.7300000000000005), ('wc_17', 0.17000000000000004), ('wc_5', 0.5000000000000003)]",0.9753490000000001,,,25.0,0.04900499999999999,['Pass'],Pass,0.7800000000000006,-0.613333333333334,1.0,6.0,1.0
429.0,8.0,wc_8,,0.0,,,,162.0,,,,Pass,,,,,
429.0,8.0,wc_8,,0.0,,,60.0,,,,,Pass,,,,,
429.0,8.0,wc_8,,0.0,,,,0.0,,,,Pass,,,,,
429.0,8.0,wc_8,wc_8,0.0,"[('wc_8', 0.7200000000000005)]",0.7200000000000005,,,29.0,0.002036,['Pass'],Pass,0.7200000000000005,-0.7200000000000005,0.0,2.0,1.0
429.0,8.0,wc_8,,0.0,,,,183.0,,,,Pass,,,,,
429.0,8.0,wc_8,wc_15,0.0,"[('wc_15', 0.6500000000000005), ('wc_8', 0.7200000000000005)]",0.9020000000000004,,,39.0,0.00402,['Pass'],Pass,0.6500000000000005,-0.6500000000000005,0.0,5.0,0.4
429.0,8.0,wc_8,,0.0,,,,243.0,,,,Pass,,,,,
429.0,8.0,wc_8,wc_7,1.0,"[('wc_7', 0.7400000000000005), ('wc_8', 0.7200000000000005), ('wc_15', 0.6500000000000005)]",0.9745200000000002,,,30.0,0.038074,['Pass'],Pass,0.7400000000000005,-0.36500000000000055,3.0,8.0,0.9
437.0,7.0,wc_7,,0.0,,,,0.0,,,,Fail,,,,,
437.0,7.0,wc_7,,0.0,,,53.0,,,,,Fail,,,,,
437.0,7.0,wc_7,,0.0,,,,0.0,,,,Fail,,,,,
437.0,7.0,wc_7,wc_7,0.0,"[('wc_7', 0.7400000000000005)]",0.7400000000000005,,,37.0,0.002366,['Fail'],Fail,0.7400000000000005,-0.36500000000000055,3.0,8.0,0.9
437.0,7.0,wc_7,,0.0,,,,321.0,,,,Fail,,,,,
437.0,7.0,wc_7,wc_4,0.0,"[('wc_4', 0.8500000000000006), ('wc_7', 0.7400000000000005)]",0.9610000000000003,,,21.0,0.004293,['Fail'],Fail,0.8500000000000006,-0.7666666666666673,0.0,0.0,0.5
437.0,7.0,wc_7,,0.0,,,,182.0,,,,Fail,,,,,
437.0,7.0,wc_7,wc_15,1.0,"[('wc_15', 0.6500000000000005), ('wc_7', 0.7400000000000005), ('wc_4', 0.8500000000000006)]",0.9863500000000001,,,26.0,0.04052100000000001,['Fail'],Fail,0.6500000000000005,-0.36428571428571477,2.0,7.0,0.4
447.0,7.0,wc_7,,0.0,,,,243.0,,,,Fail,,,,,
447.0,7.0,wc_7,,0.0,,,63.0,,,,,Fail,,,,,
447.0,7.0,wc_7,,0.0,,,,0.0,,,,Fail,,,,,
447.0,7.0,wc_7,wc_7,0.0,"[('wc_7', 0.7400000000000005)]",0.7400000000000005,,,36.0,0.002387,['Fail'],Fail,0.7400000000000005,-0.2955555555555561,4.0,9.0,0.9
447.0,7.0,wc_7,,0.0,,,,0.0,,,,Fail,,,,,
447.0,7.0,wc_7,wc_10,0.0,"[('wc_10', 0.7300000000000005), ('wc_7', 0.7400000000000005)]",0.9298000000000003,,,26.0,0.0047480000000000005,['Fail'],Fail,0.7300000000000005,-0.5871428571428576,1.0,7.0,0.6
447.0,7.0,wc_7,,0.0,,,,81.0,,,,Fail,,,,,
447.0,7.0,wc_7,wc_8,1.0,"[('wc_8', 0.7200000000000005), ('wc_7', 0.7400000000000005), ('wc_10', 0.7300000000000005)]",0.9803440000000001,,,26.0,0.05250799999999999,['Fail'],Fail,0.7200000000000005,-0.3200000000000005,2.0,5.0,1.0
457.0,7.0,wc_7,,0.0,,,,102.0,,,,Pass,,,,,
457.0,7.0,wc_7,,0.0,,,69.0,,,,,Pass,,,,,
457.0,7.0,wc_7,,0.0,,,,0.0,,,,Pass,,,,,
457.0,7.0,wc_7,wc_7,0.0,"[('wc_7', 0.7400000000000005)]",0.7400000000000005,,,34.0,0.002198,['Pass'],Pass,0.7400000000000005,-0.7400000000000005,0.0,0.0,0.9
457.0,7.0,wc_7,,0.0,,,,341.0,,,,Pass,,,,,
457.0,7.0,wc_7,wc_5,0.0,"[('wc_5', 0.5100000000000003), ('wc_7', 0.7400000000000005)]",0.8726000000000004,,,31.0,0.004059,['Pass'],Pass,0.5100000000000003,-0.06555555555555592,4.0,9.0,0.3
457.0,7.0,wc_7,,0.0,,,,61.0,,,,Pass,,,,,
457.0,7.0,wc_7,wc_6,0.0,"[('wc_7', 0.7400000000000005), ('wc_5', 0.5100000000000003)]",0.8726000000000004,,,33.0,0.006566000000000001,['Pass'],Pass,0.7700000000000006,-0.5200000000000006,2.0,8.0,0.5
457.0,7.0,wc_7,,0.0,,,,162.0,,,,Pass,,,,,
457.0,7.0,wc_7,wc_12,1.0,"[('wc_12', 0.2400000000000001), ('wc_7', 0.7400000000000005), ('wc_5', 0.5100000000000003)]",0.9031760000000003,,,22.0,0.04238399999999999,['Pass'],Pass,0.2400000000000001,-0.2400000000000001,0.0,0.0,0.1
467.0,11.0,wc_11,,0.0,,,,361.0,,,,Pass,,,,,
467.0,11.0,wc_11,,0.0,,,63.0,,,,,Pass,,,,,
467.0,11.0,wc_11,,0.0,,,,0.0,,,,Pass,,,,,
467.0,11.0,wc_11,wc_11,0.0,"[('wc_11', 0.3300000000000002)]",0.3300000000000002,,,35.0,0.002414,['Pass'],Pass,0.3300000000000002,-0.24666666666666687,0.0,0.0,0.2
467.0,11.0,wc_11,,0.0,,,,362.0,,,,Pass,,,,,
467.0,11.0,wc_11,wc_5,0.0,"[('wc_5', 0.5100000000000003), ('wc_11', 0.3300000000000002)]",0.6717000000000003,,,28.0,0.004712,['Pass'],Pass,0.5100000000000003,-0.5100000000000003,0.0,0.0,0.3
467.0,11.0,wc_11,,0.0,,,,101.0,,,,Pass,,,,,
467.0,11.0,wc_11,wc_12,0.0,"[('wc_12', 0.2400000000000001), ('wc_11', 0.3300000000000002), ('wc_5', 0.5100000000000003)]",0.7504920000000003,,,26.0,0.00785,['Pass'],Pass,0.2400000000000001,-0.2400000000000001,0.0,0.0,0.1
467.0,11.0,wc_11,,0.0,,,,0.0,,,,Pass,,,,,
467.0,11.0,wc_11,wc_13,0.0,"[('wc_11', 0.3300000000000002), ('wc_5', 0.5100000000000003), ('wc_12', 0.2400000000000001)]",0.7504920000000003,,,40.0,0.008523,['Pass'],Pass,0.3300000000000002,-0.24666666666666687,0.0,0.0,0.1
467.0,11.0,wc_11,,0.0,,,,0.0,,,,Pass,,,,,
467.0,11.0,wc_11,wc_15,1.0,"[('wc_15', 0.6500000000000005), ('wc_11', 0.3300000000000002), ('wc_5', 0.5100000000000003), ('wc_12', 0.2400000000000001)]",0.9126722000000003,,,22.0,0.043651999999999996,['Pass'],Pass,0.6500000000000005,-0.6500000000000005,0.0,0.0,0.4
475.0,9.0,wc_9,,0.0,,,,362.0,,,,Fail,,,,,
475.0,9.0,wc_9,,0.0,,,55.0,,,,,Fail,,,,,
475.0,9.0,wc_9,,0.0,,,,0.0,,,,Fail,,,,,
475.0,9.0,wc_9,wc_9,0.0,"[('wc_9', 0.8500000000000006)]",0.8500000000000006,,,34.0,0.002223,['Fail'],Fail,0.8500000000000006,-0.7785714285714292,0.0,0.0,0.6
475.0,9.0,wc_9,,0.0,,,,0.0,,,,Fail,,,,,
475.0,9.0,wc_9,wc_11,0.0,"[('wc_11', 0.3400000000000002), ('wc_9', 0.8500000000000006)]",0.9010000000000005,,,23.0,0.0043040000000000005,['Fail'],Fail,0.3400000000000002,0.6599999999999998,1.0,1.0,0.2
475.0,9.0,wc_9,,0.0,,,,322.0,,,,Fail,,,,,
475.0,9.0,wc_9,wc_3,0.0,"[('wc_9', 0.8500000000000006), ('wc_11', 0.3400000000000002)]",0.9010000000000005,,,23.0,0.006872,['Fail'],Fail,0.3600000000000002,-0.137777777777778,2.0,9.0,0.2
475.0,9.0,wc_9,,0.0,,,,242.0,,,,Fail,,,,,
475.0,9.0,wc_9,wc_17,0.0,"[('wc_9', 0.8500000000000006), ('wc_11', 0.3400000000000002)]",0.9010000000000005,,,40.0,0.008566,['Fail'],Fail,0.18000000000000005,0.019999999999999962,0.0,0.0,0.1
475.0,9.0,wc_9,,0.0,,,,223.0,,,,Fail,,,,,
475.0,9.0,wc_9,wc_8,1.0,"[('wc_8', 0.7200000000000005), ('wc_9', 0.8500000000000006), ('wc_11', 0.3400000000000002)]",0.9722800000000001,,,39.0,0.040805999999999995,['Fail'],Fail,0.7200000000000005,-0.34500000000000053,3.0,8.0,1.0
488.0,9.0,wc_9,,0.0,,,,0.0,,,,Pass,,,,,
488.0,9.0,wc_9,,0.0,,,71.0,,,,,Pass,,,,,
488.0,9.0,wc_9,,0.0,,,,0.0,,,,Pass,,,,,
488.0,9.0,wc_9,wc_9,0.0,"[('wc_9', 0.8600000000000007)]",0.8600000000000007,,,39.0,0.003107,['Pass'],Pass,0.8600000000000007,0.13999999999999935,1.0,1.0,0.6
488.0,9.0,wc_9,,0.0,,,,402.0,,,,Pass,,,,,
488.0,9.0,wc_9,wc_5,0.0,"[('wc_5', 0.5200000000000004), ('wc_9', 0.8600000000000007)]",0.9328000000000004,,,31.0,0.0039889999999999995,['Pass'],Pass,0.5200000000000004,-0.02000000000000035,1.0,2.0,0.3
488.0,9.0,wc_9,,0.0,,,,141.0,,,,Pass,,,,,
488.0,9.0,wc_9,wc_14,1.0,"[('wc_14', 0.6900000000000005), ('wc_9', 0.8600000000000007), ('wc_5', 0.5200000000000004)]",0.9791680000000001,,,22.0,0.037194,['Pass'],Pass,0.6900000000000005,-0.5788888888888895,1.0,9.0,0.5
503.0,12.0,wc_12,,0.0,,,,82.0,,,,Pass,,,,,
503.0,12.0,wc_12,,0.0,,,58.0,,,,,Pass,,,,,
503.0,12.0,wc_12,,0.0,,,,0.0,,,,Pass,,,,,
503.0,12.0,wc_12,wc_12,0.0,"[('wc_12', 0.2500000000000001)]",0.2500000000000001,,,38.0,0.00272,['Pass'],Pass,0.2500000000000001,0.0833333333333332,1.0,3.0,0.1
503.0,12.0,wc_12,,0.0,,,,381.0,,,,Pass,,,,,
503.0,12.0,wc_12,wc_4,0.0,"[('wc_4', 0.8600000000000007), ('wc_12', 0.2500000000000001)]",0.8950000000000005,,,32.0,0.004484999999999999,['Pass'],Pass,0.8600000000000007,-0.693333333333334,1.0,6.0,0.5
503.0,12.0,wc_12,,0.0,,,,103.0,,,,Pass,,,,,
503.0,12.0,wc_12,wc_3,1.0,"[('wc_3', 0.3500000000000002), ('wc_12', 0.2500000000000001), ('wc_4', 0.8600000000000007)]",0.9317500000000003,,,34.0,0.040089,['Pass'],Pass,0.3600000000000002,0.1399999999999998,1.0,2.0,0.2
521.0,13.0,wc_13,,0.0,,,,161.0,,,,Pass,,,,,
521.0,13.0,wc_13,,0.0,,,59.0,,,,,Pass,,,,,
521.0,13.0,wc_13,,0.0,,,,0.0,,,,Pass,,,,,
521.0,13.0,wc_13,wc_13,0.0,"[('wc_13', 0.3200000000000002)]",0.3200000000000002,,,37.0,0.002684,['Pass'],Pass,0.3200000000000002,-0.3200000000000002,0.0,4.0,0.1
521.0,13.0,wc_13,,0.0,,,,301.0,,,,Pass,,,,,
521.0,13.0,wc_13,wc_9,0.0,"[('wc_9', 0.8700000000000007), ('wc_13', 0.3200000000000002)]",0.9116000000000005,,,39.0,0.004309,['Pass'],Pass,0.8700000000000007,-0.20333333333333403,2.0,3.0,0.6
521.0,13.0,wc_13,,0.0,,,,182.0,,,,Pass,,,,,
521.0,13.0,wc_13,wc_16,0.0,"[('wc_13', 0.3200000000000002), ('wc_9', 0.8700000000000007)]",0.9116000000000005,,,22.0,0.005899,['Pass'],Pass,0.27000000000000013,-0.27000000000000013,0.0,0.0,0.2
521.0,13.0,wc_13,,0.0,,,,103.0,,,,Pass,,,,,
521.0,13.0,wc_13,wc_15,0.0,"[('wc_13', 0.3200000000000002), ('wc_9', 0.8700000000000007)]",0.9116000000000005,,,22.0,0.00844,['Pass'],Pass,0.6500000000000005,-0.6500000000000005,0.0,3.0,0.4
521.0,13.0,wc_13,,0.0,,,,263.0,,,,Pass,,,,,
521.0,13.0,wc_13,wc_8,1.0,"[('wc_8', 0.7200000000000005), ('wc_13', 0.3200000000000002), ('wc_9', 0.8700000000000007)]",0.9752480000000002,,,33.0,0.04248,['Pass'],Pass,0.7200000000000005,-0.7200000000000005,0.0,0.0,1.0
530.0,16.0,wc_16,,0.0,,,,203.0,,,,Fail,,,,,
530.0,16.0,wc_16,,0.0,,,71.0,,,,,Fail,,,,,
530.0,16.0,wc_16,,0.0,,,,0.0,,,,Fail,,,,,
530.0,16.0,wc_16,wc_16,0.0,"[('wc_16', 0.2600000000000001)]",0.2600000000000001,,,36.0,0.002119,['Pass'],Fail,0.2600000000000001,-0.2600000000000001,0.0,1.0,0.2
530.0,16.0,wc_16,,0.0,,,,41.0,,,,Fail,,,,,
530.0,16.0,wc_16,wc_12,0.0,"[('wc_16', 0.2600000000000001)]",0.2600000000000001,,,32.0,0.00538,['Pass'],Fail,0.2600000000000001,0.1399999999999999,2.0,5.0,0.1
530.0,16.0,wc_16,,0.0,,,,182.0,,,,Fail,,,,,
530.0,16.0,wc_16,wc_6,0.0,"[('wc_6', 0.7600000000000006), ('wc_16', 0.2600000000000001)]",0.8224000000000005,,,37.0,0.0070469999999999994,['Pass'],Fail,0.7600000000000006,-0.6171428571428577,0.0,0.0,0.5
530.0,16.0,wc_16,,0.0,,,,361.0,,,,Fail,,,,,
530.0,16.0,wc_16,wc_5,1.0,"[('wc_5', 0.5300000000000004), ('wc_16', 0.2600000000000001), ('wc_6', 0.7600000000000006)]",0.9165280000000002,,,21.0,0.03899099999999999,['Pass'],Fail,0.5300000000000004,-0.03000000000000036,3.0,6.0,0.3
541.0,16.0,wc_16,,0.0,,,,182.0,,,,Pass,,,,,
541.0,16.0,wc_16,,0.0,,,79.0,,,,,Pass,,,,,
541.0,16.0,wc_16,,0.0,,,,0.0,,,,Pass,,,,,
541.0,16.0,wc_16,wc_16,0.0,"[('wc_16', 0.27000000000000013)]",0.27000000000000013,,,31.0,0.002386,['Fail'],Pass,0.27000000000000013,0.22999999999999987,1.0,2.0,0.2
541.0,16.0,wc_16,,0.0,,,,402.0,,,,Pass,,,,,
541.0,16.0,wc_16,wc_4,0.0,"[('wc_4', 0.8600000000000007)]",0.8600000000000007,,,24.0,0.006388,['Pass'],Pass,0.8600000000000007,-0.6377777777777784,2.0,9.0,0.5
541.0,16.0,wc_16,,0.0,,,,121.0,,,,Pass,,,,,
541.0,16.0,wc_16,wc_12,0.0,"[('wc_4', 0.8600000000000007)]",0.8600000000000007,,,40.0,0.008407999999999999,['Pass'],Pass,0.2600000000000001,0.0733333333333332,2.0,6.0,0.1
541.0,16.0,wc_16,,0.0,,,,361.0,,,,Pass,,,,,
541.0,16.0,wc_16,wc_3,0.0,"[('wc_3', 0.3600000000000002), ('wc_4', 0.8600000000000007)]",0.9104000000000004,,,29.0,0.009239,['Pass'],Pass,0.3600000000000002,-0.11000000000000021,1.0,4.0,0.2
541.0,16.0,wc_16,,0.0,,,,0.0,,,,Pass,,,,,
541.0,16.0,wc_16,wc_5,1.0,"[('wc_5', 0.5300000000000004), ('wc_4', 0.8600000000000007), ('wc_3', 0.3600000000000002)]",0.9578880000000003,,,31.0,0.047013,['Pass'],Pass,0.5400000000000004,0.03142857142857103,4.0,7.0,0.3
554.0,14.0,wc_14,,0.0,,,,141.0,,,,Pass,,,,,
554.0,14.0,wc_14,,0.0,,,57.0,,,,,Pass,,,,,
554.0,14.0,wc_14,,0.0,,,,0.0,,,,Pass,,,,,
554.0,14.0,wc_14,wc_14,0.0,"[('wc_14', 0.6900000000000005)]",0.6900000000000005,,,38.0,0.002065,['Pass'],Pass,0.6900000000000005,-0.6130769230769235,0.0,0.0,0.5
554.0,14.0,wc_14,,0.0,,,,321.0,,,,Pass,,,,,
554.0,14.0,wc_14,wc_11,0.0,"[('wc_14', 0.6900000000000005)]",0.6900000000000005,,,33.0,0.00819,['Pass'],Pass,0.3500000000000002,-0.0642857142857145,2.0,7.0,0.2
554.0,14.0,wc_14,,0.0,,,,322.0,,,,Pass,,,,,
554.0,14.0,wc_14,wc_3,0.0,"[('wc_14', 0.6900000000000005)]",0.6900000000000005,,,24.0,0.006533,['Pass'],Pass,0.3700000000000002,0.029999999999999805,2.0,5.0,0.2
554.0,14.0,wc_14,,0.0,,,,162.0,,,,Pass,,,,,
554.0,14.0,wc_14,wc_9,0.0,"[('wc_9', 0.8700000000000007), ('wc_14', 0.6900000000000005)]",0.9597000000000002,,,25.0,0.009323000000000001,['Pass'],Pass,0.8700000000000007,-0.37000000000000066,3.0,6.0,0.6
554.0,14.0,wc_14,,0.0,,,,182.0,,,,Pass,,,,,
554.0,14.0,wc_14,wc_16,0.0,"[('wc_14', 0.6900000000000005), ('wc_9', 0.8700000000000007)]",0.9597000000000002,,,29.0,0.011957999999999998,['Pass'],Pass,0.27000000000000013,0.06333333333333319,1.0,3.0,0.2
554.0,14.0,wc_14,,0.0,,,,203.0,,,,Pass,,,,,
554.0,14.0,wc_14,wc_6,0.0,"[('wc_14', 0.6900000000000005), ('wc_9', 0.8700000000000007)]",0.9597000000000002,,,23.0,0.013781000000000002,['Pass'],Pass,0.7700000000000006,-0.2700000000000006,1.0,2.0,0.5
554.0,14.0,wc_14,,0.0,,,,0.0,,,,Pass,,,,,
554.0,14.0,wc_14,wc_7,1.0,"[('wc_7', 0.7500000000000006), ('wc_14', 0.6900000000000005), ('wc_9', 0.8700000000000007)]",0.989925,,,33.0,0.046665,['Pass'],Pass,0.7500000000000006,-0.5277777777777783,2.0,9.0,0.9
581.0,15.0,wc_15,,0.0,,,,203.0,,,,Fail,,,,,
581.0,15.0,wc_15,,0.0,,,52.0,,,,,Fail,,,,,
581.0,15.0,wc_15,,0.0,,,,0.0,,,,Fail,,,,,
581.0,15.0,wc_15,wc_15,0.0,"[('wc_15', 0.6400000000000005)]",0.6400000000000005,,,33.0,0.00214,['Fail'],Fail,0.6400000000000005,-0.6400000000000005,0.0,7.0,0.4
581.0,15.0,wc_15,,0.0,,,,0.0,,,,Fail,,,,,
581.0,15.0,wc_15,wc_17,0.0,"[('wc_17', 0.17000000000000004), ('wc_15', 0.6400000000000005)]",0.7012000000000004,,,20.0,0.009288999999999999,['Fail'],Fail,0.17000000000000004,-0.17000000000000004,0.0,7.0,0.1
581.0,15.0,wc_15,,0.0,,,,183.0,,,,Fail,,,,,
581.0,15.0,wc_15,wc_6,0.0,"[('wc_6', 0.7600000000000006)]",0.7600000000000006,,,29.0,0.008055,['Pass'],Fail,0.7600000000000006,-0.42666666666666725,1.0,3.0,0.5
581.0,15.0,wc_15,,0.0,,,,0.0,,,,Fail,,,,,
581.0,15.0,wc_15,wc_9,1.0,"[('wc_9', 0.8700000000000007), ('wc_15', 0.6400000000000005), ('wc_17', 0.17000000000000004)]",0.9611560000000002,,,39.0,0.05282999999999999,['Fail'],Fail,0.8700000000000007,-0.24500000000000066,5.0,8.0,0.6
609.0,14.0,wc_14,,0.0,,,,141.0,,,,Fail,,,,,
609.0,14.0,wc_14,,0.0,,,71.0,,,,,Fail,,,,,
609.0,14.0,wc_14,,0.0,,,,0.0,,,,Fail,,,,,
609.0,14.0,wc_14,wc_14,0.0,"[('wc_14', 0.7000000000000005)]",0.7000000000000005,,,28.0,0.002208,['Pass'],Fail,0.7000000000000005,-0.2000000000000005,1.0,2.0,0.5
609.0,14.0,wc_14,,0.0,,,,0.0,,,,Fail,,,,,
609.0,14.0,wc_14,wc_15,0.0,"[('wc_14', 0.7000000000000005)]",0.7000000000000005,,,30.0,0.004058,['Pass'],Fail,0.6400000000000005,-0.5150000000000005,1.0,8.0,0.4
609.0,14.0,wc_14,,0.0,,,,0.0,,,,Fail,,,,,
609.0,14.0,wc_14,wc_17,0.0,"[('wc_17', 0.17000000000000004), ('wc_14', 0.7000000000000005)]",0.7510000000000004,,,26.0,0.0068850000000000005,['Pass'],Fail,0.17000000000000004,-0.04500000000000004,1.0,8.0,0.1
609.0,14.0,wc_14,,0.0,,,,203.0,,,,Fail,,,,,
609.0,14.0,wc_14,wc_7,0.0,"[('wc_7', 0.7500000000000006), ('wc_15', 0.6400000000000005)]",0.9100000000000004,,,32.0,0.009044,['Fail'],Fail,0.7500000000000006,-0.5500000000000005,0.0,0.0,0.9
609.0,14.0,wc_14,,0.0,,,,162.0,,,,Fail,,,,,
609.0,14.0,wc_14,wc_13,0.0,"[('wc_15', 0.6400000000000005), ('wc_7', 0.7500000000000006)]",0.9100000000000004,,,28.0,0.010673000000000002,['Fail'],Fail,0.3200000000000002,-0.20888888888888907,1.0,9.0,0.1
609.0,14.0,wc_14,,0.0,,,,361.0,,,,Fail,,,,,
609.0,14.0,wc_14,wc_4,1.0,"[('wc_4', 0.8600000000000007), ('wc_14', 0.7000000000000005), ('wc_17', 0.17000000000000004), ('wc_13', 0.3200000000000002)]",0.9762952000000001,,,35.0,0.045834,['Pass'],Fail,0.8600000000000007,-0.5266666666666673,1.0,3.0,0.5
630.0,15.0,wc_15,,0.0,,,,182.0,,,,Pass,,,,,
630.0,15.0,wc_15,,0.0,,,78.0,,,,,Pass,,,,,
630.0,15.0,wc_15,,0.0,,,,0.0,,,,Pass,,,,,
630.0,15.0,wc_15,wc_15,0.0,"[('wc_15', 0.6300000000000004)]",0.6300000000000004,,,29.0,0.008336,['Pass'],Pass,0.6300000000000004,-0.5188888888888894,1.0,9.0,0.4
630.0,15.0,wc_15,,0.0,,,,303.0,,,,Pass,,,,,
630.0,15.0,wc_15,wc_2,0.0,"[('wc_2', 0.7800000000000006), ('wc_15', 0.6300000000000004)]",0.9186000000000003,,,34.0,0.003991,['Pass'],Pass,0.7800000000000006,-0.7300000000000005,0.0,0.0,1.0
630.0,15.0,wc_15,,0.0,,,,142.0,,,,Pass,,,,,
630.0,15.0,wc_15,wc_7,1.0,"[('wc_7', 0.7400000000000005), ('wc_15', 0.6300000000000004), ('wc_2', 0.7800000000000006)]",0.9788360000000002,,,28.0,0.041575,['Pass'],Pass,0.7400000000000005,-0.24000000000000055,1.0,2.0,0.9
655.0,14.0,wc_14,,0.0,,,,182.0,,,,Pass,,,,,
655.0,14.0,wc_14,,0.0,,,61.0,,,,,Pass,,,,,
655.0,14.0,wc_14,,0.0,,,,0.0,,,,Pass,,,,,
655.0,14.0,wc_14,wc_14,0.0,"[('wc_14', 0.7000000000000005)]",0.7000000000000005,,,23.0,0.002214,['Pass'],Pass,0.7000000000000005,-0.2000000000000005,2.0,4.0,0.5
655.0,14.0,wc_14,,0.0,,,,222.0,,,,Pass,,,,,
655.0,14.0,wc_14,wc_2,0.0,"[('wc_2', 0.7900000000000006), ('wc_14', 0.7000000000000005)]",0.9370000000000003,,,38.0,0.006495,['Pass'],Pass,0.7900000000000006,0.2099999999999994,1.0,1.0,1.0
655.0,14.0,wc_14,,0.0,,,,162.0,,,,Pass,,,,,
655.0,14.0,wc_14,wc_12,0.0,"[('wc_14', 0.7000000000000005), ('wc_2', 0.7900000000000006)]",0.9370000000000003,,,26.0,0.005757,['Pass'],Pass,0.2600000000000001,-0.0781818181818183,0.0,0.0,0.1
655.0,14.0,wc_14,,0.0,,,,341.0,,,,Pass,,,,,
655.0,14.0,wc_14,wc_10,1.0,"[('wc_10', 0.7300000000000005), ('wc_14', 0.7000000000000005), ('wc_2', 0.7900000000000006)]",0.9829900000000001,,,32.0,0.041264,['Pass'],Pass,0.7300000000000005,-0.7300000000000005,0.0,0.0,0.6
665.0,17.0,wc_17,,0.0,,,,182.0,,,,Fail,,,,,
665.0,17.0,wc_17,,0.0,,,78.0,,,,,Fail,,,,,
665.0,17.0,wc_17,,0.0,,,,0.0,,,,Fail,,,,,
665.0,17.0,wc_17,wc_17,0.0,"[('wc_17', 0.18000000000000005)]",0.18000000000000005,,,28.0,0.002239,['Fail'],Fail,0.18000000000000005,0.0018181818181817744,0.0,0.0,0.1
665.0,17.0,wc_17,,0.0,,,,382.0,,,,Fail,,,,,
665.0,17.0,wc_17,wc_4,0.0,"[('wc_4', 0.8600000000000007), ('wc_17', 0.18000000000000005)]",0.8852000000000005,,,36.0,0.004125,['Fail'],Fail,0.8600000000000007,-0.6600000000000006,1.0,5.0,0.5
665.0,17.0,wc_17,,0.0,,,,103.0,,,,Fail,,,,,
665.0,17.0,wc_17,wc_3,1.0,"[('wc_3', 0.3600000000000002), ('wc_17', 0.18000000000000005), ('wc_4', 0.8600000000000007)]",0.9265280000000004,,,32.0,0.04514800000000001,['Fail'],Fail,0.3600000000000002,-0.3600000000000002,0.0,0.0,0.2
678.0,17.0,wc_17,,0.0,,,,242.0,,,,Pass,,,,,
678.0,17.0,wc_17,,0.0,,,79.0,,,,,Pass,,,,,
678.0,17.0,wc_17,,0.0,,,,0.0,,,,Pass,,,,,
678.0,17.0,wc_17,wc_17,0.0,"[('wc_17', 0.19000000000000006)]",0.19000000000000006,,,30.0,0.002363,['Fail'],Pass,0.19000000000000006,0.8099999999999999,1.0,1.0,0.1
678.0,17.0,wc_17,,0.0,,,,382.0,,,,Pass,,,,,
678.0,17.0,wc_17,wc_4,0.0,"[('wc_4', 0.8600000000000007), ('wc_17', 0.19000000000000006)]",0.8866000000000005,,,39.0,0.010284000000000001,['Fail'],Pass,0.8600000000000007,-0.5266666666666673,2.0,6.0,0.5
678.0,17.0,wc_17,,0.0,,,,121.0,,,,Pass,,,,,
678.0,17.0,wc_17,wc_8,0.0,"[('wc_17', 0.19000000000000006), ('wc_4', 0.8600000000000007)]",0.8866000000000005,,,20.0,0.00699,['Fail'],Pass,0.7200000000000005,-0.7200000000000005,0.0,8.0,1.0
678.0,17.0,wc_17,,0.0,,,,182.0,,,,Pass,,,,,
678.0,17.0,wc_17,wc_2,0.0,"[('wc_2', 0.8000000000000006), ('wc_8', 0.7200000000000005)]",0.9440000000000003,,,40.0,0.008119000000000001,['Pass'],Pass,0.8000000000000006,-0.13333333333333397,2.0,3.0,1.0
678.0,17.0,wc_17,,0.0,,,,243.0,,,,Pass,,,,,
678.0,17.0,wc_17,wc_16,1.0,"[('wc_16', 0.2600000000000001), ('wc_8', 0.7200000000000005), ('wc_2', 0.8000000000000006)]",0.9585600000000002,,,35.0,0.045601,['Pass'],Pass,0.2600000000000001,-0.2600000000000001,0.0,0.0,0.2
