mpecck/BCQC/bcqc_with_qdt/results/raw/input_14/independent_qc/training/20_workpiece/20200429_095223/wp_5_qc_majority_0.9.csv
production_index,step_idx,production_workcell,qc,consent,winner_qc_list,score,production_time,transport_time,inspection_time,network_time,qc_results,actual_quality,qc_score,score_error,in_winner_counter,in_qc_counter,qc_capability
10.0,1.0,wc_1,,0.0,,,69.0,,,,,Fail,,,,,
10.0,1.0,wc_1,,0.0,,,,0.0,,,,Fail,,,,,
10.0,1.0,wc_1,wc_1,0.0,"[('wc_1', 0.20000000000000007)]",0.20000000000000007,,,29.0,0.002133,['Fail'],Fail,0.20000000000000007,-0.018181818181818243,0.0,0.0,0.1
10.0,1.0,wc_1,,0.0,,,,223.0,,,,Fail,,,,,
10.0,1.0,wc_1,wc_10,0.0,"[('wc_10', 0.4700000000000003), ('wc_1', 0.20000000000000007)]",0.5760000000000003,,,28.0,0.004483,['Fail'],Fail,0.4700000000000003,-0.2700000000000003,0.0,0.0,0.6
10.0,1.0,wc_1,,0.0,,,,142.0,,,,Fail,,,,,
10.0,1.0,wc_1,wc_15,0.0,"[('wc_15', 0.5400000000000004), ('wc_1', 0.20000000000000007), ('wc_10', 0.4700000000000003)]",0.8049600000000003,,,37.0,0.006353,['Fail'],Fail,0.5400000000000004,-0.04000000000000037,4.0,8.0,0.4
10.0,1.0,wc_1,,0.0,,,,101.0,,,,Fail,,,,,
10.0,1.0,wc_1,wc_14,1.0,"[('wc_14', 0.5100000000000003), ('wc_1', 0.20000000000000007), ('wc_10', 0.4700000000000003), ('wc_15', 0.5400000000000004)]",0.9044304000000002,,,30.0,0.043286000000000005,['Fail'],Fail,0.5200000000000004,0.47999999999999965,2.0,2.0,0.5
99.0,1.0,wc_1,,0.0,,,,202.0,,,,Pass,,,,,
99.0,1.0,wc_1,,0.0,,,61.0,,,,,Pass,,,,,
99.0,1.0,wc_1,,0.0,,,,0.0,,,,Pass,,,,,
99.0,1.0,wc_1,wc_1,0.0,"[('wc_1', 0.21000000000000008)]",0.21000000000000008,,,39.0,0.002336,['Pass'],Pass,0.21000000000000008,0.7899999999999999,1.0,1.0,0.1
99.0,1.0,wc_1,,0.0,,,,182.0,,,,Pass,,,,,
99.0,1.0,wc_1,wc_12,0.0,"[('wc_12', 0.3500000000000002)]",0.3500000000000002,,,37.0,0.0042439999999999995,['Fail'],Pass,0.3500000000000002,-0.18333333333333354,1.0,6.0,0.1
99.0,1.0,wc_1,,0.0,,,,262.0,,,,Pass,,,,,
99.0,1.0,wc_1,wc_2,0.0,"[('wc_2', 0.6400000000000005), ('wc_1', 0.21000000000000008)]",0.7156000000000005,,,30.0,0.006166,['Pass'],Pass,0.6400000000000005,-0.24000000000000044,2.0,5.0,1.0
99.0,1.0,wc_1,,0.0,,,,202.0,,,,Pass,,,,,
99.0,1.0,wc_1,wc_14,0.0,"[('wc_14', 0.5200000000000004), ('wc_1', 0.21000000000000008), ('wc_2', 0.6400000000000005)]",0.8634880000000003,,,24.0,0.007474,['Pass'],Pass,0.5200000000000004,0.47999999999999965,2.0,2.0,0.5
99.0,1.0,wc_1,,0.0,,,,321.0,,,,Pass,,,,,
99.0,1.0,wc_1,wc_11,1.0,"[('wc_11', 0.3500000000000002), ('wc_1', 0.21000000000000008), ('wc_2', 0.6400000000000005), ('wc_14', 0.5200000000000004)]",0.9112672000000002,,,39.0,0.04068200000000001,['Pass'],Pass,0.3500000000000002,-0.016666666666666885,2.0,6.0,0.2
108.0,4.0,wc_4,,0.0,,,,342.0,,,,Pass,,,,,
108.0,4.0,wc_4,,0.0,,,55.0,,,,,Pass,,,,,
108.0,4.0,wc_4,,0.0,,,,0.0,,,,Pass,,,,,
108.0,4.0,wc_4,wc_4,0.0,"[('wc_4', 0.5800000000000004)]",0.5800000000000004,,,24.0,0.002253,['Pass'],Pass,0.5800000000000004,-0.2466666666666671,1.0,3.0,0.5
108.0,4.0,wc_4,,0.0,,,,162.0,,,,Pass,,,,,
108.0,4.0,wc_4,wc_10,0.0,"[('wc_10', 0.4800000000000003), ('wc_4', 0.5800000000000004)]",0.7816000000000003,,,29.0,0.004092,['Pass'],Pass,0.4800000000000003,0.019999999999999685,1.0,2.0,0.6
108.0,4.0,wc_4,,0.0,,,,162.0,,,,Pass,,,,,
108.0,4.0,wc_4,wc_16,0.0,"[('wc_4', 0.5800000000000004), ('wc_10', 0.4800000000000003)]",0.7816000000000003,,,25.0,0.006299,['Pass'],Pass,0.3200000000000002,-0.047272727272727466,0.0,0.0,0.2
108.0,4.0,wc_4,,0.0,,,,283.0,,,,Pass,,,,,
108.0,4.0,wc_4,wc_2,1.0,"[('wc_2', 0.6400000000000005), ('wc_4', 0.5800000000000004), ('wc_10', 0.4800000000000003)]",0.9213760000000002,,,22.0,0.043179,['Pass'],Pass,0.6400000000000005,-0.06857142857142906,4.0,7.0,1.0
121.0,2.0,wc_2,,0.0,,,,0.0,,,,Fail,,,,,
121.0,2.0,wc_2,,0.0,,,70.0,,,,,Fail,,,,,
121.0,2.0,wc_2,,0.0,,,,0.0,,,,Fail,,,,,
121.0,2.0,wc_2,wc_2,0.0,"[('wc_2', 0.6400000000000005)]",0.6400000000000005,,,22.0,0.002135,['Fail'],Fail,0.6400000000000005,-0.06857142857142906,4.0,7.0,1.0
121.0,2.0,wc_2,,0.0,,,,0.0,,,,Fail,,,,,
121.0,2.0,wc_2,wc_3,0.0,"[('wc_2', 0.6400000000000005)]",0.6400000000000005,,,32.0,0.004091,['Fail'],Fail,0.30000000000000016,-0.30000000000000016,0.0,5.0,0.2
121.0,2.0,wc_2,,0.0,,,,0.0,,,,Fail,,,,,
121.0,2.0,wc_2,wc_4,0.0,"[('wc_4', 0.5800000000000004), ('wc_2', 0.6400000000000005)]",0.8488000000000003,,,31.0,0.006229,['Fail'],Fail,0.5800000000000004,-0.0800000000000004,2.0,4.0,0.5
121.0,2.0,wc_2,,0.0,,,,182.0,,,,Fail,,,,,
121.0,2.0,wc_2,wc_11,1.0,"[('wc_11', 0.3500000000000002), ('wc_2', 0.6400000000000005), ('wc_4', 0.5800000000000004)]",0.9017200000000003,,,28.0,0.043391,['Fail'],Fail,0.3600000000000002,0.014999999999999791,3.0,8.0,0.2
128.0,2.0,wc_2,,0.0,,,,223.0,,,,Fail,,,,,
128.0,2.0,wc_2,,0.0,,,55.0,,,,,Fail,,,,,
128.0,2.0,wc_2,,0.0,,,,0.0,,,,Fail,,,,,
128.0,2.0,wc_2,wc_2,0.0,"[('wc_2', 0.6400000000000005)]",0.6400000000000005,,,29.0,0.003904,['Fail'],Fail,0.6400000000000005,-0.015000000000000457,5.0,8.0,1.0
128.0,2.0,wc_2,,0.0,,,,223.0,,,,Fail,,,,,
128.0,2.0,wc_2,wc_11,0.0,"[('wc_11', 0.3600000000000002), ('wc_2', 0.6400000000000005)]",0.7696000000000004,,,37.0,0.006227,['Fail'],Fail,0.3600000000000002,0.014999999999999791,3.0,8.0,0.2
128.0,2.0,wc_2,,0.0,,,,103.0,,,,Fail,,,,,
128.0,2.0,wc_2,wc_10,0.0,"[('wc_2', 0.6400000000000005), ('wc_11', 0.3600000000000002)]",0.7696000000000004,,,22.0,0.006631,['Fail'],Fail,0.4900000000000003,0.009999999999999676,2.0,4.0,0.6
128.0,2.0,wc_2,,0.0,,,,342.0,,,,Fail,,,,,
128.0,2.0,wc_2,wc_3,0.0,"[('wc_3', 0.29000000000000015), ('wc_2', 0.6400000000000005), ('wc_11', 0.3600000000000002)]",0.8364160000000003,,,29.0,0.007575,['Fail'],Fail,0.29000000000000015,-0.29000000000000015,0.0,6.0,0.2
128.0,2.0,wc_2,,0.0,,,,242.0,,,,Fail,,,,,
128.0,2.0,wc_2,wc_17,0.0,"[('wc_2', 0.6400000000000005), ('wc_11', 0.3600000000000002), ('wc_3', 0.29000000000000015)]",0.8364160000000003,,,35.0,0.011047999999999999,['Fail'],Fail,0.15000000000000002,-0.15000000000000002,0.0,6.0,0.1
128.0,2.0,wc_2,,0.0,,,,183.0,,,,Fail,,,,,
128.0,2.0,wc_2,wc_6,1.0,"[('wc_6', 0.5600000000000004), ('wc_2', 0.6400000000000005), ('wc_11', 0.3600000000000002), ('wc_3', 0.29000000000000015)]",0.9280230400000002,,,34.0,0.047408,['Fail'],Fail,0.5600000000000004,-0.3100000000000004,2.0,8.0,0.5
148.0,2.0,wc_2,,0.0,,,,222.0,,,,Fail,,,,,
148.0,2.0,wc_2,,0.0,,,62.0,,,,,Fail,,,,,
148.0,2.0,wc_2,,0.0,,,,0.0,,,,Fail,,,,,
148.0,2.0,wc_2,wc_2,0.0,"[('wc_2', 0.6500000000000005)]",0.6500000000000005,,,28.0,0.002054,['Fail'],Fail,0.6500000000000005,0.016666666666666163,6.0,9.0,1.0
148.0,2.0,wc_2,,0.0,,,,263.0,,,,Fail,,,,,
148.0,2.0,wc_2,wc_17,0.0,"[('wc_2', 0.6500000000000005)]",0.6500000000000005,,,22.0,0.00398,['Fail'],Fail,0.14,-0.14,0.0,7.0,0.1
148.0,2.0,wc_2,,0.0,,,,382.0,,,,Fail,,,,,
148.0,2.0,wc_2,wc_4,0.0,"[('wc_4', 0.5900000000000004), ('wc_2', 0.6500000000000005)]",0.8565000000000004,,,40.0,0.007187,['Fail'],Fail,0.5900000000000004,-0.09000000000000041,3.0,6.0,0.5
148.0,2.0,wc_2,,0.0,,,,202.0,,,,Fail,,,,,
148.0,2.0,wc_2,wc_16,0.0,"[('wc_2', 0.6500000000000005), ('wc_4', 0.5900000000000004)]",0.8565000000000004,,,32.0,0.007593,['Fail'],Fail,0.31000000000000016,-0.31000000000000016,0.0,3.0,0.2
148.0,2.0,wc_2,,0.0,,,,243.0,,,,Fail,,,,,
148.0,2.0,wc_2,wc_8,1.0,"[('wc_8', 0.4800000000000003), ('wc_2', 0.6500000000000005), ('wc_4', 0.5900000000000004)]",0.9253800000000002,,,28.0,0.046157,['Fail'],Fail,0.4800000000000003,-0.4800000000000003,0.0,0.0,1.0
159.0,3.0,wc_3,,0.0,,,,281.0,,,,Fail,,,,,
159.0,3.0,wc_3,,0.0,,,50.0,,,,,Fail,,,,,
159.0,3.0,wc_3,,0.0,,,,0.0,,,,Fail,,,,,
159.0,3.0,wc_3,wc_3,0.0,"[('wc_3', 0.29000000000000015)]",0.29000000000000015,,,34.0,0.003025,['Fail'],Fail,0.29000000000000015,-0.16500000000000015,1.0,8.0,0.2
159.0,3.0,wc_3,,0.0,,,,141.0,,,,Fail,,,,,
159.0,3.0,wc_3,wc_8,0.0,"[('wc_8', 0.4800000000000003), ('wc_3', 0.29000000000000015)]",0.6308000000000002,,,29.0,0.0045000000000000005,['Fail'],Fail,0.4800000000000003,-0.4800000000000003,0.0,0.0,1.0
159.0,3.0,wc_3,,0.0,,,,122.0,,,,Fail,,,,,
159.0,3.0,wc_3,wc_12,0.0,"[('wc_3', 0.29000000000000015), ('wc_8', 0.4800000000000003)]",0.6308000000000002,,,37.0,0.006352,['Fail'],Fail,0.3400000000000002,-0.24909090909090928,0.0,0.0,0.1
159.0,3.0,wc_3,,0.0,,,,401.0,,,,Fail,,,,,
159.0,3.0,wc_3,wc_5,0.0,"[('wc_3', 0.29000000000000015), ('wc_8', 0.4800000000000003)]",0.6308000000000002,,,20.0,0.008798,['Fail'],Fail,0.3300000000000002,-0.27117647058823546,0.0,0.0,0.3
159.0,3.0,wc_3,,0.0,,,,122.0,,,,Fail,,,,,
159.0,3.0,wc_3,wc_9,0.0,"[('wc_9', 0.6100000000000004), ('wc_3', 0.29000000000000015), ('wc_8', 0.4800000000000003)]",0.8560120000000002,,,31.0,0.009073,['Fail'],Fail,0.6100000000000004,-0.5190909090909095,0.0,0.0,0.6
159.0,3.0,wc_3,,0.0,,,,121.0,,,,Fail,,,,,
159.0,3.0,wc_3,wc_13,0.0,"[('wc_3', 0.29000000000000015), ('wc_8', 0.4800000000000003), ('wc_9', 0.6100000000000004)]",0.8560120000000002,,,37.0,0.012152,['Fail'],Fail,0.14,0.026666666666666644,0.0,0.0,0.1
159.0,3.0,wc_3,,0.0,,,,0.0,,,,Fail,,,,,
159.0,3.0,wc_3,wc_16,0.0,"[('wc_16', 0.30000000000000016), ('wc_3', 0.29000000000000015), ('wc_8', 0.4800000000000003), ('wc_9', 0.6100000000000004)]",0.8992084000000002,,,39.0,0.013363,['Fail'],Fail,0.30000000000000016,-0.30000000000000016,0.0,4.0,0.2
159.0,3.0,wc_3,,0.0,,,,223.0,,,,Fail,,,,,
159.0,3.0,wc_3,wc_7,1.0,"[('wc_7', 0.6200000000000004), ('wc_3', 0.29000000000000015), ('wc_8', 0.4800000000000003), ('wc_9', 0.6100000000000004), ('wc_16', 0.30000000000000016)]",0.9616991920000001,,,25.0,0.046364,['Fail'],Fail,0.6200000000000004,-0.39777777777777823,2.0,9.0,0.9
175.0,3.0,wc_3,,0.0,,,,301.0,,,,Fail,,,,,
175.0,3.0,wc_3,,0.0,,,67.0,,,,,Fail,,,,,
175.0,3.0,wc_3,,0.0,,,,0.0,,,,Fail,,,,,
175.0,3.0,wc_3,wc_3,0.0,"[('wc_3', 0.29000000000000015)]",0.29000000000000015,,,20.0,0.002234,['Pass'],Fail,0.29000000000000015,-0.06777777777777794,2.0,9.0,0.2
175.0,3.0,wc_3,,0.0,,,,121.0,,,,Fail,,,,,
175.0,3.0,wc_3,wc_7,0.0,"[('wc_7', 0.6200000000000004)]",0.6200000000000004,,,20.0,0.004679,['Fail'],Fail,0.6200000000000004,-0.39777777777777823,2.0,9.0,0.9
175.0,3.0,wc_3,,0.0,,,,0.0,,,,Fail,,,,,
175.0,3.0,wc_3,wc_10,0.0,"[('wc_10', 0.4800000000000003), ('wc_7', 0.6200000000000004)]",0.8024000000000003,,,21.0,0.007471,['Fail'],Fail,0.4800000000000003,-0.19428571428571462,2.0,7.0,0.6
175.0,3.0,wc_3,,0.0,,,,162.0,,,,Fail,,,,,
175.0,3.0,wc_3,wc_16,0.0,"[('wc_7', 0.6200000000000004), ('wc_10', 0.4800000000000003)]",0.8024000000000003,,,37.0,0.008117000000000001,['Fail'],Fail,0.30000000000000016,-0.10000000000000014,1.0,5.0,0.2
175.0,3.0,wc_3,,0.0,,,,382.0,,,,Fail,,,,,
175.0,3.0,wc_3,wc_11,0.0,"[('wc_7', 0.6200000000000004), ('wc_10', 0.4800000000000003)]",0.8024000000000003,,,26.0,0.010260000000000002,['Fail'],Fail,0.3700000000000002,-0.006363636363636571,0.0,0.0,0.2
175.0,3.0,wc_3,,0.0,,,,21.0,,,,Fail,,,,,
175.0,3.0,wc_3,wc_6,0.0,"[('wc_6', 0.5600000000000004), ('wc_3', 0.29000000000000015), ('wc_16', 0.30000000000000016), ('wc_11', 0.3700000000000002)]",0.8622316000000002,,,31.0,0.011294,['Pass'],Fail,0.5600000000000004,-0.3600000000000004,0.0,0.0,0.5
175.0,3.0,wc_3,,0.0,,,,222.0,,,,Fail,,,,,
175.0,3.0,wc_3,wc_2,1.0,"[('wc_2', 0.6600000000000005), ('wc_7', 0.6200000000000004), ('wc_10', 0.4800000000000003)]",0.9328160000000002,,,23.0,0.046738,['Fail'],Fail,0.6600000000000005,-0.16000000000000048,1.0,2.0,1.0
186.0,2.0,wc_2,,0.0,,,,0.0,,,,Pass,,,,,
186.0,2.0,wc_2,,0.0,,,66.0,,,,,Pass,,,,,
186.0,2.0,wc_2,,0.0,,,,0.0,,,,Pass,,,,,
186.0,2.0,wc_2,wc_2,0.0,"[('wc_2', 0.6600000000000005)]",0.6600000000000005,,,33.0,0.002807,['Pass'],Pass,0.6600000000000005,-0.16000000000000048,1.0,2.0,1.0
186.0,2.0,wc_2,,0.0,,,,0.0,,,,Pass,,,,,
186.0,2.0,wc_2,wc_3,0.0,"[('wc_3', 0.28000000000000014), ('wc_2', 0.6600000000000005)]",0.7552000000000004,,,27.0,0.005151,['Pass'],Pass,0.28000000000000014,-0.28000000000000014,0.0,0.0,0.2
186.0,2.0,wc_2,,0.0,,,,0.0,,,,Pass,,,,,
186.0,2.0,wc_2,wc_4,0.0,"[('wc_4', 0.5900000000000004), ('wc_2', 0.6600000000000005), ('wc_3', 0.28000000000000014)]",0.8996320000000002,,,31.0,0.0077269999999999995,['Pass'],Pass,0.5900000000000004,-0.145555555555556,4.0,9.0,0.5
186.0,2.0,wc_2,,0.0,,,,182.0,,,,Pass,,,,,
186.0,2.0,wc_2,wc_11,0.0,"[('wc_2', 0.6600000000000005), ('wc_3', 0.28000000000000014), ('wc_4', 0.5900000000000004)]",0.8996320000000002,,,22.0,0.008489,['Pass'],Pass,0.3600000000000002,-0.3600000000000002,0.0,1.0,0.2
186.0,2.0,wc_2,,0.0,,,,61.0,,,,Pass,,,,,
186.0,2.0,wc_2,wc_12,0.0,"[('wc_2', 0.6600000000000005), ('wc_3', 0.28000000000000014), ('wc_4', 0.5900000000000004)]",0.8996320000000002,,,27.0,0.009856,['Pass'],Pass,0.3300000000000002,-0.3300000000000002,0.0,2.0,0.1
186.0,2.0,wc_2,,0.0,,,,0.0,,,,Pass,,,,,
186.0,2.0,wc_2,wc_14,1.0,"[('wc_14', 0.5300000000000004), ('wc_2', 0.6600000000000005), ('wc_3', 0.28000000000000014), ('wc_4', 0.5900000000000004)]",0.9528270400000002,,,21.0,0.04422,['Pass'],Pass,0.5300000000000004,-0.5300000000000004,0.0,0.0,0.5
252.0,3.0,wc_3,,0.0,,,,321.0,,,,Fail,,,,,
252.0,3.0,wc_3,,0.0,,,65.0,,,,,Fail,,,,,
252.0,3.0,wc_3,,0.0,,,,0.0,,,,Fail,,,,,
252.0,3.0,wc_3,wc_3,0.0,"[('wc_3', 0.29000000000000015)]",0.29000000000000015,,,38.0,0.002328,['Fail'],Fail,0.29000000000000015,0.7099999999999999,1.0,1.0,0.2
252.0,3.0,wc_3,,0.0,,,,182.0,,,,Fail,,,,,
252.0,3.0,wc_3,wc_10,0.0,"[('wc_10', 0.4800000000000003), ('wc_3', 0.29000000000000015)]",0.6308000000000002,,,39.0,0.004423,['Fail'],Fail,0.4800000000000003,-0.146666666666667,3.0,9.0,0.6
252.0,3.0,wc_3,,0.0,,,,81.0,,,,Fail,,,,,
252.0,3.0,wc_3,wc_8,0.0,"[('wc_8', 0.4900000000000003), ('wc_3', 0.29000000000000015), ('wc_10', 0.4800000000000003)]",0.8117080000000003,,,31.0,0.006872,['Fail'],Fail,0.4900000000000003,-0.156666666666667,1.0,3.0,1.0
252.0,3.0,wc_3,,0.0,,,,223.0,,,,Fail,,,,,
252.0,3.0,wc_3,wc_17,0.0,"[('wc_3', 0.29000000000000015), ('wc_10', 0.4800000000000003), ('wc_8', 0.4900000000000003)]",0.8117080000000003,,,36.0,0.008435999999999999,['Fail'],Fail,0.13,-0.13,0.0,0.0,0.1
252.0,3.0,wc_3,,0.0,,,,21.0,,,,Fail,,,,,
252.0,3.0,wc_3,wc_12,0.0,"[('wc_3', 0.29000000000000015), ('wc_10', 0.4800000000000003), ('wc_8', 0.4900000000000003)]",0.8117080000000003,,,25.0,0.010918999999999998,['Fail'],Fail,0.3200000000000002,-0.3200000000000002,0.0,3.0,0.1
252.0,3.0,wc_3,,0.0,,,,262.0,,,,Fail,,,,,
252.0,3.0,wc_3,wc_2,1.0,"[('wc_2', 0.6600000000000005), ('wc_3', 0.29000000000000015), ('wc_10', 0.4800000000000003), ('wc_8', 0.4900000000000003)]",0.9359807200000002,,,29.0,0.04310599999999999,['Fail'],Fail,0.6700000000000005,0.07999999999999952,3.0,4.0,1.0
296.0,3.0,wc_3,,0.0,,,,0.0,,,,Pass,,,,,
296.0,3.0,wc_3,,0.0,,,60.0,,,,,Pass,,,,,
296.0,3.0,wc_3,,0.0,,,,0.0,,,,Pass,,,,,
296.0,3.0,wc_3,wc_3,0.0,"[('wc_3', 0.30000000000000016)]",0.30000000000000016,,,22.0,0.002909,['Fail'],Pass,0.30000000000000016,0.6999999999999998,2.0,2.0,0.2
296.0,3.0,wc_3,,0.0,,,,222.0,,,,Pass,,,,,
296.0,3.0,wc_3,wc_16,0.0,"[('wc_16', 0.29000000000000015), ('wc_3', 0.30000000000000016)]",0.5030000000000002,,,32.0,0.004436000000000001,['Fail'],Pass,0.29000000000000015,-0.16500000000000015,1.0,8.0,0.2
296.0,3.0,wc_3,,0.0,,,,342.0,,,,Pass,,,,,
296.0,3.0,wc_3,wc_9,0.0,"[('wc_9', 0.6200000000000004)]",0.6200000000000004,,,22.0,0.006467999999999999,['Pass'],Pass,0.6200000000000004,-0.37000000000000044,1.0,4.0,0.6
296.0,3.0,wc_3,,0.0,,,,121.0,,,,Pass,,,,,
296.0,3.0,wc_3,wc_13,0.0,"[('wc_9', 0.6200000000000004)]",0.6200000000000004,,,29.0,0.00907,['Pass'],Pass,0.13,-0.13,0.0,4.0,0.1
296.0,3.0,wc_3,,0.0,,,,0.0,,,,Pass,,,,,
296.0,3.0,wc_3,wc_17,0.0,"[('wc_9', 0.6200000000000004)]",0.6200000000000004,,,29.0,0.010033,['Pass'],Pass,0.12000000000000001,-0.12000000000000001,0.0,1.0,0.1
296.0,3.0,wc_3,,0.0,,,,342.0,,,,Pass,,,,,
296.0,3.0,wc_3,wc_10,0.0,"[('wc_10', 0.4800000000000003), ('wc_9', 0.6200000000000004)]",0.8024000000000003,,,25.0,0.011770999999999998,['Pass'],Pass,0.4800000000000003,-0.4800000000000003,0.0,0.0,0.6
296.0,3.0,wc_3,,0.0,,,,41.0,,,,Pass,,,,,
296.0,3.0,wc_3,wc_6,0.0,"[('wc_6', 0.5500000000000004), ('wc_3', 0.30000000000000016), ('wc_16', 0.29000000000000015), ('wc_13', 0.13), ('wc_17', 0.12000000000000001)]",0.8287735600000002,,,38.0,0.017118,['Fail'],Pass,0.5500000000000004,-0.5500000000000004,0.0,3.0,0.5
296.0,3.0,wc_3,,0.0,,,,223.0,,,,Pass,,,,,
296.0,3.0,wc_3,wc_15,1.0,"[('wc_15', 0.5500000000000004), ('wc_9', 0.6200000000000004), ('wc_10', 0.4800000000000003)]",0.9110800000000002,,,36.0,0.048002,['Pass'],Pass,0.5500000000000004,-0.5500000000000004,0.0,0.0,0.4
304.0,5.0,wc_5,,0.0,,,,442.0,,,,Fail,,,,,
304.0,5.0,wc_5,,0.0,,,66.0,,,,,Fail,,,,,
304.0,5.0,wc_5,,0.0,,,,0.0,,,,Fail,,,,,
304.0,5.0,wc_5,wc_5,0.0,"[('wc_5', 0.3200000000000002)]",0.3200000000000002,,,35.0,0.00205,['Fail'],Fail,0.3200000000000002,-0.3200000000000002,0.0,5.0,0.3
304.0,5.0,wc_5,,0.0,,,,202.0,,,,Fail,,,,,
304.0,5.0,wc_5,wc_17,0.0,"[('wc_5', 0.3200000000000002)]",0.3200000000000002,,,30.0,0.004399,['Fail'],Fail,0.11000000000000001,-0.11000000000000001,0.0,2.0,0.1
304.0,5.0,wc_5,,0.0,,,,362.0,,,,Fail,,,,,
304.0,5.0,wc_5,wc_3,0.0,"[('wc_3', 0.30000000000000016), ('wc_5', 0.3200000000000002)]",0.5240000000000002,,,21.0,0.00787,['Fail'],Fail,0.30000000000000016,0.3666666666666665,2.0,3.0,0.2
304.0,5.0,wc_5,,0.0,,,,161.0,,,,Fail,,,,,
304.0,5.0,wc_5,wc_13,0.0,"[('wc_13', 0.12000000000000001), ('wc_5', 0.3200000000000002), ('wc_3', 0.30000000000000016)]",0.5811200000000002,,,36.0,0.007691999999999999,['Fail'],Fail,0.12000000000000001,-0.12000000000000001,0.0,5.0,0.1
304.0,5.0,wc_5,,0.0,,,,162.0,,,,Fail,,,,,
304.0,5.0,wc_5,wc_6,0.0,"[('wc_6', 0.5400000000000004), ('wc_5', 0.3200000000000002), ('wc_3', 0.30000000000000016), ('wc_13', 0.12000000000000001)]",0.8073152000000002,,,38.0,0.009808,['Fail'],Fail,0.5400000000000004,-0.5400000000000004,0.0,4.0,0.5
304.0,5.0,wc_5,,0.0,,,,0.0,,,,Fail,,,,,
304.0,5.0,wc_5,wc_11,0.0,"[('wc_5', 0.3200000000000002), ('wc_3', 0.30000000000000016), ('wc_13', 0.12000000000000001), ('wc_6', 0.5400000000000004)]",0.8073152000000002,,,24.0,0.011438,['Fail'],Fail,0.3500000000000002,-0.3500000000000002,0.0,4.0,0.2
304.0,5.0,wc_5,,0.0,,,,122.0,,,,Fail,,,,,
304.0,5.0,wc_5,wc_15,1.0,"[('wc_15', 0.5500000000000004), ('wc_5', 0.3200000000000002), ('wc_3', 0.30000000000000016), ('wc_13', 0.12000000000000001), ('wc_6', 0.5400000000000004)]",0.9132918400000002,,,29.0,0.046383999999999995,['Fail'],Fail,0.5600000000000004,0.4399999999999996,1.0,1.0,0.4
319.0,5.0,wc_5,,0.0,,,,442.0,,,,Pass,,,,,
319.0,5.0,wc_5,,0.0,,,78.0,,,,,Pass,,,,,
319.0,5.0,wc_5,,0.0,,,,0.0,,,,Pass,,,,,
319.0,5.0,wc_5,wc_5,0.0,"[('wc_5', 0.3200000000000002)]",0.3200000000000002,,,26.0,0.00258,['Pass'],Pass,0.3200000000000002,-0.15333333333333352,1.0,6.0,0.3
319.0,5.0,wc_5,,0.0,,,,101.0,,,,Pass,,,,,
319.0,5.0,wc_5,wc_8,0.0,"[('wc_8', 0.4900000000000003), ('wc_5', 0.3200000000000002)]",0.6532000000000003,,,39.0,0.004375,['Pass'],Pass,0.4900000000000003,-0.156666666666667,2.0,6.0,1.0
319.0,5.0,wc_5,,0.0,,,,0.0,,,,Pass,,,,,
319.0,5.0,wc_5,wc_10,0.0,"[('wc_10', 0.4900000000000003), ('wc_5', 0.3200000000000002), ('wc_8', 0.4900000000000003)]",0.8231320000000003,,,25.0,0.005968,['Pass'],Pass,0.4900000000000003,0.009999999999999676,1.0,2.0,0.6
319.0,5.0,wc_5,,0.0,,,,41.0,,,,Pass,,,,,
319.0,5.0,wc_5,wc_6,1.0,"[('wc_6', 0.5400000000000004), ('wc_5', 0.3200000000000002), ('wc_8', 0.4900000000000003), ('wc_10', 0.4900000000000003)]",0.9186407200000002,,,37.0,0.040625,['Pass'],Pass,0.5400000000000004,-0.20666666666666705,2.0,6.0,0.5
333.0,6.0,wc_6,,0.0,,,,0.0,,,,Fail,,,,,
333.0,6.0,wc_6,,0.0,,,78.0,,,,,Fail,,,,,
333.0,6.0,wc_6,,0.0,,,,0.0,,,,Fail,,,,,
333.0,6.0,wc_6,wc_6,0.0,"[('wc_6', 0.5400000000000004)]",0.5400000000000004,,,31.0,0.007158,['Fail'],Fail,0.5400000000000004,-0.20666666666666705,2.0,6.0,0.5
333.0,6.0,wc_6,,0.0,,,,202.0,,,,Fail,,,,,
333.0,6.0,wc_6,wc_14,0.0,"[('wc_14', 0.5300000000000004), ('wc_6', 0.5400000000000004)]",0.7838000000000003,,,34.0,0.004059,['Fail'],Fail,0.5300000000000004,-0.5300000000000004,0.0,4.0,0.5
333.0,6.0,wc_6,,0.0,,,,82.0,,,,Fail,,,,,
333.0,6.0,wc_6,wc_12,0.0,"[('wc_6', 0.5400000000000004), ('wc_14', 0.5300000000000004)]",0.7838000000000003,,,30.0,0.006232,['Fail'],Fail,0.31000000000000016,-0.31000000000000016,0.0,7.0,0.1
333.0,6.0,wc_6,,0.0,,,,222.0,,,,Fail,,,,,
333.0,6.0,wc_6,wc_8,0.0,"[('wc_8', 0.4900000000000003), ('wc_6', 0.5400000000000004), ('wc_14', 0.5300000000000004)]",0.8897380000000003,,,33.0,0.008423,['Fail'],Fail,0.4900000000000003,-0.06142857142857178,3.0,7.0,1.0
333.0,6.0,wc_6,,0.0,,,,182.0,,,,Fail,,,,,
333.0,6.0,wc_6,wc_2,1.0,"[('wc_2', 0.6700000000000005), ('wc_6', 0.5400000000000004), ('wc_14', 0.5300000000000004), ('wc_8', 0.4900000000000003)]",0.9636135400000001,,,25.0,0.060270000000000004,['Fail'],Fail,0.6700000000000005,-0.17000000000000048,4.0,8.0,1.0
342.0,6.0,wc_6,,0.0,,,,122.0,,,,Pass,,,,,
342.0,6.0,wc_6,,0.0,,,57.0,,,,,Pass,,,,,
342.0,6.0,wc_6,,0.0,,,,0.0,,,,Pass,,,,,
342.0,6.0,wc_6,wc_6,0.0,"[('wc_6', 0.5400000000000004)]",0.5400000000000004,,,39.0,0.002113,['Fail'],Pass,0.5400000000000004,-0.11142857142857182,3.0,7.0,0.5
342.0,6.0,wc_6,,0.0,,,,182.0,,,,Pass,,,,,
342.0,6.0,wc_6,wc_13,0.0,"[('wc_6', 0.5400000000000004)]",0.5400000000000004,,,34.0,0.005832,['Fail'],Pass,0.13,-0.0050000000000000044,1.0,8.0,0.1
342.0,6.0,wc_6,,0.0,,,,0.0,,,,Pass,,,,,
342.0,6.0,wc_6,wc_16,0.0,"[('wc_6', 0.5400000000000004)]",0.5400000000000004,,,26.0,0.006418,['Fail'],Pass,0.28000000000000014,-0.19666666666666682,0.0,0.0,0.2
342.0,6.0,wc_6,,0.0,,,,243.0,,,,Pass,,,,,
342.0,6.0,wc_6,wc_8,0.0,"[('wc_8', 0.4900000000000003), ('wc_13', 0.13), ('wc_16', 0.28000000000000014)]",0.6805360000000003,,,21.0,0.00851,['Pass'],Pass,0.4900000000000003,0.009999999999999676,4.0,8.0,1.0
342.0,6.0,wc_6,,0.0,,,,162.0,,,,Pass,,,,,
342.0,6.0,wc_6,wc_1,0.0,"[('wc_1', 0.22000000000000008), ('wc_13', 0.13), ('wc_16', 0.28000000000000014), ('wc_8', 0.4900000000000003)]",0.7508180800000003,,,22.0,0.010775999999999999,['Pass'],Pass,0.22000000000000008,-0.07714285714285724,0.0,0.0,0.1
342.0,6.0,wc_6,,0.0,,,,243.0,,,,Pass,,,,,
342.0,6.0,wc_6,wc_15,0.0,"[('wc_15', 0.5600000000000004), ('wc_6', 0.5400000000000004)]",0.7976000000000003,,,26.0,0.011236,['Fail'],Pass,0.5600000000000004,-0.22666666666666707,1.0,3.0,0.4
342.0,6.0,wc_6,,0.0,,,,402.0,,,,Pass,,,,,
342.0,6.0,wc_6,wc_3,0.0,"[('wc_3', 0.31000000000000016), ('wc_6', 0.5400000000000004), ('wc_15', 0.5600000000000004)]",0.8603440000000002,,,30.0,0.014456,['Fail'],Pass,0.31000000000000016,0.18999999999999984,3.0,6.0,0.2
342.0,6.0,wc_6,,0.0,,,,0.0,,,,Pass,,,,,
342.0,6.0,wc_6,wc_4,0.0,"[('wc_4', 0.5900000000000004), ('wc_13', 0.13), ('wc_16', 0.28000000000000014), ('wc_8', 0.4900000000000003), ('wc_1', 0.22000000000000008)]",0.8978354128000002,,,32.0,0.015838,['Pass'],Pass,0.5900000000000004,-0.5900000000000004,0.0,5.0,0.5
342.0,6.0,wc_6,,0.0,,,,121.0,,,,Pass,,,,,
342.0,6.0,wc_6,wc_12,1.0,"[('wc_12', 0.30000000000000016), ('wc_13', 0.13), ('wc_16', 0.28000000000000014), ('wc_8', 0.4900000000000003), ('wc_1', 0.22000000000000008), ('wc_4', 0.5900000000000004)]",0.9284847889600002,,,40.0,0.061926999999999996,['Pass'],Pass,0.30000000000000016,-0.18888888888888905,1.0,9.0,0.1
356.0,10.0,wc_10,,0.0,,,,341.0,,,,Pass,,,,,
356.0,10.0,wc_10,,0.0,,,76.0,,,,,Pass,,,,,
356.0,10.0,wc_10,,0.0,,,,0.0,,,,Pass,,,,,
356.0,10.0,wc_10,wc_10,0.0,"[('wc_10', 0.5000000000000003)]",0.5000000000000003,,,39.0,0.002512,['Pass'],Pass,0.5000000000000003,-0.10000000000000031,2.0,5.0,0.6
356.0,10.0,wc_10,,0.0,,,,182.0,,,,Pass,,,,,
356.0,10.0,wc_10,wc_17,0.0,"[('wc_17', 0.10000000000000002), ('wc_10', 0.5000000000000003)]",0.5500000000000003,,,31.0,0.004594,['Pass'],Pass,0.10000000000000002,-0.10000000000000002,0.0,6.0,0.1
356.0,10.0,wc_10,,0.0,,,,61.0,,,,Pass,,,,,
356.0,10.0,wc_10,wc_14,0.0,"[('wc_14', 0.5300000000000004), ('wc_10', 0.5000000000000003), ('wc_17', 0.10000000000000002)]",0.7885000000000003,,,29.0,0.006493,['Pass'],Pass,0.5300000000000004,-0.36333333333333373,1.0,6.0,0.5
356.0,10.0,wc_10,,0.0,,,,321.0,,,,Pass,,,,,
356.0,10.0,wc_10,wc_11,0.0,"[('wc_10', 0.5000000000000003), ('wc_17', 0.10000000000000002), ('wc_14', 0.5300000000000004)]",0.7885000000000003,,,35.0,0.007739000000000001,['Pass'],Pass,0.3400000000000002,-0.3400000000000002,0.0,8.0,0.2
356.0,10.0,wc_10,,0.0,,,,322.0,,,,Pass,,,,,
356.0,10.0,wc_10,wc_3,0.0,"[('wc_3', 0.31000000000000016), ('wc_10', 0.5000000000000003), ('wc_17', 0.10000000000000002), ('wc_14', 0.5300000000000004)]",0.8540650000000003,,,36.0,0.009641,['Pass'],Pass,0.31000000000000016,0.11857142857142838,3.0,7.0,0.2
356.0,10.0,wc_10,,0.0,,,,162.0,,,,Pass,,,,,
356.0,10.0,wc_10,wc_9,1.0,"[('wc_9', 0.6200000000000004), ('wc_10', 0.5000000000000003), ('wc_17', 0.10000000000000002), ('wc_14', 0.5300000000000004), ('wc_3', 0.31000000000000016)]",0.9445447000000001,,,34.0,0.044352,['Pass'],Pass,0.6200000000000004,-0.6200000000000004,0.0,0.0,0.6
366.0,8.0,wc_8,,0.0,,,,101.0,,,,Fail,,,,,
366.0,8.0,wc_8,,0.0,,,60.0,,,,,Fail,,,,,
366.0,8.0,wc_8,,0.0,,,,0.0,,,,Fail,,,,,
366.0,8.0,wc_8,wc_8,0.0,"[('wc_8', 0.5000000000000003)]",0.5000000000000003,,,31.0,0.002045,['Fail'],Fail,0.5000000000000003,-3.3306690738754696e-16,0.0,0.0,1.0
366.0,8.0,wc_8,,0.0,,,,223.0,,,,Fail,,,,,
366.0,8.0,wc_8,wc_17,0.0,"[('wc_17', 0.11000000000000001), ('wc_8', 0.5000000000000003)]",0.5550000000000003,,,35.0,0.004103,['Fail'],Fail,0.11000000000000001,0.032857142857142835,1.0,7.0,0.1
366.0,8.0,wc_8,,0.0,,,,342.0,,,,Fail,,,,,
366.0,8.0,wc_8,wc_10,0.0,"[('wc_10', 0.5000000000000003), ('wc_8', 0.5000000000000003), ('wc_17', 0.11000000000000001)]",0.7775000000000003,,,39.0,0.006463,['Fail'],Fail,0.5000000000000003,-3.3306690738754696e-16,3.0,6.0,0.6
366.0,8.0,wc_8,,0.0,,,,223.0,,,,Fail,,,,,
366.0,8.0,wc_8,wc_1,0.0,"[('wc_1', 0.2300000000000001), ('wc_8', 0.5000000000000003), ('wc_17', 0.11000000000000001), ('wc_10', 0.5000000000000003)]",0.8286750000000003,,,39.0,0.007320999999999999,['Fail'],Fail,0.2300000000000001,0.2699999999999999,1.0,2.0,0.1
366.0,8.0,wc_8,,0.0,,,,0.0,,,,Fail,,,,,
366.0,8.0,wc_8,wc_3,0.0,"[('wc_3', 0.3200000000000002), ('wc_8', 0.5000000000000003), ('wc_17', 0.11000000000000001), ('wc_10', 0.5000000000000003), ('wc_1', 0.2300000000000001)]",0.8834990000000003,,,29.0,0.011023999999999999,['Fail'],Fail,0.3200000000000002,0.17999999999999983,4.0,8.0,0.2
366.0,8.0,wc_8,,0.0,,,,101.0,,,,Fail,,,,,
366.0,8.0,wc_8,wc_6,1.0,"[('wc_6', 0.5300000000000004), ('wc_8', 0.5000000000000003), ('wc_17', 0.11000000000000001), ('wc_10', 0.5000000000000003), ('wc_1', 0.2300000000000001), ('wc_3', 0.3200000000000002)]",0.9452445300000001,,,28.0,0.047839999999999994,['Fail'],Fail,0.5300000000000004,-0.5300000000000004,0.0,0.0,0.5
376.0,8.0,wc_8,,0.0,,,,0.0,,,,Fail,,,,,
376.0,8.0,wc_8,,0.0,,,62.0,,,,,Fail,,,,,
376.0,8.0,wc_8,,0.0,,,,0.0,,,,Fail,,,,,
376.0,8.0,wc_8,wc_8,0.0,"[('wc_8', 0.5100000000000003)]",0.5100000000000003,,,24.0,0.002184,['Fail'],Fail,0.5100000000000003,0.48999999999999966,1.0,1.0,1.0
376.0,8.0,wc_8,,0.0,,,,102.0,,,,Fail,,,,,
376.0,8.0,wc_8,wc_7,0.0,"[('wc_7', 0.6200000000000004), ('wc_8', 0.5100000000000003)]",0.8138000000000003,,,22.0,0.0044930000000000005,['Fail'],Fail,0.6200000000000004,-0.6200000000000004,0.0,9.0,0.9
376.0,8.0,wc_8,,0.0,,,,301.0,,,,Fail,,,,,
376.0,8.0,wc_8,wc_3,0.0,"[('wc_3', 0.3300000000000002), ('wc_8', 0.5100000000000003), ('wc_7', 0.6200000000000004)]",0.8752460000000003,,,27.0,0.006340999999999999,['Fail'],Fail,0.3300000000000002,0.2255555555555554,5.0,9.0,0.2
376.0,8.0,wc_8,,0.0,,,,141.0,,,,Fail,,,,,
376.0,8.0,wc_8,wc_12,0.0,"[('wc_8', 0.5100000000000003), ('wc_7', 0.6200000000000004), ('wc_3', 0.3300000000000002)]",0.8752460000000003,,,31.0,0.008246,['Fail'],Fail,0.30000000000000016,-0.20909090909090924,0.0,0.0,0.1
376.0,8.0,wc_8,,0.0,,,,0.0,,,,Fail,,,,,
376.0,8.0,wc_8,wc_17,0.0,"[('wc_17', 0.12000000000000001), ('wc_8', 0.5100000000000003), ('wc_7', 0.6200000000000004), ('wc_3', 0.3300000000000002)]",0.8902164800000002,,,22.0,0.010605,['Fail'],Fail,0.12000000000000001,0.13,2.0,8.0,0.1
376.0,8.0,wc_8,,0.0,,,,382.0,,,,Fail,,,,,
376.0,8.0,wc_8,wc_4,0.0,"[('wc_8', 0.5100000000000003), ('wc_7', 0.6200000000000004), ('wc_3', 0.3300000000000002), ('wc_17', 0.12000000000000001)]",0.8902164800000002,,,29.0,0.014591,['Fail'],Fail,0.5900000000000004,-0.4650000000000004,1.0,8.0,0.5
376.0,8.0,wc_8,,0.0,,,,182.0,,,,Fail,,,,,
376.0,8.0,wc_8,wc_15,0.0,"[('wc_8', 0.5100000000000003), ('wc_7', 0.6200000000000004), ('wc_3', 0.3300000000000002), ('wc_17', 0.12000000000000001)]",0.8902164800000002,,,30.0,0.014110999999999999,['Fail'],Fail,0.5500000000000004,-0.38333333333333375,1.0,6.0,0.4
376.0,8.0,wc_8,,0.0,,,,442.0,,,,Fail,,,,,
376.0,8.0,wc_8,wc_5,1.0,"[('wc_5', 0.3200000000000002), ('wc_12', 0.30000000000000016), ('wc_4', 0.5900000000000004), ('wc_15', 0.5500000000000004)]",0.9121780000000002,,,28.0,0.053047000000000004,['Pass'],Fail,0.3200000000000002,-0.3200000000000002,0.0,0.0,0.3
386.0,9.0,wc_9,,0.0,,,,122.0,,,,Fail,,,,,
386.0,9.0,wc_9,,0.0,,,53.0,,,,,Fail,,,,,
386.0,9.0,wc_9,,0.0,,,,0.0,,,,Fail,,,,,
386.0,9.0,wc_9,wc_9,0.0,"[('wc_9', 0.6200000000000004)]",0.6200000000000004,,,37.0,0.00241,['Fail'],Fail,0.6200000000000004,-0.6200000000000004,0.0,2.0,0.6
386.0,9.0,wc_9,,0.0,,,,81.0,,,,Fail,,,,,
386.0,9.0,wc_9,wc_7,0.0,"[('wc_7', 0.6100000000000004), ('wc_9', 0.6200000000000004)]",0.8518000000000003,,,28.0,0.004104,['Fail'],Fail,0.6100000000000004,-0.6100000000000004,0.0,0.0,0.9
386.0,9.0,wc_9,,0.0,,,,182.0,,,,Fail,,,,,
386.0,9.0,wc_9,wc_1,0.0,"[('wc_9', 0.6200000000000004), ('wc_7', 0.6100000000000004)]",0.8518000000000003,,,28.0,0.006433,['Fail'],Fail,0.2400000000000001,0.2599999999999999,2.0,4.0,0.1
386.0,9.0,wc_9,,0.0,,,,182.0,,,,Fail,,,,,
386.0,9.0,wc_9,wc_12,0.0,"[('wc_9', 0.6200000000000004), ('wc_7', 0.6100000000000004)]",0.8518000000000003,,,38.0,0.007942999999999999,['Fail'],Fail,0.31000000000000016,0.6899999999999998,1.0,1.0,0.1
386.0,9.0,wc_9,,0.0,,,,341.0,,,,Fail,,,,,
386.0,9.0,wc_9,wc_10,1.0,"[('wc_10', 0.5100000000000003), ('wc_9', 0.6200000000000004), ('wc_7', 0.6100000000000004)]",0.9273820000000003,,,22.0,0.045982,['Fail'],Fail,0.5200000000000004,0.03555555555555523,5.0,9.0,0.6
396.0,7.0,wc_7,,0.0,,,,61.0,,,,Pass,,,,,
396.0,7.0,wc_7,,0.0,,,59.0,,,,,Pass,,,,,
396.0,7.0,wc_7,,0.0,,,,0.0,,,,Pass,,,,,
396.0,7.0,wc_7,wc_7,0.0,"[('wc_7', 0.6200000000000004)]",0.6200000000000004,,,28.0,0.00228,['Fail'],Pass,0.6200000000000004,0.37999999999999956,1.0,1.0,0.9
396.0,7.0,wc_7,,0.0,,,,0.0,,,,Pass,,,,,
396.0,7.0,wc_7,wc_11,0.0,"[('wc_11', 0.3300000000000002), ('wc_7', 0.6200000000000004)]",0.7454000000000003,,,38.0,0.005017000000000001,['Fail'],Pass,0.3300000000000002,-0.3300000000000002,0.0,0.0,0.2
396.0,7.0,wc_7,,0.0,,,,83.0,,,,Pass,,,,,
396.0,7.0,wc_7,wc_9,0.0,"[('wc_7', 0.6200000000000004), ('wc_11', 0.3300000000000002)]",0.7454000000000003,,,32.0,0.006904,['Fail'],Pass,0.6200000000000004,-0.2866666666666671,1.0,3.0,0.6
396.0,7.0,wc_7,,0.0,,,,162.0,,,,Pass,,,,,
396.0,7.0,wc_7,wc_15,0.0,"[('wc_15', 0.5500000000000004), ('wc_9', 0.6200000000000004)]",0.8290000000000004,,,21.0,0.007792,['Pass'],Pass,0.5500000000000004,-0.3000000000000004,2.0,8.0,0.4
396.0,7.0,wc_7,,0.0,,,,422.0,,,,Pass,,,,,
396.0,7.0,wc_7,wc_4,0.0,"[('wc_4', 0.5900000000000004), ('wc_7', 0.6200000000000004), ('wc_11', 0.3300000000000002)]",0.8956140000000002,,,30.0,0.010533,['Fail'],Pass,0.5900000000000004,-0.3900000000000004,0.0,0.0,0.5
396.0,7.0,wc_7,,0.0,,,,162.0,,,,Pass,,,,,
396.0,7.0,wc_7,wc_10,1.0,"[('wc_10', 0.5200000000000004), ('wc_7', 0.6200000000000004), ('wc_11', 0.3300000000000002), ('wc_4', 0.5900000000000004)]",0.9498947200000002,,,25.0,0.052005,['Fail'],Pass,0.5300000000000004,-0.5300000000000004,0.0,0.0,0.6
407.0,8.0,wc_8,,0.0,,,,81.0,,,,Pass,,,,,
407.0,8.0,wc_8,,0.0,,,72.0,,,,,Pass,,,,,
407.0,8.0,wc_8,,0.0,,,,0.0,,,,Pass,,,,,
407.0,8.0,wc_8,wc_8,0.0,"[('wc_8', 0.5000000000000003)]",0.5000000000000003,,,40.0,0.004581,['Pass'],Pass,0.5000000000000003,-0.25000000000000033,1.0,4.0,1.0
407.0,8.0,wc_8,,0.0,,,,301.0,,,,Pass,,,,,
407.0,8.0,wc_8,wc_4,0.0,"[('wc_4', 0.6000000000000004), ('wc_8', 0.5000000000000003)]",0.8000000000000004,,,37.0,0.010665000000000001,['Pass'],Pass,0.6000000000000004,0.3999999999999996,1.0,1.0,0.5
407.0,8.0,wc_8,,0.0,,,,182.0,,,,Pass,,,,,
407.0,8.0,wc_8,wc_11,0.0,"[('wc_11', 0.3400000000000002), ('wc_8', 0.5000000000000003), ('wc_4', 0.6000000000000004)]",0.8680000000000003,,,33.0,0.006148,['Pass'],Pass,0.3400000000000002,0.6599999999999998,1.0,1.0,0.2
407.0,8.0,wc_8,,0.0,,,,83.0,,,,Pass,,,,,
407.0,8.0,wc_8,wc_9,0.0,"[('wc_8', 0.5000000000000003), ('wc_4', 0.6000000000000004), ('wc_11', 0.3400000000000002)]",0.8680000000000003,,,34.0,0.009486999999999999,['Pass'],Pass,0.6100000000000004,-0.36000000000000043,1.0,4.0,0.6
407.0,8.0,wc_8,,0.0,,,,121.0,,,,Pass,,,,,
407.0,8.0,wc_8,wc_13,0.0,"[('wc_13', 0.14), ('wc_8', 0.5000000000000003), ('wc_4', 0.6000000000000004), ('wc_11', 0.3400000000000002)]",0.8864800000000003,,,20.0,0.011155000000000002,['Pass'],Pass,0.14,0.002857142857142836,0.0,0.0,0.1
407.0,8.0,wc_8,,0.0,,,,0.0,,,,Pass,,,,,
407.0,8.0,wc_8,wc_16,1.0,"[('wc_16', 0.29000000000000015), ('wc_8', 0.5000000000000003), ('wc_4', 0.6000000000000004), ('wc_11', 0.3400000000000002), ('wc_13', 0.14)]",0.9194008000000001,,,23.0,0.051876,['Pass'],Pass,0.29000000000000015,-0.004285714285714448,2.0,7.0,0.2
418.0,9.0,wc_9,,0.0,,,,342.0,,,,Fail,,,,,
418.0,9.0,wc_9,,0.0,,,59.0,,,,,Fail,,,,,
418.0,9.0,wc_9,,0.0,,,,0.0,,,,Fail,,,,,
418.0,9.0,wc_9,wc_9,0.0,"[('wc_9', 0.6000000000000004)]",0.6000000000000004,,,32.0,0.002493,['Fail'],Fail,0.6000000000000004,-0.4000000000000004,1.0,5.0,0.6
418.0,9.0,wc_9,,0.0,,,,162.0,,,,Fail,,,,,
418.0,9.0,wc_9,wc_15,0.0,"[('wc_9', 0.6000000000000004)]",0.6000000000000004,,,35.0,0.004372,['Fail'],Fail,0.5400000000000004,-0.34000000000000036,0.0,0.0,0.4
418.0,9.0,wc_9,,0.0,,,,442.0,,,,Fail,,,,,
418.0,9.0,wc_9,wc_5,0.0,"[('wc_5', 0.3200000000000002), ('wc_9', 0.6000000000000004)]",0.7280000000000004,,,24.0,0.005955,['Fail'],Fail,0.3200000000000002,-0.3200000000000002,0.0,3.0,0.3
418.0,9.0,wc_9,,0.0,,,,103.0,,,,Fail,,,,,
418.0,9.0,wc_9,wc_4,0.0,"[('wc_4', 0.6100000000000004), ('wc_15', 0.5400000000000004)]",0.8206000000000003,,,22.0,0.008631,['Pass'],Fail,0.6100000000000004,0.38999999999999957,2.0,2.0,0.5
418.0,9.0,wc_9,,0.0,,,,202.0,,,,Fail,,,,,
418.0,9.0,wc_9,wc_16,0.0,"[('wc_16', 0.29000000000000015), ('wc_15', 0.5400000000000004), ('wc_4', 0.6100000000000004)]",0.8726260000000002,,,23.0,0.011512999999999999,['Pass'],Fail,0.29000000000000015,-0.004285714285714448,2.0,7.0,0.2
418.0,9.0,wc_9,,0.0,,,,283.0,,,,Fail,,,,,
418.0,9.0,wc_9,wc_2,1.0,"[('wc_2', 0.6700000000000005), ('wc_9', 0.6000000000000004), ('wc_5', 0.3200000000000002)]",0.9102400000000003,,,28.0,0.050783,['Fail'],Fail,0.6700000000000005,-0.6700000000000005,0.0,0.0,1.0
430.0,9.0,wc_9,,0.0,,,,183.0,,,,Pass,,,,,
430.0,9.0,wc_9,,0.0,,,74.0,,,,,Pass,,,,,
430.0,9.0,wc_9,,0.0,,,,0.0,,,,Pass,,,,,
430.0,9.0,wc_9,wc_9,0.0,"[('wc_9', 0.6000000000000004)]",0.6000000000000004,,,28.0,0.002153,['Pass'],Pass,0.6000000000000004,-0.2666666666666671,2.0,6.0,0.6
430.0,9.0,wc_9,,0.0,,,,101.0,,,,Pass,,,,,
430.0,9.0,wc_9,wc_8,0.0,"[('wc_8', 0.5000000000000003), ('wc_9', 0.6000000000000004)]",0.8000000000000004,,,40.0,0.005443,['Pass'],Pass,0.5000000000000003,-0.16666666666666702,2.0,6.0,1.0
430.0,9.0,wc_9,,0.0,,,,142.0,,,,Pass,,,,,
430.0,9.0,wc_9,wc_13,0.0,"[('wc_13', 0.15000000000000002), ('wc_9', 0.6000000000000004), ('wc_8', 0.5000000000000003)]",0.8300000000000003,,,21.0,0.008862,['Pass'],Pass,0.15000000000000002,0.35,1.0,2.0,0.1
430.0,9.0,wc_9,,0.0,,,,341.0,,,,Pass,,,,,
430.0,9.0,wc_9,wc_11,0.0,"[('wc_9', 0.6000000000000004), ('wc_8', 0.5000000000000003), ('wc_13', 0.15000000000000002)]",0.8300000000000003,,,20.0,0.009121999999999998,['Pass'],Pass,0.3500000000000002,0.31666666666666643,2.0,3.0,0.2
430.0,9.0,wc_9,,0.0,,,,122.0,,,,Pass,,,,,
430.0,9.0,wc_9,wc_15,0.0,"[('wc_9', 0.6000000000000004), ('wc_8', 0.5000000000000003), ('wc_13', 0.15000000000000002)]",0.8300000000000003,,,31.0,0.011009000000000001,['Pass'],Pass,0.5300000000000004,-0.5300000000000004,0.0,1.0,0.4
430.0,9.0,wc_9,,0.0,,,,0.0,,,,Pass,,,,,
430.0,9.0,wc_9,wc_16,0.0,"[('wc_16', 0.28000000000000014), ('wc_9', 0.6000000000000004), ('wc_8', 0.5000000000000003), ('wc_13', 0.15000000000000002)]",0.8776000000000003,,,29.0,0.012761,['Pass'],Pass,0.28000000000000014,-0.030000000000000138,2.0,8.0,0.2
430.0,9.0,wc_9,,0.0,,,,203.0,,,,Pass,,,,,
430.0,9.0,wc_9,wc_6,1.0,"[('wc_6', 0.5300000000000004), ('wc_9', 0.6000000000000004), ('wc_8', 0.5000000000000003), ('wc_13', 0.15000000000000002), ('wc_16', 0.28000000000000014)]",0.9424720000000002,,,35.0,0.056352,['Pass'],Pass,0.5300000000000004,-0.36333333333333373,1.0,6.0,0.5
440.0,11.0,wc_11,,0.0,,,,0.0,,,,Fail,,,,,
440.0,11.0,wc_11,,0.0,,,75.0,,,,,Fail,,,,,
440.0,11.0,wc_11,,0.0,,,,0.0,,,,Fail,,,,,
440.0,11.0,wc_11,wc_11,0.0,"[('wc_11', 0.3500000000000002)]",0.3500000000000002,,,23.0,0.00295,['Pass'],Fail,0.3500000000000002,0.1499999999999998,2.0,4.0,0.2
440.0,11.0,wc_11,,0.0,,,,122.0,,,,Fail,,,,,
440.0,11.0,wc_11,wc_15,0.0,"[('wc_15', 0.5200000000000004)]",0.5200000000000004,,,23.0,0.004703,['Fail'],Fail,0.5200000000000004,-0.5200000000000004,0.0,2.0,0.4
440.0,11.0,wc_11,,0.0,,,,382.0,,,,Fail,,,,,
440.0,11.0,wc_11,wc_10,0.0,"[('wc_10', 0.5300000000000004), ('wc_11', 0.3500000000000002)]",0.6945000000000003,,,37.0,0.0067220000000000005,['Pass'],Fail,0.5300000000000004,-0.5300000000000004,0.0,3.0,0.6
440.0,11.0,wc_11,,0.0,,,,243.0,,,,Fail,,,,,
440.0,11.0,wc_11,wc_2,0.0,"[('wc_2', 0.6700000000000005), ('wc_15', 0.5200000000000004)]",0.8416000000000003,,,24.0,0.009835,['Fail'],Fail,0.6700000000000005,-0.6700000000000005,0.0,1.0,1.0
440.0,11.0,wc_11,,0.0,,,,263.0,,,,Fail,,,,,
440.0,11.0,wc_11,wc_17,0.0,"[('wc_15', 0.5200000000000004), ('wc_2', 0.6700000000000005)]",0.8416000000000003,,,22.0,0.011899,['Fail'],Fail,0.12000000000000001,0.02285714285714284,0.0,0.0,0.1
440.0,11.0,wc_11,,0.0,,,,322.0,,,,Fail,,,,,
440.0,11.0,wc_11,wc_9,0.0,"[('wc_9', 0.6000000000000004), ('wc_11', 0.3500000000000002), ('wc_10', 0.5300000000000004), ('wc_17', 0.12000000000000001)]",0.8924640000000003,,,20.0,0.013555999999999999,['Pass'],Fail,0.6000000000000004,-0.17142857142857187,3.0,7.0,0.6
440.0,11.0,wc_11,,0.0,,,,101.0,,,,Fail,,,,,
440.0,11.0,wc_11,wc_8,1.0,"[('wc_8', 0.5000000000000003), ('wc_15', 0.5200000000000004), ('wc_2', 0.6700000000000005)]",0.9208000000000003,,,31.0,0.055008999999999995,['Fail'],Fail,0.5000000000000003,-3.3306690738754696e-16,4.0,8.0,1.0
449.0,11.0,wc_11,,0.0,,,,0.0,,,,Fail,,,,,
449.0,11.0,wc_11,,0.0,,,50.0,,,,,Fail,,,,,
449.0,11.0,wc_11,,0.0,,,,0.0,,,,Fail,,,,,
449.0,11.0,wc_11,wc_11,0.0,"[('wc_11', 0.3500000000000002)]",0.3500000000000002,,,28.0,0.002429,['Fail'],Fail,0.3500000000000002,0.04999999999999982,2.0,5.0,0.2
449.0,11.0,wc_11,,0.0,,,,41.0,,,,Fail,,,,,
449.0,11.0,wc_11,wc_7,0.0,"[('wc_7', 0.6300000000000004), ('wc_11', 0.3500000000000002)]",0.7595000000000004,,,39.0,0.004628,['Fail'],Fail,0.6300000000000004,-0.29666666666666713,2.0,6.0,0.9
449.0,11.0,wc_11,,0.0,,,,0.0,,,,Fail,,,,,
449.0,11.0,wc_11,wc_8,0.0,"[('wc_8', 0.5000000000000003), ('wc_11', 0.3500000000000002), ('wc_7', 0.6300000000000004)]",0.8797500000000003,,,25.0,0.005841,['Fail'],Fail,0.5000000000000003,-3.3306690738754696e-16,4.0,8.0,1.0
449.0,11.0,wc_11,,0.0,,,,281.0,,,,Fail,,,,,
449.0,11.0,wc_11,wc_3,1.0,"[('wc_3', 0.3300000000000002), ('wc_11', 0.3500000000000002), ('wc_7', 0.6300000000000004), ('wc_8', 0.5000000000000003)]",0.9194325000000002,,,30.0,0.04923100000000001,['Fail'],Fail,0.3300000000000002,-0.18714285714285733,1.0,7.0,0.2
458.0,11.0,wc_11,,0.0,,,,202.0,,,,Fail,,,,,
458.0,11.0,wc_11,,0.0,,,55.0,,,,,Fail,,,,,
458.0,11.0,wc_11,,0.0,,,,0.0,,,,Fail,,,,,
458.0,11.0,wc_11,wc_11,0.0,"[('wc_11', 0.3600000000000002)]",0.3600000000000002,,,27.0,0.002507,['Fail'],Fail,0.3600000000000002,0.1399999999999998,3.0,6.0,0.2
458.0,11.0,wc_11,,0.0,,,,342.0,,,,Fail,,,,,
458.0,11.0,wc_11,wc_4,0.0,"[('wc_4', 0.6100000000000004), ('wc_11', 0.3600000000000002)]",0.7504000000000004,,,27.0,0.003965,['Fail'],Fail,0.6100000000000004,-0.2766666666666671,2.0,6.0,0.5
458.0,11.0,wc_11,,0.0,,,,162.0,,,,Fail,,,,,
458.0,11.0,wc_11,wc_10,0.0,"[('wc_10', 0.5200000000000004), ('wc_11', 0.3600000000000002), ('wc_4', 0.6100000000000004)]",0.8801920000000003,,,33.0,0.005586,['Fail'],Fail,0.5200000000000004,-0.5200000000000004,0.0,5.0,0.6
458.0,11.0,wc_11,,0.0,,,,61.0,,,,Fail,,,,,
458.0,11.0,wc_11,wc_7,1.0,"[('wc_7', 0.6300000000000004), ('wc_11', 0.3600000000000002), ('wc_4', 0.6100000000000004), ('wc_10', 0.5200000000000004)]",0.9556710400000001,,,34.0,0.046855999999999995,['Fail'],Fail,0.6300000000000004,-0.13000000000000045,4.0,8.0,0.9
477.0,11.0,wc_11,,0.0,,,,0.0,,,,Fail,,,,,
477.0,11.0,wc_11,,0.0,,,65.0,,,,,Fail,,,,,
477.0,11.0,wc_11,,0.0,,,,0.0,,,,Fail,,,,,
477.0,11.0,wc_11,wc_11,0.0,"[('wc_11', 0.3700000000000002)]",0.3700000000000002,,,37.0,0.002613,['Fail'],Fail,0.3700000000000002,0.20142857142857118,4.0,7.0,0.2
477.0,11.0,wc_11,,0.0,,,,83.0,,,,Fail,,,,,
477.0,11.0,wc_11,wc_9,0.0,"[('wc_9', 0.5900000000000004), ('wc_11', 0.3700000000000002)]",0.7417000000000004,,,40.0,0.00398,['Fail'],Fail,0.5900000000000004,-0.2900000000000004,0.0,0.0,0.6
477.0,11.0,wc_11,,0.0,,,,101.0,,,,Fail,,,,,
477.0,11.0,wc_11,wc_12,0.0,"[('wc_11', 0.3700000000000002), ('wc_9', 0.5900000000000004)]",0.7417000000000004,,,32.0,0.006689,['Fail'],Fail,0.31000000000000016,-0.19888888888888906,1.0,9.0,0.1
477.0,11.0,wc_11,,0.0,,,,361.0,,,,Fail,,,,,
477.0,11.0,wc_11,wc_3,0.0,"[('wc_11', 0.3700000000000002), ('wc_9', 0.5900000000000004)]",0.7417000000000004,,,26.0,0.008575000000000001,['Fail'],Fail,0.3300000000000002,-0.20500000000000018,1.0,8.0,0.2
477.0,11.0,wc_11,,0.0,,,,121.0,,,,Fail,,,,,
477.0,11.0,wc_11,wc_7,1.0,"[('wc_7', 0.6300000000000004), ('wc_11', 0.3700000000000002), ('wc_9', 0.5900000000000004)]",0.9044290000000003,,,30.0,0.049654000000000004,['Fail'],Fail,0.6300000000000004,-0.07444444444444487,5.0,9.0,0.9
496.0,11.0,wc_11,,0.0,,,,0.0,,,,Pass,,,,,
496.0,11.0,wc_11,,0.0,,,71.0,,,,,Pass,,,,,
496.0,11.0,wc_11,,0.0,,,,0.0,,,,Pass,,,,,
496.0,11.0,wc_11,wc_11,0.0,"[('wc_11', 0.3800000000000002)]",0.3800000000000002,,,26.0,0.002466,['Pass'],Pass,0.3800000000000002,0.24499999999999977,5.0,8.0,0.2
496.0,11.0,wc_11,,0.0,,,,162.0,,,,Pass,,,,,
496.0,11.0,wc_11,wc_17,0.0,"[('wc_17', 0.11000000000000001), ('wc_11', 0.3800000000000002)]",0.44820000000000015,,,33.0,0.003955,['Pass'],Pass,0.11000000000000001,-0.11000000000000001,0.0,4.0,0.1
496.0,11.0,wc_11,,0.0,,,,223.0,,,,Pass,,,,,
496.0,11.0,wc_11,wc_8,0.0,"[('wc_8', 0.5100000000000003), ('wc_11', 0.3800000000000002), ('wc_17', 0.11000000000000001)]",0.7296180000000003,,,40.0,0.006579999999999999,['Pass'],Pass,0.5100000000000003,-0.05545454545454581,0.0,0.0,1.0
496.0,11.0,wc_11,,0.0,,,,203.0,,,,Pass,,,,,
496.0,11.0,wc_11,wc_16,0.0,"[('wc_16', 0.29000000000000015), ('wc_11', 0.3800000000000002), ('wc_17', 0.11000000000000001), ('wc_8', 0.5100000000000003)]",0.8080287800000002,,,40.0,0.00775,['Pass'],Pass,0.29000000000000015,-0.059230769230769365,0.0,0.0,0.2
496.0,11.0,wc_11,,0.0,,,,422.0,,,,Pass,,,,,
496.0,11.0,wc_11,wc_5,0.0,"[('wc_5', 0.3200000000000002), ('wc_11', 0.3800000000000002), ('wc_17', 0.11000000000000001), ('wc_8', 0.5100000000000003), ('wc_16', 0.29000000000000015)]",0.8694595704000002,,,33.0,0.012299000000000001,['Pass'],Pass,0.3200000000000002,-0.20888888888888907,1.0,9.0,0.3
496.0,11.0,wc_11,,0.0,,,,61.0,,,,Pass,,,,,
496.0,11.0,wc_11,wc_2,1.0,"[('wc_2', 0.6700000000000005), ('wc_11', 0.3800000000000002), ('wc_17', 0.11000000000000001), ('wc_8', 0.5100000000000003), ('wc_16', 0.29000000000000015), ('wc_5', 0.3200000000000002)]",0.9569216582320001,,,34.0,0.055736999999999995,['Pass'],Pass,0.6700000000000005,-0.33666666666666717,2.0,6.0,1.0
513.0,12.0,wc_12,,0.0,,,,162.0,,,,Pass,,,,,
513.0,12.0,wc_12,,0.0,,,71.0,,,,,Pass,,,,,
513.0,12.0,wc_12,,0.0,,,,0.0,,,,Pass,,,,,
513.0,12.0,wc_12,wc_12,0.0,"[('wc_12', 0.30000000000000016)]",0.30000000000000016,,,37.0,0.002433,['Pass'],Pass,0.30000000000000016,-0.30000000000000016,0.0,1.0,0.1
513.0,12.0,wc_12,,0.0,,,,361.0,,,,Pass,,,,,
513.0,12.0,wc_12,wc_3,0.0,"[('wc_3', 0.3200000000000002)]",0.3200000000000002,,,24.0,0.005355,['Fail'],Pass,0.3200000000000002,-0.22000000000000017,0.0,0.0,0.2
513.0,12.0,wc_12,,0.0,,,,0.0,,,,Pass,,,,,
513.0,12.0,wc_12,wc_4,0.0,"[('wc_4', 0.6100000000000004), ('wc_12', 0.30000000000000016)]",0.7270000000000003,,,36.0,0.005685,['Pass'],Pass,0.6100000000000004,-0.2766666666666671,3.0,9.0,0.5
513.0,12.0,wc_12,,0.0,,,,161.0,,,,Pass,,,,,
513.0,12.0,wc_12,wc_14,0.0,"[('wc_12', 0.30000000000000016), ('wc_4', 0.6100000000000004)]",0.7270000000000003,,,39.0,0.007838,['Pass'],Pass,0.5300000000000004,-0.4247368421052635,0.0,0.0,0.5
513.0,12.0,wc_12,,0.0,,,,222.0,,,,Pass,,,,,
513.0,12.0,wc_12,wc_2,1.0,"[('wc_2', 0.6700000000000005), ('wc_12', 0.30000000000000016), ('wc_4', 0.6100000000000004)]",0.9099100000000002,,,35.0,0.047948000000000005,['Pass'],Pass,0.6700000000000005,-0.24142857142857194,3.0,7.0,1.0
527.0,13.0,wc_13,,0.0,,,,182.0,,,,Fail,,,,,
527.0,13.0,wc_13,,0.0,,,59.0,,,,,Fail,,,,,
527.0,13.0,wc_13,,0.0,,,,0.0,,,,Fail,,,,,
527.0,13.0,wc_13,wc_13,0.0,"[('wc_13', 0.16000000000000003)]",0.16000000000000003,,,20.0,0.002823,['Pass'],Fail,0.16000000000000003,0.06222222222222218,2.0,9.0,0.1
527.0,13.0,wc_13,,0.0,,,,102.0,,,,Fail,,,,,
527.0,13.0,wc_13,wc_12,0.0,"[('wc_12', 0.31000000000000016)]",0.31000000000000016,,,34.0,0.004354,['Fail'],Fail,0.31000000000000016,0.18999999999999984,1.0,2.0,0.1
527.0,13.0,wc_13,,0.0,,,,202.0,,,,Fail,,,,,
527.0,13.0,wc_13,wc_7,0.0,"[('wc_7', 0.6300000000000004), ('wc_12', 0.31000000000000016)]",0.7447000000000004,,,35.0,0.006607,['Fail'],Fail,0.6300000000000004,-0.17545454545454592,0.0,0.0,0.9
527.0,13.0,wc_13,,0.0,,,,243.0,,,,Fail,,,,,
527.0,13.0,wc_13,wc_17,0.0,"[('wc_17', 0.12000000000000001), ('wc_12', 0.31000000000000016), ('wc_7', 0.6300000000000004)]",0.7753360000000004,,,30.0,0.008852,['Fail'],Fail,0.12000000000000001,0.04666666666666665,1.0,6.0,0.1
527.0,13.0,wc_13,,0.0,,,,103.0,,,,Fail,,,,,
527.0,13.0,wc_13,wc_16,0.0,"[('wc_12', 0.31000000000000016), ('wc_7', 0.6300000000000004), ('wc_17', 0.12000000000000001)]",0.7753360000000004,,,40.0,0.010939999999999998,['Fail'],Fail,0.30000000000000016,0.19999999999999984,1.0,2.0,0.2
527.0,13.0,wc_13,,0.0,,,,283.0,,,,Fail,,,,,
527.0,13.0,wc_13,wc_2,1.0,"[('wc_2', 0.6700000000000005), ('wc_12', 0.31000000000000016), ('wc_7', 0.6300000000000004), ('wc_17', 0.12000000000000001)]",0.9258608800000002,,,36.0,0.04909900000000001,['Fail'],Fail,0.6700000000000005,-0.17000000000000048,4.0,8.0,1.0
545.0,13.0,wc_13,,0.0,,,,182.0,,,,Pass,,,,,
545.0,13.0,wc_13,,0.0,,,62.0,,,,,Pass,,,,,
545.0,13.0,wc_13,,0.0,,,,0.0,,,,Pass,,,,,
545.0,13.0,wc_13,wc_13,0.0,"[('wc_13', 0.16000000000000003)]",0.16000000000000003,,,26.0,0.002634,['Pass'],Pass,0.16000000000000003,-0.16000000000000003,0.0,0.0,0.1
545.0,13.0,wc_13,,0.0,,,,242.0,,,,Pass,,,,,
545.0,13.0,wc_13,wc_2,0.0,"[('wc_2', 0.6700000000000005), ('wc_13', 0.16000000000000003)]",0.7228000000000004,,,38.0,0.005716000000000001,['Pass'],Pass,0.6700000000000005,-0.17000000000000048,4.0,8.0,1.0
545.0,13.0,wc_13,,0.0,,,,183.0,,,,Pass,,,,,
545.0,13.0,wc_13,wc_9,0.0,"[('wc_9', 0.6000000000000004), ('wc_13', 0.16000000000000003), ('wc_2', 0.6700000000000005)]",0.8891200000000002,,,24.0,0.005958,['Pass'],Pass,0.6000000000000004,-0.3500000000000004,1.0,4.0,0.6
545.0,13.0,wc_13,,0.0,,,,243.0,,,,Pass,,,,,
545.0,13.0,wc_13,wc_1,1.0,"[('wc_1', 0.2400000000000001), ('wc_13', 0.16000000000000003), ('wc_2', 0.6700000000000005), ('wc_9', 0.6000000000000004)]",0.9157312000000002,,,24.0,0.053890999999999994,['Pass'],Pass,0.2400000000000001,-0.2400000000000001,0.0,0.0,0.1
555.0,16.0,wc_16,,0.0,,,,263.0,,,,Fail,,,,,
555.0,16.0,wc_16,,0.0,,,62.0,,,,,Fail,,,,,
555.0,16.0,wc_16,,0.0,,,,0.0,,,,Fail,,,,,
555.0,16.0,wc_16,wc_16,0.0,"[('wc_16', 0.30000000000000016)]",0.30000000000000016,,,25.0,0.002103,['Fail'],Fail,0.30000000000000016,-0.050000000000000155,1.0,4.0,0.2
555.0,16.0,wc_16,,0.0,,,,382.0,,,,Fail,,,,,
555.0,16.0,wc_16,wc_3,0.0,"[('wc_3', 0.31000000000000016), ('wc_16', 0.30000000000000016)]",0.5170000000000002,,,20.0,0.005601999999999999,['Fail'],Fail,0.31000000000000016,-0.31000000000000016,0.0,3.0,0.2
555.0,16.0,wc_16,,0.0,,,,141.0,,,,Fail,,,,,
555.0,16.0,wc_16,wc_12,0.0,"[('wc_16', 0.30000000000000016), ('wc_3', 0.31000000000000016)]",0.5170000000000002,,,34.0,0.00647,['Fail'],Fail,0.3200000000000002,0.17999999999999983,2.0,4.0,0.1
555.0,16.0,wc_16,,0.0,,,,222.0,,,,Fail,,,,,
555.0,16.0,wc_16,wc_8,0.0,"[('wc_8', 0.5200000000000004), ('wc_16', 0.30000000000000016), ('wc_3', 0.31000000000000016)]",0.7681600000000003,,,32.0,0.008067,['Fail'],Fail,0.5200000000000004,-0.27000000000000035,1.0,4.0,1.0
555.0,16.0,wc_16,,0.0,,,,0.0,,,,Fail,,,,,
555.0,16.0,wc_16,wc_9,1.0,"[('wc_9', 0.6000000000000004), ('wc_16', 0.30000000000000016), ('wc_3', 0.31000000000000016), ('wc_8', 0.5200000000000004)]",0.9072640000000002,,,23.0,0.046889,['Fail'],Fail,0.6000000000000004,-0.10000000000000042,3.0,6.0,0.6
564.0,16.0,wc_16,,0.0,,,,182.0,,,,Fail,,,,,
564.0,16.0,wc_16,,0.0,,,56.0,,,,,Fail,,,,,
564.0,16.0,wc_16,,0.0,,,,0.0,,,,Fail,,,,,
564.0,16.0,wc_16,wc_16,0.0,"[('wc_16', 0.31000000000000016)]",0.31000000000000016,,,25.0,0.002189,['Pass'],Fail,0.31000000000000016,0.08999999999999986,2.0,5.0,0.2
564.0,16.0,wc_16,,0.0,,,,362.0,,,,Fail,,,,,
564.0,16.0,wc_16,wc_10,0.0,"[('wc_10', 0.5200000000000004)]",0.5200000000000004,,,20.0,0.005376,['Fail'],Fail,0.5200000000000004,-0.43666666666666704,0.0,0.0,0.6
564.0,16.0,wc_16,,0.0,,,,362.0,,,,Fail,,,,,
564.0,16.0,wc_16,wc_4,0.0,"[('wc_4', 0.6100000000000004), ('wc_10', 0.5200000000000004)]",0.8128000000000004,,,28.0,0.0063809999999999995,['Fail'],Fail,0.6100000000000004,-0.6100000000000004,0.0,3.0,0.5
564.0,16.0,wc_16,,0.0,,,,222.0,,,,Fail,,,,,
564.0,16.0,wc_16,wc_17,0.0,"[('wc_17', 0.13), ('wc_10', 0.5200000000000004), ('wc_4', 0.6100000000000004)]",0.8371360000000003,,,29.0,0.00816,['Fail'],Fail,0.13,0.0922222222222222,2.0,9.0,0.1
564.0,16.0,wc_16,,0.0,,,,243.0,,,,Fail,,,,,
564.0,16.0,wc_16,wc_1,0.0,"[('wc_1', 0.2400000000000001), ('wc_10', 0.5200000000000004), ('wc_4', 0.6100000000000004), ('wc_17', 0.13)]",0.8762233600000002,,,30.0,0.011487,['Fail'],Fail,0.2400000000000001,-0.2400000000000001,0.0,1.0,0.1
564.0,16.0,wc_16,,0.0,,,,243.0,,,,Fail,,,,,
564.0,16.0,wc_16,wc_11,0.0,"[('wc_10', 0.5200000000000004), ('wc_4', 0.6100000000000004), ('wc_17', 0.13), ('wc_1', 0.2400000000000001)]",0.8762233600000002,,,27.0,0.011873000000000002,['Fail'],Fail,0.39000000000000024,0.07153846153846133,0.0,0.0,0.2
564.0,16.0,wc_16,,0.0,,,,41.0,,,,Fail,,,,,
564.0,16.0,wc_16,wc_7,1.0,"[('wc_7', 0.6400000000000005), ('wc_10', 0.5200000000000004), ('wc_4', 0.6100000000000004), ('wc_17', 0.13), ('wc_1', 0.2400000000000001)]",0.9554404096000001,,,21.0,0.051324,['Fail'],Fail,0.6400000000000005,-0.14000000000000046,2.0,4.0,0.9
573.0,16.0,wc_16,,0.0,,,,223.0,,,,Pass,,,,,
573.0,16.0,wc_16,,0.0,,,79.0,,,,,Pass,,,,,
573.0,16.0,wc_16,,0.0,,,,0.0,,,,Pass,,,,,
573.0,16.0,wc_16,wc_16,0.0,"[('wc_16', 0.31000000000000016)]",0.31000000000000016,,,32.0,0.002118,['Fail'],Pass,0.31000000000000016,0.02333333333333315,2.0,6.0,0.2
573.0,16.0,wc_16,,0.0,,,,103.0,,,,Pass,,,,,
573.0,16.0,wc_16,wc_15,0.0,"[('wc_15', 0.5200000000000004)]",0.5200000000000004,,,38.0,0.004077,['Pass'],Pass,0.5200000000000004,-0.43666666666666704,0.0,0.0,0.4
573.0,16.0,wc_16,,0.0,,,,0.0,,,,Pass,,,,,
573.0,16.0,wc_16,wc_17,0.0,"[('wc_15', 0.5200000000000004)]",0.5200000000000004,,,38.0,0.005983,['Pass'],Pass,0.14,-0.14,0.0,0.0,0.1
573.0,16.0,wc_16,,0.0,,,,41.0,,,,Pass,,,,,
573.0,16.0,wc_16,wc_13,0.0,"[('wc_15', 0.5200000000000004)]",0.5200000000000004,,,34.0,0.007781000000000001,['Pass'],Pass,0.17000000000000004,0.16333333333333327,1.0,3.0,0.1
573.0,16.0,wc_16,,0.0,,,,242.0,,,,Pass,,,,,
573.0,16.0,wc_16,wc_2,0.0,"[('wc_2', 0.6700000000000005), ('wc_15', 0.5200000000000004)]",0.8416000000000003,,,26.0,0.00943,['Pass'],Pass,0.6700000000000005,-0.21545454545454595,0.0,0.0,1.0
573.0,16.0,wc_16,,0.0,,,,183.0,,,,Pass,,,,,
573.0,16.0,wc_16,wc_9,1.0,"[('wc_9', 0.6000000000000004), ('wc_15', 0.5200000000000004), ('wc_2', 0.6700000000000005)]",0.9366400000000001,,,25.0,0.051878999999999995,['Pass'],Pass,0.6000000000000004,-0.10000000000000042,4.0,8.0,0.6
584.0,14.0,wc_14,,0.0,,,,141.0,,,,Pass,,,,,
584.0,14.0,wc_14,,0.0,,,60.0,,,,,Pass,,,,,
584.0,14.0,wc_14,,0.0,,,,0.0,,,,Pass,,,,,
584.0,14.0,wc_14,wc_14,0.0,"[('wc_14', 0.5200000000000004)]",0.5200000000000004,,,35.0,0.002042,['Pass'],Pass,0.5200000000000004,-0.5200000000000004,0.0,6.0,0.5
584.0,14.0,wc_14,,0.0,,,,301.0,,,,Pass,,,,,
584.0,14.0,wc_14,wc_10,0.0,"[('wc_10', 0.5300000000000004), ('wc_14', 0.5200000000000004)]",0.7744000000000003,,,23.0,0.004236,['Pass'],Pass,0.5300000000000004,-0.03000000000000036,1.0,2.0,0.6
584.0,14.0,wc_14,,0.0,,,,103.0,,,,Pass,,,,,
584.0,14.0,wc_14,wc_9,1.0,"[('wc_9', 0.6000000000000004), ('wc_14', 0.5200000000000004), ('wc_10', 0.5300000000000004)]",0.9097600000000002,,,34.0,0.044024,['Pass'],Pass,0.6000000000000004,-0.04444444444444484,5.0,9.0,0.6
595.0,15.0,wc_15,,0.0,,,,162.0,,,,Pass,,,,,
595.0,15.0,wc_15,,0.0,,,59.0,,,,,Pass,,,,,
595.0,15.0,wc_15,,0.0,,,,0.0,,,,Pass,,,,,
595.0,15.0,wc_15,wc_15,0.0,"[('wc_15', 0.5300000000000004)]",0.5300000000000004,,,20.0,0.002359,['Pass'],Pass,0.5300000000000004,-0.03000000000000036,1.0,2.0,0.4
595.0,15.0,wc_15,,0.0,,,,283.0,,,,Pass,,,,,
595.0,15.0,wc_15,wc_1,0.0,"[('wc_1', 0.2500000000000001), ('wc_15', 0.5300000000000004)]",0.6475000000000003,,,37.0,0.004154,['Pass'],Pass,0.2500000000000001,-1.1102230246251565e-16,1.0,4.0,0.1
595.0,15.0,wc_15,,0.0,,,,222.0,,,,Pass,,,,,
595.0,15.0,wc_15,wc_14,0.0,"[('wc_14', 0.5200000000000004), ('wc_15', 0.5300000000000004), ('wc_1', 0.2500000000000001)]",0.8308000000000003,,,34.0,0.006880000000000001,['Pass'],Pass,0.5200000000000004,-0.3771428571428575,1.0,7.0,0.5
595.0,15.0,wc_15,,0.0,,,,102.0,,,,Pass,,,,,
595.0,15.0,wc_15,wc_13,0.0,"[('wc_13', 0.17000000000000004), ('wc_15', 0.5300000000000004), ('wc_1', 0.2500000000000001), ('wc_14', 0.5200000000000004)]",0.8595640000000002,,,28.0,0.008043999999999999,['Pass'],Pass,0.17000000000000004,0.02999999999999997,1.0,5.0,0.1
595.0,15.0,wc_15,,0.0,,,,341.0,,,,Pass,,,,,
595.0,15.0,wc_15,wc_11,0.0,"[('wc_15', 0.5300000000000004), ('wc_1', 0.2500000000000001), ('wc_14', 0.5200000000000004), ('wc_13', 0.17000000000000004)]",0.8595640000000002,,,36.0,0.011719,['Pass'],Pass,0.3800000000000002,-0.3800000000000002,0.0,3.0,0.2
595.0,15.0,wc_15,,0.0,,,,362.0,,,,Pass,,,,,
595.0,15.0,wc_15,wc_5,1.0,"[('wc_5', 0.3200000000000002), ('wc_15', 0.5300000000000004), ('wc_1', 0.2500000000000001), ('wc_14', 0.5200000000000004), ('wc_13', 0.17000000000000004)]",0.9045035200000002,,,32.0,0.048367,['Pass'],Pass,0.3200000000000002,-0.19500000000000017,1.0,8.0,0.3
613.0,17.0,wc_17,,0.0,,,,202.0,,,,Pass,,,,,
613.0,17.0,wc_17,,0.0,,,60.0,,,,,Pass,,,,,
613.0,17.0,wc_17,,0.0,,,,0.0,,,,Pass,,,,,
613.0,17.0,wc_17,wc_17,0.0,"[('wc_17', 0.13)]",0.13,,,29.0,0.002328,['Pass'],Pass,0.13,-0.13,0.0,3.0,0.1
613.0,17.0,wc_17,,0.0,,,,402.0,,,,Pass,,,,,
613.0,17.0,wc_17,wc_5,0.0,"[('wc_5', 0.3200000000000002)]",0.3200000000000002,,,20.0,0.004147,['Fail'],Pass,0.3200000000000002,-0.19500000000000017,1.0,8.0,0.3
613.0,17.0,wc_17,,0.0,,,,182.0,,,,Pass,,,,,
613.0,17.0,wc_17,wc_16,0.0,"[('wc_16', 0.30000000000000016), ('wc_5', 0.3200000000000002)]",0.5240000000000002,,,38.0,0.0062120000000000005,['Fail'],Pass,0.30000000000000016,-0.07777777777777795,2.0,9.0,0.2
613.0,17.0,wc_17,,0.0,,,,223.0,,,,Pass,,,,,
613.0,17.0,wc_17,wc_7,0.0,"[('wc_7', 0.6400000000000005), ('wc_17', 0.13)]",0.6868000000000004,,,39.0,0.007474,['Pass'],Pass,0.6400000000000005,-0.35428571428571476,2.0,7.0,0.9
613.0,17.0,wc_17,,0.0,,,,0.0,,,,Pass,,,,,
613.0,17.0,wc_17,wc_9,0.0,"[('wc_9', 0.6000000000000004), ('wc_5', 0.3200000000000002), ('wc_16', 0.30000000000000016)]",0.8096000000000003,,,25.0,0.009823,['Fail'],Pass,0.6000000000000004,-0.10000000000000042,0.0,0.0,0.6
613.0,17.0,wc_17,,0.0,,,,382.0,,,,Pass,,,,,
613.0,17.0,wc_17,wc_4,0.0,"[('wc_4', 0.6100000000000004), ('wc_17', 0.13), ('wc_7', 0.6400000000000005)]",0.8778520000000003,,,26.0,0.012608,['Pass'],Pass,0.6100000000000004,-0.4671428571428576,1.0,7.0,0.5
613.0,17.0,wc_17,,0.0,,,,121.0,,,,Pass,,,,,
613.0,17.0,wc_17,wc_12,0.0,"[('wc_17', 0.13), ('wc_7', 0.6400000000000005), ('wc_4', 0.6100000000000004)]",0.8778520000000003,,,30.0,0.014585000000000002,['Pass'],Pass,0.3200000000000002,-0.09777777777777796,2.0,9.0,0.1
613.0,17.0,wc_17,,0.0,,,,182.0,,,,Pass,,,,,
613.0,17.0,wc_17,wc_6,1.0,"[('wc_6', 0.5300000000000004), ('wc_5', 0.3200000000000002), ('wc_16', 0.30000000000000016), ('wc_9', 0.6000000000000004), ('wc_12', 0.3200000000000002)]",0.9391481600000001,,,21.0,0.054587,['Fail'],Pass,0.5300000000000004,-0.5300000000000004,0.0,0.0,0.5
