mpecck/BCQC/bcqc_with_qdt/results/raw/input_5/independent_qc/training/20_workpiece/20200429_084414/wp_16_qc_majority_0.9.csv
production_index,step_idx,production_workcell,qc,consent,winner_qc_list,score,production_time,transport_time,inspection_time,network_time,qc_results,actual_quality,qc_score,score_error,in_winner_counter,in_qc_counter,qc_capability
64.0,1.0,wc_1,,0.0,,,77.0,,,,,Pass,,,,,
64.0,1.0,wc_1,,0.0,,,,0.0,,,,Pass,,,,,
64.0,1.0,wc_1,wc_1,0.0,"[('wc_1', 0.5900000000000004)]",0.5900000000000004,,,29.0,0.002105,['Fail'],Pass,0.5900000000000004,-0.3677777777777782,2.0,9.0,0.4
64.0,1.0,wc_1,,0.0,,,,0.0,,,,Pass,,,,,
64.0,1.0,wc_1,wc_3,0.0,"[('wc_3', 0.5300000000000004), ('wc_1', 0.5900000000000004)]",0.8073000000000004,,,24.0,0.004139,['Fail'],Pass,0.5300000000000004,-0.03000000000000036,1.0,2.0,0.3
64.0,1.0,wc_1,,0.0,,,,0.0,,,,Pass,,,,,
64.0,1.0,wc_1,wc_4,0.0,"[('wc_1', 0.5900000000000004), ('wc_3', 0.5300000000000004)]",0.8073000000000004,,,30.0,0.005814000000000001,['Fail'],Pass,0.5200000000000004,-0.23428571428571465,2.0,7.0,0.4
64.0,1.0,wc_1,,0.0,,,,161.0,,,,Pass,,,,,
64.0,1.0,wc_1,wc_14,0.0,"[('wc_1', 0.5900000000000004), ('wc_3', 0.5300000000000004)]",0.8073000000000004,,,21.0,0.007708,['Fail'],Pass,0.4900000000000003,-0.4900000000000003,0.0,3.0,0.6
64.0,1.0,wc_1,,0.0,,,,182.0,,,,Pass,,,,,
64.0,1.0,wc_1,wc_8,0.0,"[('wc_8', 0.3200000000000002), ('wc_4', 0.5200000000000004), ('wc_14', 0.4900000000000003)]",0.8335360000000003,,,21.0,0.010374000000000001,['Pass'],Pass,0.3200000000000002,-0.3200000000000002,0.0,0.0,0.3
64.0,1.0,wc_1,,0.0,,,,102.0,,,,Pass,,,,,
64.0,1.0,wc_1,wc_7,1.0,"[('wc_7', 0.8100000000000006), ('wc_4', 0.5200000000000004), ('wc_14', 0.4900000000000003), ('wc_8', 0.3200000000000002)]",0.9683718400000001,,,40.0,0.04838,['Pass'],Pass,0.8100000000000006,-0.8100000000000006,0.0,0.0,0.9
75.0,2.0,wc_2,,0.0,,,,202.0,,,,Fail,,,,,
75.0,2.0,wc_2,,0.0,,,51.0,,,,,Fail,,,,,
75.0,2.0,wc_2,,0.0,,,,0.0,,,,Fail,,,,,
75.0,2.0,wc_2,wc_2,0.0,"[('wc_2', 0.6100000000000004)]",0.6100000000000004,,,36.0,0.002076,['Fail'],Fail,0.6100000000000004,-0.5700000000000004,0.0,0.0,0.8
75.0,2.0,wc_2,,0.0,,,,0.0,,,,Fail,,,,,
75.0,2.0,wc_2,wc_4,0.0,"[('wc_4', 0.5200000000000004), ('wc_2', 0.6100000000000004)]",0.8128000000000004,,,36.0,0.004693,['Fail'],Fail,0.5200000000000004,-0.14500000000000035,3.0,8.0,0.4
75.0,2.0,wc_2,,0.0,,,,121.0,,,,Fail,,,,,
75.0,2.0,wc_2,wc_8,0.0,"[('wc_2', 0.6100000000000004), ('wc_4', 0.5200000000000004)]",0.8128000000000004,,,28.0,0.005646,['Fail'],Fail,0.3300000000000002,0.6699999999999998,1.0,1.0,0.3
75.0,2.0,wc_2,,0.0,,,,223.0,,,,Fail,,,,,
75.0,2.0,wc_2,wc_17,1.0,"[('wc_17', 0.6400000000000005), ('wc_2', 0.6100000000000004), ('wc_4', 0.5200000000000004)]",0.9326080000000002,,,38.0,0.037309,['Fail'],Fail,0.6400000000000005,-0.6400000000000005,0.0,0.0,0.6
87.0,4.0,wc_4,,0.0,,,,382.0,,,,Pass,,,,,
87.0,4.0,wc_4,,0.0,,,76.0,,,,,Pass,,,,,
87.0,4.0,wc_4,,0.0,,,,0.0,,,,Pass,,,,,
87.0,4.0,wc_4,wc_4,0.0,"[('wc_4', 0.5200000000000004)]",0.5200000000000004,,,21.0,0.002201,['Pass'],Pass,0.5200000000000004,-0.07555555555555593,4.0,9.0,0.4
87.0,4.0,wc_4,,0.0,,,,121.0,,,,Pass,,,,,
87.0,4.0,wc_4,wc_8,0.0,"[('wc_8', 0.3300000000000002), ('wc_4', 0.5200000000000004)]",0.6784000000000003,,,37.0,0.0038399999999999997,['Pass'],Pass,0.3300000000000002,0.16999999999999982,1.0,2.0,0.3
87.0,4.0,wc_4,,0.0,,,,82.0,,,,Pass,,,,,
87.0,4.0,wc_4,wc_6,0.0,"[('wc_6', 0.28000000000000014), ('wc_4', 0.5200000000000004), ('wc_8', 0.3300000000000002)]",0.7684480000000002,,,34.0,0.006851,['Pass'],Pass,0.28000000000000014,-0.28000000000000014,0.0,2.0,0.2
87.0,4.0,wc_4,,0.0,,,,0.0,,,,Pass,,,,,
87.0,4.0,wc_4,wc_9,1.0,"[('wc_9', 0.7700000000000006), ('wc_4', 0.5200000000000004), ('wc_8', 0.3300000000000002), ('wc_6', 0.28000000000000014)]",0.9467430400000002,,,22.0,0.043778,['Pass'],Pass,0.7700000000000006,-0.7700000000000006,0.0,0.0,1.0
95.0,3.0,wc_3,,0.0,,,,362.0,,,,Pass,,,,,
95.0,3.0,wc_3,,0.0,,,59.0,,,,,Pass,,,,,
95.0,3.0,wc_3,,0.0,,,,0.0,,,,Pass,,,,,
95.0,3.0,wc_3,wc_3,0.0,"[('wc_3', 0.5200000000000004)]",0.5200000000000004,,,22.0,0.002411,['Pass'],Pass,0.5200000000000004,-0.32000000000000034,1.0,5.0,0.3
95.0,3.0,wc_3,,0.0,,,,141.0,,,,Pass,,,,,
95.0,3.0,wc_3,wc_8,0.0,"[('wc_8', 0.3400000000000002), ('wc_3', 0.5200000000000004)]",0.6832000000000003,,,21.0,0.004854000000000001,['Pass'],Pass,0.3400000000000002,0.32666666666666644,2.0,3.0,0.3
95.0,3.0,wc_3,,0.0,,,,162.0,,,,Pass,,,,,
95.0,3.0,wc_3,wc_1,0.0,"[('wc_3', 0.5200000000000004), ('wc_8', 0.3400000000000002)]",0.6832000000000003,,,29.0,0.006254000000000001,['Pass'],Pass,0.5800000000000004,-0.5800000000000004,0.0,2.0,0.4
95.0,3.0,wc_3,,0.0,,,,0.0,,,,Pass,,,,,
95.0,3.0,wc_3,wc_4,0.0,"[('wc_4', 0.5200000000000004), ('wc_1', 0.5800000000000004)]",0.7984000000000003,,,22.0,0.008142,['Fail'],Pass,0.5200000000000004,-0.5200000000000004,0.0,0.0,0.4
95.0,3.0,wc_3,,0.0,,,,0.0,,,,Pass,,,,,
95.0,3.0,wc_3,wc_5,1.0,"[('wc_5', 0.6900000000000005), ('wc_3', 0.5200000000000004), ('wc_8', 0.3400000000000002)]",0.9017920000000003,,,39.0,0.069849,['Pass'],Pass,0.6900000000000005,-0.6900000000000005,0.0,0.0,0.8
110.0,2.0,wc_2,,0.0,,,,61.0,,,,Fail,,,,,
110.0,2.0,wc_2,,0.0,,,68.0,,,,,Fail,,,,,
110.0,2.0,wc_2,,0.0,,,,0.0,,,,Fail,,,,,
110.0,2.0,wc_2,wc_2,0.0,"[('wc_2', 0.6200000000000004)]",0.6200000000000004,,,31.0,0.002249,['Fail'],Fail,0.6200000000000004,-0.2866666666666671,1.0,3.0,0.8
110.0,2.0,wc_2,,0.0,,,,122.0,,,,Fail,,,,,
110.0,2.0,wc_2,wc_6,0.0,"[('wc_6', 0.29000000000000015), ('wc_2', 0.6200000000000004)]",0.7302000000000004,,,38.0,0.004071,['Fail'],Fail,0.29000000000000015,-0.04000000000000015,1.0,4.0,0.2
110.0,2.0,wc_2,,0.0,,,,0.0,,,,Fail,,,,,
110.0,2.0,wc_2,wc_11,0.0,"[('wc_11', 0.29000000000000015), ('wc_2', 0.6200000000000004), ('wc_6', 0.29000000000000015)]",0.8084420000000003,,,31.0,0.005705,['Fail'],Fail,0.29000000000000015,-0.1847368421052633,0.0,0.0,0.2
110.0,2.0,wc_2,,0.0,,,,83.0,,,,Fail,,,,,
110.0,2.0,wc_2,wc_9,1.0,"[('wc_9', 0.7700000000000006), ('wc_2', 0.6200000000000004), ('wc_6', 0.29000000000000015), ('wc_11', 0.29000000000000015)]",0.9559416600000001,,,37.0,0.040891000000000004,['Fail'],Fail,0.7700000000000006,-0.2700000000000006,1.0,2.0,1.0
131.0,2.0,wc_2,,0.0,,,,263.0,,,,Pass,,,,,
131.0,2.0,wc_2,,0.0,,,68.0,,,,,Pass,,,,,
131.0,2.0,wc_2,,0.0,,,,0.0,,,,Pass,,,,,
131.0,2.0,wc_2,wc_2,0.0,"[('wc_2', 0.6200000000000004)]",0.6200000000000004,,,38.0,0.002136,['Fail'],Pass,0.6200000000000004,-0.12000000000000044,2.0,4.0,0.8
131.0,2.0,wc_2,,0.0,,,,263.0,,,,Pass,,,,,
131.0,2.0,wc_2,wc_17,0.0,"[('wc_17', 0.6400000000000005)]",0.6400000000000005,,,26.0,0.003935,['Pass'],Pass,0.6400000000000005,-0.6400000000000005,0.0,3.0,0.6
131.0,2.0,wc_2,,0.0,,,,362.0,,,,Pass,,,,,
131.0,2.0,wc_2,wc_3,0.0,"[('wc_3', 0.5200000000000004), ('wc_2', 0.6200000000000004)]",0.8176000000000003,,,25.0,0.005864,['Fail'],Pass,0.5200000000000004,-0.23428571428571465,2.0,7.0,0.3
131.0,2.0,wc_2,,0.0,,,,0.0,,,,Pass,,,,,
131.0,2.0,wc_2,wc_4,1.0,"[('wc_4', 0.5100000000000003), ('wc_2', 0.6200000000000004), ('wc_3', 0.5200000000000004)]",0.9106240000000002,,,30.0,0.040070999999999996,['Fail'],Pass,0.5100000000000003,-0.17666666666666703,1.0,3.0,0.4
157.0,2.0,wc_2,,0.0,,,,81.0,,,,Pass,,,,,
157.0,2.0,wc_2,,0.0,,,79.0,,,,,Pass,,,,,
157.0,2.0,wc_2,,0.0,,,,0.0,,,,Pass,,,,,
157.0,2.0,wc_2,wc_2,0.0,"[('wc_2', 0.6200000000000004)]",0.6200000000000004,,,34.0,0.00213,['Pass'],Pass,0.6200000000000004,-0.020000000000000462,3.0,5.0,0.8
157.0,2.0,wc_2,,0.0,,,,162.0,,,,Pass,,,,,
157.0,2.0,wc_2,wc_12,0.0,"[('wc_12', 0.7800000000000006), ('wc_2', 0.6200000000000004)]",0.9164000000000003,,,32.0,0.004346,['Pass'],Pass,0.7800000000000006,-0.4642105263157901,0.0,0.0,0.7
157.0,2.0,wc_2,,0.0,,,,381.0,,,,Pass,,,,,
157.0,2.0,wc_2,wc_4,0.0,"[('wc_2', 0.6200000000000004), ('wc_12', 0.7800000000000006)]",0.9164000000000003,,,33.0,0.006365,['Pass'],Pass,0.5100000000000003,-0.17666666666666703,1.0,3.0,0.4
157.0,2.0,wc_2,,0.0,,,,101.0,,,,Pass,,,,,
157.0,2.0,wc_2,wc_7,1.0,"[('wc_7', 0.8100000000000006), ('wc_2', 0.6200000000000004), ('wc_12', 0.7800000000000006)]",0.9841160000000001,,,33.0,0.04271099999999999,['Pass'],Pass,0.8100000000000006,-0.643333333333334,1.0,6.0,0.9
185.0,5.0,wc_5,,0.0,,,,341.0,,,,Pass,,,,,
185.0,5.0,wc_5,,0.0,,,80.0,,,,,Pass,,,,,
185.0,5.0,wc_5,,0.0,,,,0.0,,,,Pass,,,,,
185.0,5.0,wc_5,wc_5,0.0,"[('wc_5', 0.6900000000000005)]",0.6900000000000005,,,27.0,0.002162,['Pass'],Pass,0.6900000000000005,-0.6900000000000005,0.0,3.0,0.8
185.0,5.0,wc_5,,0.0,,,,61.0,,,,Pass,,,,,
185.0,5.0,wc_5,wc_2,0.0,"[('wc_2', 0.6300000000000004), ('wc_5', 0.6900000000000005)]",0.8853000000000003,,,26.0,0.0041919999999999995,['Pass'],Pass,0.6300000000000004,0.03666666666666618,4.0,6.0,0.8
185.0,5.0,wc_5,,0.0,,,,263.0,,,,Pass,,,,,
185.0,5.0,wc_5,wc_17,1.0,"[('wc_17', 0.6300000000000004), ('wc_5', 0.6900000000000005), ('wc_2', 0.6300000000000004)]",0.9575610000000002,,,29.0,0.039754,['Pass'],Pass,0.6300000000000004,-0.4633333333333338,1.0,6.0,0.6
203.0,6.0,wc_6,,0.0,,,,183.0,,,,Fail,,,,,
203.0,6.0,wc_6,,0.0,,,69.0,,,,,Fail,,,,,
203.0,6.0,wc_6,,0.0,,,,0.0,,,,Fail,,,,,
203.0,6.0,wc_6,wc_6,0.0,"[('wc_6', 0.30000000000000016)]",0.30000000000000016,,,38.0,0.002032,['Pass'],Fail,0.30000000000000016,-0.050000000000000155,2.0,8.0,0.2
203.0,6.0,wc_6,,0.0,,,,162.0,,,,Fail,,,,,
203.0,6.0,wc_6,wc_12,0.0,"[('wc_12', 0.7900000000000006)]",0.7900000000000006,,,36.0,0.004231,['Fail'],Fail,0.7900000000000006,-0.2900000000000006,1.0,2.0,0.7
203.0,6.0,wc_6,,0.0,,,,202.0,,,,Fail,,,,,
203.0,6.0,wc_6,wc_7,0.0,"[('wc_7', 0.8100000000000006), ('wc_12', 0.7900000000000006)]",0.9601000000000003,,,20.0,0.005617,['Fail'],Fail,0.8100000000000006,-0.6671428571428577,1.0,7.0,0.9
203.0,6.0,wc_6,,0.0,,,,0.0,,,,Fail,,,,,
203.0,6.0,wc_6,wc_10,0.0,"[('wc_12', 0.7900000000000006), ('wc_7', 0.8100000000000006)]",0.9601000000000003,,,28.0,0.008344,['Fail'],Fail,0.7600000000000006,-0.6975000000000006,0.0,0.0,0.8
203.0,6.0,wc_6,,0.0,,,,121.0,,,,Fail,,,,,
203.0,6.0,wc_6,wc_14,0.0,"[('wc_12', 0.7900000000000006), ('wc_7', 0.8100000000000006)]",0.9601000000000003,,,35.0,0.011116000000000001,['Fail'],Fail,0.4900000000000003,-0.3990909090909094,0.0,0.0,0.6
203.0,6.0,wc_6,,0.0,,,,202.0,,,,Fail,,,,,
203.0,6.0,wc_6,wc_1,1.0,"[('wc_1', 0.5700000000000004), ('wc_12', 0.7900000000000006), ('wc_7', 0.8100000000000006)]",0.9828430000000001,,,21.0,0.048299999999999996,['Fail'],Fail,0.5700000000000004,-0.4450000000000004,1.0,8.0,0.4
226.0,6.0,wc_6,,0.0,,,,142.0,,,,Pass,,,,,
226.0,6.0,wc_6,,0.0,,,69.0,,,,,Pass,,,,,
226.0,6.0,wc_6,,0.0,,,,0.0,,,,Pass,,,,,
226.0,6.0,wc_6,wc_6,0.0,"[('wc_6', 0.29000000000000015)]",0.29000000000000015,,,20.0,0.002257,['Fail'],Pass,0.29000000000000015,-0.06777777777777794,2.0,9.0,0.2
226.0,6.0,wc_6,,0.0,,,,222.0,,,,Pass,,,,,
226.0,6.0,wc_6,wc_2,0.0,"[('wc_2', 0.6400000000000005)]",0.6400000000000005,,,21.0,0.004956,['Pass'],Pass,0.6400000000000005,-0.015000000000000457,5.0,8.0,0.8
226.0,6.0,wc_6,,0.0,,,,0.0,,,,Pass,,,,,
226.0,6.0,wc_6,wc_3,0.0,"[('wc_3', 0.5200000000000004), ('wc_6', 0.29000000000000015)]",0.6592000000000003,,,25.0,0.005677,['Fail'],Pass,0.5200000000000004,-0.24727272727272764,0.0,0.0,0.3
226.0,6.0,wc_6,,0.0,,,,202.0,,,,Pass,,,,,
226.0,6.0,wc_6,wc_15,0.0,"[('wc_15', 0.6900000000000005), ('wc_2', 0.6400000000000005)]",0.8884000000000003,,,24.0,0.007821,['Pass'],Pass,0.6900000000000005,-0.5081818181818187,0.0,0.0,1.0
226.0,6.0,wc_6,,0.0,,,,263.0,,,,Pass,,,,,
226.0,6.0,wc_6,wc_8,0.0,"[('wc_2', 0.6400000000000005), ('wc_15', 0.6900000000000005)]",0.8884000000000003,,,20.0,0.009441999999999999,['Pass'],Pass,0.3500000000000002,-0.016666666666666885,3.0,9.0,0.3
226.0,6.0,wc_6,,0.0,,,,0.0,,,,Pass,,,,,
226.0,6.0,wc_6,wc_10,1.0,"[('wc_10', 0.7500000000000006), ('wc_2', 0.6400000000000005), ('wc_15', 0.6900000000000005)]",0.9721000000000002,,,29.0,0.046125,['Pass'],Pass,0.7500000000000006,-0.25000000000000056,1.0,2.0,0.8
238.0,11.0,wc_11,,0.0,,,,0.0,,,,Pass,,,,,
238.0,11.0,wc_11,,0.0,,,77.0,,,,,Pass,,,,,
238.0,11.0,wc_11,,0.0,,,,0.0,,,,Pass,,,,,
238.0,11.0,wc_11,wc_11,0.0,"[('wc_11', 0.30000000000000016)]",0.30000000000000016,,,29.0,0.002155,['Fail'],Pass,0.30000000000000016,-0.1333333333333335,1.0,6.0,0.2
238.0,11.0,wc_11,,0.0,,,,81.0,,,,Pass,,,,,
238.0,11.0,wc_11,wc_13,0.0,"[('wc_13', 0.8100000000000006)]",0.8100000000000006,,,39.0,0.004154,['Pass'],Pass,0.8100000000000006,-0.7511764705882359,0.0,0.0,1.0
238.0,11.0,wc_11,,0.0,,,,321.0,,,,Pass,,,,,
238.0,11.0,wc_11,wc_10,0.0,"[('wc_10', 0.7500000000000006), ('wc_13', 0.8100000000000006)]",0.9525000000000002,,,27.0,0.006007,['Pass'],Pass,0.7500000000000006,-0.25000000000000056,1.0,2.0,0.8
238.0,11.0,wc_11,,0.0,,,,121.0,,,,Pass,,,,,
238.0,11.0,wc_11,wc_14,1.0,"[('wc_14', 0.4800000000000003), ('wc_13', 0.8100000000000006), ('wc_10', 0.7500000000000006)]",0.9753000000000002,,,25.0,0.042699,['Pass'],Pass,0.4800000000000003,-0.146666666666667,1.0,3.0,0.6
247.0,9.0,wc_9,,0.0,,,,281.0,,,,Pass,,,,,
247.0,9.0,wc_9,,0.0,,,52.0,,,,,Pass,,,,,
247.0,9.0,wc_9,,0.0,,,,0.0,,,,Pass,,,,,
247.0,9.0,wc_9,wc_9,0.0,"[('wc_9', 0.7700000000000006)]",0.7700000000000006,,,30.0,0.002389,['Pass'],Pass,0.7700000000000006,-0.6450000000000006,1.0,8.0,1.0
247.0,9.0,wc_9,,0.0,,,,0.0,,,,Pass,,,,,
247.0,9.0,wc_9,wc_10,0.0,"[('wc_10', 0.7500000000000006), ('wc_9', 0.7700000000000006)]",0.9425000000000002,,,40.0,0.004451999999999999,['Pass'],Pass,0.7500000000000006,-0.08333333333333393,2.0,3.0,0.8
247.0,9.0,wc_9,,0.0,,,,81.0,,,,Pass,,,,,
247.0,9.0,wc_9,wc_12,1.0,"[('wc_12', 0.7900000000000006), ('wc_9', 0.7700000000000006), ('wc_10', 0.7500000000000006)]",0.987925,,,30.0,0.036276,['Pass'],Pass,0.7900000000000006,-0.2900000000000006,3.0,6.0,0.7
258.0,10.0,wc_10,,0.0,,,,341.0,,,,Fail,,,,,
258.0,10.0,wc_10,,0.0,,,64.0,,,,,Fail,,,,,
258.0,10.0,wc_10,,0.0,,,,0.0,,,,Fail,,,,,
258.0,10.0,wc_10,wc_10,0.0,"[('wc_10', 0.7500000000000006)]",0.7500000000000006,,,35.0,0.002196,['Pass'],Fail,0.7500000000000006,-5.551115123125783e-16,3.0,4.0,0.8
258.0,10.0,wc_10,,0.0,,,,41.0,,,,Fail,,,,,
258.0,10.0,wc_10,wc_6,0.0,"[('wc_6', 0.28000000000000014), ('wc_10', 0.7500000000000006)]",0.8200000000000004,,,38.0,0.0037459999999999998,['Pass'],Fail,0.28000000000000014,-0.28000000000000014,0.0,2.0,0.2
258.0,10.0,wc_10,,0.0,,,,0.0,,,,Fail,,,,,
258.0,10.0,wc_10,wc_8,0.0,"[('wc_8', 0.3400000000000002), ('wc_10', 0.7500000000000006), ('wc_6', 0.28000000000000014)]",0.8812000000000003,,,31.0,0.005423,['Pass'],Fail,0.3400000000000002,-0.3400000000000002,0.0,2.0,0.3
258.0,10.0,wc_10,,0.0,,,,0.0,,,,Fail,,,,,
258.0,10.0,wc_10,wc_9,0.0,"[('wc_10', 0.7500000000000006), ('wc_6', 0.28000000000000014), ('wc_8', 0.3400000000000002)]",0.8812000000000003,,,25.0,0.006891,['Pass'],Fail,0.7700000000000006,-0.5477777777777784,2.0,9.0,1.0
258.0,10.0,wc_10,,0.0,,,,182.0,,,,Fail,,,,,
258.0,10.0,wc_10,wc_16,0.0,"[('wc_16', 0.8200000000000006), ('wc_9', 0.7700000000000006)]",0.9586000000000002,,,31.0,0.01054,['Fail'],Fail,0.8200000000000006,-0.7330434782608701,0.0,0.0,0.9
258.0,10.0,wc_10,,0.0,,,,103.0,,,,Fail,,,,,
258.0,10.0,wc_10,wc_15,1.0,"[('wc_15', 0.7000000000000005), ('wc_9', 0.7700000000000006), ('wc_16', 0.8200000000000006)]",0.9875800000000001,,,39.0,0.04313900000000001,['Fail'],Fail,0.7000000000000005,-0.2000000000000005,2.0,4.0,1.0
271.0,8.0,wc_8,,0.0,,,,263.0,,,,Fail,,,,,
271.0,8.0,wc_8,,0.0,,,72.0,,,,,Fail,,,,,
271.0,8.0,wc_8,,0.0,,,,0.0,,,,Fail,,,,,
271.0,8.0,wc_8,wc_8,0.0,"[('wc_8', 0.3300000000000002)]",0.3300000000000002,,,32.0,0.002188,['Fail'],Fail,0.3300000000000002,-0.3300000000000002,0.0,3.0,0.3
271.0,8.0,wc_8,,0.0,,,,142.0,,,,Fail,,,,,
271.0,8.0,wc_8,wc_13,0.0,"[('wc_13', 0.8200000000000006), ('wc_8', 0.3300000000000002)]",0.8794000000000004,,,39.0,0.004078,['Fail'],Fail,0.8200000000000006,-0.4866666666666673,1.0,3.0,1.0
271.0,8.0,wc_8,,0.0,,,,0.0,,,,Fail,,,,,
271.0,8.0,wc_8,wc_14,0.0,"[('wc_8', 0.3300000000000002), ('wc_13', 0.8200000000000006)]",0.8794000000000004,,,23.0,0.005776,['Fail'],Fail,0.4800000000000003,-0.2800000000000003,1.0,5.0,0.6
271.0,8.0,wc_8,,0.0,,,,0.0,,,,Fail,,,,,
271.0,8.0,wc_8,wc_15,1.0,"[('wc_15', 0.7000000000000005), ('wc_8', 0.3300000000000002), ('wc_13', 0.8200000000000006)]",0.9638200000000002,,,38.0,0.04026799999999999,['Fail'],Fail,0.7000000000000005,-0.10000000000000053,3.0,5.0,1.0
281.0,8.0,wc_8,,0.0,,,,263.0,,,,Pass,,,,,
281.0,8.0,wc_8,,0.0,,,60.0,,,,,Pass,,,,,
281.0,8.0,wc_8,,0.0,,,,0.0,,,,Pass,,,,,
281.0,8.0,wc_8,wc_8,0.0,"[('wc_8', 0.3300000000000002)]",0.3300000000000002,,,38.0,0.002263,['Fail'],Pass,0.3300000000000002,-0.08000000000000018,1.0,4.0,0.3
281.0,8.0,wc_8,,0.0,,,,142.0,,,,Pass,,,,,
281.0,8.0,wc_8,wc_13,0.0,"[('wc_13', 0.8200000000000006)]",0.8200000000000006,,,39.0,0.004963,['Pass'],Pass,0.8200000000000006,-0.3200000000000006,2.0,4.0,1.0
281.0,8.0,wc_8,,0.0,,,,381.0,,,,Pass,,,,,
281.0,8.0,wc_8,wc_5,0.0,"[('wc_5', 0.6900000000000005), ('wc_13', 0.8200000000000006)]",0.9442000000000003,,,25.0,0.005775,['Pass'],Pass,0.6900000000000005,-0.5900000000000005,0.0,0.0,0.8
281.0,8.0,wc_8,,0.0,,,,142.0,,,,Pass,,,,,
281.0,8.0,wc_8,wc_10,1.0,"[('wc_10', 0.7400000000000005), ('wc_13', 0.8200000000000006), ('wc_5', 0.6900000000000005)]",0.9854920000000001,,,23.0,0.04028500000000001,['Pass'],Pass,0.7400000000000005,-0.16857142857142915,4.0,7.0,0.8
293.0,10.0,wc_10,,0.0,,,,0.0,,,,Pass,,,,,
293.0,10.0,wc_10,,0.0,,,69.0,,,,,Pass,,,,,
293.0,10.0,wc_10,,0.0,,,,0.0,,,,Pass,,,,,
293.0,10.0,wc_10,wc_10,0.0,"[('wc_10', 0.7400000000000005)]",0.7400000000000005,,,25.0,0.002075,['Pass'],Pass,0.7400000000000005,-0.16857142857142915,4.0,7.0,0.8
293.0,10.0,wc_10,,0.0,,,,142.0,,,,Pass,,,,,
293.0,10.0,wc_10,wc_15,0.0,"[('wc_15', 0.7000000000000005), ('wc_10', 0.7400000000000005)]",0.9220000000000003,,,28.0,0.004011,['Pass'],Pass,0.7000000000000005,-0.2000000000000005,3.0,6.0,1.0
293.0,10.0,wc_10,,0.0,,,,243.0,,,,Pass,,,,,
293.0,10.0,wc_10,wc_7,1.0,"[('wc_7', 0.8100000000000006), ('wc_10', 0.7400000000000005), ('wc_15', 0.7000000000000005)]",0.9851800000000001,,,36.0,0.038646,['Pass'],Pass,0.8100000000000006,-0.8100000000000006,0.0,0.0,0.9
313.0,7.0,wc_7,,0.0,,,,0.0,,,,Fail,,,,,
313.0,7.0,wc_7,,0.0,,,69.0,,,,,Fail,,,,,
313.0,7.0,wc_7,,0.0,,,,0.0,,,,Fail,,,,,
313.0,7.0,wc_7,wc_7,0.0,"[('wc_7', 0.8100000000000006)]",0.8100000000000006,,,23.0,0.002261,['Fail'],Fail,0.8100000000000006,-0.8100000000000006,0.0,0.0,0.9
313.0,7.0,wc_7,,0.0,,,,182.0,,,,Fail,,,,,
313.0,7.0,wc_7,wc_1,0.0,"[('wc_7', 0.8100000000000006)]",0.8100000000000006,,,40.0,0.004274,['Fail'],Fail,0.5700000000000004,-0.5033333333333337,0.0,0.0,0.4
313.0,7.0,wc_7,,0.0,,,,182.0,,,,Fail,,,,,
313.0,7.0,wc_7,wc_12,0.0,"[('wc_12', 0.7900000000000006), ('wc_7', 0.8100000000000006)]",0.9601000000000003,,,26.0,0.005554,['Fail'],Fail,0.7900000000000006,-0.4900000000000006,0.0,0.0,0.7
313.0,7.0,wc_7,,0.0,,,,341.0,,,,Fail,,,,,
313.0,7.0,wc_7,wc_10,1.0,"[('wc_10', 0.7400000000000005), ('wc_7', 0.8100000000000006), ('wc_12', 0.7900000000000006)]",0.9896260000000001,,,31.0,0.040185,['Fail'],Fail,0.7400000000000005,-0.07333333333333392,6.0,9.0,0.8
330.0,7.0,wc_7,,0.0,,,,61.0,,,,Pass,,,,,
330.0,7.0,wc_7,,0.0,,,56.0,,,,,Pass,,,,,
330.0,7.0,wc_7,,0.0,,,,0.0,,,,Pass,,,,,
330.0,7.0,wc_7,wc_7,0.0,"[('wc_7', 0.8200000000000006)]",0.8200000000000006,,,32.0,0.002146,['Pass'],Pass,0.8200000000000006,0.17999999999999938,1.0,1.0,0.9
330.0,7.0,wc_7,,0.0,,,,162.0,,,,Pass,,,,,
330.0,7.0,wc_7,wc_13,0.0,"[('wc_13', 0.8200000000000006), ('wc_7', 0.8200000000000006)]",0.9676000000000002,,,21.0,0.00435,['Pass'],Pass,0.8200000000000006,-0.39142857142857207,3.0,7.0,1.0
330.0,7.0,wc_7,,0.0,,,,341.0,,,,Pass,,,,,
330.0,7.0,wc_7,wc_3,1.0,"[('wc_3', 0.5100000000000003), ('wc_7', 0.8200000000000006), ('wc_13', 0.8200000000000006)]",0.9841240000000001,,,33.0,0.039701,['Pass'],Pass,0.5100000000000003,-0.39888888888888924,1.0,9.0,0.3
338.0,12.0,wc_12,,0.0,,,,141.0,,,,Pass,,,,,
338.0,12.0,wc_12,,0.0,,,50.0,,,,,Pass,,,,,
338.0,12.0,wc_12,,0.0,,,,0.0,,,,Pass,,,,,
338.0,12.0,wc_12,wc_12,0.0,"[('wc_12', 0.8000000000000006)]",0.8000000000000006,,,29.0,0.00219,['Pass'],Pass,0.8000000000000006,-0.3000000000000006,1.0,2.0,0.7
338.0,12.0,wc_12,,0.0,,,,0.0,,,,Pass,,,,,
338.0,12.0,wc_12,wc_13,0.0,"[('wc_13', 0.8200000000000006), ('wc_12', 0.8000000000000006)]",0.9640000000000002,,,29.0,0.004144,['Pass'],Pass,0.8200000000000006,-0.3200000000000006,4.0,8.0,1.0
338.0,12.0,wc_12,,0.0,,,,202.0,,,,Pass,,,,,
338.0,12.0,wc_12,wc_8,0.0,"[('wc_12', 0.8000000000000006), ('wc_13', 0.8200000000000006)]",0.9640000000000002,,,35.0,0.005824,['Pass'],Pass,0.3200000000000002,-0.19500000000000017,1.0,8.0,0.3
338.0,12.0,wc_12,,0.0,,,,0.0,,,,Pass,,,,,
338.0,12.0,wc_12,wc_9,1.0,"[('wc_9', 0.7700000000000006), ('wc_12', 0.8000000000000006), ('wc_13', 0.8200000000000006)]",0.99172,,,30.0,0.03877800000000001,['Pass'],Pass,0.7700000000000006,-0.6033333333333339,1.0,6.0,1.0
359.0,13.0,wc_13,,0.0,,,,121.0,,,,Pass,,,,,
359.0,13.0,wc_13,,0.0,,,71.0,,,,,Pass,,,,,
359.0,13.0,wc_13,,0.0,,,,0.0,,,,Pass,,,,,
359.0,13.0,wc_13,wc_13,0.0,"[('wc_13', 0.8200000000000006)]",0.8200000000000006,,,21.0,0.002317,['Pass'],Pass,0.8200000000000006,-0.26444444444444504,5.0,9.0,1.0
359.0,13.0,wc_13,,0.0,,,,381.0,,,,Pass,,,,,
359.0,13.0,wc_13,wc_5,0.0,"[('wc_5', 0.7000000000000005), ('wc_13', 0.8200000000000006)]",0.9460000000000003,,,33.0,0.004231,['Pass'],Pass,0.7000000000000005,-0.5000000000000004,1.0,5.0,0.8
359.0,13.0,wc_13,,0.0,,,,41.0,,,,Pass,,,,,
359.0,13.0,wc_13,wc_1,1.0,"[('wc_1', 0.5600000000000004), ('wc_13', 0.8200000000000006), ('wc_5', 0.7000000000000005)]",0.9762400000000001,,,39.0,0.037986,['Pass'],Pass,0.5600000000000004,-0.3100000000000004,1.0,4.0,0.4
371.0,15.0,wc_15,,0.0,,,,243.0,,,,Pass,,,,,
371.0,15.0,wc_15,,0.0,,,66.0,,,,,Pass,,,,,
371.0,15.0,wc_15,,0.0,,,,0.0,,,,Pass,,,,,
371.0,15.0,wc_15,wc_15,0.0,"[('wc_15', 0.7000000000000005)]",0.7000000000000005,,,34.0,0.002088,['Pass'],Pass,0.7000000000000005,-0.33636363636363686,0.0,0.0,1.0
371.0,15.0,wc_15,,0.0,,,,101.0,,,,Pass,,,,,
371.0,15.0,wc_15,wc_14,0.0,"[('wc_14', 0.4700000000000003), ('wc_15', 0.7000000000000005)]",0.8410000000000004,,,22.0,0.004594,['Pass'],Pass,0.4700000000000003,-0.386666666666667,0.0,0.0,0.6
371.0,15.0,wc_15,,0.0,,,,102.0,,,,Pass,,,,,
371.0,15.0,wc_15,wc_13,1.0,"[('wc_13', 0.8200000000000006), ('wc_15', 0.7000000000000005), ('wc_14', 0.4700000000000003)]",0.9713800000000001,,,28.0,0.03785,['Pass'],Pass,0.8300000000000006,0.16999999999999937,1.0,1.0,1.0
382.0,14.0,wc_14,,0.0,,,,0.0,,,,Pass,,,,,
382.0,14.0,wc_14,,0.0,,,62.0,,,,,Pass,,,,,
382.0,14.0,wc_14,,0.0,,,,0.0,,,,Pass,,,,,
382.0,14.0,wc_14,wc_14,0.0,"[('wc_14', 0.4800000000000003)]",0.4800000000000003,,,34.0,0.002132,['Pass'],Pass,0.4800000000000003,0.5199999999999997,1.0,1.0,0.6
382.0,14.0,wc_14,,0.0,,,,202.0,,,,Pass,,,,,
382.0,14.0,wc_14,wc_1,0.0,"[('wc_1', 0.5600000000000004)]",0.5600000000000004,,,29.0,0.004001,['Fail'],Pass,0.5600000000000004,-0.3600000000000004,1.0,5.0,0.4
382.0,14.0,wc_14,,0.0,,,,283.0,,,,Pass,,,,,
382.0,14.0,wc_14,wc_17,0.0,"[('wc_17', 0.6300000000000004), ('wc_14', 0.4800000000000003)]",0.8076000000000003,,,22.0,0.006821000000000001,['Pass'],Pass,0.6300000000000004,-0.577368421052632,0.0,0.0,0.6
382.0,14.0,wc_14,,0.0,,,,263.0,,,,Pass,,,,,
382.0,14.0,wc_14,wc_2,0.0,"[('wc_2', 0.6500000000000005), ('wc_1', 0.5600000000000004)]",0.8460000000000003,,,38.0,0.008153,['Fail'],Pass,0.6500000000000005,-0.3500000000000005,0.0,0.0,0.8
382.0,14.0,wc_14,,0.0,,,,0.0,,,,Pass,,,,,
382.0,14.0,wc_14,wc_3,1.0,"[('wc_3', 0.5100000000000003), ('wc_14', 0.4800000000000003), ('wc_17', 0.6300000000000004)]",0.9057240000000002,,,24.0,0.042548,['Pass'],Pass,0.5100000000000003,-0.5100000000000003,0.0,0.0,0.3
399.0,16.0,wc_16,,0.0,,,,222.0,,,,Fail,,,,,
399.0,16.0,wc_16,,0.0,,,59.0,,,,,Fail,,,,,
399.0,16.0,wc_16,,0.0,,,,0.0,,,,Fail,,,,,
399.0,16.0,wc_16,wc_16,0.0,"[('wc_16', 0.8300000000000006)]",0.8300000000000006,,,23.0,0.00235,['Fail'],Fail,0.8300000000000006,-0.7300000000000006,0.0,0.0,0.9
399.0,16.0,wc_16,,0.0,,,,422.0,,,,Fail,,,,,
399.0,16.0,wc_16,wc_5,0.0,"[('wc_5', 0.7000000000000005), ('wc_16', 0.8300000000000006)]",0.9490000000000003,,,32.0,0.004257,['Fail'],Fail,0.7000000000000005,-0.4500000000000005,2.0,8.0,0.8
399.0,16.0,wc_16,,0.0,,,,162.0,,,,Fail,,,,,
399.0,16.0,wc_16,wc_11,0.0,"[('wc_16', 0.8300000000000006), ('wc_5', 0.7000000000000005)]",0.9490000000000003,,,30.0,0.005803,['Fail'],Fail,0.29000000000000015,-0.2344444444444446,0.0,0.0,0.2
399.0,16.0,wc_16,,0.0,,,,103.0,,,,Fail,,,,,
399.0,16.0,wc_16,wc_10,1.0,"[('wc_10', 0.7400000000000005), ('wc_16', 0.8300000000000006), ('wc_5', 0.7000000000000005)]",0.9867400000000001,,,28.0,0.042367999999999996,['Fail'],Fail,0.7400000000000005,-0.7400000000000005,0.0,0.0,0.8
410.0,16.0,wc_16,,0.0,,,,162.0,,,,Fail,,,,,
410.0,16.0,wc_16,,0.0,,,69.0,,,,,Fail,,,,,
410.0,16.0,wc_16,,0.0,,,,0.0,,,,Fail,,,,,
410.0,16.0,wc_16,wc_16,0.0,"[('wc_16', 0.8400000000000006)]",0.8400000000000006,,,21.0,0.002654,['Fail'],Fail,0.8400000000000006,0.15999999999999936,1.0,1.0,0.9
410.0,16.0,wc_16,,0.0,,,,203.0,,,,Fail,,,,,
410.0,16.0,wc_16,wc_6,0.0,"[('wc_6', 0.27000000000000013), ('wc_16', 0.8400000000000006)]",0.8832000000000004,,,29.0,0.003947,['Fail'],Fail,0.27000000000000013,-0.27000000000000013,0.0,0.0,0.2
410.0,16.0,wc_16,,0.0,,,,182.0,,,,Fail,,,,,
410.0,16.0,wc_16,wc_13,1.0,"[('wc_13', 0.8300000000000006), ('wc_16', 0.8400000000000006), ('wc_6', 0.27000000000000013)]",0.9801440000000001,,,40.0,0.03856299999999999,['Fail'],Fail,0.8300000000000006,-0.3300000000000006,2.0,4.0,1.0
418.0,16.0,wc_16,,0.0,,,,0.0,,,,Pass,,,,,
418.0,16.0,wc_16,,0.0,,,52.0,,,,,Pass,,,,,
418.0,16.0,wc_16,,0.0,,,,0.0,,,,Pass,,,,,
418.0,16.0,wc_16,wc_16,0.0,"[('wc_16', 0.8500000000000006)]",0.8500000000000006,,,23.0,0.002303,['Pass'],Pass,0.8500000000000006,0.14999999999999936,2.0,2.0,0.9
418.0,16.0,wc_16,,0.0,,,,243.0,,,,Pass,,,,,
418.0,16.0,wc_16,wc_8,0.0,"[('wc_16', 0.8500000000000006)]",0.8500000000000006,,,32.0,0.004198,['Pass'],Pass,0.31000000000000016,-0.23857142857142874,0.0,0.0,0.3
418.0,16.0,wc_16,,0.0,,,,301.0,,,,Pass,,,,,
418.0,16.0,wc_16,wc_4,0.0,"[('wc_4', 0.5000000000000003), ('wc_16', 0.8500000000000006)]",0.9250000000000004,,,37.0,0.006053,['Pass'],Pass,0.5000000000000003,-0.4523809523809527,0.0,0.0,0.4
418.0,16.0,wc_16,,0.0,,,,121.0,,,,Pass,,,,,
418.0,16.0,wc_16,wc_12,1.0,"[('wc_12', 0.8000000000000006), ('wc_16', 0.8500000000000006), ('wc_4', 0.5000000000000003)]",0.9850000000000001,,,24.0,0.043946,['Pass'],Pass,0.8000000000000006,-0.4666666666666673,3.0,9.0,0.7
428.0,17.0,wc_17,,0.0,,,,0.0,,,,Pass,,,,,
428.0,17.0,wc_17,,0.0,,,72.0,,,,,Pass,,,,,
428.0,17.0,wc_17,,0.0,,,,0.0,,,,Pass,,,,,
428.0,17.0,wc_17,wc_17,0.0,"[('wc_17', 0.6400000000000005)]",0.6400000000000005,,,34.0,0.002279,['Pass'],Pass,0.6400000000000005,-0.39000000000000046,1.0,4.0,0.6
428.0,17.0,wc_17,,0.0,,,,362.0,,,,Pass,,,,,
428.0,17.0,wc_17,wc_3,0.0,"[('wc_3', 0.5100000000000003), ('wc_17', 0.6400000000000005)]",0.8236000000000003,,,25.0,0.004044,['Pass'],Pass,0.5100000000000003,-0.5100000000000003,0.0,3.0,0.3
428.0,17.0,wc_17,,0.0,,,,101.0,,,,Pass,,,,,
428.0,17.0,wc_17,wc_2,1.0,"[('wc_2', 0.6400000000000005), ('wc_17', 0.6400000000000005), ('wc_3', 0.5100000000000003)]",0.9364960000000002,,,22.0,0.040588,['Pass'],Pass,0.6400000000000005,-0.44000000000000045,1.0,5.0,0.8
