mpecck/BCQC/bcqc_with_qdt/results/raw/input_5/independent_qc/training/20_workpiece/20200429_084414/wp_19_qc_majority_0.9.csv
production_index,step_idx,production_workcell,qc,consent,winner_qc_list,score,production_time,transport_time,inspection_time,network_time,qc_results,actual_quality,qc_score,score_error,in_winner_counter,in_qc_counter,qc_capability
88.0,1.0,wc_1,,0.0,,,57.0,,,,,Pass,,,,,
88.0,1.0,wc_1,,0.0,,,,0.0,,,,Pass,,,,,
88.0,1.0,wc_1,wc_1,0.0,"[('wc_1', 0.5700000000000004)]",0.5700000000000004,,,36.0,0.002341,['Pass'],Pass,0.5700000000000004,-0.5700000000000004,0.0,1.0,0.4
88.0,1.0,wc_1,,0.0,,,,263.0,,,,Pass,,,,,
88.0,1.0,wc_1,wc_16,0.0,"[('wc_16', 0.8500000000000006), ('wc_1', 0.5700000000000004)]",0.9355000000000003,,,34.0,0.003978000000000001,['Pass'],Pass,0.8500000000000006,-0.35000000000000064,1.0,2.0,0.9
88.0,1.0,wc_1,,0.0,,,,103.0,,,,Pass,,,,,
88.0,1.0,wc_1,wc_15,1.0,"[('wc_15', 0.7000000000000005), ('wc_1', 0.5700000000000004), ('wc_16', 0.8500000000000006)]",0.9806500000000001,,,28.0,0.036675,['Pass'],Pass,0.7000000000000005,-0.2000000000000005,3.0,6.0,1.0
97.0,4.0,wc_4,,0.0,,,,422.0,,,,Pass,,,,,
97.0,4.0,wc_4,,0.0,,,63.0,,,,,Pass,,,,,
97.0,4.0,wc_4,,0.0,,,,0.0,,,,Pass,,,,,
97.0,4.0,wc_4,wc_4,0.0,"[('wc_4', 0.4800000000000003)]",0.4800000000000003,,,27.0,0.002591,['Fail'],Pass,0.4800000000000003,-0.4800000000000003,0.0,3.0,0.4
97.0,4.0,wc_4,,0.0,,,,81.0,,,,Pass,,,,,
97.0,4.0,wc_4,wc_6,0.0,"[('wc_6', 0.28000000000000014), ('wc_4', 0.4800000000000003)]",0.6256000000000004,,,39.0,0.004091,['Fail'],Pass,0.28000000000000014,-0.09818181818181831,0.0,0.0,0.2
97.0,4.0,wc_4,,0.0,,,,0.0,,,,Pass,,,,,
97.0,4.0,wc_4,wc_10,0.0,"[('wc_10', 0.7600000000000006)]",0.7600000000000006,,,22.0,0.006216,['Pass'],Pass,0.7600000000000006,-0.7600000000000006,0.0,3.0,0.8
97.0,4.0,wc_4,,0.0,,,,142.0,,,,Pass,,,,,
97.0,4.0,wc_4,wc_15,0.0,"[('wc_15', 0.7000000000000005), ('wc_10', 0.7600000000000006)]",0.9280000000000003,,,22.0,0.007370000000000001,['Pass'],Pass,0.7000000000000005,-0.2000000000000005,3.0,6.0,1.0
97.0,4.0,wc_4,,0.0,,,,402.0,,,,Pass,,,,,
97.0,4.0,wc_4,wc_3,1.0,"[('wc_3', 0.42000000000000026), ('wc_10', 0.7600000000000006), ('wc_15', 0.7000000000000005)]",0.9582400000000002,,,28.0,0.041729,['Pass'],Pass,0.42000000000000026,-0.42000000000000026,0.0,0.0,0.3
113.0,3.0,wc_3,,0.0,,,,0.0,,,,Fail,,,,,
113.0,3.0,wc_3,,0.0,,,74.0,,,,,Fail,,,,,
113.0,3.0,wc_3,,0.0,,,,0.0,,,,Fail,,,,,
113.0,3.0,wc_3,wc_3,0.0,"[('wc_3', 0.42000000000000026)]",0.42000000000000026,,,35.0,0.002584,['Pass'],Fail,0.42000000000000026,-0.42000000000000026,0.0,0.0,0.3
113.0,3.0,wc_3,,0.0,,,,101.0,,,,Fail,,,,,
113.0,3.0,wc_3,wc_2,0.0,"[('wc_2', 0.6800000000000005)]",0.6800000000000005,,,35.0,0.004273,['Fail'],Fail,0.6800000000000005,-0.4577777777777783,2.0,9.0,0.8
113.0,3.0,wc_3,,0.0,,,,223.0,,,,Fail,,,,,
113.0,3.0,wc_3,wc_15,0.0,"[('wc_15', 0.7000000000000005), ('wc_2', 0.6800000000000005)]",0.9040000000000004,,,39.0,0.006064,['Fail'],Fail,0.7000000000000005,-0.1285714285714291,4.0,7.0,1.0
113.0,3.0,wc_3,,0.0,,,,81.0,,,,Fail,,,,,
113.0,3.0,wc_3,wc_13,1.0,"[('wc_13', 0.9000000000000007), ('wc_2', 0.6800000000000005), ('wc_15', 0.7000000000000005)]",0.9904000000000001,,,35.0,0.039857,['Fail'],Fail,0.9000000000000007,-0.9000000000000007,0.0,0.0,1.0
134.0,3.0,wc_3,,0.0,,,,341.0,,,,Fail,,,,,
134.0,3.0,wc_3,,0.0,,,61.0,,,,,Fail,,,,,
134.0,3.0,wc_3,,0.0,,,,0.0,,,,Fail,,,,,
134.0,3.0,wc_3,wc_3,0.0,"[('wc_3', 0.41000000000000025)]",0.41000000000000025,,,29.0,0.002042,['Pass'],Fail,0.41000000000000025,-0.41000000000000025,0.0,1.0,0.3
134.0,3.0,wc_3,,0.0,,,,222.0,,,,Fail,,,,,
134.0,3.0,wc_3,wc_16,0.0,"[('wc_16', 0.8500000000000006)]",0.8500000000000006,,,40.0,0.0042179999999999995,['Fail'],Fail,0.8500000000000006,-0.4500000000000006,2.0,5.0,0.9
134.0,3.0,wc_3,,0.0,,,,61.0,,,,Fail,,,,,
134.0,3.0,wc_3,wc_13,0.0,"[('wc_13', 0.9000000000000007), ('wc_16', 0.8500000000000006)]",0.9850000000000002,,,33.0,0.005673,['Fail'],Fail,0.9000000000000007,-0.9000000000000007,0.0,0.0,1.0
134.0,3.0,wc_3,,0.0,,,,202.0,,,,Fail,,,,,
134.0,3.0,wc_3,wc_8,1.0,"[('wc_8', 0.29000000000000015), ('wc_16', 0.8500000000000006), ('wc_13', 0.9000000000000007)]",0.9893500000000002,,,29.0,0.040886000000000006,['Fail'],Fail,0.29000000000000015,-0.06777777777777794,2.0,9.0,0.3
169.0,2.0,wc_2,,0.0,,,,182.0,,,,Pass,,,,,
169.0,2.0,wc_2,,0.0,,,67.0,,,,,Pass,,,,,
169.0,2.0,wc_2,,0.0,,,,0.0,,,,Pass,,,,,
169.0,2.0,wc_2,wc_2,0.0,"[('wc_2', 0.6800000000000005)]",0.6800000000000005,,,25.0,0.002166,['Pass'],Pass,0.6800000000000005,-0.6800000000000005,0.0,1.0,0.8
169.0,2.0,wc_2,,0.0,,,,122.0,,,,Pass,,,,,
169.0,2.0,wc_2,wc_6,0.0,"[('wc_2', 0.6800000000000005)]",0.6800000000000005,,,23.0,0.004283,['Pass'],Pass,0.27000000000000013,-0.27000000000000013,0.0,3.0,0.2
169.0,2.0,wc_2,,0.0,,,,0.0,,,,Pass,,,,,
169.0,2.0,wc_2,wc_11,0.0,"[('wc_11', 0.27000000000000013), ('wc_2', 0.6800000000000005)]",0.7664000000000004,,,20.0,0.005457,['Pass'],Pass,0.27000000000000013,-0.07000000000000012,1.0,5.0,0.2
169.0,2.0,wc_2,,0.0,,,,342.0,,,,Pass,,,,,
169.0,2.0,wc_2,wc_4,0.0,"[('wc_4', 0.4700000000000003), ('wc_2', 0.6800000000000005), ('wc_11', 0.27000000000000013)]",0.8761920000000003,,,20.0,0.00701,['Pass'],Pass,0.4700000000000003,-0.4700000000000003,0.0,6.0,0.4
169.0,2.0,wc_2,,0.0,,,,141.0,,,,Pass,,,,,
169.0,2.0,wc_2,wc_13,1.0,"[('wc_13', 0.9100000000000007), ('wc_2', 0.6800000000000005), ('wc_11', 0.27000000000000013), ('wc_4', 0.4700000000000003)]",0.9888572800000001,,,33.0,0.04167,['Pass'],Pass,0.9200000000000007,0.0799999999999993,2.0,2.0,1.0
206.0,3.0,wc_3,,0.0,,,,341.0,,,,Pass,,,,,
206.0,3.0,wc_3,,0.0,,,64.0,,,,,Pass,,,,,
206.0,3.0,wc_3,,0.0,,,,0.0,,,,Pass,,,,,
206.0,3.0,wc_3,wc_3,0.0,"[('wc_3', 0.40000000000000024)]",0.40000000000000024,,,33.0,0.002254,['Pass'],Pass,0.40000000000000024,-0.40000000000000024,0.0,3.0,0.3
206.0,3.0,wc_3,,0.0,,,,0.0,,,,Pass,,,,,
206.0,3.0,wc_3,wc_5,0.0,"[('wc_5', 0.7200000000000005), ('wc_3', 0.40000000000000024)]",0.8320000000000004,,,40.0,0.004295,['Pass'],Pass,0.7200000000000005,-0.5950000000000005,0.0,0.0,0.8
206.0,3.0,wc_3,,0.0,,,,103.0,,,,Pass,,,,,
206.0,3.0,wc_3,wc_4,1.0,"[('wc_4', 0.4700000000000003), ('wc_3', 0.40000000000000024), ('wc_5', 0.7200000000000005)]",0.9109600000000002,,,33.0,0.039251999999999995,['Pass'],Pass,0.4700000000000003,-0.2200000000000003,2.0,8.0,0.4
221.0,5.0,wc_5,,0.0,,,,0.0,,,,Pass,,,,,
221.0,5.0,wc_5,,0.0,,,58.0,,,,,Pass,,,,,
221.0,5.0,wc_5,,0.0,,,,0.0,,,,Pass,,,,,
221.0,5.0,wc_5,wc_5,0.0,"[('wc_5', 0.7300000000000005)]",0.7300000000000005,,,21.0,0.002242,['Pass'],Pass,0.7300000000000005,0.26999999999999946,1.0,1.0,0.8
221.0,5.0,wc_5,,0.0,,,,121.0,,,,Pass,,,,,
221.0,5.0,wc_5,wc_13,0.0,"[('wc_13', 0.9200000000000007), ('wc_5', 0.7300000000000005)]",0.9784000000000003,,,20.0,0.0038580000000000003,['Pass'],Pass,0.9200000000000007,-0.2533333333333341,2.0,3.0,1.0
221.0,5.0,wc_5,,0.0,,,,361.0,,,,Pass,,,,,
221.0,5.0,wc_5,wc_4,0.0,"[('wc_5', 0.7300000000000005), ('wc_13', 0.9200000000000007)]",0.9784000000000003,,,35.0,0.005799,['Pass'],Pass,0.4700000000000003,-0.2200000000000003,2.0,8.0,0.4
221.0,5.0,wc_5,,0.0,,,,61.0,,,,Pass,,,,,
221.0,5.0,wc_5,wc_1,0.0,"[('wc_5', 0.7300000000000005), ('wc_13', 0.9200000000000007)]",0.9784000000000003,,,22.0,0.0072840000000000005,['Pass'],Pass,0.5700000000000004,-0.42714285714285755,1.0,7.0,0.4
221.0,5.0,wc_5,,0.0,,,,0.0,,,,Pass,,,,,
221.0,5.0,wc_5,wc_2,1.0,"[('wc_2', 0.6800000000000005), ('wc_5', 0.7300000000000005), ('wc_13', 0.9200000000000007)]",0.9930880000000001,,,29.0,0.043449999999999996,['Pass'],Pass,0.6800000000000005,-0.1800000000000005,2.0,4.0,0.8
239.0,6.0,wc_6,,0.0,,,,122.0,,,,Pass,,,,,
239.0,6.0,wc_6,,0.0,,,80.0,,,,,Pass,,,,,
239.0,6.0,wc_6,,0.0,,,,0.0,,,,Pass,,,,,
239.0,6.0,wc_6,wc_6,0.0,"[('wc_6', 0.2600000000000001)]",0.2600000000000001,,,31.0,0.002049,['Fail'],Pass,0.2600000000000001,-0.2600000000000001,0.0,6.0,0.2
239.0,6.0,wc_6,,0.0,,,,182.0,,,,Pass,,,,,
239.0,6.0,wc_6,wc_13,0.0,"[('wc_13', 0.9200000000000007)]",0.9200000000000007,,,27.0,0.004269,['Pass'],Pass,0.9200000000000007,-0.1700000000000007,3.0,4.0,1.0
239.0,6.0,wc_6,,0.0,,,,0.0,,,,Pass,,,,,
239.0,6.0,wc_6,wc_15,0.0,"[('wc_15', 0.7000000000000005), ('wc_13', 0.9200000000000007)]",0.9760000000000002,,,36.0,0.005854000000000001,['Pass'],Pass,0.7000000000000005,-0.2833333333333338,0.0,0.0,1.0
239.0,6.0,wc_6,,0.0,,,,402.0,,,,Pass,,,,,
239.0,6.0,wc_6,wc_11,1.0,"[('wc_11', 0.28000000000000014), ('wc_13', 0.9200000000000007), ('wc_15', 0.7000000000000005)]",0.9827200000000001,,,29.0,0.037334,['Pass'],Pass,0.29000000000000015,0.04333333333333317,3.0,9.0,0.2
249.0,11.0,wc_11,,0.0,,,,0.0,,,,Fail,,,,,
249.0,11.0,wc_11,,0.0,,,55.0,,,,,Fail,,,,,
249.0,11.0,wc_11,,0.0,,,,0.0,,,,Fail,,,,,
249.0,11.0,wc_11,wc_11,0.0,"[('wc_11', 0.29000000000000015)]",0.29000000000000015,,,25.0,0.002085,['Pass'],Fail,0.29000000000000015,0.04333333333333317,3.0,9.0,0.2
249.0,11.0,wc_11,,0.0,,,,142.0,,,,Fail,,,,,
249.0,11.0,wc_11,wc_16,0.0,"[('wc_16', 0.8500000000000006), ('wc_11', 0.29000000000000015)]",0.8935000000000005,,,38.0,0.00393,['Pass'],Fail,0.8500000000000006,-0.5500000000000007,0.0,0.0,0.9
249.0,11.0,wc_11,,0.0,,,,362.0,,,,Fail,,,,,
249.0,11.0,wc_11,wc_10,0.0,"[('wc_11', 0.29000000000000015), ('wc_16', 0.8500000000000006)]",0.8935000000000005,,,30.0,0.0056419999999999994,['Pass'],Fail,0.7600000000000006,-0.6600000000000006,0.0,0.0,0.8
249.0,11.0,wc_11,,0.0,,,,61.0,,,,Fail,,,,,
249.0,11.0,wc_11,wc_7,0.0,"[('wc_7', 0.8200000000000006), ('wc_10', 0.7600000000000006)]",0.9568000000000002,,,38.0,0.008495,['Fail'],Fail,0.8200000000000006,-0.8200000000000006,0.0,0.0,0.9
249.0,11.0,wc_11,,0.0,,,,341.0,,,,Fail,,,,,
249.0,11.0,wc_11,wc_5,1.0,"[('wc_5', 0.7400000000000005), ('wc_10', 0.7600000000000006), ('wc_7', 0.8200000000000006)]",0.9887680000000001,,,29.0,0.04227,['Fail'],Fail,0.7400000000000005,0.009999999999999454,3.0,4.0,0.8
256.0,9.0,wc_9,,0.0,,,,122.0,,,,Pass,,,,,
256.0,9.0,wc_9,,0.0,,,53.0,,,,,Pass,,,,,
256.0,9.0,wc_9,,0.0,,,,0.0,,,,Pass,,,,,
256.0,9.0,wc_9,wc_9,0.0,"[('wc_9', 0.8200000000000006)]",0.8200000000000006,,,38.0,0.002183,['Pass'],Pass,0.8200000000000006,-0.8200000000000006,0.0,9.0,1.0
256.0,9.0,wc_9,,0.0,,,,362.0,,,,Pass,,,,,
256.0,9.0,wc_9,wc_3,0.0,"[('wc_3', 0.40000000000000024), ('wc_9', 0.8200000000000006)]",0.8920000000000005,,,31.0,0.00443,['Pass'],Pass,0.40000000000000024,-0.2571428571428574,1.0,7.0,0.3
256.0,9.0,wc_9,,0.0,,,,141.0,,,,Pass,,,,,
256.0,9.0,wc_9,wc_8,1.0,"[('wc_8', 0.29000000000000015), ('wc_9', 0.8200000000000006), ('wc_3', 0.40000000000000024)]",0.9233200000000004,,,37.0,0.04167800000000001,['Pass'],Pass,0.29000000000000015,-0.29000000000000015,0.0,0.0,0.3
268.0,10.0,wc_10,,0.0,,,,0.0,,,,Fail,,,,,
268.0,10.0,wc_10,,0.0,,,61.0,,,,,Fail,,,,,
268.0,10.0,wc_10,,0.0,,,,0.0,,,,Fail,,,,,
268.0,10.0,wc_10,wc_10,0.0,"[('wc_10', 0.7700000000000006)]",0.7700000000000006,,,25.0,0.002385,['Fail'],Fail,0.7700000000000006,-0.2700000000000006,1.0,2.0,0.8
268.0,10.0,wc_10,,0.0,,,,223.0,,,,Fail,,,,,
268.0,10.0,wc_10,wc_1,0.0,"[('wc_10', 0.7700000000000006)]",0.7700000000000006,,,39.0,0.0041010000000000005,['Fail'],Fail,0.5600000000000004,-0.46909090909090945,0.0,0.0,0.4
268.0,10.0,wc_10,,0.0,,,,243.0,,,,Fail,,,,,
268.0,10.0,wc_10,wc_11,0.0,"[('wc_10', 0.7700000000000006)]",0.7700000000000006,,,35.0,0.007345000000000001,['Fail'],Fail,0.29000000000000015,-0.29000000000000015,0.0,1.0,0.2
268.0,10.0,wc_10,,0.0,,,,83.0,,,,Fail,,,,,
268.0,10.0,wc_10,wc_9,0.0,"[('wc_9', 0.8200000000000006), ('wc_10', 0.7700000000000006)]",0.9586000000000002,,,32.0,0.008559,['Fail'],Fail,0.8200000000000006,-0.8200000000000006,0.0,0.0,1.0
268.0,10.0,wc_10,,0.0,,,,81.0,,,,Fail,,,,,
268.0,10.0,wc_10,wc_7,1.0,"[('wc_7', 0.8300000000000006), ('wc_10', 0.7700000000000006), ('wc_9', 0.8200000000000006)]",0.9929620000000001,,,40.0,0.042688,['Fail'],Fail,0.8300000000000006,-0.163333333333334,2.0,3.0,0.9
280.0,10.0,wc_10,,0.0,,,,0.0,,,,Pass,,,,,
280.0,10.0,wc_10,,0.0,,,66.0,,,,,Pass,,,,,
280.0,10.0,wc_10,,0.0,,,,0.0,,,,Pass,,,,,
280.0,10.0,wc_10,wc_10,0.0,"[('wc_10', 0.7700000000000006)]",0.7700000000000006,,,22.0,0.002223,['Pass'],Pass,0.7700000000000006,-0.10333333333333394,2.0,3.0,0.8
280.0,10.0,wc_10,,0.0,,,,382.0,,,,Pass,,,,,
280.0,10.0,wc_10,wc_5,0.0,"[('wc_5', 0.7400000000000005), ('wc_10', 0.7700000000000006)]",0.9402000000000003,,,27.0,0.004173,['Pass'],Pass,0.7400000000000005,-0.24000000000000055,3.0,6.0,0.8
280.0,10.0,wc_10,,0.0,,,,182.0,,,,Pass,,,,,
280.0,10.0,wc_10,wc_16,1.0,"[('wc_16', 0.8400000000000006), ('wc_10', 0.7700000000000006), ('wc_5', 0.7400000000000005)]",0.9904320000000001,,,29.0,0.040531,['Pass'],Pass,0.8400000000000006,-0.5900000000000006,1.0,4.0,0.9
292.0,8.0,wc_8,,0.0,,,,243.0,,,,Fail,,,,,
292.0,8.0,wc_8,,0.0,,,54.0,,,,,Fail,,,,,
292.0,8.0,wc_8,,0.0,,,,0.0,,,,Fail,,,,,
292.0,8.0,wc_8,wc_8,0.0,"[('wc_8', 0.29000000000000015)]",0.29000000000000015,,,34.0,0.002166,['Pass'],Fail,0.29000000000000015,-0.29000000000000015,0.0,2.0,0.3
292.0,8.0,wc_8,,0.0,,,,223.0,,,,Fail,,,,,
292.0,8.0,wc_8,wc_17,0.0,"[('wc_17', 0.6500000000000005)]",0.6500000000000005,,,25.0,0.004242,['Fail'],Fail,0.6500000000000005,-0.5730769230769235,0.0,0.0,0.6
292.0,8.0,wc_8,,0.0,,,,342.0,,,,Fail,,,,,
292.0,8.0,wc_8,wc_10,0.0,"[('wc_10', 0.7700000000000006), ('wc_17', 0.6500000000000005)]",0.9195000000000003,,,34.0,0.005908,['Fail'],Fail,0.7700000000000006,-0.020000000000000573,3.0,4.0,0.8
292.0,8.0,wc_8,,0.0,,,,41.0,,,,Fail,,,,,
292.0,8.0,wc_8,wc_6,1.0,"[('wc_6', 0.2500000000000001), ('wc_17', 0.6500000000000005), ('wc_10', 0.7700000000000006)]",0.9396250000000003,,,21.0,0.03972900000000001,['Fail'],Fail,0.2500000000000001,-0.2500000000000001,0.0,0.0,0.2
303.0,8.0,wc_8,,0.0,,,,0.0,,,,Pass,,,,,
303.0,8.0,wc_8,,0.0,,,57.0,,,,,Pass,,,,,
303.0,8.0,wc_8,,0.0,,,,0.0,,,,Pass,,,,,
303.0,8.0,wc_8,wc_8,0.0,"[('wc_8', 0.28000000000000014)]",0.28000000000000014,,,29.0,0.00215,['Pass'],Pass,0.28000000000000014,-0.28000000000000014,0.0,3.0,0.3
303.0,8.0,wc_8,,0.0,,,,0.0,,,,Pass,,,,,
303.0,8.0,wc_8,wc_9,0.0,"[('wc_9', 0.8300000000000006), ('wc_8', 0.28000000000000014)]",0.8776000000000005,,,31.0,0.00392,['Pass'],Pass,0.8300000000000006,-0.4966666666666673,1.0,3.0,1.0
303.0,8.0,wc_8,,0.0,,,,141.0,,,,Pass,,,,,
303.0,8.0,wc_8,wc_14,1.0,"[('wc_14', 0.4800000000000003), ('wc_8', 0.28000000000000014), ('wc_9', 0.8300000000000006)]",0.9363520000000003,,,32.0,0.039596999999999986,['Pass'],Pass,0.4800000000000003,-0.4800000000000003,0.0,0.0,0.6
322.0,11.0,wc_11,,0.0,,,,321.0,,,,Pass,,,,,
322.0,11.0,wc_11,,0.0,,,70.0,,,,,Pass,,,,,
322.0,11.0,wc_11,,0.0,,,,0.0,,,,Pass,,,,,
322.0,11.0,wc_11,wc_11,0.0,"[('wc_11', 0.28000000000000014)]",0.28000000000000014,,,39.0,0.002082,['Pass'],Pass,0.28000000000000014,-0.28000000000000014,0.0,5.0,0.2
322.0,11.0,wc_11,,0.0,,,,83.0,,,,Pass,,,,,
322.0,11.0,wc_11,wc_9,0.0,"[('wc_9', 0.8300000000000006), ('wc_11', 0.28000000000000014)]",0.8776000000000005,,,28.0,0.003862,['Pass'],Pass,0.8300000000000006,-0.3300000000000006,2.0,4.0,1.0
322.0,11.0,wc_11,,0.0,,,,182.0,,,,Pass,,,,,
322.0,11.0,wc_11,wc_16,1.0,"[('wc_16', 0.8400000000000006), ('wc_11', 0.28000000000000014), ('wc_9', 0.8300000000000006)]",0.9804160000000002,,,38.0,0.03837600000000001,['Pass'],Pass,0.8400000000000006,-0.5542857142857149,2.0,7.0,0.9
340.0,7.0,wc_7,,0.0,,,,223.0,,,,Fail,,,,,
340.0,7.0,wc_7,,0.0,,,63.0,,,,,Fail,,,,,
340.0,7.0,wc_7,,0.0,,,,0.0,,,,Fail,,,,,
340.0,7.0,wc_7,wc_7,0.0,"[('wc_7', 0.8300000000000006)]",0.8300000000000006,,,29.0,0.002422,['Fail'],Fail,0.8300000000000006,-0.5442857142857149,2.0,7.0,0.9
340.0,7.0,wc_7,,0.0,,,,321.0,,,,Fail,,,,,
340.0,7.0,wc_7,wc_4,0.0,"[('wc_4', 0.4600000000000003), ('wc_7', 0.8300000000000006)]",0.9082000000000003,,,35.0,0.003987,['Fail'],Fail,0.4600000000000003,-0.34235294117647086,0.0,0.0,0.4
340.0,7.0,wc_7,,0.0,,,,61.0,,,,Fail,,,,,
340.0,7.0,wc_7,wc_1,1.0,"[('wc_1', 0.5500000000000004), ('wc_7', 0.8300000000000006), ('wc_4', 0.4600000000000003)]",0.9586900000000003,,,40.0,0.037235,['Fail'],Fail,0.5500000000000004,-0.38333333333333375,1.0,6.0,0.4
386.0,7.0,wc_7,,0.0,,,,162.0,,,,Pass,,,,,
386.0,7.0,wc_7,,0.0,,,69.0,,,,,Pass,,,,,
386.0,7.0,wc_7,,0.0,,,,0.0,,,,Pass,,,,,
386.0,7.0,wc_7,wc_7,0.0,"[('wc_7', 0.8300000000000006)]",0.8300000000000006,,,29.0,0.002483,['Fail'],Pass,0.8300000000000006,-0.4550000000000006,3.0,8.0,0.9
386.0,7.0,wc_7,,0.0,,,,0.0,,,,Pass,,,,,
386.0,7.0,wc_7,wc_8,0.0,"[('wc_7', 0.8300000000000006)]",0.8300000000000006,,,26.0,0.004228000000000001,['Fail'],Pass,0.28000000000000014,-0.11333333333333348,1.0,6.0,0.3
386.0,7.0,wc_7,,0.0,,,,321.0,,,,Pass,,,,,
386.0,7.0,wc_7,wc_5,0.0,"[('wc_7', 0.8300000000000006)]",0.8300000000000006,,,34.0,0.005973,['Fail'],Pass,0.7400000000000005,-0.3763636363636369,0.0,0.0,0.8
386.0,7.0,wc_7,,0.0,,,,162.0,,,,Pass,,,,,
386.0,7.0,wc_7,wc_15,1.0,"[('wc_15', 0.7100000000000005), ('wc_8', 0.28000000000000014), ('wc_5', 0.7400000000000005)]",0.9457120000000002,,,29.0,0.039607,['Pass'],Pass,0.7100000000000005,-0.7100000000000005,0.0,0.0,1.0
402.0,12.0,wc_12,,0.0,,,,61.0,,,,Fail,,,,,
402.0,12.0,wc_12,,0.0,,,76.0,,,,,Fail,,,,,
402.0,12.0,wc_12,,0.0,,,,0.0,,,,Fail,,,,,
402.0,12.0,wc_12,wc_12,0.0,"[('wc_12', 0.8400000000000006)]",0.8400000000000006,,,22.0,0.002123,['Fail'],Fail,0.8400000000000006,-0.8400000000000006,0.0,0.0,0.7
402.0,12.0,wc_12,,0.0,,,,321.0,,,,Fail,,,,,
402.0,12.0,wc_12,wc_9,0.0,"[('wc_9', 0.8300000000000006), ('wc_12', 0.8400000000000006)]",0.9728000000000002,,,30.0,0.004794,['Fail'],Fail,0.8300000000000006,-0.4014285714285721,3.0,7.0,1.0
402.0,12.0,wc_12,,0.0,,,,0.0,,,,Fail,,,,,
402.0,12.0,wc_12,wc_11,1.0,"[('wc_11', 0.28000000000000014), ('wc_12', 0.8400000000000006), ('wc_9', 0.8300000000000006)]",0.9804160000000002,,,22.0,0.03791100000000001,['Fail'],Fail,0.28000000000000014,-0.05777777777777793,2.0,9.0,0.2
413.0,12.0,wc_12,,0.0,,,,61.0,,,,Fail,,,,,
413.0,12.0,wc_12,,0.0,,,70.0,,,,,Fail,,,,,
413.0,12.0,wc_12,,0.0,,,,0.0,,,,Fail,,,,,
413.0,12.0,wc_12,wc_12,0.0,"[('wc_12', 0.8500000000000006)]",0.8500000000000006,,,23.0,0.002142,['Fail'],Fail,0.8500000000000006,0.14999999999999936,1.0,1.0,0.7
413.0,12.0,wc_12,,0.0,,,,361.0,,,,Fail,,,,,
413.0,12.0,wc_12,wc_11,0.0,"[('wc_11', 0.28000000000000014), ('wc_12', 0.8500000000000006)]",0.8920000000000005,,,21.0,0.004233000000000001,['Fail'],Fail,0.28000000000000014,-0.05777777777777793,2.0,9.0,0.2
413.0,12.0,wc_12,,0.0,,,,142.0,,,,Fail,,,,,
413.0,12.0,wc_12,wc_16,1.0,"[('wc_16', 0.8400000000000006), ('wc_12', 0.8500000000000006), ('wc_11', 0.28000000000000014)]",0.9827200000000001,,,36.0,0.040827999999999996,['Fail'],Fail,0.8400000000000006,-0.8400000000000006,0.0,0.0,0.9
442.0,12.0,wc_12,,0.0,,,,41.0,,,,Fail,,,,,
442.0,12.0,wc_12,,0.0,,,72.0,,,,,Fail,,,,,
442.0,12.0,wc_12,,0.0,,,,0.0,,,,Fail,,,,,
442.0,12.0,wc_12,wc_12,0.0,"[('wc_12', 0.8600000000000007)]",0.8600000000000007,,,33.0,0.00216,['Fail'],Fail,0.8600000000000007,0.13999999999999935,2.0,2.0,0.7
442.0,12.0,wc_12,,0.0,,,,202.0,,,,Fail,,,,,
442.0,12.0,wc_12,wc_7,0.0,"[('wc_7', 0.8200000000000006), ('wc_12', 0.8600000000000007)]",0.9748000000000002,,,29.0,0.004931,['Fail'],Fail,0.8200000000000006,-0.5472727272727279,0.0,0.0,0.9
442.0,12.0,wc_12,,0.0,,,,301.0,,,,Fail,,,,,
442.0,12.0,wc_12,wc_3,1.0,"[('wc_3', 0.40000000000000024), ('wc_12', 0.8600000000000007), ('wc_7', 0.8200000000000006)]",0.9848800000000001,,,27.0,0.038732,['Fail'],Fail,0.40000000000000024,-0.40000000000000024,0.0,0.0,0.3
485.0,12.0,wc_12,,0.0,,,,141.0,,,,Fail,,,,,
485.0,12.0,wc_12,,0.0,,,74.0,,,,,Fail,,,,,
485.0,12.0,wc_12,,0.0,,,,0.0,,,,Fail,,,,,
485.0,12.0,wc_12,wc_12,0.0,"[('wc_12', 0.8700000000000007)]",0.8700000000000007,,,32.0,0.002447,['Pass'],Fail,0.8700000000000007,0.12999999999999934,3.0,3.0,0.7
485.0,12.0,wc_12,,0.0,,,,321.0,,,,Fail,,,,,
485.0,12.0,wc_12,wc_9,0.0,"[('wc_12', 0.8700000000000007)]",0.8700000000000007,,,40.0,0.003747,['Pass'],Fail,0.8300000000000006,-0.4300000000000006,0.0,0.0,1.0
485.0,12.0,wc_12,,0.0,,,,121.0,,,,Fail,,,,,
485.0,12.0,wc_12,wc_13,0.0,"[('wc_13', 0.9200000000000007), ('wc_9', 0.8300000000000006)]",0.9864000000000002,,,20.0,0.006045,['Fail'],Fail,0.9200000000000007,-0.6847058823529419,0.0,0.0,1.0
485.0,12.0,wc_12,,0.0,,,,341.0,,,,Fail,,,,,
485.0,12.0,wc_12,wc_11,0.0,"[('wc_9', 0.8300000000000006), ('wc_13', 0.9200000000000007)]",0.9864000000000002,,,33.0,0.007598000000000001,['Fail'],Fail,0.29000000000000015,-0.29000000000000015,0.0,1.0,0.2
485.0,12.0,wc_12,,0.0,,,,101.0,,,,Fail,,,,,
485.0,12.0,wc_12,wc_14,1.0,"[('wc_14', 0.4800000000000003), ('wc_9', 0.8300000000000006), ('wc_13', 0.9200000000000007)]",0.9929280000000001,,,21.0,0.050911,['Fail'],Fail,0.4800000000000003,-0.33714285714285747,1.0,7.0,0.6
519.0,12.0,wc_12,,0.0,,,,82.0,,,,Pass,,,,,
519.0,12.0,wc_12,,0.0,,,77.0,,,,,Pass,,,,,
519.0,12.0,wc_12,,0.0,,,,0.0,,,,Pass,,,,,
519.0,12.0,wc_12,wc_12,0.0,"[('wc_12', 0.8600000000000007)]",0.8600000000000007,,,25.0,0.002148,['Fail'],Pass,0.8600000000000007,-0.11000000000000065,3.0,4.0,0.7
519.0,12.0,wc_12,,0.0,,,,182.0,,,,Pass,,,,,
519.0,12.0,wc_12,wc_6,0.0,"[('wc_6', 0.2500000000000001), ('wc_12', 0.8600000000000007)]",0.8950000000000005,,,40.0,0.004002,['Fail'],Pass,0.2500000000000001,-0.2500000000000001,0.0,8.0,0.2
519.0,12.0,wc_12,,0.0,,,,222.0,,,,Pass,,,,,
519.0,12.0,wc_12,wc_2,1.0,"[('wc_2', 0.6800000000000005), ('wc_12', 0.8600000000000007), ('wc_6', 0.2500000000000001)]",0.9664000000000003,,,21.0,0.040478,['Fail'],Pass,0.6800000000000005,-0.6800000000000005,0.0,0.0,0.8
530.0,13.0,wc_13,,0.0,,,,182.0,,,,Fail,,,,,
530.0,13.0,wc_13,,0.0,,,69.0,,,,,Fail,,,,,
530.0,13.0,wc_13,,0.0,,,,0.0,,,,Fail,,,,,
530.0,13.0,wc_13,wc_13,0.0,"[('wc_13', 0.9300000000000007)]",0.9300000000000007,,,31.0,0.002312,['Fail'],Fail,0.9300000000000007,-0.4300000000000007,1.0,2.0,1.0
530.0,13.0,wc_13,,0.0,,,,361.0,,,,Fail,,,,,
530.0,13.0,wc_13,wc_4,0.0,"[('wc_4', 0.4700000000000003), ('wc_13', 0.9300000000000007)]",0.9629000000000004,,,31.0,0.0039640000000000005,['Fail'],Fail,0.4700000000000003,-0.32714285714285746,1.0,7.0,0.4
530.0,13.0,wc_13,,0.0,,,,202.0,,,,Fail,,,,,
530.0,13.0,wc_13,wc_16,1.0,"[('wc_16', 0.8400000000000006), ('wc_13', 0.9300000000000007), ('wc_4', 0.4700000000000003)]",0.9940640000000001,,,35.0,0.039113999999999996,['Fail'],Fail,0.8400000000000006,-0.5900000000000006,1.0,4.0,0.9
542.0,13.0,wc_13,,0.0,,,,61.0,,,,Fail,,,,,
542.0,13.0,wc_13,,0.0,,,75.0,,,,,Fail,,,,,
542.0,13.0,wc_13,,0.0,,,,0.0,,,,Fail,,,,,
542.0,13.0,wc_13,wc_13,0.0,"[('wc_13', 0.9300000000000007)]",0.9300000000000007,,,36.0,0.002187,['Fail'],Fail,0.9300000000000007,-0.2633333333333341,2.0,3.0,1.0
542.0,13.0,wc_13,,0.0,,,,321.0,,,,Fail,,,,,
542.0,13.0,wc_13,wc_10,0.0,"[('wc_10', 0.7800000000000006), ('wc_13', 0.9300000000000007)]",0.9846000000000001,,,37.0,0.004028,['Fail'],Fail,0.7800000000000006,-0.5133333333333339,0.0,0.0,0.8
542.0,13.0,wc_13,,0.0,,,,81.0,,,,Fail,,,,,
542.0,13.0,wc_13,wc_8,1.0,"[('wc_8', 0.28000000000000014), ('wc_13', 0.9300000000000007), ('wc_10', 0.7800000000000006)]",0.9889120000000001,,,22.0,0.042773,['Fail'],Fail,0.28000000000000014,-0.28000000000000014,0.0,0.0,0.3
553.0,13.0,wc_13,,0.0,,,,142.0,,,,Fail,,,,,
553.0,13.0,wc_13,,0.0,,,80.0,,,,,Fail,,,,,
553.0,13.0,wc_13,,0.0,,,,0.0,,,,Fail,,,,,
553.0,13.0,wc_13,wc_13,0.0,"[('wc_13', 0.9300000000000007)]",0.9300000000000007,,,27.0,0.002203,['Fail'],Fail,0.9300000000000007,-0.18000000000000071,3.0,4.0,1.0
553.0,13.0,wc_13,,0.0,,,,162.0,,,,Fail,,,,,
553.0,13.0,wc_13,wc_6,0.0,"[('wc_6', 0.2500000000000001), ('wc_13', 0.9300000000000007)]",0.9475000000000006,,,29.0,0.006346,['Fail'],Fail,0.2500000000000001,-0.1590909090909092,0.0,0.0,0.2
553.0,13.0,wc_13,,0.0,,,,202.0,,,,Fail,,,,,
553.0,13.0,wc_13,wc_14,1.0,"[('wc_14', 0.4800000000000003), ('wc_13', 0.9300000000000007), ('wc_6', 0.2500000000000001)]",0.9727000000000003,,,30.0,0.07525500000000002,['Fail'],Fail,0.4800000000000003,-0.4800000000000003,0.0,0.0,0.6
558.0,13.0,wc_13,,0.0,,,,102.0,,,,Pass,,,,,
558.0,13.0,wc_13,,0.0,,,58.0,,,,,Pass,,,,,
558.0,13.0,wc_13,,0.0,,,,0.0,,,,Pass,,,,,
558.0,13.0,wc_13,wc_13,0.0,"[('wc_13', 0.9300000000000007)]",0.9300000000000007,,,27.0,0.002204,['Pass'],Pass,0.9300000000000007,-0.13000000000000067,4.0,5.0,1.0
558.0,13.0,wc_13,,0.0,,,,182.0,,,,Pass,,,,,
558.0,13.0,wc_13,wc_7,0.0,"[('wc_7', 0.8300000000000006), ('wc_13', 0.9300000000000007)]",0.9881000000000002,,,32.0,0.003928,['Pass'],Pass,0.8300000000000006,-0.663333333333334,1.0,6.0,0.9
558.0,13.0,wc_13,,0.0,,,,0.0,,,,Pass,,,,,
558.0,13.0,wc_13,wc_9,1.0,"[('wc_9', 0.8400000000000006), ('wc_13', 0.9300000000000007), ('wc_7', 0.8300000000000006)]",0.998096,,,37.0,0.048357000000000004,['Pass'],Pass,0.8400000000000006,-0.5066666666666673,2.0,6.0,1.0
565.0,15.0,wc_15,,0.0,,,,162.0,,,,Pass,,,,,
565.0,15.0,wc_15,,0.0,,,67.0,,,,,Pass,,,,,
565.0,15.0,wc_15,,0.0,,,,0.0,,,,Pass,,,,,
565.0,15.0,wc_15,wc_15,0.0,"[('wc_15', 0.7100000000000005)]",0.7100000000000005,,,22.0,0.002014,['Fail'],Pass,0.7100000000000005,-0.7100000000000005,0.0,9.0,1.0
565.0,15.0,wc_15,,0.0,,,,303.0,,,,Pass,,,,,
565.0,15.0,wc_15,wc_2,0.0,"[('wc_15', 0.7100000000000005)]",0.7100000000000005,,,35.0,0.003949,['Fail'],Pass,0.6800000000000005,-0.6800000000000005,0.0,4.0,0.8
565.0,15.0,wc_15,,0.0,,,,162.0,,,,Pass,,,,,
565.0,15.0,wc_15,wc_8,0.0,"[('wc_8', 0.28000000000000014), ('wc_2', 0.6800000000000005)]",0.7696000000000004,,,25.0,0.006018,['Pass'],Pass,0.28000000000000014,-0.28000000000000014,0.0,2.0,0.3
565.0,15.0,wc_15,,0.0,,,,102.0,,,,Pass,,,,,
565.0,15.0,wc_15,wc_7,1.0,"[('wc_7', 0.8300000000000006), ('wc_2', 0.6800000000000005), ('wc_8', 0.28000000000000014)]",0.9608320000000002,,,27.0,0.042093,['Pass'],Pass,0.8300000000000006,-0.4550000000000006,3.0,8.0,0.9
570.0,14.0,wc_14,,0.0,,,,182.0,,,,Fail,,,,,
570.0,14.0,wc_14,,0.0,,,69.0,,,,,Fail,,,,,
570.0,14.0,wc_14,,0.0,,,,0.0,,,,Fail,,,,,
570.0,14.0,wc_14,wc_14,0.0,"[('wc_14', 0.4800000000000003)]",0.4800000000000003,,,28.0,0.002192,['Fail'],Fail,0.4800000000000003,-0.4800000000000003,0.0,2.0,0.6
570.0,14.0,wc_14,,0.0,,,,182.0,,,,Fail,,,,,
570.0,14.0,wc_14,wc_8,0.0,"[('wc_8', 0.29000000000000015), ('wc_14', 0.4800000000000003)]",0.6308000000000002,,,25.0,0.004031,['Fail'],Fail,0.29000000000000015,0.04333333333333317,1.0,3.0,0.3
570.0,14.0,wc_14,,0.0,,,,281.0,,,,Fail,,,,,
570.0,14.0,wc_14,wc_3,0.0,"[('wc_3', 0.40000000000000024), ('wc_14', 0.4800000000000003), ('wc_8', 0.29000000000000015)]",0.7784800000000003,,,39.0,0.0059240000000000004,['Fail'],Fail,0.40000000000000024,-0.40000000000000024,0.0,7.0,0.3
570.0,14.0,wc_14,,0.0,,,,101.0,,,,Fail,,,,,
570.0,14.0,wc_14,wc_6,0.0,"[('wc_14', 0.4800000000000003), ('wc_8', 0.29000000000000015), ('wc_3', 0.40000000000000024)]",0.7784800000000003,,,30.0,0.008664999999999999,['Fail'],Fail,0.2600000000000001,0.0733333333333332,1.0,3.0,0.2
570.0,14.0,wc_14,,0.0,,,,263.0,,,,Fail,,,,,
570.0,14.0,wc_14,wc_17,1.0,"[('wc_17', 0.6600000000000005), ('wc_14', 0.4800000000000003), ('wc_8', 0.29000000000000015), ('wc_3', 0.40000000000000024)]",0.9246832000000001,,,32.0,0.051348000000000005,['Fail'],Fail,0.6600000000000005,-0.6600000000000005,0.0,0.0,0.6
575.0,14.0,wc_14,,0.0,,,,61.0,,,,Pass,,,,,
575.0,14.0,wc_14,,0.0,,,57.0,,,,,Pass,,,,,
575.0,14.0,wc_14,,0.0,,,,0.0,,,,Pass,,,,,
575.0,14.0,wc_14,wc_14,0.0,"[('wc_14', 0.4800000000000003)]",0.4800000000000003,,,29.0,0.002212,['Pass'],Pass,0.4800000000000003,-0.146666666666667,1.0,3.0,0.6
575.0,14.0,wc_14,,0.0,,,,361.0,,,,Pass,,,,,
575.0,14.0,wc_14,wc_5,0.0,"[('wc_5', 0.7500000000000006), ('wc_14', 0.4800000000000003)]",0.8700000000000003,,,35.0,0.003864,['Pass'],Pass,0.7500000000000006,-0.6666666666666672,0.0,0.0,0.8
575.0,14.0,wc_14,,0.0,,,,162.0,,,,Pass,,,,,
575.0,14.0,wc_14,wc_15,1.0,"[('wc_15', 0.7000000000000005), ('wc_14', 0.4800000000000003), ('wc_5', 0.7500000000000006)]",0.9610000000000002,,,25.0,0.043474,['Pass'],Pass,0.7000000000000005,-0.2000000000000005,1.0,2.0,1.0
582.0,16.0,wc_16,,0.0,,,,0.0,,,,Fail,,,,,
582.0,16.0,wc_16,,0.0,,,67.0,,,,,Fail,,,,,
582.0,16.0,wc_16,,0.0,,,,0.0,,,,Fail,,,,,
582.0,16.0,wc_16,wc_16,0.0,"[('wc_16', 0.8400000000000006)]",0.8400000000000006,,,39.0,0.002041,['Fail'],Fail,0.8400000000000006,-0.7400000000000007,0.0,0.0,0.9
582.0,16.0,wc_16,,0.0,,,,263.0,,,,Fail,,,,,
582.0,16.0,wc_16,wc_1,0.0,"[('wc_16', 0.8400000000000006)]",0.8400000000000006,,,34.0,0.004036,['Fail'],Fail,0.5500000000000004,-0.49736842105263196,0.0,0.0,0.4
582.0,16.0,wc_16,,0.0,,,,182.0,,,,Fail,,,,,
582.0,16.0,wc_16,wc_8,0.0,"[('wc_8', 0.30000000000000016), ('wc_16', 0.8400000000000006)]",0.8880000000000005,,,37.0,0.005941,['Fail'],Fail,0.30000000000000016,0.09999999999999987,2.0,5.0,0.3
582.0,16.0,wc_16,,0.0,,,,82.0,,,,Fail,,,,,
582.0,16.0,wc_16,wc_6,0.0,"[('wc_16', 0.8400000000000006), ('wc_8', 0.30000000000000016)]",0.8880000000000005,,,31.0,0.008025,['Fail'],Fail,0.2500000000000001,-0.0500000000000001,1.0,5.0,0.2
582.0,16.0,wc_16,,0.0,,,,0.0,,,,Fail,,,,,
582.0,16.0,wc_16,wc_7,1.0,"[('wc_7', 0.8300000000000006), ('wc_1', 0.5500000000000004), ('wc_6', 0.2500000000000001)]",0.9426250000000003,,,20.0,0.044649999999999995,['Pass'],Fail,0.8300000000000006,-0.8300000000000006,0.0,0.0,0.9
591.0,16.0,wc_16,,0.0,,,,223.0,,,,Pass,,,,,
591.0,16.0,wc_16,,0.0,,,58.0,,,,,Pass,,,,,
591.0,16.0,wc_16,,0.0,,,,0.0,,,,Pass,,,,,
591.0,16.0,wc_16,wc_16,0.0,"[('wc_16', 0.8300000000000006)]",0.8300000000000006,,,29.0,0.001984,['Pass'],Pass,0.8300000000000006,-0.8300000000000006,0.0,1.0,0.9
591.0,16.0,wc_16,,0.0,,,,41.0,,,,Pass,,,,,
591.0,16.0,wc_16,wc_12,0.0,"[('wc_12', 0.8600000000000007), ('wc_16', 0.8300000000000006)]",0.9762000000000002,,,40.0,0.003939,['Pass'],Pass,0.8600000000000007,-0.5523076923076929,0.0,0.0,0.7
591.0,16.0,wc_16,,0.0,,,,0.0,,,,Pass,,,,,
591.0,16.0,wc_16,wc_17,1.0,"[('wc_17', 0.6600000000000005), ('wc_16', 0.8300000000000006), ('wc_12', 0.8600000000000007)]",0.9919080000000001,,,39.0,0.041853,['Pass'],Pass,0.6600000000000005,-0.32666666666666716,1.0,3.0,0.6
601.0,17.0,wc_17,,0.0,,,,0.0,,,,Fail,,,,,
601.0,17.0,wc_17,,0.0,,,71.0,,,,,Fail,,,,,
601.0,17.0,wc_17,,0.0,,,,0.0,,,,Fail,,,,,
601.0,17.0,wc_17,wc_17,0.0,"[('wc_17', 0.6600000000000005)]",0.6600000000000005,,,23.0,0.002077,['Pass'],Fail,0.6600000000000005,-0.32666666666666716,1.0,3.0,0.6
601.0,17.0,wc_17,,0.0,,,,21.0,,,,Fail,,,,,
601.0,17.0,wc_17,wc_12,0.0,"[('wc_12', 0.8700000000000007)]",0.8700000000000007,,,30.0,0.004032,['Fail'],Fail,0.8700000000000007,0.12999999999999934,1.0,1.0,0.7
601.0,17.0,wc_17,,0.0,,,,401.0,,,,Fail,,,,,
601.0,17.0,wc_17,wc_5,0.0,"[('wc_5', 0.7600000000000006), ('wc_12', 0.8700000000000007)]",0.9688000000000002,,,27.0,0.0062450000000000006,['Fail'],Fail,0.7600000000000006,-0.42666666666666725,1.0,3.0,0.8
601.0,17.0,wc_17,,0.0,,,,162.0,,,,Fail,,,,,
601.0,17.0,wc_17,wc_15,1.0,"[('wc_15', 0.7000000000000005), ('wc_12', 0.8700000000000007), ('wc_5', 0.7600000000000006)]",0.9906400000000001,,,31.0,0.048228,['Fail'],Fail,0.7000000000000005,-0.3000000000000005,2.0,5.0,1.0
607.0,17.0,wc_17,,0.0,,,,0.0,,,,Fail,,,,,
607.0,17.0,wc_17,,0.0,,,71.0,,,,,Fail,,,,,
607.0,17.0,wc_17,,0.0,,,,0.0,,,,Fail,,,,,
607.0,17.0,wc_17,wc_17,0.0,"[('wc_17', 0.6500000000000005)]",0.6500000000000005,,,39.0,0.002117,['Fail'],Fail,0.6500000000000005,-0.40000000000000047,1.0,4.0,0.6
607.0,17.0,wc_17,,0.0,,,,83.0,,,,Fail,,,,,
607.0,17.0,wc_17,wc_15,0.0,"[('wc_15', 0.7000000000000005), ('wc_17', 0.6500000000000005)]",0.8950000000000004,,,20.0,0.004286,['Fail'],Fail,0.7000000000000005,-0.3000000000000005,2.0,5.0,1.0
607.0,17.0,wc_17,,0.0,,,,283.0,,,,Fail,,,,,
607.0,17.0,wc_17,wc_1,0.0,"[('wc_17', 0.6500000000000005), ('wc_15', 0.7000000000000005)]",0.8950000000000004,,,29.0,0.005744999999999999,['Fail'],Fail,0.5600000000000004,-0.22666666666666707,1.0,3.0,0.4
607.0,17.0,wc_17,,0.0,,,,0.0,,,,Fail,,,,,
607.0,17.0,wc_17,wc_3,0.0,"[('wc_17', 0.6500000000000005), ('wc_15', 0.7000000000000005)]",0.8950000000000004,,,25.0,0.008278,['Fail'],Fail,0.40000000000000024,-0.31666666666666693,0.0,0.0,0.3
607.0,17.0,wc_17,,0.0,,,,182.0,,,,Fail,,,,,
607.0,17.0,wc_17,wc_10,1.0,"[('wc_10', 0.7900000000000006), ('wc_17', 0.6500000000000005), ('wc_15', 0.7000000000000005)]",0.9779500000000001,,,31.0,0.047887,['Fail'],Fail,0.7900000000000006,-0.7900000000000006,0.0,0.0,0.8
615.0,17.0,wc_17,,0.0,,,,182.0,,,,Fail,,,,,
615.0,17.0,wc_17,,0.0,,,54.0,,,,,Fail,,,,,
615.0,17.0,wc_17,,0.0,,,,0.0,,,,Fail,,,,,
615.0,17.0,wc_17,wc_17,0.0,"[('wc_17', 0.6500000000000005)]",0.6500000000000005,,,33.0,0.002126,['Fail'],Fail,0.6500000000000005,-0.25000000000000044,2.0,5.0,0.6
615.0,17.0,wc_17,,0.0,,,,61.0,,,,Fail,,,,,
615.0,17.0,wc_17,wc_14,0.0,"[('wc_17', 0.6500000000000005)]",0.6500000000000005,,,34.0,0.003928,['Fail'],Fail,0.4900000000000003,-0.24000000000000032,2.0,8.0,0.6
615.0,17.0,wc_17,,0.0,,,,102.0,,,,Fail,,,,,
615.0,17.0,wc_17,wc_13,0.0,"[('wc_13', 0.9300000000000007), ('wc_17', 0.6500000000000005)]",0.9755000000000003,,,39.0,0.006924,['Fail'],Fail,0.9300000000000007,-0.545384615384616,0.0,0.0,1.0
615.0,17.0,wc_17,,0.0,,,,182.0,,,,Fail,,,,,
615.0,17.0,wc_17,wc_7,1.0,"[('wc_7', 0.8300000000000006), ('wc_17', 0.6500000000000005), ('wc_13', 0.9300000000000007)]",0.995835,,,31.0,0.04677200000000001,['Fail'],Fail,0.8300000000000006,-0.5800000000000006,1.0,4.0,0.9
623.0,17.0,wc_17,,0.0,,,,243.0,,,,Pass,,,,,
623.0,17.0,wc_17,,0.0,,,77.0,,,,,Pass,,,,,
623.0,17.0,wc_17,,0.0,,,,0.0,,,,Pass,,,,,
623.0,17.0,wc_17,wc_17,0.0,"[('wc_17', 0.6500000000000005)]",0.6500000000000005,,,25.0,0.002251,['Fail'],Pass,0.6500000000000005,-0.15000000000000047,3.0,6.0,0.6
623.0,17.0,wc_17,,0.0,,,,243.0,,,,Pass,,,,,
623.0,17.0,wc_17,wc_1,0.0,"[('wc_17', 0.6500000000000005)]",0.6500000000000005,,,28.0,0.004461,['Fail'],Pass,0.5500000000000004,-0.35000000000000037,1.0,5.0,0.4
623.0,17.0,wc_17,,0.0,,,,0.0,,,,Pass,,,,,
623.0,17.0,wc_17,wc_4,0.0,"[('wc_4', 0.4700000000000003), ('wc_1', 0.5500000000000004)]",0.7615000000000003,,,39.0,0.00698,['Pass'],Pass,0.4700000000000003,-0.36473684210526347,0.0,0.0,0.4
623.0,17.0,wc_17,,0.0,,,,202.0,,,,Pass,,,,,
623.0,17.0,wc_17,wc_16,0.0,"[('wc_16', 0.8300000000000006), ('wc_17', 0.6500000000000005)]",0.9405000000000003,,,25.0,0.008281,['Fail'],Pass,0.8300000000000006,-0.6300000000000006,1.0,5.0,0.9
623.0,17.0,wc_17,,0.0,,,,382.0,,,,Pass,,,,,
623.0,17.0,wc_17,wc_3,1.0,"[('wc_3', 0.39000000000000024), ('wc_17', 0.6500000000000005), ('wc_16', 0.8300000000000006)]",0.9637050000000001,,,27.0,0.048225,['Fail'],Pass,0.39000000000000024,-0.05666666666666692,1.0,3.0,0.3
