mpecck/BCQC/bcqc_with_qdt/results/raw/input_5/independent_qc/training/20_workpiece/20200429_084414/wp_14_qc_majority_0.9.csv
production_index,step_idx,production_workcell,qc,consent,winner_qc_list,score,production_time,transport_time,inspection_time,network_time,qc_results,actual_quality,qc_score,score_error,in_winner_counter,in_qc_counter,qc_capability
49.0,1.0,wc_1,,0.0,,,61.0,,,,,Pass,,,,,
49.0,1.0,wc_1,,0.0,,,,0.0,,,,Pass,,,,,
49.0,1.0,wc_1,wc_1,0.0,"[('wc_1', 0.6100000000000004)]",0.6100000000000004,,,36.0,0.002344,['Fail'],Pass,0.6100000000000004,-0.2766666666666671,2.0,6.0,0.4
49.0,1.0,wc_1,,0.0,,,,263.0,,,,Pass,,,,,
49.0,1.0,wc_1,wc_16,0.0,"[('wc_16', 0.7700000000000006), ('wc_1', 0.6100000000000004)]",0.9103000000000003,,,38.0,0.00415,['Fail'],Pass,0.7700000000000006,0.02999999999999947,4.0,5.0,0.9
49.0,1.0,wc_1,,0.0,,,,243.0,,,,Pass,,,,,
49.0,1.0,wc_1,wc_8,0.0,"[('wc_1', 0.6100000000000004), ('wc_16', 0.7700000000000006)]",0.9103000000000003,,,22.0,0.006547000000000001,['Fail'],Pass,0.3800000000000002,-0.2688888888888891,1.0,9.0,0.3
49.0,1.0,wc_1,,0.0,,,,281.0,,,,Pass,,,,,
49.0,1.0,wc_1,wc_3,1.0,"[('wc_3', 0.3700000000000002), ('wc_1', 0.6100000000000004), ('wc_16', 0.7700000000000006)]",0.9434890000000002,,,29.0,0.037295,['Fail'],Pass,0.3700000000000002,-0.3700000000000002,0.0,0.0,0.3
56.0,3.0,wc_3,,0.0,,,,0.0,,,,Fail,,,,,
56.0,3.0,wc_3,,0.0,,,54.0,,,,,Fail,,,,,
56.0,3.0,wc_3,,0.0,,,,0.0,,,,Fail,,,,,
56.0,3.0,wc_3,wc_3,0.0,"[('wc_3', 0.3700000000000002)]",0.3700000000000002,,,40.0,0.002251,['Pass'],Fail,0.3700000000000002,-0.3700000000000002,0.0,0.0,0.3
56.0,3.0,wc_3,,0.0,,,,161.0,,,,Fail,,,,,
56.0,3.0,wc_3,wc_13,0.0,"[('wc_13', 0.7800000000000006), ('wc_3', 0.3700000000000002)]",0.8614000000000004,,,22.0,0.0038710000000000003,['Pass'],Fail,0.7800000000000006,-0.5492307692307699,0.0,0.0,1.0
56.0,3.0,wc_3,,0.0,,,,341.0,,,,Fail,,,,,
56.0,3.0,wc_3,wc_11,0.0,"[('wc_11', 0.2400000000000001), ('wc_3', 0.3700000000000002), ('wc_13', 0.7800000000000006)]",0.8946640000000003,,,34.0,0.006163,['Pass'],Fail,0.2400000000000001,-0.2400000000000001,0.0,2.0,0.2
56.0,3.0,wc_3,,0.0,,,,41.0,,,,Fail,,,,,
56.0,3.0,wc_3,wc_7,0.0,"[('wc_3', 0.3700000000000002), ('wc_13', 0.7800000000000006), ('wc_11', 0.2400000000000001)]",0.8946640000000003,,,33.0,0.008131000000000001,['Pass'],Fail,0.7700000000000006,-0.7700000000000006,0.0,3.0,0.9
56.0,3.0,wc_3,,0.0,,,,0.0,,,,Fail,,,,,
56.0,3.0,wc_3,wc_9,0.0,"[('wc_9', 0.7200000000000005), ('wc_7', 0.7700000000000006)]",0.9356000000000003,,,22.0,0.009958,['Fail'],Fail,0.7200000000000005,-0.3866666666666672,2.0,6.0,1.0
56.0,3.0,wc_3,,0.0,,,,0.0,,,,Fail,,,,,
56.0,3.0,wc_3,wc_10,1.0,"[('wc_10', 0.7200000000000005), ('wc_3', 0.3700000000000002), ('wc_13', 0.7800000000000006), ('wc_11', 0.2400000000000001)]",0.9705059200000001,,,39.0,0.04682100000000001,['Pass'],Fail,0.7200000000000005,-0.7200000000000005,0.0,0.0,0.8
68.0,2.0,wc_2,,0.0,,,,243.0,,,,Pass,,,,,
68.0,2.0,wc_2,,0.0,,,78.0,,,,,Pass,,,,,
68.0,2.0,wc_2,,0.0,,,,0.0,,,,Pass,,,,,
68.0,2.0,wc_2,wc_2,0.0,"[('wc_2', 0.6300000000000004)]",0.6300000000000004,,,21.0,0.002356,['Pass'],Pass,0.6300000000000004,-0.6300000000000004,0.0,0.0,0.8
68.0,2.0,wc_2,,0.0,,,,223.0,,,,Pass,,,,,
68.0,2.0,wc_2,wc_11,0.0,"[('wc_11', 0.2500000000000001), ('wc_2', 0.6300000000000004)]",0.7225000000000004,,,20.0,0.004111,['Pass'],Pass,0.2500000000000001,0.0833333333333332,1.0,3.0,0.2
68.0,2.0,wc_2,,0.0,,,,61.0,,,,Pass,,,,,
68.0,2.0,wc_2,wc_12,1.0,"[('wc_12', 0.7100000000000005), ('wc_2', 0.6300000000000004), ('wc_11', 0.2500000000000001)]",0.9195250000000003,,,30.0,0.039275000000000004,['Pass'],Pass,0.7100000000000005,-0.7100000000000005,0.0,0.0,0.7
89.0,3.0,wc_3,,0.0,,,,361.0,,,,Fail,,,,,
89.0,3.0,wc_3,,0.0,,,66.0,,,,,Fail,,,,,
89.0,3.0,wc_3,,0.0,,,,0.0,,,,Fail,,,,,
89.0,3.0,wc_3,wc_3,0.0,"[('wc_3', 0.3800000000000002)]",0.3800000000000002,,,21.0,0.002272,['Fail'],Fail,0.3800000000000002,0.11999999999999977,1.0,2.0,0.3
89.0,3.0,wc_3,,0.0,,,,0.0,,,,Fail,,,,,
89.0,3.0,wc_3,wc_5,0.0,"[('wc_5', 0.6600000000000005), ('wc_3', 0.3800000000000002)]",0.7892000000000003,,,36.0,0.004135,['Fail'],Fail,0.6600000000000005,-0.4100000000000005,1.0,4.0,0.8
89.0,3.0,wc_3,,0.0,,,,101.0,,,,Fail,,,,,
89.0,3.0,wc_3,wc_12,1.0,"[('wc_12', 0.7100000000000005), ('wc_3', 0.3800000000000002), ('wc_5', 0.6600000000000005)]",0.9388680000000003,,,39.0,0.036746,['Fail'],Fail,0.7200000000000005,0.27999999999999947,1.0,1.0,0.7
105.0,4.0,wc_4,,0.0,,,,381.0,,,,Fail,,,,,
105.0,4.0,wc_4,,0.0,,,63.0,,,,,Fail,,,,,
105.0,4.0,wc_4,,0.0,,,,0.0,,,,Fail,,,,,
105.0,4.0,wc_4,wc_4,0.0,"[('wc_4', 0.5100000000000003)]",0.5100000000000003,,,36.0,0.002286,['Pass'],Fail,0.5100000000000003,-0.426666666666667,0.0,0.0,0.4
105.0,4.0,wc_4,,0.0,,,,142.0,,,,Fail,,,,,
105.0,4.0,wc_4,wc_9,0.0,"[('wc_9', 0.7100000000000005)]",0.7100000000000005,,,30.0,0.004479,['Fail'],Fail,0.7100000000000005,-0.4877777777777783,2.0,9.0,1.0
105.0,4.0,wc_4,,0.0,,,,182.0,,,,Fail,,,,,
105.0,4.0,wc_4,wc_16,0.0,"[('wc_16', 0.7800000000000006), ('wc_9', 0.7100000000000005)]",0.9362000000000003,,,23.0,0.006221000000000001,['Fail'],Fail,0.7800000000000006,-0.224444444444445,5.0,9.0,0.9
105.0,4.0,wc_4,,0.0,,,,263.0,,,,Fail,,,,,
105.0,4.0,wc_4,wc_1,1.0,"[('wc_1', 0.6100000000000004), ('wc_9', 0.7100000000000005), ('wc_16', 0.7800000000000006)]",0.9751180000000002,,,36.0,0.045623000000000004,['Fail'],Fail,0.6100000000000004,-0.6100000000000004,0.0,0.0,0.4
127.0,4.0,wc_4,,0.0,,,,0.0,,,,Pass,,,,,
127.0,4.0,wc_4,,0.0,,,67.0,,,,,Pass,,,,,
127.0,4.0,wc_4,,0.0,,,,0.0,,,,Pass,,,,,
127.0,4.0,wc_4,wc_4,0.0,"[('wc_4', 0.5000000000000003)]",0.5000000000000003,,,27.0,0.002233,['Fail'],Pass,0.5000000000000003,-0.5000000000000003,0.0,1.0,0.4
127.0,4.0,wc_4,,0.0,,,,103.0,,,,Pass,,,,,
127.0,4.0,wc_4,wc_3,0.0,"[('wc_4', 0.5000000000000003)]",0.5000000000000003,,,25.0,0.004,['Fail'],Pass,0.39000000000000024,0.10999999999999976,2.0,4.0,0.3
127.0,4.0,wc_4,,0.0,,,,161.0,,,,Pass,,,,,
127.0,4.0,wc_4,wc_13,0.0,"[('wc_13', 0.7900000000000006), ('wc_3', 0.39000000000000024)]",0.8719000000000003,,,32.0,0.006893,['Pass'],Pass,0.7900000000000006,-0.5400000000000006,1.0,4.0,1.0
127.0,4.0,wc_4,,0.0,,,,162.0,,,,Pass,,,,,
127.0,4.0,wc_4,wc_6,1.0,"[('wc_6', 0.3200000000000002), ('wc_3', 0.39000000000000024), ('wc_13', 0.7900000000000006)]",0.9128920000000003,,,20.0,0.038148,['Pass'],Pass,0.3200000000000002,-0.3200000000000002,0.0,0.0,0.2
158.0,3.0,wc_3,,0.0,,,,321.0,,,,Fail,,,,,
158.0,3.0,wc_3,,0.0,,,60.0,,,,,Fail,,,,,
158.0,3.0,wc_3,,0.0,,,,0.0,,,,Fail,,,,,
158.0,3.0,wc_3,wc_3,0.0,"[('wc_3', 0.40000000000000024)]",0.40000000000000024,,,36.0,0.002267,['Fail'],Fail,0.40000000000000024,0.19999999999999973,3.0,5.0,0.3
158.0,3.0,wc_3,,0.0,,,,141.0,,,,Fail,,,,,
158.0,3.0,wc_3,wc_8,0.0,"[('wc_8', 0.3700000000000002), ('wc_3', 0.40000000000000024)]",0.6220000000000003,,,21.0,0.004973999999999999,['Fail'],Fail,0.3700000000000002,-0.3700000000000002,0.0,5.0,0.3
158.0,3.0,wc_3,,0.0,,,,321.0,,,,Fail,,,,,
158.0,3.0,wc_3,wc_5,0.0,"[('wc_5', 0.6600000000000005), ('wc_3', 0.40000000000000024), ('wc_8', 0.3700000000000002)]",0.8714800000000003,,,30.0,0.007068,['Fail'],Fail,0.6600000000000005,-0.3742857142857148,2.0,7.0,0.8
158.0,3.0,wc_3,,0.0,,,,121.0,,,,Fail,,,,,
158.0,3.0,wc_3,wc_13,0.0,"[('wc_3', 0.40000000000000024), ('wc_8', 0.3700000000000002), ('wc_5', 0.6600000000000005)]",0.8714800000000003,,,34.0,0.008147999999999999,['Fail'],Fail,0.7900000000000006,-0.39000000000000057,2.0,5.0,1.0
158.0,3.0,wc_3,,0.0,,,,341.0,,,,Fail,,,,,
158.0,3.0,wc_3,wc_11,0.0,"[('wc_3', 0.40000000000000024), ('wc_8', 0.3700000000000002), ('wc_5', 0.6600000000000005)]",0.8714800000000003,,,35.0,0.010571,['Fail'],Fail,0.2600000000000001,0.02571428571428558,2.0,7.0,0.2
158.0,3.0,wc_3,,0.0,,,,203.0,,,,Fail,,,,,
158.0,3.0,wc_3,wc_1,1.0,"[('wc_1', 0.6100000000000004), ('wc_13', 0.7900000000000006), ('wc_11', 0.2600000000000001)]",0.9393940000000003,,,38.0,0.04389499999999999,['Pass'],Fail,0.6100000000000004,-0.11000000000000043,1.0,2.0,0.4
179.0,3.0,wc_3,,0.0,,,,0.0,,,,Fail,,,,,
179.0,3.0,wc_3,,0.0,,,73.0,,,,,Fail,,,,,
179.0,3.0,wc_3,,0.0,,,,0.0,,,,Fail,,,,,
179.0,3.0,wc_3,wc_3,0.0,"[('wc_3', 0.40000000000000024)]",0.40000000000000024,,,39.0,0.002069,['Fail'],Fail,0.40000000000000024,0.09999999999999976,3.0,6.0,0.3
179.0,3.0,wc_3,,0.0,,,,161.0,,,,Fail,,,,,
179.0,3.0,wc_3,wc_13,0.0,"[('wc_13', 0.7900000000000006), ('wc_3', 0.40000000000000024)]",0.8740000000000004,,,32.0,0.004282,['Fail'],Fail,0.7900000000000006,-0.2900000000000006,3.0,6.0,1.0
179.0,3.0,wc_3,,0.0,,,,361.0,,,,Fail,,,,,
179.0,3.0,wc_3,wc_4,1.0,"[('wc_4', 0.4900000000000003), ('wc_3', 0.40000000000000024), ('wc_13', 0.7900000000000006)]",0.9357400000000002,,,39.0,0.038222,['Fail'],Fail,0.4900000000000003,-0.24000000000000032,1.0,4.0,0.4
240.0,3.0,wc_3,,0.0,,,,103.0,,,,Fail,,,,,
240.0,3.0,wc_3,,0.0,,,50.0,,,,,Fail,,,,,
240.0,3.0,wc_3,,0.0,,,,0.0,,,,Fail,,,,,
240.0,3.0,wc_3,wc_3,0.0,"[('wc_3', 0.41000000000000025)]",0.41000000000000025,,,36.0,0.00248,['Fail'],Fail,0.41000000000000025,0.16142857142857114,4.0,7.0,0.3
240.0,3.0,wc_3,,0.0,,,,222.0,,,,Fail,,,,,
240.0,3.0,wc_3,wc_16,0.0,"[('wc_16', 0.7800000000000006), ('wc_3', 0.41000000000000025)]",0.8702000000000004,,,35.0,0.005065999999999999,['Fail'],Fail,0.7800000000000006,-0.7800000000000006,0.0,3.0,0.9
240.0,3.0,wc_3,,0.0,,,,243.0,,,,Fail,,,,,
240.0,3.0,wc_3,wc_8,0.0,"[('wc_3', 0.41000000000000025), ('wc_16', 0.7800000000000006)]",0.8702000000000004,,,28.0,0.006348,['Fail'],Fail,0.3600000000000002,-0.3600000000000002,0.0,7.0,0.3
240.0,3.0,wc_3,,0.0,,,,223.0,,,,Fail,,,,,
240.0,3.0,wc_3,wc_17,1.0,"[('wc_17', 0.6500000000000005), ('wc_3', 0.41000000000000025), ('wc_16', 0.7800000000000006)]",0.9545700000000003,,,26.0,0.037988,['Fail'],Fail,0.6500000000000005,-0.6500000000000005,0.0,0.0,0.6
270.0,3.0,wc_3,,0.0,,,,362.0,,,,Pass,,,,,
270.0,3.0,wc_3,,0.0,,,55.0,,,,,Pass,,,,,
270.0,3.0,wc_3,,0.0,,,,0.0,,,,Pass,,,,,
270.0,3.0,wc_3,wc_3,0.0,"[('wc_3', 0.42000000000000026)]",0.42000000000000026,,,40.0,0.002055,['Fail'],Pass,0.42000000000000026,0.20499999999999974,5.0,8.0,0.3
270.0,3.0,wc_3,,0.0,,,,141.0,,,,Pass,,,,,
270.0,3.0,wc_3,wc_12,0.0,"[('wc_12', 0.7200000000000005), ('wc_3', 0.42000000000000026)]",0.8376000000000003,,,27.0,0.0044740000000000005,['Fail'],Pass,0.7200000000000005,-0.5533333333333339,1.0,6.0,0.7
270.0,3.0,wc_3,,0.0,,,,182.0,,,,Pass,,,,,
270.0,3.0,wc_3,wc_6,0.0,"[('wc_3', 0.42000000000000026), ('wc_12', 0.7200000000000005)]",0.8376000000000003,,,33.0,0.006694,['Fail'],Pass,0.3200000000000002,-0.3200000000000002,0.0,3.0,0.2
270.0,3.0,wc_3,,0.0,,,,0.0,,,,Pass,,,,,
270.0,3.0,wc_3,wc_8,0.0,"[('wc_3', 0.42000000000000026), ('wc_12', 0.7200000000000005)]",0.8376000000000003,,,26.0,0.008515,['Fail'],Pass,0.3500000000000002,-0.3500000000000002,0.0,8.0,0.3
270.0,3.0,wc_3,,0.0,,,,182.0,,,,Pass,,,,,
270.0,3.0,wc_3,wc_2,0.0,"[('wc_2', 0.6400000000000005), ('wc_6', 0.3200000000000002), ('wc_8', 0.3500000000000002)]",0.8408800000000003,,,23.0,0.010397,['Pass'],Pass,0.6400000000000005,-0.4971428571428576,1.0,7.0,0.8
270.0,3.0,wc_3,,0.0,,,,223.0,,,,Pass,,,,,
270.0,3.0,wc_3,wc_15,1.0,"[('wc_15', 0.6600000000000005), ('wc_6', 0.3200000000000002), ('wc_8', 0.3500000000000002), ('wc_2', 0.6400000000000005)]",0.9458992000000002,,,25.0,0.04745100000000001,['Pass'],Pass,0.6600000000000005,-0.6600000000000005,0.0,0.0,1.0
282.0,5.0,wc_5,,0.0,,,,442.0,,,,Fail,,,,,
282.0,5.0,wc_5,,0.0,,,61.0,,,,,Fail,,,,,
282.0,5.0,wc_5,,0.0,,,,0.0,,,,Fail,,,,,
282.0,5.0,wc_5,wc_5,0.0,"[('wc_5', 0.6500000000000005)]",0.6500000000000005,,,36.0,0.002709,['Fail'],Fail,0.6500000000000005,-0.46818181818181864,0.0,0.0,0.8
282.0,5.0,wc_5,,0.0,,,,121.0,,,,Fail,,,,,
282.0,5.0,wc_5,wc_13,0.0,"[('wc_13', 0.7900000000000006), ('wc_5', 0.6500000000000005)]",0.9265000000000003,,,20.0,0.00401,['Fail'],Fail,0.7900000000000006,-0.34555555555555617,4.0,9.0,1.0
282.0,5.0,wc_5,,0.0,,,,242.0,,,,Fail,,,,,
282.0,5.0,wc_5,wc_2,0.0,"[('wc_5', 0.6500000000000005), ('wc_13', 0.7900000000000006)]",0.9265000000000003,,,33.0,0.006239,['Fail'],Fail,0.6400000000000005,-0.39000000000000046,2.0,8.0,0.8
282.0,5.0,wc_5,,0.0,,,,223.0,,,,Fail,,,,,
282.0,5.0,wc_5,wc_11,1.0,"[('wc_11', 0.27000000000000013), ('wc_5', 0.6500000000000005), ('wc_13', 0.7900000000000006)]",0.9463450000000002,,,32.0,0.04688400000000001,['Fail'],Fail,0.28000000000000014,-0.28000000000000014,0.0,0.0,0.2
308.0,5.0,wc_5,,0.0,,,,362.0,,,,Pass,,,,,
308.0,5.0,wc_5,,0.0,,,65.0,,,,,Pass,,,,,
308.0,5.0,wc_5,,0.0,,,,0.0,,,,Pass,,,,,
308.0,5.0,wc_5,wc_5,0.0,"[('wc_5', 0.6600000000000005)]",0.6600000000000005,,,27.0,0.002424,['Pass'],Pass,0.6600000000000005,0.3399999999999995,1.0,1.0,0.8
308.0,5.0,wc_5,,0.0,,,,83.0,,,,Pass,,,,,
308.0,5.0,wc_5,wc_3,0.0,"[('wc_3', 0.42000000000000026), ('wc_5', 0.6600000000000005)]",0.8028000000000004,,,35.0,0.004432,['Pass'],Pass,0.42000000000000026,0.07999999999999974,0.0,0.0,0.3
308.0,5.0,wc_5,,0.0,,,,242.0,,,,Pass,,,,,
308.0,5.0,wc_5,wc_17,1.0,"[('wc_17', 0.6500000000000005), ('wc_5', 0.6600000000000005), ('wc_3', 0.42000000000000026)]",0.9309800000000003,,,26.0,0.043007000000000004,['Pass'],Pass,0.6500000000000005,-0.31666666666666715,1.0,3.0,0.6
350.0,6.0,wc_6,,0.0,,,,183.0,,,,Fail,,,,,
350.0,6.0,wc_6,,0.0,,,55.0,,,,,Fail,,,,,
350.0,6.0,wc_6,,0.0,,,,0.0,,,,Fail,,,,,
350.0,6.0,wc_6,wc_6,0.0,"[('wc_6', 0.3200000000000002)]",0.3200000000000002,,,40.0,0.00229,['Pass'],Fail,0.3200000000000002,-0.15333333333333352,1.0,6.0,0.2
350.0,6.0,wc_6,,0.0,,,,321.0,,,,Fail,,,,,
350.0,6.0,wc_6,wc_3,0.0,"[('wc_3', 0.43000000000000027), ('wc_6', 0.3200000000000002)]",0.6124000000000003,,,30.0,0.004174,['Pass'],Fail,0.43000000000000027,0.5699999999999997,1.0,1.0,0.3
350.0,6.0,wc_6,,0.0,,,,182.0,,,,Fail,,,,,
350.0,6.0,wc_6,wc_10,0.0,"[('wc_10', 0.7200000000000005)]",0.7200000000000005,,,33.0,0.006416,['Fail'],Fail,0.7200000000000005,-0.7200000000000005,0.0,0.0,0.8
350.0,6.0,wc_6,,0.0,,,,182.0,,,,Fail,,,,,
350.0,6.0,wc_6,wc_17,0.0,"[('wc_17', 0.6500000000000005), ('wc_6', 0.3200000000000002), ('wc_3', 0.43000000000000027)]",0.8643400000000003,,,22.0,0.008113,['Pass'],Fail,0.6500000000000005,-0.31666666666666715,1.0,3.0,0.6
350.0,6.0,wc_6,,0.0,,,,382.0,,,,Fail,,,,,
350.0,6.0,wc_6,wc_4,0.0,"[('wc_6', 0.3200000000000002), ('wc_3', 0.43000000000000027), ('wc_17', 0.6500000000000005)]",0.8643400000000003,,,22.0,0.011006,['Pass'],Fail,0.4900000000000003,-0.3650000000000003,1.0,8.0,0.4
350.0,6.0,wc_6,,0.0,,,,202.0,,,,Fail,,,,,
350.0,6.0,wc_6,wc_16,1.0,"[('wc_16', 0.7800000000000006), ('wc_10', 0.7200000000000005), ('wc_4', 0.4900000000000003)]",0.9685840000000001,,,40.0,0.045338,['Fail'],Fail,0.7800000000000006,-0.5300000000000006,2.0,8.0,0.9
373.0,6.0,wc_6,,0.0,,,,203.0,,,,Fail,,,,,
373.0,6.0,wc_6,,0.0,,,56.0,,,,,Fail,,,,,
373.0,6.0,wc_6,,0.0,,,,0.0,,,,Fail,,,,,
373.0,6.0,wc_6,wc_6,0.0,"[('wc_6', 0.31000000000000016)]",0.31000000000000016,,,35.0,0.002177,['Pass'],Fail,0.31000000000000016,-0.16714285714285732,1.0,7.0,0.2
373.0,6.0,wc_6,,0.0,,,,243.0,,,,Fail,,,,,
373.0,6.0,wc_6,wc_16,0.0,"[('wc_16', 0.7800000000000006), ('wc_6', 0.31000000000000016)]",0.8482000000000004,,,35.0,0.004364,['Pass'],Fail,0.7800000000000006,-0.5300000000000006,2.0,8.0,0.9
373.0,6.0,wc_6,,0.0,,,,103.0,,,,Fail,,,,,
373.0,6.0,wc_6,wc_15,0.0,"[('wc_6', 0.31000000000000016), ('wc_16', 0.7800000000000006)]",0.8482000000000004,,,28.0,0.005993,['Pass'],Fail,0.6600000000000005,-0.6600000000000005,0.0,3.0,1.0
373.0,6.0,wc_6,,0.0,,,,61.0,,,,Fail,,,,,
373.0,6.0,wc_6,wc_12,0.0,"[('wc_12', 0.7100000000000005), ('wc_15', 0.6600000000000005)]",0.9014000000000003,,,32.0,0.007923999999999999,['Fail'],Fail,0.7100000000000005,-0.6100000000000005,0.0,0.0,0.7
373.0,6.0,wc_6,,0.0,,,,381.0,,,,Fail,,,,,
373.0,6.0,wc_6,wc_4,1.0,"[('wc_4', 0.4900000000000003), ('wc_15', 0.6600000000000005), ('wc_12', 0.7100000000000005)]",0.9497140000000002,,,20.0,0.042959,['Fail'],Fail,0.4900000000000003,-0.4900000000000003,0.0,0.0,0.4
422.0,6.0,wc_6,,0.0,,,,81.0,,,,Fail,,,,,
422.0,6.0,wc_6,,0.0,,,60.0,,,,,Fail,,,,,
422.0,6.0,wc_6,,0.0,,,,0.0,,,,Fail,,,,,
422.0,6.0,wc_6,wc_6,0.0,"[('wc_6', 0.30000000000000016)]",0.30000000000000016,,,22.0,0.002491,['Fail'],Fail,0.30000000000000016,-0.17500000000000016,1.0,8.0,0.2
422.0,6.0,wc_6,,0.0,,,,341.0,,,,Fail,,,,,
422.0,6.0,wc_6,wc_4,0.0,"[('wc_4', 0.4900000000000003), ('wc_6', 0.30000000000000016)]",0.6430000000000002,,,28.0,0.004039,['Fail'],Fail,0.4900000000000003,-0.4900000000000003,0.0,0.0,0.4
422.0,6.0,wc_6,,0.0,,,,121.0,,,,Fail,,,,,
422.0,6.0,wc_6,wc_12,1.0,"[('wc_12', 0.7200000000000005), ('wc_6', 0.30000000000000016), ('wc_4', 0.4900000000000003)]",0.9000400000000003,,,20.0,0.038232,['Fail'],Fail,0.7300000000000005,0.26999999999999946,2.0,2.0,0.7
449.0,6.0,wc_6,,0.0,,,,182.0,,,,Fail,,,,,
449.0,6.0,wc_6,,0.0,,,50.0,,,,,Fail,,,,,
449.0,6.0,wc_6,,0.0,,,,0.0,,,,Fail,,,,,
449.0,6.0,wc_6,wc_6,0.0,"[('wc_6', 0.30000000000000016)]",0.30000000000000016,,,22.0,0.002487,['Pass'],Fail,0.30000000000000016,-0.07777777777777795,2.0,9.0,0.2
449.0,6.0,wc_6,,0.0,,,,182.0,,,,Fail,,,,,
449.0,6.0,wc_6,wc_13,0.0,"[('wc_13', 0.7900000000000006)]",0.7900000000000006,,,36.0,0.004654,['Fail'],Fail,0.7900000000000006,-0.7900000000000006,0.0,4.0,1.0
449.0,6.0,wc_6,,0.0,,,,0.0,,,,Fail,,,,,
449.0,6.0,wc_6,wc_17,0.0,"[('wc_17', 0.6400000000000005), ('wc_13', 0.7900000000000006)]",0.9244000000000003,,,40.0,0.005921999999999999,['Fail'],Fail,0.6400000000000005,-0.4733333333333338,1.0,6.0,0.6
449.0,6.0,wc_6,,0.0,,,,203.0,,,,Fail,,,,,
449.0,6.0,wc_6,wc_7,1.0,"[('wc_7', 0.7600000000000006), ('wc_13', 0.7900000000000006), ('wc_17', 0.6400000000000005)]",0.9818560000000001,,,37.0,0.043306000000000004,['Fail'],Fail,0.7600000000000006,-0.7600000000000006,0.0,0.0,0.9
471.0,6.0,wc_6,,0.0,,,,102.0,,,,Fail,,,,,
471.0,6.0,wc_6,,0.0,,,56.0,,,,,Fail,,,,,
471.0,6.0,wc_6,,0.0,,,,0.0,,,,Fail,,,,,
471.0,6.0,wc_6,wc_6,0.0,"[('wc_6', 0.29000000000000015)]",0.29000000000000015,,,40.0,0.002215,['Pass'],Fail,0.29000000000000015,-0.29000000000000015,0.0,0.0,0.2
471.0,6.0,wc_6,,0.0,,,,0.0,,,,Fail,,,,,
471.0,6.0,wc_6,wc_10,0.0,"[('wc_10', 0.7300000000000005)]",0.7300000000000005,,,24.0,0.004015,['Fail'],Fail,0.7300000000000005,-0.48000000000000054,1.0,4.0,0.8
471.0,6.0,wc_6,,0.0,,,,101.0,,,,Fail,,,,,
471.0,6.0,wc_6,wc_13,0.0,"[('wc_13', 0.7900000000000006), ('wc_10', 0.7300000000000005)]",0.9433000000000002,,,34.0,0.005744,['Fail'],Fail,0.7900000000000006,-0.5900000000000005,1.0,5.0,1.0
471.0,6.0,wc_6,,0.0,,,,202.0,,,,Fail,,,,,
471.0,6.0,wc_6,wc_8,1.0,"[('wc_8', 0.3500000000000002), ('wc_10', 0.7300000000000005), ('wc_13', 0.7900000000000006)]",0.9631450000000001,,,22.0,0.042394,['Fail'],Fail,0.3500000000000002,-0.3500000000000002,0.0,0.0,0.3
486.0,6.0,wc_6,,0.0,,,,82.0,,,,Pass,,,,,
486.0,6.0,wc_6,,0.0,,,80.0,,,,,Pass,,,,,
486.0,6.0,wc_6,,0.0,,,,0.0,,,,Pass,,,,,
486.0,6.0,wc_6,wc_6,0.0,"[('wc_6', 0.28000000000000014)]",0.28000000000000014,,,23.0,0.002263,['Fail'],Pass,0.28000000000000014,-0.28000000000000014,0.0,1.0,0.2
486.0,6.0,wc_6,,0.0,,,,223.0,,,,Pass,,,,,
486.0,6.0,wc_6,wc_15,0.0,"[('wc_15', 0.6600000000000005)]",0.6600000000000005,,,34.0,0.004424,['Pass'],Pass,0.6600000000000005,-0.5171428571428576,1.0,7.0,1.0
486.0,6.0,wc_6,,0.0,,,,303.0,,,,Pass,,,,,
486.0,6.0,wc_6,wc_2,0.0,"[('wc_2', 0.6300000000000004), ('wc_15', 0.6600000000000005)]",0.8742000000000003,,,31.0,0.005551,['Pass'],Pass,0.6300000000000004,-0.49666666666666714,0.0,0.0,0.8
486.0,6.0,wc_6,,0.0,,,,0.0,,,,Pass,,,,,
486.0,6.0,wc_6,wc_5,0.0,"[('wc_15', 0.6600000000000005), ('wc_2', 0.6300000000000004)]",0.8742000000000003,,,25.0,0.008298,['Pass'],Pass,0.6700000000000005,-0.3842857142857148,2.0,7.0,0.8
486.0,6.0,wc_6,,0.0,,,,162.0,,,,Pass,,,,,
486.0,6.0,wc_6,wc_11,0.0,"[('wc_15', 0.6600000000000005), ('wc_2', 0.6300000000000004)]",0.8742000000000003,,,37.0,0.009758,['Pass'],Pass,0.28000000000000014,-0.28000000000000014,0.0,6.0,0.2
486.0,6.0,wc_6,,0.0,,,,41.0,,,,Pass,,,,,
486.0,6.0,wc_6,wc_7,1.0,"[('wc_7', 0.7600000000000006), ('wc_6', 0.28000000000000014), ('wc_5', 0.6700000000000005), ('wc_11', 0.28000000000000014)]",0.9589427200000001,,,32.0,0.045954,['Fail'],Pass,0.7600000000000006,-0.26000000000000056,1.0,2.0,0.9
494.0,9.0,wc_9,,0.0,,,,0.0,,,,Pass,,,,,
494.0,9.0,wc_9,,0.0,,,60.0,,,,,Pass,,,,,
494.0,9.0,wc_9,,0.0,,,,0.0,,,,Pass,,,,,
494.0,9.0,wc_9,wc_9,0.0,"[('wc_9', 0.7100000000000005)]",0.7100000000000005,,,30.0,0.002201,['Pass'],Pass,0.7100000000000005,-0.7100000000000005,0.0,0.0,1.0
494.0,9.0,wc_9,,0.0,,,,162.0,,,,Pass,,,,,
494.0,9.0,wc_9,wc_15,0.0,"[('wc_15', 0.6500000000000005), ('wc_9', 0.7100000000000005)]",0.8985000000000003,,,35.0,0.004088,['Pass'],Pass,0.6500000000000005,-0.5250000000000005,1.0,8.0,1.0
494.0,9.0,wc_9,,0.0,,,,243.0,,,,Pass,,,,,
494.0,9.0,wc_9,wc_7,1.0,"[('wc_7', 0.7600000000000006), ('wc_9', 0.7100000000000005), ('wc_15', 0.6500000000000005)]",0.9756400000000002,,,35.0,0.039637,['Pass'],Pass,0.7600000000000006,-0.09333333333333393,2.0,3.0,0.9
501.0,7.0,wc_7,,0.0,,,,0.0,,,,Pass,,,,,
501.0,7.0,wc_7,,0.0,,,66.0,,,,,Pass,,,,,
501.0,7.0,wc_7,,0.0,,,,0.0,,,,Pass,,,,,
501.0,7.0,wc_7,wc_7,0.0,"[('wc_7', 0.7600000000000006)]",0.7600000000000006,,,24.0,0.002261,['Pass'],Pass,0.7600000000000006,-0.09333333333333393,2.0,3.0,0.9
501.0,7.0,wc_7,,0.0,,,,0.0,,,,Pass,,,,,
501.0,7.0,wc_7,wc_9,0.0,"[('wc_9', 0.7200000000000005), ('wc_7', 0.7600000000000006)]",0.9328000000000003,,,29.0,0.004161,['Pass'],Pass,0.7200000000000005,0.27999999999999947,1.0,1.0,1.0
501.0,7.0,wc_7,,0.0,,,,263.0,,,,Pass,,,,,
501.0,7.0,wc_7,wc_2,1.0,"[('wc_2', 0.6200000000000004), ('wc_7', 0.7600000000000006), ('wc_9', 0.7200000000000005)]",0.9744640000000001,,,27.0,0.041969000000000006,['Pass'],Pass,0.6200000000000004,-0.2866666666666671,1.0,3.0,0.8
509.0,8.0,wc_8,,0.0,,,,162.0,,,,Fail,,,,,
509.0,8.0,wc_8,,0.0,,,79.0,,,,,Fail,,,,,
509.0,8.0,wc_8,,0.0,,,,0.0,,,,Fail,,,,,
509.0,8.0,wc_8,wc_8,0.0,"[('wc_8', 0.3500000000000002)]",0.3500000000000002,,,38.0,0.002349,['Fail'],Fail,0.3500000000000002,-0.3500000000000002,0.0,3.0,0.3
509.0,8.0,wc_8,,0.0,,,,182.0,,,,Fail,,,,,
509.0,8.0,wc_8,wc_2,0.0,"[('wc_2', 0.6200000000000004), ('wc_8', 0.3500000000000002)]",0.7530000000000003,,,40.0,0.0038840000000000003,['Fail'],Fail,0.6200000000000004,-0.2866666666666671,1.0,3.0,0.8
509.0,8.0,wc_8,,0.0,,,,223.0,,,,Fail,,,,,
509.0,8.0,wc_8,wc_11,0.0,"[('wc_8', 0.3500000000000002), ('wc_2', 0.6200000000000004)]",0.7530000000000003,,,25.0,0.00627,['Fail'],Fail,0.28000000000000014,-0.16888888888888903,1.0,9.0,0.2
509.0,8.0,wc_8,,0.0,,,,142.0,,,,Fail,,,,,
509.0,8.0,wc_8,wc_16,1.0,"[('wc_16', 0.7700000000000006), ('wc_8', 0.3500000000000002), ('wc_2', 0.6200000000000004)]",0.9431900000000002,,,39.0,0.040947000000000004,['Fail'],Fail,0.7700000000000006,-0.7700000000000006,0.0,0.0,0.9
515.0,10.0,wc_10,,0.0,,,,362.0,,,,Fail,,,,,
515.0,10.0,wc_10,,0.0,,,67.0,,,,,Fail,,,,,
515.0,10.0,wc_10,,0.0,,,,0.0,,,,Fail,,,,,
515.0,10.0,wc_10,wc_10,0.0,"[('wc_10', 0.7300000000000005)]",0.7300000000000005,,,26.0,0.002432,['Fail'],Fail,0.7300000000000005,-0.5077777777777783,2.0,9.0,0.8
515.0,10.0,wc_10,,0.0,,,,61.0,,,,Fail,,,,,
515.0,10.0,wc_10,wc_7,0.0,"[('wc_7', 0.7600000000000006), ('wc_10', 0.7300000000000005)]",0.9352000000000003,,,37.0,0.003797,['Fail'],Fail,0.7600000000000006,-0.1600000000000006,3.0,5.0,0.9
515.0,10.0,wc_10,,0.0,,,,182.0,,,,Fail,,,,,
515.0,10.0,wc_10,wc_14,1.0,"[('wc_14', 0.4900000000000003), ('wc_10', 0.7300000000000005), ('wc_7', 0.7600000000000006)]",0.9669520000000001,,,25.0,0.038914,['Fail'],Fail,0.4900000000000003,-0.4900000000000003,0.0,0.0,0.6
520.0,8.0,wc_8,,0.0,,,,182.0,,,,Fail,,,,,
520.0,8.0,wc_8,,0.0,,,60.0,,,,,Fail,,,,,
520.0,8.0,wc_8,,0.0,,,,0.0,,,,Fail,,,,,
520.0,8.0,wc_8,wc_8,0.0,"[('wc_8', 0.3500000000000002)]",0.3500000000000002,,,40.0,0.002001,['Pass'],Fail,0.3500000000000002,-0.1500000000000002,1.0,5.0,0.3
520.0,8.0,wc_8,,0.0,,,,0.0,,,,Fail,,,,,
520.0,8.0,wc_8,wc_10,0.0,"[('wc_10', 0.7300000000000005)]",0.7300000000000005,,,28.0,0.004016,['Fail'],Fail,0.7300000000000005,-0.7300000000000005,0.0,0.0,0.8
520.0,8.0,wc_8,,0.0,,,,121.0,,,,Fail,,,,,
520.0,8.0,wc_8,wc_14,0.0,"[('wc_10', 0.7300000000000005)]",0.7300000000000005,,,23.0,0.0062959999999999995,['Fail'],Fail,0.4900000000000003,-0.4900000000000003,0.0,0.0,0.6
520.0,8.0,wc_8,,0.0,,,,321.0,,,,Fail,,,,,
520.0,8.0,wc_8,wc_3,0.0,"[('wc_3', 0.43000000000000027), ('wc_10', 0.7300000000000005)]",0.8461000000000004,,,37.0,0.008812,['Fail'],Fail,0.43000000000000027,-0.33909090909090933,0.0,0.0,0.3
520.0,8.0,wc_8,,0.0,,,,222.0,,,,Fail,,,,,
520.0,8.0,wc_8,wc_16,1.0,"[('wc_16', 0.7700000000000006), ('wc_10', 0.7300000000000005), ('wc_3', 0.43000000000000027)]",0.9646030000000002,,,21.0,0.045912999999999995,['Fail'],Fail,0.7700000000000006,-0.2700000000000006,1.0,2.0,0.9
525.0,8.0,wc_8,,0.0,,,,243.0,,,,Pass,,,,,
525.0,8.0,wc_8,,0.0,,,53.0,,,,,Pass,,,,,
525.0,8.0,wc_8,,0.0,,,,0.0,,,,Pass,,,,,
525.0,8.0,wc_8,wc_8,0.0,"[('wc_8', 0.3400000000000002)]",0.3400000000000002,,,30.0,0.002365,['Pass'],Pass,0.3400000000000002,-0.17333333333333353,1.0,6.0,0.3
525.0,8.0,wc_8,,0.0,,,,321.0,,,,Pass,,,,,
525.0,8.0,wc_8,wc_5,0.0,"[('wc_5', 0.6700000000000005), ('wc_8', 0.3400000000000002)]",0.7822000000000005,,,35.0,0.0041600000000000005,['Pass'],Pass,0.6700000000000005,-0.4392307692307697,0.0,0.0,0.8
525.0,8.0,wc_8,,0.0,,,,162.0,,,,Pass,,,,,
525.0,8.0,wc_8,wc_15,1.0,"[('wc_15', 0.6500000000000005), ('wc_8', 0.3400000000000002), ('wc_5', 0.6700000000000005)]",0.9237700000000002,,,24.0,0.041833,['Pass'],Pass,0.6500000000000005,-0.6500000000000005,0.0,0.0,1.0
531.0,10.0,wc_10,,0.0,,,,382.0,,,,Fail,,,,,
531.0,10.0,wc_10,,0.0,,,57.0,,,,,Fail,,,,,
531.0,10.0,wc_10,,0.0,,,,0.0,,,,Fail,,,,,
531.0,10.0,wc_10,wc_10,0.0,"[('wc_10', 0.7400000000000005)]",0.7400000000000005,,,24.0,0.002034,['Fail'],Fail,0.7400000000000005,-0.24000000000000055,1.0,2.0,0.8
531.0,10.0,wc_10,,0.0,,,,162.0,,,,Fail,,,,,
531.0,10.0,wc_10,wc_16,0.0,"[('wc_16', 0.7700000000000006), ('wc_10', 0.7400000000000005)]",0.9402000000000003,,,34.0,0.004104,['Fail'],Fail,0.7700000000000006,-0.43666666666666726,1.0,3.0,0.9
531.0,10.0,wc_10,,0.0,,,,382.0,,,,Fail,,,,,
531.0,10.0,wc_10,wc_3,1.0,"[('wc_3', 0.4400000000000003), ('wc_10', 0.7400000000000005), ('wc_16', 0.7700000000000006)]",0.9665120000000001,,,37.0,0.05426500000000001,['Fail'],Fail,0.4500000000000003,0.21666666666666634,2.0,3.0,0.3
537.0,10.0,wc_10,,0.0,,,,182.0,,,,Fail,,,,,
537.0,10.0,wc_10,,0.0,,,77.0,,,,,Fail,,,,,
537.0,10.0,wc_10,,0.0,,,,0.0,,,,Fail,,,,,
537.0,10.0,wc_10,wc_10,0.0,"[('wc_10', 0.7400000000000005)]",0.7400000000000005,,,25.0,0.002134,['Fail'],Fail,0.7400000000000005,-0.07333333333333392,2.0,3.0,0.8
537.0,10.0,wc_10,,0.0,,,,103.0,,,,Fail,,,,,
537.0,10.0,wc_10,wc_9,0.0,"[('wc_9', 0.7300000000000005), ('wc_10', 0.7400000000000005)]",0.9298000000000003,,,26.0,0.003941999999999999,['Fail'],Fail,0.7300000000000005,-0.44428571428571484,2.0,7.0,1.0
537.0,10.0,wc_10,,0.0,,,,182.0,,,,Fail,,,,,
537.0,10.0,wc_10,wc_16,1.0,"[('wc_16', 0.7700000000000006), ('wc_10', 0.7400000000000005), ('wc_9', 0.7300000000000005)]",0.9838540000000001,,,20.0,0.04382800000000001,['Fail'],Fail,0.7700000000000006,-0.1700000000000006,3.0,5.0,0.9
543.0,10.0,wc_10,,0.0,,,,362.0,,,,Fail,,,,,
543.0,10.0,wc_10,,0.0,,,68.0,,,,,Fail,,,,,
543.0,10.0,wc_10,,0.0,,,,0.0,,,,Fail,,,,,
543.0,10.0,wc_10,wc_10,0.0,"[('wc_10', 0.7400000000000005)]",0.7400000000000005,,,35.0,0.002433,['Fail'],Fail,0.7400000000000005,0.009999999999999454,3.0,4.0,0.8
543.0,10.0,wc_10,,0.0,,,,142.0,,,,Fail,,,,,
543.0,10.0,wc_10,wc_15,0.0,"[('wc_15', 0.6500000000000005), ('wc_10', 0.7400000000000005)]",0.9090000000000003,,,20.0,0.003987,['Fail'],Fail,0.6500000000000005,-0.6500000000000005,0.0,2.0,1.0
543.0,10.0,wc_10,,0.0,,,,0.0,,,,Fail,,,,,
543.0,10.0,wc_10,wc_16,1.0,"[('wc_16', 0.7700000000000006), ('wc_10', 0.7400000000000005), ('wc_15', 0.6500000000000005)]",0.9790700000000001,,,34.0,0.040672999999999994,['Fail'],Fail,0.7700000000000006,-0.10333333333333394,4.0,6.0,0.9
552.0,11.0,wc_11,,0.0,,,,382.0,,,,Fail,,,,,
552.0,11.0,wc_11,,0.0,,,74.0,,,,,Fail,,,,,
552.0,11.0,wc_11,,0.0,,,,0.0,,,,Fail,,,,,
552.0,11.0,wc_11,wc_11,0.0,"[('wc_11', 0.27000000000000013)]",0.27000000000000013,,,37.0,0.00217,['Pass'],Fail,0.27000000000000013,-0.27000000000000013,0.0,6.0,0.2
552.0,11.0,wc_11,,0.0,,,,122.0,,,,Fail,,,,,
552.0,11.0,wc_11,wc_15,0.0,"[('wc_15', 0.6500000000000005)]",0.6500000000000005,,,31.0,0.004333999999999999,['Fail'],Fail,0.6500000000000005,-0.31666666666666715,1.0,3.0,1.0
552.0,11.0,wc_11,,0.0,,,,101.0,,,,Fail,,,,,
552.0,11.0,wc_11,wc_14,0.0,"[('wc_14', 0.4800000000000003), ('wc_15', 0.6500000000000005)]",0.8180000000000004,,,40.0,0.0061070000000000004,['Fail'],Fail,0.4800000000000003,-0.4800000000000003,0.0,5.0,0.6
552.0,11.0,wc_11,,0.0,,,,321.0,,,,Fail,,,,,
552.0,11.0,wc_11,wc_3,0.0,"[('wc_3', 0.4500000000000003), ('wc_15', 0.6500000000000005), ('wc_14', 0.4800000000000003)]",0.8999000000000003,,,27.0,0.007267,['Fail'],Fail,0.4500000000000003,-0.050000000000000266,2.0,5.0,0.3
552.0,11.0,wc_11,,0.0,,,,101.0,,,,Fail,,,,,
552.0,11.0,wc_11,wc_6,1.0,"[('wc_6', 0.29000000000000015), ('wc_15', 0.6500000000000005), ('wc_14', 0.4800000000000003), ('wc_3', 0.4500000000000003)]",0.9289290000000002,,,40.0,0.047762000000000006,['Fail'],Fail,0.29000000000000015,-0.29000000000000015,0.0,0.0,0.2
559.0,10.0,wc_10,,0.0,,,,0.0,,,,Fail,,,,,
559.0,10.0,wc_10,,0.0,,,70.0,,,,,Fail,,,,,
559.0,10.0,wc_10,,0.0,,,,0.0,,,,Fail,,,,,
559.0,10.0,wc_10,wc_10,0.0,"[('wc_10', 0.7500000000000006)]",0.7500000000000006,,,30.0,0.002173,['Fail'],Fail,0.7500000000000006,-0.08333333333333393,4.0,6.0,0.8
559.0,10.0,wc_10,,0.0,,,,382.0,,,,Fail,,,,,
559.0,10.0,wc_10,wc_5,0.0,"[('wc_5', 0.6800000000000005), ('wc_10', 0.7500000000000006)]",0.9200000000000003,,,28.0,0.004103,['Fail'],Fail,0.6800000000000005,-0.4800000000000005,1.0,5.0,0.8
559.0,10.0,wc_10,,0.0,,,,182.0,,,,Fail,,,,,
559.0,10.0,wc_10,wc_16,1.0,"[('wc_16', 0.7700000000000006), ('wc_10', 0.7500000000000006), ('wc_5', 0.6800000000000005)]",0.9816000000000001,,,32.0,0.041465,['Fail'],Fail,0.7700000000000006,-0.14500000000000057,5.0,8.0,0.9
564.0,10.0,wc_10,,0.0,,,,362.0,,,,Fail,,,,,
564.0,10.0,wc_10,,0.0,,,61.0,,,,,Fail,,,,,
564.0,10.0,wc_10,,0.0,,,,0.0,,,,Fail,,,,,
564.0,10.0,wc_10,wc_10,0.0,"[('wc_10', 0.7500000000000006)]",0.7500000000000006,,,25.0,0.002357,['Fail'],Fail,0.7500000000000006,-0.035714285714286254,5.0,7.0,0.8
564.0,10.0,wc_10,,0.0,,,,142.0,,,,Fail,,,,,
564.0,10.0,wc_10,wc_15,0.0,"[('wc_15', 0.6500000000000005), ('wc_10', 0.7500000000000006)]",0.9125000000000003,,,40.0,0.00438,['Fail'],Fail,0.6500000000000005,-0.25000000000000044,2.0,5.0,1.0
564.0,10.0,wc_10,,0.0,,,,422.0,,,,Fail,,,,,
564.0,10.0,wc_10,wc_4,1.0,"[('wc_4', 0.5000000000000003), ('wc_10', 0.7500000000000006), ('wc_15', 0.6500000000000005)]",0.9562500000000002,,,37.0,0.039876999999999996,['Fail'],Fail,0.5000000000000003,-0.5000000000000003,0.0,0.0,0.4
568.0,10.0,wc_10,,0.0,,,,162.0,,,,Fail,,,,,
568.0,10.0,wc_10,,0.0,,,54.0,,,,,Fail,,,,,
568.0,10.0,wc_10,,0.0,,,,0.0,,,,Fail,,,,,
568.0,10.0,wc_10,wc_10,0.0,"[('wc_10', 0.7500000000000006)]",0.7500000000000006,,,24.0,0.002112,['Fail'],Fail,0.7500000000000006,-5.551115123125783e-16,6.0,8.0,0.8
568.0,10.0,wc_10,,0.0,,,,223.0,,,,Fail,,,,,
568.0,10.0,wc_10,wc_1,0.0,"[('wc_10', 0.7500000000000006)]",0.7500000000000006,,,21.0,0.004284,['Fail'],Fail,0.6100000000000004,-0.5700000000000004,0.0,0.0,0.4
568.0,10.0,wc_10,,0.0,,,,162.0,,,,Fail,,,,,
568.0,10.0,wc_10,wc_7,0.0,"[('wc_7', 0.7600000000000006), ('wc_10', 0.7500000000000006)]",0.9400000000000003,,,25.0,0.005835,['Fail'],Fail,0.7600000000000006,-0.47428571428571487,0.0,0.0,0.9
568.0,10.0,wc_10,,0.0,,,,223.0,,,,Fail,,,,,
568.0,10.0,wc_10,wc_16,1.0,"[('wc_16', 0.7700000000000006), ('wc_10', 0.7500000000000006), ('wc_7', 0.7600000000000006)]",0.9862000000000001,,,35.0,0.041682000000000004,['Fail'],Fail,0.7700000000000006,-0.7700000000000006,0.0,0.0,0.9
574.0,11.0,wc_11,,0.0,,,,382.0,,,,Fail,,,,,
574.0,11.0,wc_11,,0.0,,,69.0,,,,,Fail,,,,,
574.0,11.0,wc_11,,0.0,,,,0.0,,,,Fail,,,,,
574.0,11.0,wc_11,wc_11,0.0,"[('wc_11', 0.2600000000000001)]",0.2600000000000001,,,30.0,0.002006,['Pass'],Fail,0.2600000000000001,-0.2600000000000001,0.0,0.0,0.2
574.0,11.0,wc_11,,0.0,,,,101.0,,,,Fail,,,,,
574.0,11.0,wc_11,wc_14,0.0,"[('wc_14', 0.4800000000000003)]",0.4800000000000003,,,23.0,0.004075,['Fail'],Fail,0.4800000000000003,-0.3688888888888892,1.0,9.0,0.6
574.0,11.0,wc_11,,0.0,,,,162.0,,,,Fail,,,,,
574.0,11.0,wc_11,wc_7,0.0,"[('wc_7', 0.7700000000000006), ('wc_14', 0.4800000000000003)]",0.8804000000000004,,,33.0,0.007233,['Fail'],Fail,0.7700000000000006,0.22999999999999943,1.0,1.0,0.9
574.0,11.0,wc_11,,0.0,,,,142.0,,,,Fail,,,,,
574.0,11.0,wc_11,wc_12,1.0,"[('wc_12', 0.7300000000000005), ('wc_14', 0.4800000000000003), ('wc_7', 0.7700000000000006)]",0.9677080000000001,,,38.0,0.044786,['Fail'],Fail,0.7300000000000005,-0.7300000000000005,0.0,0.0,0.7
579.0,11.0,wc_11,,0.0,,,,361.0,,,,Fail,,,,,
579.0,11.0,wc_11,,0.0,,,64.0,,,,,Fail,,,,,
579.0,11.0,wc_11,,0.0,,,,0.0,,,,Fail,,,,,
579.0,11.0,wc_11,wc_11,0.0,"[('wc_11', 0.2500000000000001)]",0.2500000000000001,,,20.0,0.002297,['Fail'],Fail,0.2500000000000001,-0.2500000000000001,0.0,1.0,0.2
579.0,11.0,wc_11,,0.0,,,,41.0,,,,Fail,,,,,
579.0,11.0,wc_11,wc_7,0.0,"[('wc_7', 0.7800000000000006), ('wc_11', 0.2500000000000001)]",0.8350000000000004,,,35.0,0.0040219999999999995,['Fail'],Fail,0.7800000000000006,0.21999999999999942,2.0,2.0,0.9
579.0,11.0,wc_11,,0.0,,,,202.0,,,,Fail,,,,,
579.0,11.0,wc_11,wc_2,1.0,"[('wc_2', 0.6200000000000004), ('wc_11', 0.2500000000000001), ('wc_7', 0.7800000000000006)]",0.9373000000000002,,,20.0,0.044872,['Fail'],Fail,0.6200000000000004,-0.6200000000000004,0.0,0.0,0.8
585.0,10.0,wc_10,,0.0,,,,203.0,,,,Pass,,,,,
585.0,10.0,wc_10,,0.0,,,67.0,,,,,Pass,,,,,
585.0,10.0,wc_10,,0.0,,,,0.0,,,,Pass,,,,,
585.0,10.0,wc_10,wc_10,0.0,"[('wc_10', 0.7600000000000006)]",0.7600000000000006,,,34.0,0.002004,['Pass'],Pass,0.7600000000000006,-0.12363636363636421,0.0,0.0,0.8
585.0,10.0,wc_10,,0.0,,,,162.0,,,,Pass,,,,,
585.0,10.0,wc_10,wc_16,0.0,"[('wc_16', 0.7700000000000006), ('wc_10', 0.7600000000000006)]",0.9448000000000003,,,29.0,0.003923,['Pass'],Pass,0.7700000000000006,-0.7700000000000006,0.0,2.0,0.9
585.0,10.0,wc_10,,0.0,,,,263.0,,,,Pass,,,,,
585.0,10.0,wc_10,wc_1,1.0,"[('wc_1', 0.6000000000000004), ('wc_10', 0.7600000000000006), ('wc_16', 0.7700000000000006)]",0.9779200000000001,,,22.0,0.044870999999999994,['Pass'],Pass,0.6000000000000004,-0.3500000000000004,1.0,4.0,0.4
589.0,11.0,wc_11,,0.0,,,,243.0,,,,Fail,,,,,
589.0,11.0,wc_11,,0.0,,,56.0,,,,,Fail,,,,,
589.0,11.0,wc_11,,0.0,,,,0.0,,,,Fail,,,,,
589.0,11.0,wc_11,wc_11,0.0,"[('wc_11', 0.2600000000000001)]",0.2600000000000001,,,25.0,0.002457,['Fail'],Fail,0.2600000000000001,0.0733333333333332,1.0,3.0,0.2
589.0,11.0,wc_11,,0.0,,,,162.0,,,,Fail,,,,,
589.0,11.0,wc_11,wc_17,0.0,"[('wc_17', 0.6400000000000005), ('wc_11', 0.2600000000000001)]",0.7336000000000004,,,30.0,0.004031,['Fail'],Fail,0.6400000000000005,-0.5600000000000005,0.0,0.0,0.6
589.0,11.0,wc_11,,0.0,,,,322.0,,,,Fail,,,,,
589.0,11.0,wc_11,wc_9,1.0,"[('wc_9', 0.7300000000000005), ('wc_11', 0.2600000000000001), ('wc_17', 0.6400000000000005)]",0.9280720000000002,,,30.0,0.042437,['Fail'],Fail,0.7300000000000005,-0.7300000000000005,0.0,0.0,1.0
596.0,11.0,wc_11,,0.0,,,,0.0,,,,Fail,,,,,
596.0,11.0,wc_11,,0.0,,,65.0,,,,,Fail,,,,,
596.0,11.0,wc_11,,0.0,,,,0.0,,,,Fail,,,,,
596.0,11.0,wc_11,wc_11,0.0,"[('wc_11', 0.27000000000000013)]",0.27000000000000013,,,40.0,0.002115,['Fail'],Fail,0.27000000000000013,0.22999999999999987,2.0,4.0,0.2
596.0,11.0,wc_11,,0.0,,,,223.0,,,,Fail,,,,,
596.0,11.0,wc_11,wc_2,0.0,"[('wc_2', 0.6200000000000004), ('wc_11', 0.27000000000000013)]",0.7226000000000004,,,37.0,0.004302,['Fail'],Fail,0.6200000000000004,-0.6200000000000004,0.0,2.0,0.8
596.0,11.0,wc_11,,0.0,,,,223.0,,,,Fail,,,,,
596.0,11.0,wc_11,wc_15,1.0,"[('wc_15', 0.6500000000000005), ('wc_11', 0.27000000000000013), ('wc_2', 0.6200000000000004)]",0.9029100000000002,,,34.0,0.04538600000000001,['Fail'],Fail,0.6500000000000005,-0.6500000000000005,0.0,0.0,1.0
602.0,11.0,wc_11,,0.0,,,,402.0,,,,Pass,,,,,
602.0,11.0,wc_11,,0.0,,,62.0,,,,,Pass,,,,,
602.0,11.0,wc_11,,0.0,,,,0.0,,,,Pass,,,,,
602.0,11.0,wc_11,wc_11,0.0,"[('wc_11', 0.28000000000000014)]",0.28000000000000014,,,22.0,0.002445,['Fail'],Pass,0.28000000000000014,0.31999999999999984,3.0,5.0,0.2
602.0,11.0,wc_11,,0.0,,,,322.0,,,,Pass,,,,,
602.0,11.0,wc_11,wc_3,0.0,"[('wc_3', 0.4600000000000003)]",0.4600000000000003,,,26.0,0.003988,['Pass'],Pass,0.4600000000000003,-0.24571428571428602,0.0,0.0,0.3
602.0,11.0,wc_11,,0.0,,,,181.0,,,,Pass,,,,,
602.0,11.0,wc_11,wc_14,0.0,"[('wc_14', 0.4800000000000003), ('wc_3', 0.4600000000000003)]",0.7192000000000003,,,40.0,0.0059,['Pass'],Pass,0.4800000000000003,-0.4800000000000003,0.0,4.0,0.6
602.0,11.0,wc_11,,0.0,,,,301.0,,,,Pass,,,,,
602.0,11.0,wc_11,wc_10,1.0,"[('wc_10', 0.7700000000000006), ('wc_3', 0.4600000000000003), ('wc_14', 0.4800000000000003)]",0.9354160000000002,,,20.0,0.046167,['Pass'],Pass,0.7700000000000006,-0.2700000000000006,2.0,4.0,0.8
610.0,12.0,wc_12,,0.0,,,,81.0,,,,Fail,,,,,
610.0,12.0,wc_12,,0.0,,,62.0,,,,,Fail,,,,,
610.0,12.0,wc_12,,0.0,,,,0.0,,,,Fail,,,,,
610.0,12.0,wc_12,wc_12,0.0,"[('wc_12', 0.7300000000000005)]",0.7300000000000005,,,29.0,0.002032,['Pass'],Fail,0.7300000000000005,-0.7300000000000005,0.0,5.0,0.7
610.0,12.0,wc_12,,0.0,,,,361.0,,,,Fail,,,,,
610.0,12.0,wc_12,wc_11,0.0,"[('wc_12', 0.7300000000000005)]",0.7300000000000005,,,32.0,0.003899,['Pass'],Fail,0.28000000000000014,0.21999999999999986,3.0,6.0,0.2
610.0,12.0,wc_12,,0.0,,,,101.0,,,,Fail,,,,,
610.0,12.0,wc_12,wc_14,0.0,"[('wc_12', 0.7300000000000005)]",0.7300000000000005,,,31.0,0.00609,['Pass'],Fail,0.4800000000000003,-0.2800000000000003,1.0,5.0,0.6
610.0,12.0,wc_12,,0.0,,,,102.0,,,,Fail,,,,,
610.0,12.0,wc_12,wc_13,1.0,"[('wc_13', 0.7900000000000006), ('wc_11', 0.28000000000000014), ('wc_14', 0.4800000000000003)]",0.9213760000000003,,,28.0,0.048197,['Fail'],Fail,0.7900000000000006,-0.7900000000000006,0.0,0.0,1.0
621.0,12.0,wc_12,,0.0,,,,102.0,,,,Pass,,,,,
621.0,12.0,wc_12,,0.0,,,64.0,,,,,Pass,,,,,
621.0,12.0,wc_12,,0.0,,,,0.0,,,,Pass,,,,,
621.0,12.0,wc_12,wc_12,0.0,"[('wc_12', 0.7200000000000005)]",0.7200000000000005,,,26.0,0.002093,['Pass'],Pass,0.7200000000000005,-0.7200000000000005,0.0,6.0,0.7
621.0,12.0,wc_12,,0.0,,,,361.0,,,,Pass,,,,,
621.0,12.0,wc_12,wc_3,0.0,"[('wc_3', 0.4700000000000003), ('wc_12', 0.7200000000000005)]",0.8516000000000004,,,27.0,0.003929,['Pass'],Pass,0.4700000000000003,0.029999999999999694,1.0,2.0,0.3
621.0,12.0,wc_12,,0.0,,,,141.0,,,,Pass,,,,,
621.0,12.0,wc_12,wc_8,1.0,"[('wc_8', 0.3400000000000002), ('wc_12', 0.7200000000000005), ('wc_3', 0.4700000000000003)]",0.9020560000000003,,,39.0,0.04884000000000001,['Pass'],Pass,0.3400000000000002,-0.3400000000000002,0.0,0.0,0.3
625.0,13.0,wc_13,,0.0,,,,142.0,,,,Pass,,,,,
625.0,13.0,wc_13,,0.0,,,62.0,,,,,Pass,,,,,
625.0,13.0,wc_13,,0.0,,,,0.0,,,,Pass,,,,,
625.0,13.0,wc_13,wc_13,0.0,"[('wc_13', 0.7900000000000006)]",0.7900000000000006,,,36.0,0.00233,['Pass'],Pass,0.7900000000000006,-0.7900000000000006,0.0,1.0,1.0
625.0,13.0,wc_13,,0.0,,,,361.0,,,,Pass,,,,,
625.0,13.0,wc_13,wc_4,0.0,"[('wc_4', 0.5000000000000003), ('wc_13', 0.7900000000000006)]",0.8950000000000004,,,34.0,0.004097,['Pass'],Pass,0.5000000000000003,-0.5000000000000003,0.0,9.0,0.4
625.0,13.0,wc_13,,0.0,,,,142.0,,,,Pass,,,,,
625.0,13.0,wc_13,wc_9,1.0,"[('wc_9', 0.7300000000000005), ('wc_13', 0.7900000000000006), ('wc_4', 0.5000000000000003)]",0.9716500000000001,,,20.0,0.042119000000000004,['Pass'],Pass,0.7300000000000005,-0.5300000000000005,1.0,5.0,1.0
629.0,14.0,wc_14,,0.0,,,,141.0,,,,Fail,,,,,
629.0,14.0,wc_14,,0.0,,,75.0,,,,,Fail,,,,,
629.0,14.0,wc_14,,0.0,,,,0.0,,,,Fail,,,,,
629.0,14.0,wc_14,wc_14,0.0,"[('wc_14', 0.4800000000000003)]",0.4800000000000003,,,21.0,0.002261,['Fail'],Fail,0.4800000000000003,-0.23000000000000032,2.0,8.0,0.6
629.0,14.0,wc_14,,0.0,,,,321.0,,,,Fail,,,,,
629.0,14.0,wc_14,wc_3,0.0,"[('wc_3', 0.4800000000000003), ('wc_14', 0.4800000000000003)]",0.7296000000000002,,,32.0,0.006883,['Fail'],Fail,0.4800000000000003,0.019999999999999685,2.0,4.0,0.3
629.0,14.0,wc_14,,0.0,,,,101.0,,,,Fail,,,,,
629.0,14.0,wc_14,wc_6,0.0,"[('wc_6', 0.29000000000000015), ('wc_14', 0.4800000000000003), ('wc_3', 0.4800000000000003)]",0.8080160000000003,,,21.0,0.007624,['Fail'],Fail,0.29000000000000015,-0.29000000000000015,0.0,0.0,0.2
629.0,14.0,wc_14,,0.0,,,,182.0,,,,Fail,,,,,
629.0,14.0,wc_14,wc_13,1.0,"[('wc_13', 0.7900000000000006), ('wc_14', 0.4800000000000003), ('wc_3', 0.4800000000000003), ('wc_6', 0.29000000000000015)]",0.9596833600000002,,,35.0,0.046629000000000004,['Fail'],Fail,0.7900000000000006,-0.12333333333333396,2.0,3.0,1.0
632.0,14.0,wc_14,,0.0,,,,0.0,,,,Fail,,,,,
632.0,14.0,wc_14,,0.0,,,50.0,,,,,Fail,,,,,
632.0,14.0,wc_14,,0.0,,,,0.0,,,,Fail,,,,,
632.0,14.0,wc_14,wc_14,0.0,"[('wc_14', 0.4800000000000003)]",0.4800000000000003,,,24.0,0.002202,['Fail'],Fail,0.4800000000000003,-0.146666666666667,3.0,9.0,0.6
632.0,14.0,wc_14,,0.0,,,,281.0,,,,Fail,,,,,
632.0,14.0,wc_14,wc_9,0.0,"[('wc_9', 0.7300000000000005), ('wc_14', 0.4800000000000003)]",0.8596000000000004,,,29.0,0.004675,['Fail'],Fail,0.7300000000000005,-0.5633333333333339,1.0,6.0,1.0
632.0,14.0,wc_14,,0.0,,,,202.0,,,,Fail,,,,,
632.0,14.0,wc_14,wc_17,0.0,"[('wc_14', 0.4800000000000003), ('wc_9', 0.7300000000000005)]",0.8596000000000004,,,21.0,0.0066040000000000005,['Fail'],Fail,0.6500000000000005,-0.5071428571428576,1.0,7.0,0.6
632.0,14.0,wc_14,,0.0,,,,223.0,,,,Fail,,,,,
632.0,14.0,wc_14,wc_8,1.0,"[('wc_8', 0.3400000000000002), ('wc_14', 0.4800000000000003), ('wc_9', 0.7300000000000005)]",0.9073360000000003,,,21.0,0.04361999999999999,['Fail'],Fail,0.3400000000000002,-0.006666666666666876,1.0,3.0,0.3
636.0,14.0,wc_14,,0.0,,,,162.0,,,,Pass,,,,,
636.0,14.0,wc_14,,0.0,,,80.0,,,,,Pass,,,,,
636.0,14.0,wc_14,,0.0,,,,0.0,,,,Pass,,,,,
636.0,14.0,wc_14,wc_14,0.0,"[('wc_14', 0.4800000000000003)]",0.4800000000000003,,,37.0,0.002107,['Pass'],Pass,0.4800000000000003,-0.4800000000000003,0.0,0.0,0.6
636.0,14.0,wc_14,,0.0,,,,341.0,,,,Pass,,,,,
636.0,14.0,wc_14,wc_4,0.0,"[('wc_4', 0.5000000000000003), ('wc_14', 0.4800000000000003)]",0.7400000000000003,,,26.0,0.004556,['Pass'],Pass,0.5000000000000003,-0.5000000000000003,0.0,2.0,0.4
636.0,14.0,wc_14,,0.0,,,,121.0,,,,Pass,,,,,
636.0,14.0,wc_14,wc_12,1.0,"[('wc_12', 0.7200000000000005), ('wc_14', 0.4800000000000003), ('wc_4', 0.5000000000000003)]",0.9272000000000002,,,31.0,0.045212,['Pass'],Pass,0.7200000000000005,-0.7200000000000005,0.0,0.0,0.7
639.0,15.0,wc_15,,0.0,,,,0.0,,,,Fail,,,,,
639.0,15.0,wc_15,,0.0,,,50.0,,,,,Fail,,,,,
639.0,15.0,wc_15,,0.0,,,,0.0,,,,Fail,,,,,
639.0,15.0,wc_15,wc_15,0.0,"[('wc_15', 0.6500000000000005)]",0.6500000000000005,,,20.0,0.00204,['Fail'],Fail,0.6500000000000005,-0.6500000000000005,0.0,7.0,1.0
639.0,15.0,wc_15,,0.0,,,,223.0,,,,Fail,,,,,
639.0,15.0,wc_15,wc_6,0.0,"[('wc_6', 0.30000000000000016), ('wc_15', 0.6500000000000005)]",0.7550000000000003,,,32.0,0.0038079999999999998,['Fail'],Fail,0.30000000000000016,0.03333333333333316,1.0,3.0,0.2
639.0,15.0,wc_15,,0.0,,,,361.0,,,,Fail,,,,,
639.0,15.0,wc_15,wc_5,0.0,"[('wc_15', 0.6500000000000005), ('wc_6', 0.30000000000000016)]",0.7550000000000003,,,30.0,0.00665,['Fail'],Fail,0.6800000000000005,-0.5800000000000005,0.0,0.0,0.8
639.0,15.0,wc_15,,0.0,,,,202.0,,,,Fail,,,,,
639.0,15.0,wc_15,wc_17,1.0,"[('wc_17', 0.6400000000000005), ('wc_15', 0.6500000000000005), ('wc_6', 0.30000000000000016)]",0.9118000000000003,,,24.0,0.053121999999999996,['Fail'],Fail,0.6400000000000005,-0.6400000000000005,0.0,0.0,0.6
642.0,15.0,wc_15,,0.0,,,,83.0,,,,Pass,,,,,
642.0,15.0,wc_15,,0.0,,,77.0,,,,,Pass,,,,,
642.0,15.0,wc_15,,0.0,,,,0.0,,,,Pass,,,,,
642.0,15.0,wc_15,wc_15,0.0,"[('wc_15', 0.6500000000000005)]",0.6500000000000005,,,20.0,0.001984,['Pass'],Pass,0.6500000000000005,-0.5250000000000005,1.0,8.0,1.0
642.0,15.0,wc_15,,0.0,,,,0.0,,,,Pass,,,,,
642.0,15.0,wc_15,wc_16,0.0,"[('wc_16', 0.7700000000000006), ('wc_15', 0.6500000000000005)]",0.9195000000000003,,,39.0,0.0038669999999999998,['Pass'],Pass,0.7700000000000006,-0.6930769230769236,0.0,0.0,0.9
642.0,15.0,wc_15,,0.0,,,,81.0,,,,Pass,,,,,
642.0,15.0,wc_15,wc_14,1.0,"[('wc_14', 0.4900000000000003), ('wc_15', 0.6500000000000005), ('wc_16', 0.7700000000000006)]",0.9589450000000002,,,36.0,0.045388,['Pass'],Pass,0.5000000000000003,0.1666666666666663,2.0,3.0,0.6
643.0,16.0,wc_16,,0.0,,,,0.0,,,,Pass,,,,,
643.0,16.0,wc_16,,0.0,,,55.0,,,,,Pass,,,,,
643.0,16.0,wc_16,,0.0,,,,0.0,,,,Pass,,,,,
643.0,16.0,wc_16,wc_16,0.0,"[('wc_16', 0.7800000000000006)]",0.7800000000000006,,,36.0,0.002151,['Pass'],Pass,0.7800000000000006,0.21999999999999942,1.0,1.0,0.9
643.0,16.0,wc_16,,0.0,,,,422.0,,,,Pass,,,,,
643.0,16.0,wc_16,wc_5,0.0,"[('wc_5', 0.6700000000000005), ('wc_16', 0.7800000000000006)]",0.9274000000000003,,,24.0,0.004030000000000001,['Pass'],Pass,0.6700000000000005,-0.6700000000000005,0.0,2.0,0.8
643.0,16.0,wc_16,,0.0,,,,162.0,,,,Pass,,,,,
643.0,16.0,wc_16,wc_11,1.0,"[('wc_11', 0.29000000000000015), ('wc_16', 0.7800000000000006), ('wc_5', 0.6700000000000005)]",0.9484540000000002,,,39.0,0.04417599999999999,['Pass'],Pass,0.30000000000000016,-0.30000000000000016,0.0,0.0,0.2
645.0,17.0,wc_17,,0.0,,,,162.0,,,,Fail,,,,,
645.0,17.0,wc_17,,0.0,,,65.0,,,,,Fail,,,,,
645.0,17.0,wc_17,,0.0,,,,0.0,,,,Fail,,,,,
645.0,17.0,wc_17,wc_17,0.0,"[('wc_17', 0.6400000000000005)]",0.6400000000000005,,,32.0,0.002313,['Fail'],Fail,0.6400000000000005,-0.6400000000000005,0.0,2.0,0.6
645.0,17.0,wc_17,,0.0,,,,183.0,,,,Fail,,,,,
645.0,17.0,wc_17,wc_6,0.0,"[('wc_17', 0.6400000000000005)]",0.6400000000000005,,,28.0,0.004003,['Fail'],Fail,0.31000000000000016,0.02333333333333315,2.0,6.0,0.2
645.0,17.0,wc_17,,0.0,,,,162.0,,,,Fail,,,,,
645.0,17.0,wc_17,wc_12,0.0,"[('wc_12', 0.7200000000000005), ('wc_17', 0.6400000000000005)]",0.8992000000000003,,,32.0,0.005860000000000001,['Fail'],Fail,0.7200000000000005,-0.7200000000000005,0.0,3.0,0.7
645.0,17.0,wc_17,,0.0,,,,202.0,,,,Fail,,,,,
645.0,17.0,wc_17,wc_7,1.0,"[('wc_7', 0.7900000000000006), ('wc_17', 0.6400000000000005), ('wc_12', 0.7200000000000005)]",0.9788320000000001,,,20.0,0.050662,['Fail'],Fail,0.7900000000000006,-0.7900000000000006,0.0,0.0,0.9
648.0,17.0,wc_17,,0.0,,,,243.0,,,,Fail,,,,,
648.0,17.0,wc_17,,0.0,,,53.0,,,,,Fail,,,,,
648.0,17.0,wc_17,,0.0,,,,0.0,,,,Fail,,,,,
648.0,17.0,wc_17,wc_17,0.0,"[('wc_17', 0.6400000000000005)]",0.6400000000000005,,,27.0,0.00211,['Fail'],Fail,0.6400000000000005,-0.30666666666666714,1.0,3.0,0.6
648.0,17.0,wc_17,,0.0,,,,342.0,,,,Fail,,,,,
648.0,17.0,wc_17,wc_10,0.0,"[('wc_10', 0.7700000000000006), ('wc_17', 0.6400000000000005)]",0.9172000000000003,,,23.0,0.004785,['Fail'],Fail,0.7700000000000006,-0.6271428571428577,0.0,0.0,0.8
648.0,17.0,wc_17,,0.0,,,,382.0,,,,Fail,,,,,
648.0,17.0,wc_17,wc_5,1.0,"[('wc_5', 0.6700000000000005), ('wc_17', 0.6400000000000005), ('wc_10', 0.7700000000000006)]",0.9726760000000001,,,40.0,0.042203000000000004,['Fail'],Fail,0.6700000000000005,-0.27000000000000046,2.0,5.0,0.8
650.0,17.0,wc_17,,0.0,,,,202.0,,,,Fail,,,,,
650.0,17.0,wc_17,,0.0,,,63.0,,,,,Fail,,,,,
650.0,17.0,wc_17,,0.0,,,,0.0,,,,Fail,,,,,
650.0,17.0,wc_17,wc_17,0.0,"[('wc_17', 0.6400000000000005)]",0.6400000000000005,,,37.0,0.002078,['Fail'],Fail,0.6400000000000005,-0.14000000000000046,2.0,4.0,0.6
650.0,17.0,wc_17,,0.0,,,,61.0,,,,Fail,,,,,
650.0,17.0,wc_17,wc_14,0.0,"[('wc_14', 0.5000000000000003), ('wc_17', 0.6400000000000005)]",0.8200000000000003,,,29.0,0.0040939999999999995,['Fail'],Fail,0.5000000000000003,-0.16666666666666702,2.0,6.0,0.6
650.0,17.0,wc_17,,0.0,,,,222.0,,,,Fail,,,,,
650.0,17.0,wc_17,wc_2,1.0,"[('wc_2', 0.6200000000000004), ('wc_17', 0.6400000000000005), ('wc_14', 0.5000000000000003)]",0.9316000000000002,,,40.0,0.04651500000000001,['Fail'],Fail,0.6200000000000004,-0.6200000000000004,0.0,0.0,0.8
652.0,17.0,wc_17,,0.0,,,,263.0,,,,Pass,,,,,
652.0,17.0,wc_17,,0.0,,,53.0,,,,,Pass,,,,,
652.0,17.0,wc_17,,0.0,,,,0.0,,,,Pass,,,,,
652.0,17.0,wc_17,wc_17,0.0,"[('wc_17', 0.6400000000000005)]",0.6400000000000005,,,20.0,0.002218,['Pass'],Pass,0.6400000000000005,-0.04000000000000048,3.0,5.0,0.6
652.0,17.0,wc_17,,0.0,,,,382.0,,,,Pass,,,,,
652.0,17.0,wc_17,wc_4,0.0,"[('wc_4', 0.5000000000000003), ('wc_17', 0.6400000000000005)]",0.8200000000000003,,,32.0,0.0038840000000000003,['Pass'],Pass,0.5000000000000003,-0.38888888888888923,1.0,9.0,0.4
652.0,17.0,wc_17,,0.0,,,,81.0,,,,Pass,,,,,
652.0,17.0,wc_17,wc_2,0.0,"[('wc_17', 0.6400000000000005), ('wc_4', 0.5000000000000003)]",0.8200000000000003,,,23.0,0.005647,['Pass'],Pass,0.6200000000000004,-0.6200000000000004,0.0,0.0,0.8
652.0,17.0,wc_17,,0.0,,,,0.0,,,,Pass,,,,,
652.0,17.0,wc_17,wc_5,1.0,"[('wc_5', 0.6700000000000005), ('wc_17', 0.6400000000000005), ('wc_4', 0.5000000000000003)]",0.9406000000000002,,,31.0,0.044870999999999994,['Pass'],Pass,0.6700000000000005,-0.24142857142857194,3.0,7.0,0.8
