mpecck/BCQC/bcqc_with_qdt/results/raw/input_5/independent_qc/training/20_workpiece/20200429_084414/wp_12_qc_majority_0.9.csv
production_index,step_idx,production_workcell,qc,consent,winner_qc_list,score,production_time,transport_time,inspection_time,network_time,qc_results,actual_quality,qc_score,score_error,in_winner_counter,in_qc_counter,qc_capability
38.0,1.0,wc_1,,0.0,,,71.0,,,,,Pass,,,,,
38.0,1.0,wc_1,,0.0,,,,0.0,,,,Pass,,,,,
38.0,1.0,wc_1,wc_1,0.0,"[('wc_1', 0.5700000000000004)]",0.5700000000000004,,,29.0,0.002109,['Fail'],Pass,0.5700000000000004,-0.38818181818181857,0.0,0.0,0.4
38.0,1.0,wc_1,,0.0,,,,283.0,,,,Pass,,,,,
38.0,1.0,wc_1,wc_17,0.0,"[('wc_17', 0.6000000000000004)]",0.6000000000000004,,,37.0,0.003903,['Pass'],Pass,0.6000000000000004,-0.4000000000000004,1.0,5.0,0.6
38.0,1.0,wc_1,,0.0,,,,362.0,,,,Pass,,,,,
38.0,1.0,wc_1,wc_3,0.0,"[('wc_3', 0.29000000000000015), ('wc_1', 0.5700000000000004)]",0.6947000000000003,,,37.0,0.00796,['Fail'],Pass,0.29000000000000015,-0.15666666666666682,0.0,0.0,0.3
38.0,1.0,wc_1,,0.0,,,,161.0,,,,Pass,,,,,
38.0,1.0,wc_1,wc_13,0.0,"[('wc_13', 0.6900000000000005), ('wc_17', 0.6000000000000004)]",0.8760000000000003,,,30.0,0.007209,['Pass'],Pass,0.6900000000000005,-0.4677777777777783,2.0,9.0,1.0
38.0,1.0,wc_1,,0.0,,,,361.0,,,,Pass,,,,,
38.0,1.0,wc_1,wc_4,0.0,"[('wc_17', 0.6000000000000004), ('wc_13', 0.6900000000000005)]",0.8760000000000003,,,24.0,0.010407,['Pass'],Pass,0.4700000000000003,-0.4700000000000003,0.0,1.0,0.4
38.0,1.0,wc_1,,0.0,,,,202.0,,,,Pass,,,,,
38.0,1.0,wc_1,wc_16,1.0,"[('wc_16', 0.7100000000000005), ('wc_1', 0.5700000000000004), ('wc_3', 0.29000000000000015), ('wc_4', 0.4700000000000003)]",0.9530753900000002,,,22.0,0.04292599999999999,['Fail'],Pass,0.7100000000000005,-0.04333333333333389,2.0,3.0,0.9
44.0,3.0,wc_3,,0.0,,,,382.0,,,,Pass,,,,,
44.0,3.0,wc_3,,0.0,,,60.0,,,,,Pass,,,,,
44.0,3.0,wc_3,,0.0,,,,0.0,,,,Pass,,,,,
44.0,3.0,wc_3,wc_3,0.0,"[('wc_3', 0.30000000000000016)]",0.30000000000000016,,,38.0,0.002103,['Pass'],Pass,0.30000000000000016,0.6999999999999998,1.0,1.0,0.3
44.0,3.0,wc_3,,0.0,,,,202.0,,,,Pass,,,,,
44.0,3.0,wc_3,wc_15,0.0,"[('wc_15', 0.6600000000000005), ('wc_3', 0.30000000000000016)]",0.7620000000000005,,,35.0,0.004181,['Pass'],Pass,0.6600000000000005,-0.3742857142857148,2.0,7.0,1.0
44.0,3.0,wc_3,,0.0,,,,0.0,,,,Pass,,,,,
44.0,3.0,wc_3,wc_16,1.0,"[('wc_16', 0.7100000000000005), ('wc_3', 0.30000000000000016), ('wc_15', 0.6600000000000005)]",0.9309800000000003,,,39.0,0.037834,['Pass'],Pass,0.7200000000000005,0.02999999999999947,3.0,4.0,0.9
51.0,2.0,wc_2,,0.0,,,,283.0,,,,Pass,,,,,
51.0,2.0,wc_2,,0.0,,,78.0,,,,,Pass,,,,,
51.0,2.0,wc_2,,0.0,,,,0.0,,,,Pass,,,,,
51.0,2.0,wc_2,wc_2,0.0,"[('wc_2', 0.6100000000000004)]",0.6100000000000004,,,33.0,0.001985,['Pass'],Pass,0.6100000000000004,-0.5047368421052636,0.0,0.0,0.8
51.0,2.0,wc_2,,0.0,,,,102.0,,,,Pass,,,,,
51.0,2.0,wc_2,wc_1,0.0,"[('wc_1', 0.5800000000000004), ('wc_2', 0.6100000000000004)]",0.8362000000000003,,,31.0,0.003869,['Pass'],Pass,0.5800000000000004,-0.0800000000000004,1.0,2.0,0.4
51.0,2.0,wc_2,,0.0,,,,283.0,,,,Pass,,,,,
51.0,2.0,wc_2,wc_17,0.0,"[('wc_2', 0.6100000000000004), ('wc_1', 0.5800000000000004)]",0.8362000000000003,,,38.0,0.006147,['Pass'],Pass,0.5900000000000004,-0.44714285714285756,1.0,7.0,0.6
51.0,2.0,wc_2,,0.0,,,,83.0,,,,Pass,,,,,
51.0,2.0,wc_2,wc_15,1.0,"[('wc_15', 0.6600000000000005), ('wc_2', 0.6100000000000004), ('wc_1', 0.5800000000000004)]",0.9443080000000001,,,39.0,0.039964,['Pass'],Pass,0.6600000000000005,-0.21555555555555606,4.0,9.0,1.0
63.0,4.0,wc_4,,0.0,,,,422.0,,,,Pass,,,,,
63.0,4.0,wc_4,,0.0,,,59.0,,,,,Pass,,,,,
63.0,4.0,wc_4,,0.0,,,,0.0,,,,Pass,,,,,
63.0,4.0,wc_4,wc_4,0.0,"[('wc_4', 0.4800000000000003)]",0.4800000000000003,,,24.0,0.002137,['Pass'],Pass,0.4800000000000003,-0.23000000000000032,1.0,4.0,0.4
63.0,4.0,wc_4,,0.0,,,,81.0,,,,Pass,,,,,
63.0,4.0,wc_4,wc_6,0.0,"[('wc_6', 0.3600000000000002), ('wc_4', 0.4800000000000003)]",0.6672000000000002,,,23.0,0.004129000000000001,['Pass'],Pass,0.3600000000000002,-0.3600000000000002,0.0,4.0,0.2
63.0,4.0,wc_4,,0.0,,,,162.0,,,,Pass,,,,,
63.0,4.0,wc_4,wc_12,0.0,"[('wc_12', 0.5800000000000004), ('wc_4', 0.4800000000000003), ('wc_6', 0.3600000000000002)]",0.8602240000000003,,,38.0,0.0056159999999999995,['Pass'],Pass,0.5800000000000004,-0.5800000000000004,0.0,0.0,0.7
63.0,4.0,wc_4,,0.0,,,,0.0,,,,Pass,,,,,
63.0,4.0,wc_4,wc_17,1.0,"[('wc_17', 0.5800000000000004), ('wc_4', 0.4800000000000003), ('wc_6', 0.3600000000000002), ('wc_12', 0.5800000000000004)]",0.9412940800000001,,,28.0,0.04675199999999999,['Pass'],Pass,0.5800000000000004,-0.3577777777777782,2.0,9.0,0.6
72.0,5.0,wc_5,,0.0,,,,402.0,,,,Fail,,,,,
72.0,5.0,wc_5,,0.0,,,80.0,,,,,Fail,,,,,
72.0,5.0,wc_5,,0.0,,,,0.0,,,,Fail,,,,,
72.0,5.0,wc_5,wc_5,0.0,"[('wc_5', 0.6700000000000005)]",0.6700000000000005,,,27.0,0.002404,['Pass'],Fail,0.6700000000000005,-0.6700000000000005,0.0,5.0,0.8
72.0,5.0,wc_5,,0.0,,,,142.0,,,,Fail,,,,,
72.0,5.0,wc_5,wc_10,0.0,"[('wc_10', 0.6900000000000005)]",0.6900000000000005,,,31.0,0.004701,['Fail'],Fail,0.6900000000000005,-0.3566666666666672,2.0,6.0,0.8
72.0,5.0,wc_5,,0.0,,,,81.0,,,,Fail,,,,,
72.0,5.0,wc_5,wc_8,0.0,"[('wc_8', 0.42000000000000026), ('wc_5', 0.6700000000000005)]",0.8086000000000004,,,26.0,0.006229,['Pass'],Fail,0.42000000000000026,-0.17000000000000026,2.0,8.0,0.3
72.0,5.0,wc_5,,0.0,,,,183.0,,,,Fail,,,,,
72.0,5.0,wc_5,wc_15,1.0,"[('wc_15', 0.6600000000000005), ('wc_5', 0.6700000000000005), ('wc_8', 0.42000000000000026)]",0.9349240000000002,,,25.0,0.05706800000000001,['Pass'],Fail,0.6600000000000005,-0.6600000000000005,0.0,0.0,1.0
84.0,5.0,wc_5,,0.0,,,,442.0,,,,Fail,,,,,
84.0,5.0,wc_5,,0.0,,,50.0,,,,,Fail,,,,,
84.0,5.0,wc_5,,0.0,,,,0.0,,,,Fail,,,,,
84.0,5.0,wc_5,wc_5,0.0,"[('wc_5', 0.6700000000000005)]",0.6700000000000005,,,22.0,0.002207,['Fail'],Fail,0.6700000000000005,-0.5033333333333339,1.0,6.0,0.8
84.0,5.0,wc_5,,0.0,,,,103.0,,,,Fail,,,,,
84.0,5.0,wc_5,wc_4,0.0,"[('wc_4', 0.4800000000000003), ('wc_5', 0.6700000000000005)]",0.8284000000000004,,,37.0,0.004182,['Fail'],Fail,0.4800000000000003,-0.146666666666667,2.0,6.0,0.4
84.0,5.0,wc_5,,0.0,,,,121.0,,,,Fail,,,,,
84.0,5.0,wc_5,wc_12,1.0,"[('wc_12', 0.5900000000000004), ('wc_5', 0.6700000000000005), ('wc_4', 0.4800000000000003)]",0.9296440000000002,,,29.0,0.04555399999999999,['Fail'],Fail,0.6000000000000004,0.06666666666666621,2.0,3.0,0.7
104.0,5.0,wc_5,,0.0,,,,401.0,,,,Pass,,,,,
104.0,5.0,wc_5,,0.0,,,63.0,,,,,Pass,,,,,
104.0,5.0,wc_5,,0.0,,,,0.0,,,,Pass,,,,,
104.0,5.0,wc_5,wc_5,0.0,"[('wc_5', 0.6700000000000005)]",0.6700000000000005,,,36.0,0.002623,['Pass'],Pass,0.6700000000000005,-0.3842857142857148,2.0,7.0,0.8
104.0,5.0,wc_5,,0.0,,,,162.0,,,,Pass,,,,,
104.0,5.0,wc_5,wc_11,0.0,"[('wc_11', 0.28000000000000014), ('wc_5', 0.6700000000000005)]",0.7624000000000004,,,36.0,0.004965,['Pass'],Pass,0.28000000000000014,-0.28000000000000014,0.0,0.0,0.2
104.0,5.0,wc_5,,0.0,,,,81.0,,,,Pass,,,,,
104.0,5.0,wc_5,wc_13,1.0,"[('wc_13', 0.6800000000000005), ('wc_5', 0.6700000000000005), ('wc_11', 0.28000000000000014)]",0.9239680000000002,,,33.0,0.045029,['Pass'],Pass,0.6800000000000005,-0.5133333333333339,1.0,6.0,1.0
112.0,6.0,wc_6,,0.0,,,,162.0,,,,Pass,,,,,
112.0,6.0,wc_6,,0.0,,,64.0,,,,,Pass,,,,,
112.0,6.0,wc_6,,0.0,,,,0.0,,,,Pass,,,,,
112.0,6.0,wc_6,wc_6,0.0,"[('wc_6', 0.3600000000000002)]",0.3600000000000002,,,20.0,0.002922,['Fail'],Pass,0.3600000000000002,-0.2350000000000002,1.0,8.0,0.2
112.0,6.0,wc_6,,0.0,,,,162.0,,,,Pass,,,,,
112.0,6.0,wc_6,wc_12,0.0,"[('wc_12', 0.6000000000000004)]",0.6000000000000004,,,31.0,0.004582,['Pass'],Pass,0.6000000000000004,-0.10000000000000042,2.0,4.0,0.7
112.0,6.0,wc_6,,0.0,,,,401.0,,,,Pass,,,,,
112.0,6.0,wc_6,wc_5,0.0,"[('wc_5', 0.6700000000000005), ('wc_12', 0.6000000000000004)]",0.8680000000000003,,,30.0,0.006093,['Pass'],Pass,0.6700000000000005,-0.2950000000000005,3.0,8.0,0.8
112.0,6.0,wc_6,,0.0,,,,142.0,,,,Pass,,,,,
112.0,6.0,wc_6,wc_10,1.0,"[('wc_10', 0.6800000000000005), ('wc_12', 0.6000000000000004), ('wc_5', 0.6700000000000005)]",0.9577600000000002,,,22.0,0.04467700000000001,['Pass'],Pass,0.6800000000000005,-0.6800000000000005,0.0,0.0,0.8
121.0,7.0,wc_7,,0.0,,,,61.0,,,,Fail,,,,,
121.0,7.0,wc_7,,0.0,,,53.0,,,,,Fail,,,,,
121.0,7.0,wc_7,,0.0,,,,0.0,,,,Fail,,,,,
121.0,7.0,wc_7,wc_7,0.0,"[('wc_7', 0.7400000000000005)]",0.7400000000000005,,,34.0,0.00214,['Fail'],Fail,0.7400000000000005,-0.6630769230769236,0.0,0.0,0.9
121.0,7.0,wc_7,,0.0,,,,0.0,,,,Fail,,,,,
121.0,7.0,wc_7,wc_8,0.0,"[('wc_8', 0.42000000000000026), ('wc_7', 0.7400000000000005)]",0.8492000000000004,,,26.0,0.004184,['Fail'],Fail,0.42000000000000026,-0.17000000000000026,0.0,0.0,0.3
121.0,7.0,wc_7,,0.0,,,,281.0,,,,Fail,,,,,
121.0,7.0,wc_7,wc_3,0.0,"[('wc_3', 0.31000000000000016), ('wc_7', 0.7400000000000005), ('wc_8', 0.42000000000000026)]",0.8959480000000003,,,34.0,0.006475999999999999,['Fail'],Fail,0.31000000000000016,-0.060000000000000164,2.0,8.0,0.3
121.0,7.0,wc_7,,0.0,,,,202.0,,,,Fail,,,,,
121.0,7.0,wc_7,wc_15,1.0,"[('wc_15', 0.6600000000000005), ('wc_7', 0.7400000000000005), ('wc_8', 0.42000000000000026), ('wc_3', 0.31000000000000016)]",0.9646223200000001,,,20.0,0.0407,['Fail'],Fail,0.6600000000000005,-0.4100000000000005,1.0,4.0,1.0
130.0,9.0,wc_9,,0.0,,,,362.0,,,,Pass,,,,,
130.0,9.0,wc_9,,0.0,,,56.0,,,,,Pass,,,,,
130.0,9.0,wc_9,,0.0,,,,0.0,,,,Pass,,,,,
130.0,9.0,wc_9,wc_9,0.0,"[('wc_9', 0.6700000000000005)]",0.6700000000000005,,,25.0,0.002071,['Pass'],Pass,0.6700000000000005,-0.5866666666666671,0.0,0.0,1.0
130.0,9.0,wc_9,,0.0,,,,162.0,,,,Pass,,,,,
130.0,9.0,wc_9,wc_15,0.0,"[('wc_15', 0.6600000000000005), ('wc_9', 0.6700000000000005)]",0.8878000000000004,,,21.0,0.004332,['Pass'],Pass,0.6600000000000005,-0.4100000000000005,1.0,4.0,1.0
130.0,9.0,wc_9,,0.0,,,,402.0,,,,Pass,,,,,
130.0,9.0,wc_9,wc_3,1.0,"[('wc_3', 0.3200000000000002), ('wc_9', 0.6700000000000005), ('wc_15', 0.6600000000000005)]",0.9237040000000002,,,38.0,0.036583000000000004,['Pass'],Pass,0.3300000000000002,-0.3300000000000002,0.0,0.0,0.3
143.0,11.0,wc_11,,0.0,,,,202.0,,,,Fail,,,,,
143.0,11.0,wc_11,,0.0,,,80.0,,,,,Fail,,,,,
143.0,11.0,wc_11,,0.0,,,,0.0,,,,Fail,,,,,
143.0,11.0,wc_11,wc_11,0.0,"[('wc_11', 0.29000000000000015)]",0.29000000000000015,,,32.0,0.002121,['Fail'],Fail,0.29000000000000015,-0.04000000000000015,1.0,4.0,0.2
143.0,11.0,wc_11,,0.0,,,,162.0,,,,Fail,,,,,
143.0,11.0,wc_11,wc_17,0.0,"[('wc_17', 0.5800000000000004), ('wc_11', 0.29000000000000015)]",0.7018000000000004,,,39.0,0.00418,['Fail'],Fail,0.5800000000000004,-0.4466666666666671,0.0,0.0,0.6
143.0,11.0,wc_11,,0.0,,,,362.0,,,,Fail,,,,,
143.0,11.0,wc_11,wc_3,0.0,"[('wc_11', 0.29000000000000015), ('wc_17', 0.5800000000000004)]",0.7018000000000004,,,36.0,0.005767,['Fail'],Fail,0.3300000000000002,-0.3300000000000002,0.0,0.0,0.3
143.0,11.0,wc_11,,0.0,,,,141.0,,,,Fail,,,,,
143.0,11.0,wc_11,wc_8,0.0,"[('wc_8', 0.43000000000000027), ('wc_11', 0.29000000000000015), ('wc_17', 0.5800000000000004)]",0.8300260000000003,,,34.0,0.0076939999999999995,['Fail'],Fail,0.43000000000000027,0.06999999999999973,1.0,2.0,0.3
143.0,11.0,wc_11,,0.0,,,,162.0,,,,Fail,,,,,
143.0,11.0,wc_11,wc_14,1.0,"[('wc_14', 0.5200000000000004), ('wc_11', 0.29000000000000015), ('wc_17', 0.5800000000000004), ('wc_8', 0.43000000000000027)]",0.9184124800000002,,,25.0,0.04383599999999999,['Fail'],Fail,0.5200000000000004,-0.5200000000000004,0.0,0.0,0.6
154.0,7.0,wc_7,,0.0,,,,162.0,,,,Fail,,,,,
154.0,7.0,wc_7,,0.0,,,71.0,,,,,Fail,,,,,
154.0,7.0,wc_7,,0.0,,,,0.0,,,,Fail,,,,,
154.0,7.0,wc_7,wc_7,0.0,"[('wc_7', 0.7500000000000006)]",0.7500000000000006,,,36.0,0.002389,['Fail'],Fail,0.7500000000000006,-0.41666666666666724,1.0,3.0,0.9
154.0,7.0,wc_7,,0.0,,,,0.0,,,,Fail,,,,,
154.0,7.0,wc_7,wc_8,0.0,"[('wc_7', 0.7500000000000006)]",0.7500000000000006,,,35.0,0.00409,['Fail'],Fail,0.4400000000000003,0.22666666666666635,2.0,3.0,0.3
154.0,7.0,wc_7,,0.0,,,,0.0,,,,Fail,,,,,
154.0,7.0,wc_7,wc_10,0.0,"[('wc_10', 0.6800000000000005), ('wc_7', 0.7500000000000006)]",0.9200000000000003,,,30.0,0.006971,['Fail'],Fail,0.6800000000000005,-0.6800000000000005,0.0,3.0,0.8
154.0,7.0,wc_7,,0.0,,,,103.0,,,,Fail,,,,,
154.0,7.0,wc_7,wc_9,1.0,"[('wc_9', 0.6800000000000005), ('wc_7', 0.7500000000000006), ('wc_10', 0.6800000000000005)]",0.9744000000000002,,,36.0,0.042975,['Fail'],Fail,0.6800000000000005,-0.013333333333333863,2.0,3.0,1.0
172.0,7.0,wc_7,,0.0,,,,81.0,,,,Fail,,,,,
172.0,7.0,wc_7,,0.0,,,79.0,,,,,Fail,,,,,
172.0,7.0,wc_7,,0.0,,,,0.0,,,,Fail,,,,,
172.0,7.0,wc_7,wc_7,0.0,"[('wc_7', 0.7500000000000006)]",0.7500000000000006,,,32.0,0.002212,['Pass'],Fail,0.7500000000000006,-0.25000000000000056,2.0,4.0,0.9
172.0,7.0,wc_7,,0.0,,,,0.0,,,,Fail,,,,,
172.0,7.0,wc_7,wc_11,0.0,"[('wc_11', 0.30000000000000016), ('wc_7', 0.7500000000000006)]",0.8250000000000004,,,33.0,0.004018,['Pass'],Fail,0.30000000000000016,0.03333333333333316,2.0,6.0,0.2
172.0,7.0,wc_7,,0.0,,,,81.0,,,,Fail,,,,,
172.0,7.0,wc_7,wc_13,0.0,"[('wc_7', 0.7500000000000006), ('wc_11', 0.30000000000000016)]",0.8250000000000004,,,30.0,0.005666,['Pass'],Fail,0.6800000000000005,-0.5890909090909096,0.0,0.0,1.0
172.0,7.0,wc_7,,0.0,,,,321.0,,,,Fail,,,,,
172.0,7.0,wc_7,wc_10,0.0,"[('wc_10', 0.6800000000000005), ('wc_13', 0.6800000000000005)]",0.8976000000000003,,,21.0,0.009249,['Fail'],Fail,0.6800000000000005,-0.4300000000000005,1.0,4.0,0.8
172.0,7.0,wc_7,,0.0,,,,182.0,,,,Fail,,,,,
172.0,7.0,wc_7,wc_17,1.0,"[('wc_17', 0.5900000000000004), ('wc_13', 0.6800000000000005), ('wc_10', 0.6800000000000005)]",0.9580160000000002,,,35.0,0.04095000000000001,['Fail'],Fail,0.6000000000000004,0.06666666666666621,2.0,3.0,0.6
183.0,10.0,wc_10,,0.0,,,,342.0,,,,Pass,,,,,
183.0,10.0,wc_10,,0.0,,,75.0,,,,,Pass,,,,,
183.0,10.0,wc_10,,0.0,,,,0.0,,,,Pass,,,,,
183.0,10.0,wc_10,wc_10,0.0,"[('wc_10', 0.6800000000000005)]",0.6800000000000005,,,20.0,0.002294,['Pass'],Pass,0.6800000000000005,-0.28000000000000047,2.0,5.0,0.8
183.0,10.0,wc_10,,0.0,,,,223.0,,,,Pass,,,,,
183.0,10.0,wc_10,wc_1,0.0,"[('wc_1', 0.5900000000000004), ('wc_10', 0.6800000000000005)]",0.8688000000000003,,,39.0,0.004342,['Pass'],Pass,0.5900000000000004,-0.43615384615384656,0.0,0.0,0.4
183.0,10.0,wc_10,,0.0,,,,0.0,,,,Pass,,,,,
183.0,10.0,wc_10,wc_2,1.0,"[('wc_2', 0.6200000000000004), ('wc_10', 0.6800000000000005), ('wc_1', 0.5900000000000004)]",0.9501440000000002,,,36.0,0.04521299999999999,['Pass'],Pass,0.6200000000000004,-0.6200000000000004,0.0,0.0,0.8
197.0,11.0,wc_11,,0.0,,,,223.0,,,,Pass,,,,,
197.0,11.0,wc_11,,0.0,,,76.0,,,,,Pass,,,,,
197.0,11.0,wc_11,,0.0,,,,0.0,,,,Pass,,,,,
197.0,11.0,wc_11,wc_11,0.0,"[('wc_11', 0.29000000000000015)]",0.29000000000000015,,,23.0,0.00223,['Fail'],Pass,0.29000000000000015,-0.04000000000000015,2.0,8.0,0.2
197.0,11.0,wc_11,,0.0,,,,21.0,,,,Pass,,,,,
197.0,11.0,wc_11,wc_6,0.0,"[('wc_6', 0.3500000000000002)]",0.3500000000000002,,,34.0,0.004572,['Pass'],Pass,0.3500000000000002,-0.28333333333333355,0.0,0.0,0.2
197.0,11.0,wc_11,,0.0,,,,263.0,,,,Pass,,,,,
197.0,11.0,wc_11,wc_17,0.0,"[('wc_17', 0.6000000000000004), ('wc_6', 0.3500000000000002)]",0.7400000000000004,,,37.0,0.006109,['Pass'],Pass,0.6000000000000004,-0.10000000000000042,2.0,4.0,0.6
197.0,11.0,wc_11,,0.0,,,,83.0,,,,Pass,,,,,
197.0,11.0,wc_11,wc_15,1.0,"[('wc_15', 0.6600000000000005), ('wc_6', 0.3500000000000002), ('wc_17', 0.6000000000000004)]",0.9116000000000002,,,25.0,0.044522000000000006,['Pass'],Pass,0.6600000000000005,-0.6600000000000005,0.0,0.0,1.0
212.0,8.0,wc_8,,0.0,,,,263.0,,,,Fail,,,,,
212.0,8.0,wc_8,,0.0,,,64.0,,,,,Fail,,,,,
212.0,8.0,wc_8,,0.0,,,,0.0,,,,Fail,,,,,
212.0,8.0,wc_8,wc_8,0.0,"[('wc_8', 0.4400000000000003)]",0.4400000000000003,,,32.0,0.002663,['Fail'],Fail,0.4400000000000003,-0.15428571428571458,2.0,7.0,0.3
212.0,8.0,wc_8,,0.0,,,,82.0,,,,Fail,,,,,
212.0,8.0,wc_8,wc_6,0.0,"[('wc_6', 0.3600000000000002), ('wc_8', 0.4400000000000003)]",0.6416000000000003,,,20.0,0.004927,['Fail'],Fail,0.3600000000000002,0.6399999999999998,1.0,1.0,0.2
212.0,8.0,wc_8,,0.0,,,,0.0,,,,Fail,,,,,
212.0,8.0,wc_8,wc_11,0.0,"[('wc_8', 0.4400000000000003), ('wc_6', 0.3600000000000002)]",0.6416000000000003,,,20.0,0.006686,['Fail'],Fail,0.28000000000000014,-0.05777777777777793,2.0,9.0,0.2
212.0,8.0,wc_8,,0.0,,,,41.0,,,,Fail,,,,,
212.0,8.0,wc_8,wc_7,1.0,"[('wc_7', 0.7400000000000005), ('wc_8', 0.4400000000000003), ('wc_6', 0.3600000000000002)]",0.9068160000000003,,,25.0,0.051530999999999993,['Fail'],Fail,0.7400000000000005,-0.36500000000000055,3.0,8.0,0.9
223.0,8.0,wc_8,,0.0,,,,0.0,,,,Pass,,,,,
223.0,8.0,wc_8,,0.0,,,71.0,,,,,Pass,,,,,
223.0,8.0,wc_8,,0.0,,,,0.0,,,,Pass,,,,,
223.0,8.0,wc_8,wc_8,0.0,"[('wc_8', 0.4400000000000003)]",0.4400000000000003,,,26.0,0.002143,['Fail'],Pass,0.4400000000000003,-0.06500000000000028,3.0,8.0,0.3
223.0,8.0,wc_8,,0.0,,,,301.0,,,,Pass,,,,,
223.0,8.0,wc_8,wc_4,0.0,"[('wc_4', 0.4800000000000003)]",0.4800000000000003,,,32.0,0.004512,['Pass'],Pass,0.4800000000000003,-0.30352941176470616,0.0,0.0,0.4
223.0,8.0,wc_8,,0.0,,,,103.0,,,,Pass,,,,,
223.0,8.0,wc_8,wc_3,0.0,"[('wc_3', 0.3200000000000002), ('wc_4', 0.4800000000000003)]",0.6464000000000003,,,22.0,0.005703,['Pass'],Pass,0.3200000000000002,-0.3200000000000002,0.0,6.0,0.3
223.0,8.0,wc_8,,0.0,,,,141.0,,,,Pass,,,,,
223.0,8.0,wc_8,wc_12,0.0,"[('wc_12', 0.6000000000000004), ('wc_4', 0.4800000000000003), ('wc_3', 0.3200000000000002)]",0.8585600000000002,,,22.0,0.008948999999999999,['Pass'],Pass,0.6000000000000004,-0.36923076923076964,0.0,0.0,0.7
223.0,8.0,wc_8,,0.0,,,,401.0,,,,Pass,,,,,
223.0,8.0,wc_8,wc_5,1.0,"[('wc_5', 0.6700000000000005), ('wc_4', 0.4800000000000003), ('wc_3', 0.3200000000000002), ('wc_12', 0.6000000000000004)]",0.9533248000000002,,,39.0,0.047358000000000004,['Pass'],Pass,0.6700000000000005,-0.6700000000000005,0.0,0.0,0.8
233.0,7.0,wc_7,,0.0,,,,81.0,,,,Fail,,,,,
233.0,7.0,wc_7,,0.0,,,51.0,,,,,Fail,,,,,
233.0,7.0,wc_7,,0.0,,,,0.0,,,,Fail,,,,,
233.0,7.0,wc_7,wc_7,0.0,"[('wc_7', 0.7400000000000005)]",0.7400000000000005,,,27.0,0.002134,['Fail'],Fail,0.7400000000000005,-0.40666666666666723,3.0,9.0,0.9
233.0,7.0,wc_7,,0.0,,,,0.0,,,,Fail,,,,,
233.0,7.0,wc_7,wc_10,0.0,"[('wc_10', 0.6800000000000005), ('wc_7', 0.7400000000000005)]",0.9168000000000003,,,25.0,0.004183,['Fail'],Fail,0.6800000000000005,-0.3466666666666672,3.0,9.0,0.8
233.0,7.0,wc_7,,0.0,,,,81.0,,,,Fail,,,,,
233.0,7.0,wc_7,wc_12,1.0,"[('wc_12', 0.6100000000000004), ('wc_7', 0.7400000000000005), ('wc_10', 0.6800000000000005)]",0.9675520000000002,,,39.0,0.05095199999999998,['Fail'],Fail,0.6200000000000004,0.37999999999999956,2.0,2.0,0.7
245.0,7.0,wc_7,,0.0,,,,202.0,,,,Fail,,,,,
245.0,7.0,wc_7,,0.0,,,62.0,,,,,Fail,,,,,
245.0,7.0,wc_7,,0.0,,,,0.0,,,,Fail,,,,,
245.0,7.0,wc_7,wc_7,0.0,"[('wc_7', 0.7400000000000005)]",0.7400000000000005,,,20.0,0.002409,['Fail'],Fail,0.7400000000000005,-0.7400000000000005,0.0,0.0,0.9
245.0,7.0,wc_7,,0.0,,,,0.0,,,,Fail,,,,,
245.0,7.0,wc_7,wc_11,0.0,"[('wc_7', 0.7400000000000005)]",0.7400000000000005,,,29.0,0.004,['Fail'],Fail,0.27000000000000013,-0.27000000000000013,0.0,2.0,0.2
245.0,7.0,wc_7,,0.0,,,,81.0,,,,Fail,,,,,
245.0,7.0,wc_7,wc_13,0.0,"[('wc_13', 0.6900000000000005), ('wc_7', 0.7400000000000005)]",0.9194000000000003,,,20.0,0.005994,['Fail'],Fail,0.6900000000000005,-0.5233333333333339,1.0,6.0,1.0
245.0,7.0,wc_7,,0.0,,,,222.0,,,,Fail,,,,,
245.0,7.0,wc_7,wc_1,1.0,"[('wc_1', 0.6000000000000004), ('wc_7', 0.7400000000000005), ('wc_13', 0.6900000000000005)]",0.9677600000000002,,,28.0,0.04837,['Fail'],Fail,0.6000000000000004,-0.2666666666666671,2.0,6.0,0.4
279.0,7.0,wc_7,,0.0,,,,162.0,,,,Pass,,,,,
279.0,7.0,wc_7,,0.0,,,62.0,,,,,Pass,,,,,
279.0,7.0,wc_7,,0.0,,,,0.0,,,,Pass,,,,,
279.0,7.0,wc_7,wc_7,0.0,"[('wc_7', 0.7500000000000006)]",0.7500000000000006,,,31.0,0.002257,['Pass'],Pass,0.7500000000000006,0.24999999999999944,1.0,1.0,0.9
279.0,7.0,wc_7,,0.0,,,,0.0,,,,Pass,,,,,
279.0,7.0,wc_7,wc_8,0.0,"[('wc_8', 0.43000000000000027), ('wc_7', 0.7500000000000006)]",0.8575000000000004,,,24.0,0.0067209999999999995,['Pass'],Pass,0.43000000000000027,-0.15727272727272756,0.0,0.0,0.3
279.0,7.0,wc_7,,0.0,,,,82.0,,,,Pass,,,,,
279.0,7.0,wc_7,wc_6,0.0,"[('wc_7', 0.7500000000000006), ('wc_8', 0.43000000000000027)]",0.8575000000000004,,,35.0,0.0057269999999999995,['Pass'],Pass,0.3700000000000002,0.029999999999999805,2.0,5.0,0.2
279.0,7.0,wc_7,,0.0,,,,162.0,,,,Pass,,,,,
279.0,7.0,wc_7,wc_12,1.0,"[('wc_12', 0.6200000000000004), ('wc_7', 0.7500000000000006), ('wc_8', 0.43000000000000027)]",0.9458500000000002,,,33.0,0.044326,['Pass'],Pass,0.6300000000000004,0.11999999999999955,3.0,4.0,0.7
291.0,12.0,wc_12,,0.0,,,,0.0,,,,Pass,,,,,
291.0,12.0,wc_12,,0.0,,,74.0,,,,,Pass,,,,,
291.0,12.0,wc_12,,0.0,,,,0.0,,,,Pass,,,,,
291.0,12.0,wc_12,wc_12,0.0,"[('wc_12', 0.6300000000000004)]",0.6300000000000004,,,24.0,0.002068,['Pass'],Pass,0.6300000000000004,0.11999999999999955,3.0,4.0,0.7
291.0,12.0,wc_12,,0.0,,,,242.0,,,,Pass,,,,,
291.0,12.0,wc_12,wc_1,0.0,"[('wc_12', 0.6300000000000004)]",0.6300000000000004,,,38.0,0.00443,['Pass'],Pass,0.6000000000000004,-0.3142857142857147,2.0,7.0,0.4
291.0,12.0,wc_12,,0.0,,,,283.0,,,,Pass,,,,,
291.0,12.0,wc_12,wc_17,0.0,"[('wc_17', 0.6000000000000004), ('wc_12', 0.6300000000000004)]",0.8520000000000003,,,40.0,0.0064410000000000005,['Pass'],Pass,0.6000000000000004,-0.30000000000000043,0.0,0.0,0.6
291.0,12.0,wc_12,,0.0,,,,103.0,,,,Pass,,,,,
291.0,12.0,wc_12,wc_16,1.0,"[('wc_16', 0.7200000000000005), ('wc_12', 0.6300000000000004), ('wc_17', 0.6000000000000004)]",0.9585600000000002,,,20.0,0.043944000000000004,['Pass'],Pass,0.7200000000000005,-0.7200000000000005,0.0,0.0,0.9
302.0,13.0,wc_13,,0.0,,,,61.0,,,,Fail,,,,,
302.0,13.0,wc_13,,0.0,,,57.0,,,,,Fail,,,,,
302.0,13.0,wc_13,,0.0,,,,0.0,,,,Fail,,,,,
302.0,13.0,wc_13,wc_13,0.0,"[('wc_13', 0.6900000000000005)]",0.6900000000000005,,,27.0,0.002276,['Fail'],Fail,0.6900000000000005,-0.4677777777777783,2.0,9.0,1.0
302.0,13.0,wc_13,,0.0,,,,0.0,,,,Fail,,,,,
302.0,13.0,wc_13,wc_14,0.0,"[('wc_13', 0.6900000000000005)]",0.6900000000000005,,,22.0,0.0038980000000000004,['Fail'],Fail,0.5200000000000004,-0.5200000000000004,0.0,0.0,0.6
302.0,13.0,wc_13,,0.0,,,,82.0,,,,Fail,,,,,
302.0,13.0,wc_13,wc_12,0.0,"[('wc_12', 0.6400000000000005), ('wc_13', 0.6900000000000005)]",0.8884000000000003,,,23.0,0.006139,['Fail'],Fail,0.6400000000000005,0.1599999999999996,4.0,5.0,0.7
302.0,13.0,wc_13,,0.0,,,,401.0,,,,Fail,,,,,
302.0,13.0,wc_13,wc_5,1.0,"[('wc_5', 0.6700000000000005), ('wc_13', 0.6900000000000005), ('wc_12', 0.6400000000000005)]",0.9631720000000001,,,28.0,0.041523,['Fail'],Fail,0.6700000000000005,-0.4700000000000005,1.0,5.0,0.8
314.0,13.0,wc_13,,0.0,,,,121.0,,,,Fail,,,,,
314.0,13.0,wc_13,,0.0,,,64.0,,,,,Fail,,,,,
314.0,13.0,wc_13,,0.0,,,,0.0,,,,Fail,,,,,
314.0,13.0,wc_13,wc_13,0.0,"[('wc_13', 0.6900000000000005)]",0.6900000000000005,,,29.0,0.002034,['Fail'],Fail,0.6900000000000005,-0.6900000000000005,0.0,0.0,1.0
314.0,13.0,wc_13,,0.0,,,,202.0,,,,Fail,,,,,
314.0,13.0,wc_13,wc_8,0.0,"[('wc_8', 0.4400000000000003), ('wc_13', 0.6900000000000005)]",0.8264000000000004,,,31.0,0.0038339999999999997,['Fail'],Fail,0.4400000000000003,-0.10666666666666696,1.0,3.0,0.3
314.0,13.0,wc_13,,0.0,,,,82.0,,,,Fail,,,,,
314.0,13.0,wc_13,wc_6,0.0,"[('wc_6', 0.3600000000000002), ('wc_13', 0.6900000000000005), ('wc_8', 0.4400000000000003)]",0.8888960000000002,,,31.0,0.006517,['Fail'],Fail,0.3600000000000002,-0.11000000000000021,2.0,8.0,0.2
314.0,13.0,wc_13,,0.0,,,,361.0,,,,Fail,,,,,
314.0,13.0,wc_13,wc_5,1.0,"[('wc_5', 0.6700000000000005), ('wc_13', 0.6900000000000005), ('wc_8', 0.4400000000000003), ('wc_6', 0.3600000000000002)]",0.9633356800000001,,,36.0,0.0421,['Fail'],Fail,0.6700000000000005,-0.33666666666666717,2.0,6.0,0.8
335.0,13.0,wc_13,,0.0,,,,121.0,,,,Fail,,,,,
335.0,13.0,wc_13,,0.0,,,68.0,,,,,Fail,,,,,
335.0,13.0,wc_13,,0.0,,,,0.0,,,,Fail,,,,,
335.0,13.0,wc_13,wc_13,0.0,"[('wc_13', 0.7000000000000005)]",0.7000000000000005,,,40.0,0.007146,['Fail'],Fail,0.7000000000000005,0.2999999999999995,1.0,1.0,1.0
335.0,13.0,wc_13,,0.0,,,,341.0,,,,Fail,,,,,
335.0,13.0,wc_13,wc_3,0.0,"[('wc_3', 0.3200000000000002), ('wc_13', 0.7000000000000005)]",0.7960000000000004,,,23.0,0.00404,['Fail'],Fail,0.3200000000000002,-0.24307692307692325,0.0,0.0,0.3
335.0,13.0,wc_13,,0.0,,,,222.0,,,,Fail,,,,,
335.0,13.0,wc_13,wc_16,1.0,"[('wc_16', 0.7200000000000005), ('wc_13', 0.7000000000000005), ('wc_3', 0.3200000000000002)]",0.9428800000000002,,,39.0,0.04520899999999999,['Fail'],Fail,0.7200000000000005,-0.3866666666666672,1.0,3.0,0.9
348.0,13.0,wc_13,,0.0,,,,61.0,,,,Fail,,,,,
348.0,13.0,wc_13,,0.0,,,64.0,,,,,Fail,,,,,
348.0,13.0,wc_13,,0.0,,,,0.0,,,,Fail,,,,,
348.0,13.0,wc_13,wc_13,0.0,"[('wc_13', 0.7100000000000005)]",0.7100000000000005,,,31.0,0.002453,['Fail'],Fail,0.7100000000000005,0.2899999999999995,2.0,2.0,1.0
348.0,13.0,wc_13,,0.0,,,,0.0,,,,Fail,,,,,
348.0,13.0,wc_13,wc_15,0.0,"[('wc_15', 0.6600000000000005), ('wc_13', 0.7100000000000005)]",0.9014000000000003,,,20.0,0.004205,['Fail'],Fail,0.6600000000000005,-0.6600000000000005,0.0,9.0,1.0
348.0,13.0,wc_13,,0.0,,,,382.0,,,,Fail,,,,,
348.0,13.0,wc_13,wc_10,1.0,"[('wc_10', 0.6800000000000005), ('wc_13', 0.7100000000000005), ('wc_15', 0.6600000000000005)]",0.9684480000000002,,,35.0,0.042775999999999995,['Fail'],Fail,0.6800000000000005,-0.5371428571428576,1.0,7.0,0.8
368.0,13.0,wc_13,,0.0,,,,101.0,,,,Fail,,,,,
368.0,13.0,wc_13,,0.0,,,54.0,,,,,Fail,,,,,
368.0,13.0,wc_13,,0.0,,,,0.0,,,,Fail,,,,,
368.0,13.0,wc_13,wc_13,0.0,"[('wc_13', 0.7200000000000005)]",0.7200000000000005,,,39.0,0.002077,['Fail'],Fail,0.7200000000000005,0.27999999999999947,3.0,3.0,1.0
368.0,13.0,wc_13,,0.0,,,,0.0,,,,Fail,,,,,
368.0,13.0,wc_13,wc_17,0.0,"[('wc_17', 0.6100000000000004), ('wc_13', 0.7200000000000005)]",0.8908000000000004,,,23.0,0.004169,['Fail'],Fail,0.6100000000000004,-0.4100000000000004,1.0,5.0,0.6
368.0,13.0,wc_13,,0.0,,,,342.0,,,,Fail,,,,,
368.0,13.0,wc_13,wc_10,1.0,"[('wc_10', 0.6800000000000005), ('wc_13', 0.7200000000000005), ('wc_17', 0.6100000000000004)]",0.9650560000000001,,,34.0,0.042691999999999994,['Fail'],Fail,0.6800000000000005,-0.4300000000000005,2.0,8.0,0.8
381.0,13.0,wc_13,,0.0,,,,101.0,,,,Pass,,,,,
381.0,13.0,wc_13,,0.0,,,73.0,,,,,Pass,,,,,
381.0,13.0,wc_13,,0.0,,,,0.0,,,,Pass,,,,,
381.0,13.0,wc_13,wc_13,0.0,"[('wc_13', 0.7300000000000005)]",0.7300000000000005,,,31.0,0.00232,['Pass'],Pass,0.7300000000000005,0.26999999999999946,4.0,4.0,1.0
381.0,13.0,wc_13,,0.0,,,,162.0,,,,Pass,,,,,
381.0,13.0,wc_13,wc_6,0.0,"[('wc_13', 0.7300000000000005)]",0.7300000000000005,,,34.0,0.004015,['Pass'],Pass,0.3600000000000002,-0.11000000000000021,0.0,0.0,0.2
381.0,13.0,wc_13,,0.0,,,,202.0,,,,Pass,,,,,
381.0,13.0,wc_13,wc_14,0.0,"[('wc_13', 0.7300000000000005)]",0.7300000000000005,,,37.0,0.006200000000000001,['Pass'],Pass,0.5100000000000003,-0.5100000000000003,0.0,5.0,0.6
381.0,13.0,wc_13,,0.0,,,,361.0,,,,Pass,,,,,
381.0,13.0,wc_13,wc_5,0.0,"[('wc_5', 0.6700000000000005), ('wc_13', 0.7300000000000005)]",0.9109000000000003,,,25.0,0.008651,['Pass'],Pass,0.6700000000000005,-0.4477777777777783,2.0,9.0,0.8
381.0,13.0,wc_13,,0.0,,,,83.0,,,,Pass,,,,,
381.0,13.0,wc_13,wc_3,1.0,"[('wc_3', 0.3300000000000002), ('wc_13', 0.7300000000000005), ('wc_5', 0.6700000000000005)]",0.9403030000000002,,,24.0,0.046551,['Pass'],Pass,0.3400000000000002,0.1599999999999998,2.0,4.0,0.3
388.0,16.0,wc_16,,0.0,,,,222.0,,,,Pass,,,,,
388.0,16.0,wc_16,,0.0,,,50.0,,,,,Pass,,,,,
388.0,16.0,wc_16,,0.0,,,,0.0,,,,Pass,,,,,
388.0,16.0,wc_16,wc_16,0.0,"[('wc_16', 0.7200000000000005)]",0.7200000000000005,,,29.0,0.0022,['Fail'],Pass,0.7200000000000005,-0.5533333333333339,1.0,6.0,0.9
388.0,16.0,wc_16,,0.0,,,,402.0,,,,Pass,,,,,
388.0,16.0,wc_16,wc_4,0.0,"[('wc_4', 0.4900000000000003), ('wc_16', 0.7200000000000005)]",0.8572000000000004,,,36.0,0.004316,['Fail'],Pass,0.4900000000000003,-0.3990909090909094,0.0,0.0,0.4
388.0,16.0,wc_16,,0.0,,,,81.0,,,,Pass,,,,,
388.0,16.0,wc_16,wc_6,1.0,"[('wc_6', 0.3500000000000002), ('wc_16', 0.7200000000000005), ('wc_4', 0.4900000000000003)]",0.9071800000000003,,,27.0,0.046827999999999995,['Fail'],Pass,0.3600000000000002,0.1399999999999998,1.0,2.0,0.2
398.0,14.0,wc_14,,0.0,,,,202.0,,,,Fail,,,,,
398.0,14.0,wc_14,,0.0,,,57.0,,,,,Fail,,,,,
398.0,14.0,wc_14,,0.0,,,,0.0,,,,Fail,,,,,
398.0,14.0,wc_14,wc_14,0.0,"[('wc_14', 0.5000000000000003)]",0.5000000000000003,,,26.0,0.002399,['Fail'],Fail,0.5000000000000003,-0.5000000000000003,0.0,7.0,0.6
398.0,14.0,wc_14,,0.0,,,,102.0,,,,Fail,,,,,
398.0,14.0,wc_14,wc_13,0.0,"[('wc_13', 0.7400000000000005), ('wc_14', 0.5000000000000003)]",0.8700000000000003,,,28.0,0.004659,['Fail'],Fail,0.7400000000000005,0.09333333333333282,5.0,6.0,1.0
398.0,14.0,wc_14,,0.0,,,,381.0,,,,Fail,,,,,
398.0,14.0,wc_14,wc_5,1.0,"[('wc_5', 0.6700000000000005), ('wc_14', 0.5000000000000003), ('wc_13', 0.7400000000000005)]",0.9571000000000002,,,31.0,0.041607000000000005,['Fail'],Fail,0.6700000000000005,-0.17000000000000048,1.0,2.0,0.8
405.0,15.0,wc_15,,0.0,,,,162.0,,,,Fail,,,,,
405.0,15.0,wc_15,,0.0,,,54.0,,,,,Fail,,,,,
405.0,15.0,wc_15,,0.0,,,,0.0,,,,Fail,,,,,
405.0,15.0,wc_15,wc_15,0.0,"[('wc_15', 0.6600000000000005)]",0.6600000000000005,,,35.0,0.002498,['Fail'],Fail,0.6600000000000005,-0.6600000000000005,0.0,4.0,1.0
405.0,15.0,wc_15,,0.0,,,,382.0,,,,Fail,,,,,
405.0,15.0,wc_15,wc_10,0.0,"[('wc_10', 0.6800000000000005), ('wc_15', 0.6600000000000005)]",0.8912000000000003,,,26.0,0.004061,['Fail'],Fail,0.6800000000000005,-0.49818181818181867,0.0,0.0,0.8
405.0,15.0,wc_15,,0.0,,,,103.0,,,,Fail,,,,,
405.0,15.0,wc_15,wc_9,1.0,"[('wc_9', 0.6800000000000005), ('wc_15', 0.6600000000000005), ('wc_10', 0.6800000000000005)]",0.9651840000000002,,,21.0,0.041576999999999996,['Fail'],Fail,0.6800000000000005,-0.6800000000000005,0.0,0.0,1.0
414.0,15.0,wc_15,,0.0,,,,162.0,,,,Pass,,,,,
414.0,15.0,wc_15,,0.0,,,59.0,,,,,Pass,,,,,
414.0,15.0,wc_15,,0.0,,,,0.0,,,,Pass,,,,,
414.0,15.0,wc_15,wc_15,0.0,"[('wc_15', 0.6600000000000005)]",0.6600000000000005,,,28.0,0.00209,['Pass'],Pass,0.6600000000000005,-0.46000000000000046,1.0,5.0,1.0
414.0,15.0,wc_15,,0.0,,,,442.0,,,,Pass,,,,,
414.0,15.0,wc_15,wc_5,0.0,"[('wc_5', 0.6700000000000005), ('wc_15', 0.6600000000000005)]",0.8878000000000004,,,25.0,0.004319,['Pass'],Pass,0.6700000000000005,-0.33666666666666717,1.0,3.0,0.8
414.0,15.0,wc_15,,0.0,,,,61.0,,,,Pass,,,,,
414.0,15.0,wc_15,wc_2,1.0,"[('wc_2', 0.6200000000000004), ('wc_15', 0.6600000000000005), ('wc_5', 0.6700000000000005)]",0.9573640000000002,,,28.0,0.041898000000000005,['Pass'],Pass,0.6200000000000004,-0.6200000000000004,0.0,0.0,0.8
423.0,14.0,wc_14,,0.0,,,,202.0,,,,Pass,,,,,
423.0,14.0,wc_14,,0.0,,,53.0,,,,,Pass,,,,,
423.0,14.0,wc_14,,0.0,,,,0.0,,,,Pass,,,,,
423.0,14.0,wc_14,wc_14,0.0,"[('wc_14', 0.5000000000000003)]",0.5000000000000003,,,32.0,0.002199,['Pass'],Pass,0.5000000000000003,-0.40000000000000036,0.0,0.0,0.6
423.0,14.0,wc_14,,0.0,,,,142.0,,,,Pass,,,,,
423.0,14.0,wc_14,wc_6,0.0,"[('wc_14', 0.5000000000000003)]",0.5000000000000003,,,36.0,0.004024,['Pass'],Pass,0.3600000000000002,-0.1600000000000002,1.0,5.0,0.2
423.0,14.0,wc_14,,0.0,,,,222.0,,,,Pass,,,,,
423.0,14.0,wc_14,wc_2,0.0,"[('wc_2', 0.6200000000000004), ('wc_14', 0.5000000000000003)]",0.8100000000000004,,,33.0,0.006125,['Pass'],Pass,0.6200000000000004,-0.6200000000000004,0.0,0.0,0.8
423.0,14.0,wc_14,,0.0,,,,183.0,,,,Pass,,,,,
423.0,14.0,wc_14,wc_9,1.0,"[('wc_9', 0.6800000000000005), ('wc_14', 0.5000000000000003), ('wc_2', 0.6200000000000004)]",0.9392000000000003,,,38.0,0.04267300000000001,['Pass'],Pass,0.6800000000000005,-0.1800000000000005,1.0,2.0,1.0
433.0,17.0,wc_17,,0.0,,,,202.0,,,,Pass,,,,,
433.0,17.0,wc_17,,0.0,,,51.0,,,,,Pass,,,,,
433.0,17.0,wc_17,,0.0,,,,0.0,,,,Pass,,,,,
433.0,17.0,wc_17,wc_17,0.0,"[('wc_17', 0.6100000000000004)]",0.6100000000000004,,,33.0,0.002099,['Pass'],Pass,0.6100000000000004,-0.4433333333333338,0.0,0.0,0.6
433.0,17.0,wc_17,,0.0,,,,21.0,,,,Pass,,,,,
433.0,17.0,wc_17,wc_12,0.0,"[('wc_12', 0.6500000000000005), ('wc_17', 0.6100000000000004)]",0.8635000000000004,,,20.0,0.005076000000000001,['Pass'],Pass,0.6500000000000005,-0.33750000000000047,0.0,0.0,0.7
433.0,17.0,wc_17,,0.0,,,,321.0,,,,Pass,,,,,
433.0,17.0,wc_17,wc_9,1.0,"[('wc_9', 0.6800000000000005), ('wc_17', 0.6100000000000004), ('wc_12', 0.6500000000000005)]",0.9563200000000002,,,25.0,0.042487,['Pass'],Pass,0.6800000000000005,-0.013333333333333863,2.0,3.0,1.0
