mpecck/BCQC/bcqc_with_qdt/results/raw/input_9/independent_qc/training/20_workpiece/20200429_084432/wp_13_qc_majority_0.9.csv
production_index,step_idx,production_workcell,qc,consent,winner_qc_list,score,production_time,transport_time,inspection_time,network_time,qc_results,actual_quality,qc_score,score_error,in_winner_counter,in_qc_counter,qc_capability
47.0,1.0,wc_1,,0.0,,,58.0,,,,,Fail,,,,,
47.0,1.0,wc_1,,0.0,,,,0.0,,,,Fail,,,,,
47.0,1.0,wc_1,wc_1,0.0,"[('wc_1', 0.7700000000000006)]",0.7700000000000006,,,33.0,0.002028,['Fail'],Fail,0.7700000000000006,-0.4842857142857149,2.0,7.0,0.6
47.0,1.0,wc_1,,0.0,,,,243.0,,,,Fail,,,,,
47.0,1.0,wc_1,wc_15,0.0,"[('wc_15', 0.8100000000000006), ('wc_1', 0.7700000000000006)]",0.9563000000000003,,,26.0,0.003977,['Fail'],Fail,0.8100000000000006,-0.7266666666666672,0.0,0.0,0.8
47.0,1.0,wc_1,,0.0,,,,442.0,,,,Fail,,,,,
47.0,1.0,wc_1,wc_5,1.0,"[('wc_5', 0.3200000000000002), ('wc_1', 0.7700000000000006), ('wc_15', 0.8100000000000006)]",0.9702840000000001,,,27.0,0.04343899999999999,['Fail'],Fail,0.3200000000000002,-0.3200000000000002,0.0,0.0,0.2
167.0,1.0,wc_1,,0.0,,,,41.0,,,,Fail,,,,,
167.0,1.0,wc_1,,0.0,,,71.0,,,,,Fail,,,,,
167.0,1.0,wc_1,,0.0,,,,0.0,,,,Fail,,,,,
167.0,1.0,wc_1,wc_1,0.0,"[('wc_1', 0.7700000000000006)]",0.7700000000000006,,,22.0,0.002205,['Fail'],Fail,0.7700000000000006,-0.3950000000000006,3.0,8.0,0.6
167.0,1.0,wc_1,,0.0,,,,0.0,,,,Fail,,,,,
167.0,1.0,wc_1,wc_2,0.0,"[('wc_2', 0.5800000000000004), ('wc_1', 0.7700000000000006)]",0.9034000000000003,,,33.0,0.003954,['Fail'],Fail,0.5800000000000004,-0.3072727272727277,0.0,0.0,0.5
167.0,1.0,wc_1,,0.0,,,,182.0,,,,Fail,,,,,
167.0,1.0,wc_1,wc_13,1.0,"[('wc_13', 0.2500000000000001), ('wc_1', 0.7700000000000006), ('wc_2', 0.5800000000000004)]",0.9275500000000003,,,30.0,0.03857999999999999,['Fail'],Fail,0.2600000000000001,0.4066666666666665,2.0,3.0,0.1
225.0,1.0,wc_1,,0.0,,,,222.0,,,,Pass,,,,,
225.0,1.0,wc_1,,0.0,,,79.0,,,,,Pass,,,,,
225.0,1.0,wc_1,,0.0,,,,0.0,,,,Pass,,,,,
225.0,1.0,wc_1,wc_1,0.0,"[('wc_1', 0.7700000000000006)]",0.7700000000000006,,,36.0,0.002429,['Pass'],Pass,0.7700000000000006,-0.32555555555555615,4.0,9.0,0.6
225.0,1.0,wc_1,,0.0,,,,202.0,,,,Pass,,,,,
225.0,1.0,wc_1,wc_13,0.0,"[('wc_13', 0.2600000000000001), ('wc_1', 0.7700000000000006)]",0.8298000000000004,,,26.0,0.004484999999999999,['Pass'],Pass,0.2600000000000001,0.4066666666666665,2.0,3.0,0.1
225.0,1.0,wc_1,,0.0,,,,0.0,,,,Pass,,,,,
225.0,1.0,wc_1,wc_16,1.0,"[('wc_16', 0.7400000000000005), ('wc_1', 0.7700000000000006), ('wc_13', 0.2600000000000001)]",0.9557480000000003,,,30.0,0.036116999999999996,['Pass'],Pass,0.7400000000000005,-0.7400000000000005,0.0,0.0,1.0
238.0,2.0,wc_2,,0.0,,,,283.0,,,,Pass,,,,,
238.0,2.0,wc_2,,0.0,,,77.0,,,,,Pass,,,,,
238.0,2.0,wc_2,,0.0,,,,0.0,,,,Pass,,,,,
238.0,2.0,wc_2,wc_2,0.0,"[('wc_2', 0.5900000000000004)]",0.5900000000000004,,,39.0,0.002098,['Pass'],Pass,0.5900000000000004,-0.09000000000000041,1.0,2.0,0.5
238.0,2.0,wc_2,,0.0,,,,182.0,,,,Pass,,,,,
238.0,2.0,wc_2,wc_13,0.0,"[('wc_13', 0.27000000000000013), ('wc_2', 0.5900000000000004)]",0.7007000000000003,,,39.0,0.0038729999999999997,['Pass'],Pass,0.27000000000000013,0.47999999999999987,3.0,4.0,0.1
238.0,2.0,wc_2,,0.0,,,,381.0,,,,Pass,,,,,
238.0,2.0,wc_2,wc_5,0.0,"[('wc_5', 0.3200000000000002), ('wc_2', 0.5900000000000004), ('wc_13', 0.27000000000000013)]",0.7964760000000003,,,26.0,0.006231,['Pass'],Pass,0.3200000000000002,-0.3200000000000002,0.0,2.0,0.2
238.0,2.0,wc_2,,0.0,,,,101.0,,,,Pass,,,,,
238.0,2.0,wc_2,wc_8,1.0,"[('wc_8', 0.7200000000000005), ('wc_2', 0.5900000000000004), ('wc_13', 0.27000000000000013), ('wc_5', 0.3200000000000002)]",0.9430132800000002,,,38.0,0.045645,['Pass'],Pass,0.7200000000000005,-0.7200000000000005,0.0,0.0,1.0
248.0,4.0,wc_4,,0.0,,,,301.0,,,,Fail,,,,,
248.0,4.0,wc_4,,0.0,,,56.0,,,,,Fail,,,,,
248.0,4.0,wc_4,,0.0,,,,0.0,,,,Fail,,,,,
248.0,4.0,wc_4,wc_4,0.0,"[('wc_4', 0.5200000000000004)]",0.5200000000000004,,,23.0,0.002029,['Fail'],Fail,0.5200000000000004,-0.5200000000000004,0.0,5.0,0.6
248.0,4.0,wc_4,,0.0,,,,182.0,,,,Fail,,,,,
248.0,4.0,wc_4,wc_11,0.0,"[('wc_11', 0.7600000000000006), ('wc_4', 0.5200000000000004)]",0.8848000000000004,,,21.0,0.004008,['Fail'],Fail,0.7600000000000006,-0.5100000000000006,2.0,8.0,0.7
248.0,4.0,wc_4,,0.0,,,,122.0,,,,Fail,,,,,
248.0,4.0,wc_4,wc_15,1.0,"[('wc_15', 0.8200000000000006), ('wc_4', 0.5200000000000004), ('wc_11', 0.7600000000000006)]",0.9792640000000001,,,22.0,0.035303,['Fail'],Fail,0.8200000000000006,-0.4200000000000006,2.0,5.0,0.8
259.0,4.0,wc_4,,0.0,,,,422.0,,,,Pass,,,,,
259.0,4.0,wc_4,,0.0,,,65.0,,,,,Pass,,,,,
259.0,4.0,wc_4,,0.0,,,,0.0,,,,Pass,,,,,
259.0,4.0,wc_4,wc_4,0.0,"[('wc_4', 0.5200000000000004)]",0.5200000000000004,,,31.0,0.002007,['Pass'],Pass,0.5200000000000004,-0.3533333333333337,1.0,6.0,0.6
259.0,4.0,wc_4,,0.0,,,,182.0,,,,Pass,,,,,
259.0,4.0,wc_4,wc_15,0.0,"[('wc_15', 0.8200000000000006)]",0.8200000000000006,,,37.0,0.0041919999999999995,['Fail'],Pass,0.8200000000000006,-0.4200000000000006,2.0,5.0,0.8
259.0,4.0,wc_4,,0.0,,,,101.0,,,,Pass,,,,,
259.0,4.0,wc_4,wc_14,0.0,"[('wc_14', 0.8100000000000006), ('wc_15', 0.8200000000000006)]",0.9658000000000002,,,27.0,0.006444999999999999,['Fail'],Pass,0.8100000000000006,-0.4100000000000006,0.0,0.0,0.9
259.0,4.0,wc_4,,0.0,,,,0.0,,,,Pass,,,,,
259.0,4.0,wc_4,wc_16,0.0,"[('wc_15', 0.8200000000000006), ('wc_14', 0.8100000000000006)]",0.9658000000000002,,,23.0,0.008314,['Fail'],Pass,0.7400000000000005,-0.7400000000000005,0.0,2.0,1.0
259.0,4.0,wc_4,,0.0,,,,0.0,,,,Pass,,,,,
259.0,4.0,wc_4,wc_17,1.0,"[('wc_17', 0.21000000000000008), ('wc_15', 0.8200000000000006), ('wc_14', 0.8100000000000006)]",0.9729820000000002,,,32.0,0.04775700000000001,['Fail'],Pass,0.21000000000000008,-0.06714285714285723,1.0,7.0,0.1
293.0,3.0,wc_3,,0.0,,,,362.0,,,,Pass,,,,,
293.0,3.0,wc_3,,0.0,,,56.0,,,,,Pass,,,,,
293.0,3.0,wc_3,,0.0,,,,0.0,,,,Pass,,,,,
293.0,3.0,wc_3,wc_3,0.0,"[('wc_3', 0.2300000000000001)]",0.2300000000000001,,,28.0,0.002439,['Fail'],Pass,0.2300000000000001,-0.13909090909090918,0.0,0.0,0.1
293.0,3.0,wc_3,,0.0,,,,141.0,,,,Pass,,,,,
293.0,3.0,wc_3,wc_8,0.0,"[('wc_8', 0.7200000000000005)]",0.7200000000000005,,,37.0,0.004769,['Pass'],Pass,0.7200000000000005,-0.7200000000000005,0.0,2.0,1.0
293.0,3.0,wc_3,,0.0,,,,162.0,,,,Pass,,,,,
293.0,3.0,wc_3,wc_14,0.0,"[('wc_14', 0.8200000000000006), ('wc_8', 0.7200000000000005)]",0.9496000000000002,,,32.0,0.007905,['Pass'],Pass,0.8200000000000006,0.17999999999999938,1.0,1.0,0.9
293.0,3.0,wc_3,,0.0,,,,0.0,,,,Pass,,,,,
293.0,3.0,wc_3,wc_17,1.0,"[('wc_17', 0.21000000000000008), ('wc_8', 0.7200000000000005), ('wc_14', 0.8200000000000006)]",0.9601840000000003,,,31.0,0.03897400000000001,['Pass'],Pass,0.22000000000000008,0.029999999999999916,2.0,8.0,0.1
303.0,5.0,wc_5,,0.0,,,,402.0,,,,Pass,,,,,
303.0,5.0,wc_5,,0.0,,,51.0,,,,,Pass,,,,,
303.0,5.0,wc_5,,0.0,,,,0.0,,,,Pass,,,,,
303.0,5.0,wc_5,wc_5,0.0,"[('wc_5', 0.3300000000000002)]",0.3300000000000002,,,26.0,0.002374,['Pass'],Pass,0.3300000000000002,-0.16333333333333352,1.0,6.0,0.2
303.0,5.0,wc_5,,0.0,,,,202.0,,,,Pass,,,,,
303.0,5.0,wc_5,wc_17,0.0,"[('wc_5', 0.3300000000000002)]",0.3300000000000002,,,28.0,0.004224,['Pass'],Pass,0.22000000000000008,0.029999999999999916,2.0,8.0,0.1
303.0,5.0,wc_5,,0.0,,,,243.0,,,,Pass,,,,,
303.0,5.0,wc_5,wc_1,0.0,"[('wc_1', 0.7700000000000006), ('wc_5', 0.3300000000000002)]",0.8459000000000004,,,33.0,0.0065450000000000005,['Pass'],Pass,0.7700000000000006,-0.7700000000000006,0.0,4.0,0.6
303.0,5.0,wc_5,,0.0,,,,203.0,,,,Pass,,,,,
303.0,5.0,wc_5,wc_9,1.0,"[('wc_9', 0.6400000000000005), ('wc_5', 0.3300000000000002), ('wc_1', 0.7700000000000006)]",0.9445240000000003,,,36.0,0.047994,['Pass'],Pass,0.6400000000000005,-0.6400000000000005,0.0,0.0,0.6
318.0,6.0,wc_6,,0.0,,,,61.0,,,,Pass,,,,,
318.0,6.0,wc_6,,0.0,,,71.0,,,,,Pass,,,,,
318.0,6.0,wc_6,,0.0,,,,0.0,,,,Pass,,,,,
318.0,6.0,wc_6,wc_6,0.0,"[('wc_6', 0.4600000000000003)]",0.4600000000000003,,,39.0,0.002223,['Pass'],Pass,0.4600000000000003,-0.4600000000000003,0.0,0.0,0.5
318.0,6.0,wc_6,,0.0,,,,182.0,,,,Pass,,,,,
318.0,6.0,wc_6,wc_13,0.0,"[('wc_13', 0.28000000000000014), ('wc_6', 0.4600000000000003)]",0.6112000000000003,,,36.0,0.003895,['Pass'],Pass,0.28000000000000014,0.16444444444444428,4.0,9.0,0.1
318.0,6.0,wc_6,,0.0,,,,381.0,,,,Pass,,,,,
318.0,6.0,wc_6,wc_5,0.0,"[('wc_5', 0.3300000000000002), ('wc_6', 0.4600000000000003), ('wc_13', 0.28000000000000014)]",0.7395040000000003,,,21.0,0.005676,['Pass'],Pass,0.3300000000000002,-0.044285714285714484,2.0,7.0,0.2
318.0,6.0,wc_6,,0.0,,,,162.0,,,,Pass,,,,,
318.0,6.0,wc_6,wc_11,1.0,"[('wc_11', 0.7600000000000006), ('wc_6', 0.4600000000000003), ('wc_13', 0.28000000000000014), ('wc_5', 0.3300000000000002)]",0.9374809600000003,,,20.0,0.04299499999999999,['Pass'],Pass,0.7600000000000006,-0.7600000000000006,0.0,0.0,0.7
333.0,9.0,wc_9,,0.0,,,,83.0,,,,Pass,,,,,
333.0,9.0,wc_9,,0.0,,,79.0,,,,,Pass,,,,,
333.0,9.0,wc_9,,0.0,,,,0.0,,,,Pass,,,,,
333.0,9.0,wc_9,wc_9,0.0,"[('wc_9', 0.6400000000000005)]",0.6400000000000005,,,33.0,0.00215,['Pass'],Pass,0.6400000000000005,-0.6400000000000005,0.0,1.0,0.6
333.0,9.0,wc_9,,0.0,,,,141.0,,,,Pass,,,,,
333.0,9.0,wc_9,wc_14,0.0,"[('wc_14', 0.8300000000000006), ('wc_9', 0.6400000000000005)]",0.9388000000000003,,,32.0,0.004802,['Pass'],Pass,0.8300000000000006,-0.3300000000000006,2.0,4.0,0.9
333.0,9.0,wc_9,,0.0,,,,0.0,,,,Pass,,,,,
333.0,9.0,wc_9,wc_15,1.0,"[('wc_15', 0.8200000000000006), ('wc_9', 0.6400000000000005), ('wc_14', 0.8300000000000006)]",0.9889840000000001,,,24.0,0.037913,['Pass'],Pass,0.8200000000000006,-0.8200000000000006,0.0,0.0,0.8
357.0,8.0,wc_8,,0.0,,,,263.0,,,,Fail,,,,,
357.0,8.0,wc_8,,0.0,,,73.0,,,,,Fail,,,,,
357.0,8.0,wc_8,,0.0,,,,0.0,,,,Fail,,,,,
357.0,8.0,wc_8,wc_8,0.0,"[('wc_8', 0.7200000000000005)]",0.7200000000000005,,,21.0,0.002216,['Fail'],Fail,0.7200000000000005,-0.5533333333333339,1.0,6.0,1.0
357.0,8.0,wc_8,,0.0,,,,223.0,,,,Fail,,,,,
357.0,8.0,wc_8,wc_17,0.0,"[('wc_8', 0.7200000000000005)]",0.7200000000000005,,,26.0,0.004092,['Fail'],Fail,0.22000000000000008,-0.03818181818181826,0.0,0.0,0.1
357.0,8.0,wc_8,,0.0,,,,243.0,,,,Fail,,,,,
357.0,8.0,wc_8,wc_1,0.0,"[('wc_1', 0.7700000000000006), ('wc_8', 0.7200000000000005)]",0.9356000000000003,,,25.0,0.006148000000000001,['Fail'],Fail,0.7700000000000006,-0.6271428571428577,1.0,7.0,0.6
357.0,8.0,wc_8,,0.0,,,,0.0,,,,Fail,,,,,
357.0,8.0,wc_8,wc_3,0.0,"[('wc_8', 0.7200000000000005), ('wc_1', 0.7700000000000006)]",0.9356000000000003,,,40.0,0.007605000000000001,['Fail'],Fail,0.22000000000000008,-0.22000000000000008,0.0,4.0,0.1
357.0,8.0,wc_8,,0.0,,,,141.0,,,,Fail,,,,,
357.0,8.0,wc_8,wc_12,1.0,"[('wc_12', 0.6100000000000004), ('wc_8', 0.7200000000000005), ('wc_1', 0.7700000000000006)]",0.9748840000000001,,,36.0,0.042337,['Fail'],Fail,0.6100000000000004,-0.6100000000000004,0.0,0.0,0.6
374.0,11.0,wc_11,,0.0,,,,361.0,,,,Fail,,,,,
374.0,11.0,wc_11,,0.0,,,75.0,,,,,Fail,,,,,
374.0,11.0,wc_11,,0.0,,,,0.0,,,,Fail,,,,,
374.0,11.0,wc_11,wc_11,0.0,"[('wc_11', 0.7600000000000006)]",0.7600000000000006,,,28.0,0.002236,['Fail'],Fail,0.7600000000000006,-0.7600000000000006,0.0,2.0,0.7
374.0,11.0,wc_11,,0.0,,,,162.0,,,,Fail,,,,,
374.0,11.0,wc_11,wc_17,0.0,"[('wc_17', 0.21000000000000008), ('wc_11', 0.7600000000000006)]",0.8104000000000005,,,20.0,0.005101,['Fail'],Fail,0.21000000000000008,-0.21000000000000008,0.0,1.0,0.1
374.0,11.0,wc_11,,0.0,,,,61.0,,,,Fail,,,,,
374.0,11.0,wc_11,wc_14,1.0,"[('wc_14', 0.8300000000000006), ('wc_11', 0.7600000000000006), ('wc_17', 0.21000000000000008)]",0.9677680000000002,,,24.0,0.039061,['Fail'],Fail,0.8300000000000006,-0.25857142857142923,4.0,7.0,0.9
386.0,11.0,wc_11,,0.0,,,,321.0,,,,Fail,,,,,
386.0,11.0,wc_11,,0.0,,,70.0,,,,,Fail,,,,,
386.0,11.0,wc_11,,0.0,,,,0.0,,,,Fail,,,,,
386.0,11.0,wc_11,wc_11,0.0,"[('wc_11', 0.7600000000000006)]",0.7600000000000006,,,32.0,0.002142,['Fail'],Fail,0.7600000000000006,-0.42666666666666725,1.0,3.0,0.7
386.0,11.0,wc_11,,0.0,,,,362.0,,,,Fail,,,,,
386.0,11.0,wc_11,wc_5,0.0,"[('wc_5', 0.3400000000000002), ('wc_11', 0.7600000000000006)]",0.8416000000000005,,,32.0,0.003934,['Fail'],Fail,0.3400000000000002,-0.06727272727272748,0.0,0.0,0.2
386.0,11.0,wc_11,,0.0,,,,103.0,,,,Fail,,,,,
386.0,11.0,wc_11,wc_4,1.0,"[('wc_4', 0.5100000000000003), ('wc_11', 0.7600000000000006), ('wc_5', 0.3400000000000002)]",0.9223840000000003,,,28.0,0.039263,['Fail'],Fail,0.5100000000000003,-0.5100000000000003,0.0,0.0,0.6
398.0,7.0,wc_7,,0.0,,,,101.0,,,,Fail,,,,,
398.0,7.0,wc_7,,0.0,,,62.0,,,,,Fail,,,,,
398.0,7.0,wc_7,,0.0,,,,0.0,,,,Fail,,,,,
398.0,7.0,wc_7,wc_7,0.0,"[('wc_7', 0.2600000000000001)]",0.2600000000000001,,,30.0,0.002489,['Fail'],Fail,0.2600000000000001,-0.2600000000000001,0.0,0.0,0.2
398.0,7.0,wc_7,,0.0,,,,182.0,,,,Fail,,,,,
398.0,7.0,wc_7,wc_1,0.0,"[('wc_1', 0.7700000000000006), ('wc_7', 0.2600000000000001)]",0.8298000000000004,,,23.0,0.003853,['Fail'],Fail,0.7700000000000006,-0.5700000000000005,0.0,0.0,0.6
398.0,7.0,wc_7,,0.0,,,,0.0,,,,Fail,,,,,
398.0,7.0,wc_7,wc_4,0.0,"[('wc_7', 0.2600000000000001), ('wc_1', 0.7700000000000006)]",0.8298000000000004,,,35.0,0.005294,['Fail'],Fail,0.5100000000000003,-0.5100000000000003,0.0,0.0,0.6
398.0,7.0,wc_7,,0.0,,,,142.0,,,,Fail,,,,,
398.0,7.0,wc_7,wc_9,0.0,"[('wc_7', 0.2600000000000001), ('wc_1', 0.7700000000000006)]",0.8298000000000004,,,33.0,0.009351,['Fail'],Fail,0.6400000000000005,-0.44000000000000045,1.0,5.0,0.6
398.0,7.0,wc_7,,0.0,,,,0.0,,,,Fail,,,,,
398.0,7.0,wc_7,wc_11,1.0,"[('wc_11', 0.7600000000000006), ('wc_7', 0.2600000000000001), ('wc_1', 0.7700000000000006)]",0.9591520000000002,,,27.0,0.045145000000000005,['Fail'],Fail,0.7600000000000006,-0.1600000000000006,3.0,5.0,0.7
404.0,11.0,wc_11,,0.0,,,,0.0,,,,Pass,,,,,
404.0,11.0,wc_11,,0.0,,,50.0,,,,,Pass,,,,,
404.0,11.0,wc_11,,0.0,,,,0.0,,,,Pass,,,,,
404.0,11.0,wc_11,wc_11,0.0,"[('wc_11', 0.7600000000000006)]",0.7600000000000006,,,21.0,0.002069,['Pass'],Pass,0.7600000000000006,-0.1600000000000006,3.0,5.0,0.7
404.0,11.0,wc_11,,0.0,,,,101.0,,,,Pass,,,,,
404.0,11.0,wc_11,wc_14,0.0,"[('wc_14', 0.8300000000000006), ('wc_11', 0.7600000000000006)]",0.9592000000000003,,,20.0,0.003895,['Pass'],Pass,0.8300000000000006,-0.3855555555555562,4.0,9.0,0.9
404.0,11.0,wc_11,,0.0,,,,0.0,,,,Pass,,,,,
404.0,11.0,wc_11,wc_15,1.0,"[('wc_15', 0.8200000000000006), ('wc_11', 0.7600000000000006), ('wc_14', 0.8300000000000006)]",0.9926560000000001,,,21.0,0.041713999999999994,['Pass'],Pass,0.8200000000000006,-0.6200000000000006,1.0,5.0,0.8
423.0,7.0,wc_7,,0.0,,,,243.0,,,,Fail,,,,,
423.0,7.0,wc_7,,0.0,,,54.0,,,,,Fail,,,,,
423.0,7.0,wc_7,,0.0,,,,0.0,,,,Fail,,,,,
423.0,7.0,wc_7,wc_7,0.0,"[('wc_7', 0.27000000000000013)]",0.27000000000000013,,,32.0,0.002197,['Pass'],Fail,0.27000000000000013,0.22999999999999987,1.0,2.0,0.2
423.0,7.0,wc_7,,0.0,,,,182.0,,,,Fail,,,,,
423.0,7.0,wc_7,wc_14,0.0,"[('wc_14', 0.8300000000000006)]",0.8300000000000006,,,21.0,0.0038929999999999998,['Fail'],Fail,0.8300000000000006,-0.8300000000000006,0.0,0.0,0.9
423.0,7.0,wc_7,,0.0,,,,0.0,,,,Fail,,,,,
423.0,7.0,wc_7,wc_15,0.0,"[('wc_15', 0.8200000000000006), ('wc_14', 0.8300000000000006)]",0.9694000000000003,,,28.0,0.008203,['Fail'],Fail,0.8200000000000006,-0.6200000000000006,1.0,5.0,0.8
423.0,7.0,wc_7,,0.0,,,,402.0,,,,Fail,,,,,
423.0,7.0,wc_7,wc_3,0.0,"[('wc_14', 0.8300000000000006), ('wc_15', 0.8200000000000006)]",0.9694000000000003,,,38.0,0.008371,['Fail'],Fail,0.21000000000000008,-0.21000000000000008,0.0,9.0,0.1
423.0,7.0,wc_7,,0.0,,,,222.0,,,,Fail,,,,,
423.0,7.0,wc_7,wc_16,1.0,"[('wc_16', 0.7300000000000005), ('wc_14', 0.8300000000000006), ('wc_15', 0.8200000000000006)]",0.9917380000000001,,,20.0,0.051266000000000006,['Fail'],Fail,0.7300000000000005,-0.7300000000000005,0.0,0.0,1.0
434.0,8.0,wc_8,,0.0,,,,243.0,,,,Pass,,,,,
434.0,8.0,wc_8,,0.0,,,73.0,,,,,Pass,,,,,
434.0,8.0,wc_8,,0.0,,,,0.0,,,,Pass,,,,,
434.0,8.0,wc_8,wc_8,0.0,"[('wc_8', 0.7200000000000005)]",0.7200000000000005,,,22.0,0.002094,['Pass'],Pass,0.7200000000000005,-0.5533333333333339,0.0,0.0,1.0
434.0,8.0,wc_8,,0.0,,,,82.0,,,,Pass,,,,,
434.0,8.0,wc_8,wc_6,0.0,"[('wc_6', 0.4700000000000003), ('wc_8', 0.7200000000000005)]",0.8516000000000004,,,38.0,0.00417,['Pass'],Pass,0.4700000000000003,-0.3450000000000003,1.0,8.0,0.5
434.0,8.0,wc_8,,0.0,,,,182.0,,,,Pass,,,,,
434.0,8.0,wc_8,wc_13,0.0,"[('wc_8', 0.7200000000000005), ('wc_6', 0.4700000000000003)]",0.8516000000000004,,,29.0,0.005854,['Pass'],Pass,0.29000000000000015,-0.29000000000000015,0.0,7.0,0.1
434.0,8.0,wc_8,,0.0,,,,182.0,,,,Pass,,,,,
434.0,8.0,wc_8,wc_7,0.0,"[('wc_7', 0.27000000000000013), ('wc_8', 0.7200000000000005), ('wc_6', 0.4700000000000003)]",0.8916680000000002,,,36.0,0.007781,['Pass'],Pass,0.27000000000000013,0.06333333333333319,1.0,3.0,0.2
434.0,8.0,wc_8,,0.0,,,,182.0,,,,Pass,,,,,
434.0,8.0,wc_8,wc_14,1.0,"[('wc_14', 0.8400000000000006), ('wc_8', 0.7200000000000005), ('wc_6', 0.4700000000000003), ('wc_7', 0.27000000000000013)]",0.9826668800000001,,,21.0,0.046199,['Pass'],Pass,0.8500000000000006,0.14999999999999936,2.0,2.0,0.9
451.0,10.0,wc_10,,0.0,,,,301.0,,,,Pass,,,,,
451.0,10.0,wc_10,,0.0,,,80.0,,,,,Pass,,,,,
451.0,10.0,wc_10,,0.0,,,,0.0,,,,Pass,,,,,
451.0,10.0,wc_10,wc_10,0.0,"[('wc_10', 0.6800000000000005)]",0.6800000000000005,,,28.0,0.002115,['Fail'],Pass,0.6800000000000005,-0.6300000000000004,0.0,0.0,0.7
451.0,10.0,wc_10,,0.0,,,,103.0,,,,Pass,,,,,
451.0,10.0,wc_10,wc_9,0.0,"[('wc_10', 0.6800000000000005)]",0.6800000000000005,,,35.0,0.003896,['Fail'],Pass,0.6300000000000004,-0.5188888888888894,1.0,9.0,0.6
451.0,10.0,wc_10,,0.0,,,,162.0,,,,Pass,,,,,
451.0,10.0,wc_10,wc_15,0.0,"[('wc_15', 0.8200000000000006), ('wc_9', 0.6300000000000004)]",0.9334000000000003,,,28.0,0.006233000000000001,['Pass'],Pass,0.8200000000000006,-0.5342857142857149,2.0,7.0,0.8
451.0,10.0,wc_10,,0.0,,,,402.0,,,,Pass,,,,,
451.0,10.0,wc_10,wc_11,0.0,"[('wc_9', 0.6300000000000004), ('wc_15', 0.8200000000000006)]",0.9334000000000003,,,24.0,0.010147999999999999,['Pass'],Pass,0.7600000000000006,-0.26000000000000056,4.0,8.0,0.7
451.0,10.0,wc_10,,0.0,,,,322.0,,,,Pass,,,,,
451.0,10.0,wc_10,wc_3,1.0,"[('wc_3', 0.20000000000000007), ('wc_9', 0.6300000000000004), ('wc_15', 0.8200000000000006)]",0.9467200000000002,,,20.0,0.053388,['Pass'],Pass,0.21000000000000008,0.2899999999999999,1.0,2.0,0.1
464.0,7.0,wc_7,,0.0,,,,121.0,,,,Pass,,,,,
464.0,7.0,wc_7,,0.0,,,61.0,,,,,Pass,,,,,
464.0,7.0,wc_7,,0.0,,,,0.0,,,,Pass,,,,,
464.0,7.0,wc_7,wc_7,0.0,"[('wc_7', 0.28000000000000014)]",0.28000000000000014,,,37.0,0.002091,['Fail'],Pass,0.28000000000000014,0.11999999999999988,2.0,5.0,0.2
464.0,7.0,wc_7,,0.0,,,,0.0,,,,Pass,,,,,
464.0,7.0,wc_7,wc_11,0.0,"[('wc_11', 0.7500000000000006)]",0.7500000000000006,,,29.0,0.003906,['Pass'],Pass,0.7500000000000006,-0.30555555555555614,4.0,9.0,0.7
464.0,7.0,wc_7,,0.0,,,,83.0,,,,Pass,,,,,
464.0,7.0,wc_7,wc_9,0.0,"[('wc_9', 0.6300000000000004), ('wc_11', 0.7500000000000006)]",0.9075000000000003,,,28.0,0.006005,['Pass'],Pass,0.6300000000000004,-0.6300000000000004,0.0,0.0,0.6
464.0,7.0,wc_7,,0.0,,,,101.0,,,,Pass,,,,,
464.0,7.0,wc_7,wc_12,1.0,"[('wc_12', 0.6100000000000004), ('wc_11', 0.7500000000000006), ('wc_9', 0.6300000000000004)]",0.9639250000000001,,,35.0,0.04450199999999999,['Pass'],Pass,0.6100000000000004,-0.48500000000000043,1.0,8.0,0.6
486.0,12.0,wc_12,,0.0,,,,0.0,,,,Fail,,,,,
486.0,12.0,wc_12,,0.0,,,53.0,,,,,Fail,,,,,
486.0,12.0,wc_12,,0.0,,,,0.0,,,,Fail,,,,,
486.0,12.0,wc_12,wc_12,0.0,"[('wc_12', 0.6100000000000004)]",0.6100000000000004,,,32.0,0.00211,['Fail'],Fail,0.6100000000000004,-0.48500000000000043,1.0,8.0,0.6
486.0,12.0,wc_12,,0.0,,,,202.0,,,,Fail,,,,,
486.0,12.0,wc_12,wc_7,0.0,"[('wc_7', 0.28000000000000014), ('wc_12', 0.6100000000000004)]",0.7192000000000003,,,21.0,0.0037359999999999997,['Fail'],Fail,0.28000000000000014,0.05333333333333318,2.0,6.0,0.2
486.0,12.0,wc_12,,0.0,,,,202.0,,,,Fail,,,,,
486.0,12.0,wc_12,wc_2,0.0,"[('wc_12', 0.6100000000000004), ('wc_7', 0.28000000000000014)]",0.7192000000000003,,,39.0,0.005934,['Fail'],Fail,0.6000000000000004,-0.4888888888888893,0.0,0.0,0.5
486.0,12.0,wc_12,,0.0,,,,203.0,,,,Fail,,,,,
486.0,12.0,wc_12,wc_10,1.0,"[('wc_10', 0.6700000000000005), ('wc_12', 0.6100000000000004), ('wc_7', 0.28000000000000014)]",0.9073360000000003,,,39.0,0.044511999999999996,['Fail'],Fail,0.6700000000000005,-0.33666666666666717,1.0,3.0,0.7
526.0,12.0,wc_12,,0.0,,,,81.0,,,,Fail,,,,,
526.0,12.0,wc_12,,0.0,,,68.0,,,,,Fail,,,,,
526.0,12.0,wc_12,,0.0,,,,0.0,,,,Fail,,,,,
526.0,12.0,wc_12,wc_12,0.0,"[('wc_12', 0.6100000000000004)]",0.6100000000000004,,,30.0,0.002554,['Pass'],Fail,0.6100000000000004,-0.3877777777777782,2.0,9.0,0.6
526.0,12.0,wc_12,,0.0,,,,0.0,,,,Fail,,,,,
526.0,12.0,wc_12,wc_17,0.0,"[('wc_17', 0.22000000000000008), ('wc_12', 0.6100000000000004)]",0.6958000000000004,,,25.0,0.004449,['Pass'],Fail,0.22000000000000008,-0.12000000000000008,0.0,0.0,0.1
526.0,12.0,wc_12,,0.0,,,,83.0,,,,Fail,,,,,
526.0,12.0,wc_12,wc_15,0.0,"[('wc_15', 0.8200000000000006)]",0.8200000000000006,,,20.0,0.006090999999999999,['Fail'],Fail,0.8200000000000006,-0.5200000000000007,0.0,0.0,0.8
526.0,12.0,wc_12,,0.0,,,,243.0,,,,Fail,,,,,
526.0,12.0,wc_12,wc_7,0.0,"[('wc_15', 0.8200000000000006)]",0.8200000000000006,,,31.0,0.008246,['Fail'],Fail,0.29000000000000015,0.1385714285714284,3.0,7.0,0.2
526.0,12.0,wc_12,,0.0,,,,182.0,,,,Fail,,,,,
526.0,12.0,wc_12,wc_14,0.0,"[('wc_14', 0.8500000000000006), ('wc_15', 0.8200000000000006)]",0.9730000000000002,,,29.0,0.012443,['Fail'],Fail,0.8500000000000006,-0.4500000000000006,2.0,5.0,0.9
526.0,12.0,wc_12,,0.0,,,,182.0,,,,Fail,,,,,
526.0,12.0,wc_12,wc_8,1.0,"[('wc_8', 0.7300000000000005), ('wc_15', 0.8200000000000006), ('wc_14', 0.8500000000000006)]",0.9927100000000001,,,24.0,0.043269,['Fail'],Fail,0.7300000000000005,-0.3300000000000005,2.0,5.0,1.0
547.0,12.0,wc_12,,0.0,,,,122.0,,,,Pass,,,,,
547.0,12.0,wc_12,,0.0,,,62.0,,,,,Pass,,,,,
547.0,12.0,wc_12,,0.0,,,,0.0,,,,Pass,,,,,
547.0,12.0,wc_12,wc_12,0.0,"[('wc_12', 0.6000000000000004)]",0.6000000000000004,,,32.0,0.002123,['Fail'],Pass,0.6000000000000004,-0.6000000000000004,0.0,0.0,0.6
547.0,12.0,wc_12,,0.0,,,,0.0,,,,Pass,,,,,
547.0,12.0,wc_12,wc_13,0.0,"[('wc_13', 0.28000000000000014), ('wc_12', 0.6000000000000004)]",0.7120000000000004,,,28.0,0.004181,['Fail'],Pass,0.28000000000000014,-0.28000000000000014,0.0,0.0,0.1
547.0,12.0,wc_12,,0.0,,,,162.0,,,,Pass,,,,,
547.0,12.0,wc_12,wc_6,0.0,"[('wc_12', 0.6000000000000004), ('wc_13', 0.28000000000000014)]",0.7120000000000004,,,26.0,0.0064269999999999996,['Fail'],Pass,0.4700000000000003,-0.31615384615384645,0.0,0.0,0.5
547.0,12.0,wc_12,,0.0,,,,202.0,,,,Pass,,,,,
547.0,12.0,wc_12,wc_14,1.0,"[('wc_14', 0.8500000000000006), ('wc_12', 0.6000000000000004), ('wc_13', 0.28000000000000014)]",0.9568000000000002,,,37.0,0.040978,['Fail'],Pass,0.8500000000000006,-0.27857142857142925,4.0,7.0,0.9
564.0,13.0,wc_13,,0.0,,,,102.0,,,,Pass,,,,,
564.0,13.0,wc_13,,0.0,,,64.0,,,,,Pass,,,,,
564.0,13.0,wc_13,,0.0,,,,0.0,,,,Pass,,,,,
564.0,13.0,wc_13,wc_13,0.0,"[('wc_13', 0.29000000000000015)]",0.29000000000000015,,,29.0,0.002287,['Pass'],Pass,0.29000000000000015,0.7099999999999999,1.0,1.0,0.1
564.0,13.0,wc_13,,0.0,,,,242.0,,,,Pass,,,,,
564.0,13.0,wc_13,wc_2,0.0,"[('wc_2', 0.5900000000000004), ('wc_13', 0.29000000000000015)]",0.7089000000000003,,,32.0,0.004431,['Pass'],Pass,0.5900000000000004,-0.5900000000000004,0.0,3.0,0.5
564.0,13.0,wc_13,,0.0,,,,142.0,,,,Pass,,,,,
564.0,13.0,wc_13,wc_7,0.0,"[('wc_7', 0.29000000000000015), ('wc_13', 0.29000000000000015), ('wc_2', 0.5900000000000004)]",0.7933190000000003,,,35.0,0.0070019999999999995,['Pass'],Pass,0.29000000000000015,0.04333333333333317,3.0,9.0,0.2
564.0,13.0,wc_13,,0.0,,,,102.0,,,,Pass,,,,,
564.0,13.0,wc_13,wc_6,0.0,"[('wc_6', 0.4600000000000003), ('wc_13', 0.29000000000000015), ('wc_2', 0.5900000000000004), ('wc_7', 0.29000000000000015)]",0.8883922600000003,,,33.0,0.007405,['Pass'],Pass,0.4600000000000003,-0.4600000000000003,0.0,1.0,0.5
564.0,13.0,wc_13,,0.0,,,,223.0,,,,Pass,,,,,
564.0,13.0,wc_13,wc_15,1.0,"[('wc_15', 0.8300000000000006), ('wc_13', 0.29000000000000015), ('wc_2', 0.5900000000000004), ('wc_7', 0.29000000000000015), ('wc_6', 0.4600000000000003)]",0.9810266842,,,36.0,0.043838,['Pass'],Pass,0.8300000000000006,-0.163333333333334,2.0,3.0,0.8
573.0,15.0,wc_15,,0.0,,,,0.0,,,,Pass,,,,,
573.0,15.0,wc_15,,0.0,,,73.0,,,,,Pass,,,,,
573.0,15.0,wc_15,,0.0,,,,0.0,,,,Pass,,,,,
573.0,15.0,wc_15,wc_15,0.0,"[('wc_15', 0.8300000000000006)]",0.8300000000000006,,,38.0,0.002127,['Pass'],Pass,0.8300000000000006,-0.163333333333334,2.0,3.0,0.8
573.0,15.0,wc_15,,0.0,,,,243.0,,,,Pass,,,,,
573.0,15.0,wc_15,wc_7,0.0,"[('wc_7', 0.30000000000000016), ('wc_15', 0.8300000000000006)]",0.8810000000000004,,,31.0,0.0043809999999999995,['Pass'],Pass,0.30000000000000016,-0.30000000000000016,0.0,0.0,0.2
573.0,15.0,wc_15,,0.0,,,,341.0,,,,Pass,,,,,
573.0,15.0,wc_15,wc_5,1.0,"[('wc_5', 0.3500000000000002), ('wc_15', 0.8300000000000006), ('wc_7', 0.30000000000000016)]",0.9226500000000003,,,36.0,0.041041999999999995,['Pass'],Pass,0.3500000000000002,-0.3500000000000002,0.0,0.0,0.2
582.0,14.0,wc_14,,0.0,,,,141.0,,,,Pass,,,,,
582.0,14.0,wc_14,,0.0,,,77.0,,,,,Pass,,,,,
582.0,14.0,wc_14,,0.0,,,,0.0,,,,Pass,,,,,
582.0,14.0,wc_14,wc_14,0.0,"[('wc_14', 0.8500000000000006)]",0.8500000000000006,,,25.0,0.002008,['Pass'],Pass,0.8500000000000006,-0.4055555555555562,4.0,9.0,0.9
582.0,14.0,wc_14,,0.0,,,,321.0,,,,Pass,,,,,
582.0,14.0,wc_14,wc_3,0.0,"[('wc_3', 0.21000000000000008), ('wc_14', 0.8500000000000006)]",0.8815000000000005,,,36.0,0.004488000000000001,['Pass'],Pass,0.21000000000000008,-0.08500000000000008,1.0,8.0,0.1
582.0,14.0,wc_14,,0.0,,,,162.0,,,,Pass,,,,,
582.0,14.0,wc_14,wc_9,1.0,"[('wc_9', 0.6400000000000005), ('wc_14', 0.8500000000000006), ('wc_3', 0.21000000000000008)]",0.9573400000000002,,,29.0,0.047665,['Pass'],Pass,0.6400000000000005,-0.35428571428571476,2.0,7.0,0.6
607.0,16.0,wc_16,,0.0,,,,182.0,,,,Pass,,,,,
607.0,16.0,wc_16,,0.0,,,50.0,,,,,Pass,,,,,
607.0,16.0,wc_16,,0.0,,,,0.0,,,,Pass,,,,,
607.0,16.0,wc_16,wc_16,0.0,"[('wc_16', 0.7300000000000005)]",0.7300000000000005,,,20.0,0.002186,['Pass'],Pass,0.7300000000000005,-0.7300000000000005,0.0,9.0,1.0
607.0,16.0,wc_16,,0.0,,,,382.0,,,,Pass,,,,,
607.0,16.0,wc_16,wc_3,0.0,"[('wc_16', 0.7300000000000005)]",0.7300000000000005,,,33.0,0.00426,['Pass'],Pass,0.22000000000000008,0.0022222222222221255,2.0,9.0,0.1
607.0,16.0,wc_16,,0.0,,,,161.0,,,,Pass,,,,,
607.0,16.0,wc_16,wc_13,0.0,"[('wc_16', 0.7300000000000005)]",0.7300000000000005,,,26.0,0.009263,['Pass'],Pass,0.30000000000000016,0.19999999999999984,2.0,4.0,0.1
607.0,16.0,wc_16,,0.0,,,,381.0,,,,Pass,,,,,
607.0,16.0,wc_16,wc_5,0.0,"[('wc_5', 0.3500000000000002), ('wc_16', 0.7300000000000005)]",0.8245000000000005,,,23.0,0.008487,['Pass'],Pass,0.3500000000000002,-0.3500000000000002,0.0,1.0,0.2
607.0,16.0,wc_16,,0.0,,,,61.0,,,,Pass,,,,,
607.0,16.0,wc_16,wc_2,0.0,"[('wc_16', 0.7300000000000005), ('wc_5', 0.3500000000000002)]",0.8245000000000005,,,21.0,0.011494999999999998,['Pass'],Pass,0.5900000000000004,-0.4233333333333338,1.0,6.0,0.5
607.0,16.0,wc_16,,0.0,,,,263.0,,,,Pass,,,,,
607.0,16.0,wc_16,wc_17,0.0,"[('wc_16', 0.7300000000000005), ('wc_5', 0.3500000000000002)]",0.8245000000000005,,,37.0,0.011144,['Pass'],Pass,0.21000000000000008,-0.21000000000000008,0.0,5.0,0.1
607.0,16.0,wc_16,,0.0,,,,83.0,,,,Pass,,,,,
607.0,16.0,wc_16,wc_15,1.0,"[('wc_15', 0.8300000000000006), ('wc_3', 0.22000000000000008), ('wc_13', 0.30000000000000016), ('wc_2', 0.5900000000000004), ('wc_17', 0.21000000000000008)]",0.9699356020000002,,,20.0,0.048315,['Fail'],Pass,0.8300000000000006,-0.163333333333334,4.0,6.0,0.8
613.0,17.0,wc_17,,0.0,,,,0.0,,,,Fail,,,,,
613.0,17.0,wc_17,,0.0,,,77.0,,,,,Fail,,,,,
613.0,17.0,wc_17,,0.0,,,,0.0,,,,Fail,,,,,
613.0,17.0,wc_17,wc_17,0.0,"[('wc_17', 0.21000000000000008)]",0.21000000000000008,,,38.0,0.00223,['Fail'],Fail,0.21000000000000008,-0.04333333333333342,1.0,6.0,0.1
613.0,17.0,wc_17,,0.0,,,,183.0,,,,Fail,,,,,
613.0,17.0,wc_17,wc_6,0.0,"[('wc_6', 0.4700000000000003), ('wc_17', 0.21000000000000008)]",0.5813000000000003,,,23.0,0.004106,['Fail'],Fail,0.4700000000000003,-0.2700000000000003,1.0,5.0,0.5
613.0,17.0,wc_17,,0.0,,,,222.0,,,,Fail,,,,,
613.0,17.0,wc_17,wc_2,0.0,"[('wc_2', 0.5900000000000004), ('wc_17', 0.21000000000000008), ('wc_6', 0.4700000000000003)]",0.8283330000000003,,,30.0,0.006356,['Fail'],Fail,0.5900000000000004,-0.3042857142857147,2.0,7.0,0.5
613.0,17.0,wc_17,,0.0,,,,243.0,,,,Fail,,,,,
613.0,17.0,wc_17,wc_16,1.0,"[('wc_16', 0.7200000000000005), ('wc_17', 0.21000000000000008), ('wc_6', 0.4700000000000003), ('wc_2', 0.5900000000000004)]",0.9519332400000001,,,23.0,0.042009,['Fail'],Fail,0.7300000000000005,0.26999999999999946,1.0,1.0,1.0
631.0,17.0,wc_17,,0.0,,,,0.0,,,,Fail,,,,,
631.0,17.0,wc_17,,0.0,,,80.0,,,,,Fail,,,,,
631.0,17.0,wc_17,,0.0,,,,0.0,,,,Fail,,,,,
631.0,17.0,wc_17,wc_17,0.0,"[('wc_17', 0.22000000000000008)]",0.22000000000000008,,,39.0,0.002108,['Fail'],Fail,0.22000000000000008,0.06571428571428561,2.0,7.0,0.1
631.0,17.0,wc_17,,0.0,,,,203.0,,,,Fail,,,,,
631.0,17.0,wc_17,wc_7,0.0,"[('wc_7', 0.31000000000000016)]",0.31000000000000016,,,35.0,0.004529,['Pass'],Fail,0.31000000000000016,-0.060000000000000164,1.0,4.0,0.2
631.0,17.0,wc_17,,0.0,,,,0.0,,,,Fail,,,,,
631.0,17.0,wc_17,wc_8,0.0,"[('wc_8', 0.7300000000000005), ('wc_17', 0.22000000000000008)]",0.7894000000000004,,,29.0,0.005808,['Fail'],Fail,0.7300000000000005,-0.5481818181818188,0.0,0.0,1.0
631.0,17.0,wc_17,,0.0,,,,162.0,,,,Fail,,,,,
631.0,17.0,wc_17,wc_14,0.0,"[('wc_14', 0.8500000000000006), ('wc_7', 0.31000000000000016)]",0.8965000000000005,,,36.0,0.009965,['Pass'],Fail,0.8500000000000006,-0.8500000000000006,0.0,2.0,0.9
631.0,17.0,wc_17,,0.0,,,,142.0,,,,Fail,,,,,
631.0,17.0,wc_17,wc_6,1.0,"[('wc_6', 0.4700000000000003), ('wc_7', 0.31000000000000016), ('wc_14', 0.8500000000000006)]",0.9451450000000002,,,40.0,0.045707000000000005,['Pass'],Fail,0.4700000000000003,-0.04142857142857176,3.0,7.0,0.5
644.0,17.0,wc_17,,0.0,,,,263.0,,,,Fail,,,,,
644.0,17.0,wc_17,,0.0,,,58.0,,,,,Fail,,,,,
644.0,17.0,wc_17,,0.0,,,,0.0,,,,Fail,,,,,
644.0,17.0,wc_17,wc_17,0.0,"[('wc_17', 0.22000000000000008)]",0.22000000000000008,,,30.0,0.002282,['Fail'],Fail,0.22000000000000008,0.029999999999999916,2.0,8.0,0.1
644.0,17.0,wc_17,,0.0,,,,83.0,,,,Fail,,,,,
644.0,17.0,wc_17,wc_15,0.0,"[('wc_15', 0.8300000000000006), ('wc_17', 0.22000000000000008)]",0.8674000000000005,,,27.0,0.004272,['Fail'],Fail,0.8300000000000006,-0.3300000000000006,4.0,8.0,0.8
644.0,17.0,wc_17,,0.0,,,,283.0,,,,Fail,,,,,
644.0,17.0,wc_17,wc_1,0.0,"[('wc_17', 0.22000000000000008), ('wc_15', 0.8300000000000006)]",0.8674000000000005,,,37.0,0.0056819999999999996,['Fail'],Fail,0.7800000000000006,-0.7133333333333339,0.0,0.0,0.6
644.0,17.0,wc_17,,0.0,,,,203.0,,,,Fail,,,,,
644.0,17.0,wc_17,wc_9,1.0,"[('wc_9', 0.6400000000000005), ('wc_17', 0.22000000000000008), ('wc_15', 0.8300000000000006)]",0.9522640000000002,,,28.0,0.045466999999999994,['Fail'],Fail,0.6400000000000005,-0.6400000000000005,0.0,0.0,0.6
653.0,17.0,wc_17,,0.0,,,,202.0,,,,Fail,,,,,
653.0,17.0,wc_17,,0.0,,,53.0,,,,,Fail,,,,,
653.0,17.0,wc_17,,0.0,,,,0.0,,,,Fail,,,,,
653.0,17.0,wc_17,wc_17,0.0,"[('wc_17', 0.2300000000000001)]",0.2300000000000001,,,33.0,0.002069,['Fail'],Fail,0.2300000000000001,0.10333333333333322,3.0,9.0,0.1
653.0,17.0,wc_17,,0.0,,,,243.0,,,,Fail,,,,,
653.0,17.0,wc_17,wc_1,0.0,"[('wc_1', 0.7700000000000006), ('wc_17', 0.2300000000000001)]",0.8229000000000004,,,32.0,0.003913,['Fail'],Fail,0.7700000000000006,-0.7700000000000006,0.0,1.0,0.6
653.0,17.0,wc_17,,0.0,,,,0.0,,,,Fail,,,,,
653.0,17.0,wc_17,wc_4,1.0,"[('wc_4', 0.5000000000000003), ('wc_17', 0.2300000000000001), ('wc_1', 0.7700000000000006)]",0.9114500000000003,,,27.0,0.044746,['Fail'],Fail,0.5000000000000003,-0.5000000000000003,0.0,0.0,0.6
657.0,17.0,wc_17,,0.0,,,,222.0,,,,Fail,,,,,
657.0,17.0,wc_17,,0.0,,,52.0,,,,,Fail,,,,,
657.0,17.0,wc_17,,0.0,,,,0.0,,,,Fail,,,,,
657.0,17.0,wc_17,wc_17,0.0,"[('wc_17', 0.2400000000000001)]",0.2400000000000001,,,31.0,0.002031,['Fail'],Fail,0.2400000000000001,-0.2400000000000001,0.0,0.0,0.1
657.0,17.0,wc_17,,0.0,,,,362.0,,,,Fail,,,,,
657.0,17.0,wc_17,wc_3,0.0,"[('wc_3', 0.2300000000000001), ('wc_17', 0.2400000000000001)]",0.41480000000000017,,,39.0,0.004465,['Fail'],Fail,0.2300000000000001,-0.2300000000000001,0.0,4.0,0.1
657.0,17.0,wc_17,,0.0,,,,222.0,,,,Fail,,,,,
657.0,17.0,wc_17,wc_16,0.0,"[('wc_16', 0.7300000000000005), ('wc_17', 0.2400000000000001), ('wc_3', 0.2300000000000001)]",0.8419960000000004,,,38.0,0.0062959999999999995,['Fail'],Fail,0.7300000000000005,-0.48000000000000054,1.0,4.0,1.0
657.0,17.0,wc_17,,0.0,,,,41.0,,,,Fail,,,,,
657.0,17.0,wc_17,wc_12,1.0,"[('wc_12', 0.6100000000000004), ('wc_17', 0.2400000000000001), ('wc_3', 0.2300000000000001), ('wc_16', 0.7300000000000005)]",0.9383784400000003,,,25.0,0.042703000000000005,['Fail'],Fail,0.6100000000000004,-0.6100000000000004,0.0,0.0,0.6
661.0,17.0,wc_17,,0.0,,,,0.0,,,,Fail,,,,,
661.0,17.0,wc_17,,0.0,,,68.0,,,,,Fail,,,,,
661.0,17.0,wc_17,,0.0,,,,0.0,,,,Fail,,,,,
661.0,17.0,wc_17,wc_17,0.0,"[('wc_17', 0.2500000000000001)]",0.2500000000000001,,,27.0,0.002161,['Fail'],Fail,0.2500000000000001,0.7499999999999999,1.0,1.0,0.1
661.0,17.0,wc_17,,0.0,,,,203.0,,,,Fail,,,,,
661.0,17.0,wc_17,wc_7,0.0,"[('wc_7', 0.3200000000000002)]",0.3200000000000002,,,26.0,0.00446,['Pass'],Fail,0.3200000000000002,-0.07000000000000017,2.0,8.0,0.2
661.0,17.0,wc_17,,0.0,,,,0.0,,,,Fail,,,,,
661.0,17.0,wc_17,wc_8,0.0,"[('wc_8', 0.7200000000000005), ('wc_17', 0.2500000000000001)]",0.7900000000000005,,,23.0,0.00574,['Fail'],Fail,0.7200000000000005,-0.7200000000000005,0.0,4.0,1.0
661.0,17.0,wc_17,,0.0,,,,162.0,,,,Fail,,,,,
661.0,17.0,wc_17,wc_14,1.0,"[('wc_14', 0.8500000000000006), ('wc_17', 0.2500000000000001), ('wc_8', 0.7200000000000005)]",0.9685000000000002,,,34.0,0.04298500000000001,['Fail'],Fail,0.8500000000000006,-0.564285714285715,2.0,7.0,0.9
663.0,17.0,wc_17,,0.0,,,,0.0,,,,Pass,,,,,
663.0,17.0,wc_17,,0.0,,,75.0,,,,,Pass,,,,,
663.0,17.0,wc_17,,0.0,,,,0.0,,,,Pass,,,,,
663.0,17.0,wc_17,wc_17,0.0,"[('wc_17', 0.2600000000000001)]",0.2600000000000001,,,33.0,0.001917,['Fail'],Pass,0.2600000000000001,0.7399999999999999,2.0,2.0,0.1
663.0,17.0,wc_17,,0.0,,,,61.0,,,,Pass,,,,,
663.0,17.0,wc_17,wc_14,0.0,"[('wc_14', 0.8500000000000006)]",0.8500000000000006,,,39.0,0.00426,['Pass'],Pass,0.8500000000000006,-0.564285714285715,2.0,7.0,0.9
663.0,17.0,wc_17,,0.0,,,,82.0,,,,Pass,,,,,
663.0,17.0,wc_17,wc_12,0.0,"[('wc_14', 0.8500000000000006)]",0.8500000000000006,,,23.0,0.0062109999999999995,['Pass'],Pass,0.6100000000000004,-0.6100000000000004,0.0,1.0,0.6
663.0,17.0,wc_17,,0.0,,,,361.0,,,,Pass,,,,,
663.0,17.0,wc_17,wc_3,0.0,"[('wc_14', 0.8500000000000006)]",0.8500000000000006,,,33.0,0.008428,['Pass'],Pass,0.2300000000000001,-0.06333333333333344,1.0,6.0,0.1
663.0,17.0,wc_17,,0.0,,,,101.0,,,,Pass,,,,,
663.0,17.0,wc_17,wc_6,0.0,"[('wc_6', 0.4700000000000003), ('wc_14', 0.8500000000000006)]",0.9205000000000004,,,28.0,0.009255999999999999,['Pass'],Pass,0.4700000000000003,-0.1972727272727276,0.0,0.0,0.5
663.0,17.0,wc_17,,0.0,,,,361.0,,,,Pass,,,,,
663.0,17.0,wc_17,wc_5,0.0,"[('wc_14', 0.8500000000000006), ('wc_6', 0.4700000000000003)]",0.9205000000000004,,,23.0,0.011705999999999998,['Pass'],Pass,0.3400000000000002,-0.3400000000000002,0.0,8.0,0.2
663.0,17.0,wc_17,,0.0,,,,122.0,,,,Pass,,,,,
663.0,17.0,wc_17,wc_9,1.0,"[('wc_9', 0.6400000000000005), ('wc_14', 0.8500000000000006), ('wc_6', 0.4700000000000003)]",0.9713800000000001,,,24.0,0.059496999999999994,['Pass'],Pass,0.6400000000000005,-0.39000000000000046,1.0,4.0,0.6
