mpecck/BCQC/bcqc_with_qdt/results/raw/input_9/independent_qc/training/20_workpiece/20200429_084432/wp_7_qc_majority_0.9.csv
production_index,step_idx,production_workcell,qc,consent,winner_qc_list,score,production_time,transport_time,inspection_time,network_time,qc_results,actual_quality,qc_score,score_error,in_winner_counter,in_qc_counter,qc_capability
15.0,1.0,wc_1,,0.0,,,66.0,,,,,Pass,,,,,
15.0,1.0,wc_1,,0.0,,,,0.0,,,,Pass,,,,,
15.0,1.0,wc_1,wc_1,0.0,"[('wc_1', 0.5500000000000004)]",0.5500000000000004,,,36.0,0.002327,['Pass'],Pass,0.5500000000000004,0.0499999999999996,3.0,5.0,0.6
15.0,1.0,wc_1,,0.0,,,,222.0,,,,Pass,,,,,
15.0,1.0,wc_1,wc_14,0.0,"[('wc_14', 0.5600000000000004), ('wc_1', 0.5500000000000004)]",0.8020000000000004,,,21.0,0.0046429999999999996,['Pass'],Pass,0.5600000000000004,-0.2600000000000004,0.0,0.0,0.9
15.0,1.0,wc_1,,0.0,,,,162.0,,,,Pass,,,,,
15.0,1.0,wc_1,wc_7,0.0,"[('wc_1', 0.5500000000000004), ('wc_14', 0.5600000000000004)]",0.8020000000000004,,,39.0,0.005865,['Pass'],Pass,0.3400000000000002,-0.26307692307692326,0.0,0.0,0.2
15.0,1.0,wc_1,,0.0,,,,243.0,,,,Pass,,,,,
15.0,1.0,wc_1,wc_17,0.0,"[('wc_17', 0.21000000000000008), ('wc_1', 0.5500000000000004), ('wc_14', 0.5600000000000004)]",0.8435800000000003,,,35.0,0.008066,['Pass'],Pass,0.21000000000000008,0.7899999999999999,2.0,2.0,0.1
15.0,1.0,wc_1,,0.0,,,,223.0,,,,Pass,,,,,
15.0,1.0,wc_1,wc_8,1.0,"[('wc_8', 0.6300000000000004), ('wc_1', 0.5500000000000004), ('wc_14', 0.5600000000000004), ('wc_17', 0.21000000000000008)]",0.9421246000000002,,,31.0,0.044337,['Pass'],Pass,0.6300000000000004,-0.18555555555555603,4.0,9.0,1.0
20.0,2.0,wc_2,,0.0,,,,182.0,,,,Fail,,,,,
20.0,2.0,wc_2,,0.0,,,72.0,,,,,Fail,,,,,
20.0,2.0,wc_2,,0.0,,,,0.0,,,,Fail,,,,,
20.0,2.0,wc_2,wc_2,0.0,"[('wc_2', 0.5500000000000004)]",0.5500000000000004,,,40.0,0.002441,['Pass'],Fail,0.5500000000000004,-0.21666666666666706,1.0,3.0,0.5
20.0,2.0,wc_2,,0.0,,,,182.0,,,,Fail,,,,,
20.0,2.0,wc_2,wc_13,0.0,"[('wc_13', 0.30000000000000016), ('wc_2', 0.5500000000000004)]",0.6850000000000003,,,37.0,0.0043040000000000005,['Pass'],Fail,0.30000000000000016,0.03333333333333316,1.0,3.0,0.1
20.0,2.0,wc_2,,0.0,,,,0.0,,,,Fail,,,,,
20.0,2.0,wc_2,wc_15,0.0,"[('wc_2', 0.5500000000000004), ('wc_13', 0.30000000000000016)]",0.6850000000000003,,,23.0,0.005679,['Pass'],Fail,0.6300000000000004,-0.13000000000000045,4.0,8.0,0.8
20.0,2.0,wc_2,,0.0,,,,402.0,,,,Fail,,,,,
20.0,2.0,wc_2,wc_11,0.0,"[('wc_11', 0.6000000000000004), ('wc_2', 0.5500000000000004), ('wc_13', 0.30000000000000016)]",0.8740000000000003,,,33.0,0.010279,['Pass'],Fail,0.6000000000000004,-0.3500000000000004,1.0,4.0,0.7
20.0,2.0,wc_2,,0.0,,,,41.0,,,,Fail,,,,,
20.0,2.0,wc_2,wc_7,1.0,"[('wc_7', 0.3300000000000002), ('wc_2', 0.5500000000000004), ('wc_13', 0.30000000000000016), ('wc_11', 0.6000000000000004)]",0.9155800000000002,,,35.0,0.041002000000000004,['Pass'],Fail,0.3400000000000002,0.1599999999999998,1.0,2.0,0.2
28.0,4.0,wc_4,,0.0,,,,321.0,,,,Pass,,,,,
28.0,4.0,wc_4,,0.0,,,76.0,,,,,Pass,,,,,
28.0,4.0,wc_4,,0.0,,,,0.0,,,,Pass,,,,,
28.0,4.0,wc_4,wc_4,0.0,"[('wc_4', 0.42000000000000026)]",0.42000000000000026,,,30.0,0.002517,['Pass'],Pass,0.42000000000000026,-0.34857142857142887,0.0,0.0,0.6
28.0,4.0,wc_4,,0.0,,,,61.0,,,,Pass,,,,,
28.0,4.0,wc_4,wc_1,0.0,"[('wc_1', 0.5600000000000004)]",0.5600000000000004,,,24.0,0.0040809999999999996,['Fail'],Pass,0.5600000000000004,0.01142857142857101,4.0,7.0,0.6
28.0,4.0,wc_4,,0.0,,,,223.0,,,,Pass,,,,,
28.0,4.0,wc_4,wc_10,0.0,"[('wc_10', 0.6600000000000005), ('wc_4', 0.42000000000000026)]",0.8028000000000004,,,25.0,0.00602,['Pass'],Pass,0.6600000000000005,-0.4100000000000005,1.0,4.0,0.7
28.0,4.0,wc_4,,0.0,,,,142.0,,,,Pass,,,,,
28.0,4.0,wc_4,wc_15,1.0,"[('wc_15', 0.6200000000000004), ('wc_4', 0.42000000000000026), ('wc_10', 0.6600000000000005)]",0.9250640000000002,,,30.0,0.03897200000000001,['Pass'],Pass,0.6200000000000004,-0.6200000000000004,0.0,0.0,0.8
32.0,3.0,wc_3,,0.0,,,,402.0,,,,Pass,,,,,
32.0,3.0,wc_3,,0.0,,,60.0,,,,,Pass,,,,,
32.0,3.0,wc_3,,0.0,,,,0.0,,,,Pass,,,,,
32.0,3.0,wc_3,wc_3,0.0,"[('wc_3', 0.14)]",0.14,,,24.0,0.002325,['Pass'],Pass,0.14,-0.14,0.0,0.0,0.1
32.0,3.0,wc_3,,0.0,,,,141.0,,,,Pass,,,,,
32.0,3.0,wc_3,wc_12,0.0,"[('wc_12', 0.4600000000000003), ('wc_3', 0.14)]",0.5356000000000003,,,29.0,0.0038829999999999997,['Pass'],Pass,0.4600000000000003,-0.376666666666667,0.0,0.0,0.6
32.0,3.0,wc_3,,0.0,,,,0.0,,,,Pass,,,,,
32.0,3.0,wc_3,wc_15,0.0,"[('wc_15', 0.6200000000000004), ('wc_3', 0.14), ('wc_12', 0.4600000000000003)]",0.8235280000000003,,,30.0,0.006118,['Pass'],Pass,0.6200000000000004,-0.6200000000000004,0.0,0.0,0.8
32.0,3.0,wc_3,,0.0,,,,0.0,,,,Pass,,,,,
32.0,3.0,wc_3,wc_17,0.0,"[('wc_17', 0.22000000000000008), ('wc_3', 0.14), ('wc_12', 0.4600000000000003), ('wc_15', 0.6200000000000004)]",0.8623518400000002,,,21.0,0.0077930000000000004,['Pass'],Pass,0.22000000000000008,0.3799999999999999,3.0,5.0,0.1
32.0,3.0,wc_3,,0.0,,,,402.0,,,,Pass,,,,,
32.0,3.0,wc_3,wc_5,0.0,"[('wc_5', 0.2400000000000001), ('wc_3', 0.14), ('wc_12', 0.4600000000000003), ('wc_15', 0.6200000000000004), ('wc_17', 0.22000000000000008)]",0.8953873984000003,,,27.0,0.00971,['Pass'],Pass,0.2400000000000001,-0.2400000000000001,0.0,4.0,0.2
32.0,3.0,wc_3,,0.0,,,,61.0,,,,Pass,,,,,
32.0,3.0,wc_3,wc_6,1.0,"[('wc_6', 0.39000000000000024), ('wc_3', 0.14), ('wc_12', 0.4600000000000003), ('wc_15', 0.6200000000000004), ('wc_17', 0.22000000000000008), ('wc_5', 0.2400000000000001)]",0.9361863130240001,,,40.0,0.041604,['Pass'],Pass,0.39000000000000024,-0.39000000000000024,0.0,0.0,0.5
42.0,2.0,wc_2,,0.0,,,,222.0,,,,Fail,,,,,
42.0,2.0,wc_2,,0.0,,,63.0,,,,,Fail,,,,,
42.0,2.0,wc_2,,0.0,,,,0.0,,,,Fail,,,,,
42.0,2.0,wc_2,wc_2,0.0,"[('wc_2', 0.5500000000000004)]",0.5500000000000004,,,27.0,0.002471,['Fail'],Fail,0.5500000000000004,-0.21666666666666706,2.0,6.0,0.5
42.0,2.0,wc_2,,0.0,,,,202.0,,,,Fail,,,,,
42.0,2.0,wc_2,wc_14,0.0,"[('wc_14', 0.5700000000000004), ('wc_2', 0.5500000000000004)]",0.8065000000000003,,,23.0,0.004163,['Fail'],Fail,0.5700000000000004,-0.3200000000000004,1.0,4.0,0.9
42.0,2.0,wc_2,,0.0,,,,321.0,,,,Fail,,,,,
42.0,2.0,wc_2,wc_11,1.0,"[('wc_11', 0.6000000000000004), ('wc_2', 0.5500000000000004), ('wc_14', 0.5700000000000004)]",0.9226000000000002,,,28.0,0.036149,['Fail'],Fail,0.6000000000000004,-0.22500000000000042,3.0,8.0,0.7
54.0,2.0,wc_2,,0.0,,,,223.0,,,,Pass,,,,,
54.0,2.0,wc_2,,0.0,,,65.0,,,,,Pass,,,,,
54.0,2.0,wc_2,,0.0,,,,0.0,,,,Pass,,,,,
54.0,2.0,wc_2,wc_2,0.0,"[('wc_2', 0.5500000000000004)]",0.5500000000000004,,,34.0,0.00236,['Pass'],Pass,0.5500000000000004,-0.12142857142857183,3.0,7.0,0.5
54.0,2.0,wc_2,,0.0,,,,0.0,,,,Pass,,,,,
54.0,2.0,wc_2,wc_4,0.0,"[('wc_4', 0.43000000000000027), ('wc_2', 0.5500000000000004)]",0.7435000000000003,,,35.0,0.004649,['Pass'],Pass,0.43000000000000027,-0.09666666666666696,1.0,3.0,0.6
54.0,2.0,wc_2,,0.0,,,,182.0,,,,Pass,,,,,
54.0,2.0,wc_2,wc_11,0.0,"[('wc_11', 0.6000000000000004), ('wc_2', 0.5500000000000004), ('wc_4', 0.43000000000000027)]",0.8974000000000002,,,36.0,0.005958,['Pass'],Pass,0.6000000000000004,-0.22500000000000042,3.0,8.0,0.7
54.0,2.0,wc_2,,0.0,,,,61.0,,,,Pass,,,,,
54.0,2.0,wc_2,wc_12,1.0,"[('wc_12', 0.4700000000000003), ('wc_2', 0.5500000000000004), ('wc_4', 0.43000000000000027), ('wc_11', 0.6000000000000004)]",0.9456220000000002,,,35.0,0.038708,['Pass'],Pass,0.4800000000000003,0.18666666666666631,2.0,3.0,0.6
61.0,5.0,wc_5,,0.0,,,,401.0,,,,Fail,,,,,
61.0,5.0,wc_5,,0.0,,,79.0,,,,,Fail,,,,,
61.0,5.0,wc_5,,0.0,,,,0.0,,,,Fail,,,,,
61.0,5.0,wc_5,wc_5,0.0,"[('wc_5', 0.2400000000000001)]",0.2400000000000001,,,31.0,0.002117,['Pass'],Fail,0.2400000000000001,-0.09714285714285725,1.0,7.0,0.2
61.0,5.0,wc_5,,0.0,,,,142.0,,,,Fail,,,,,
61.0,5.0,wc_5,wc_10,0.0,"[('wc_10', 0.6600000000000005)]",0.6600000000000005,,,35.0,0.004746,['Fail'],Fail,0.6600000000000005,-0.4100000000000005,2.0,8.0,0.7
61.0,5.0,wc_5,,0.0,,,,0.0,,,,Fail,,,,,
61.0,5.0,wc_5,wc_11,0.0,"[('wc_11', 0.6000000000000004), ('wc_5', 0.2400000000000001)]",0.6960000000000004,,,29.0,0.0066110000000000006,['Pass'],Fail,0.6000000000000004,-0.155555555555556,4.0,9.0,0.7
61.0,5.0,wc_5,,0.0,,,,322.0,,,,Fail,,,,,
61.0,5.0,wc_5,wc_3,0.0,"[('wc_3', 0.15000000000000002), ('wc_10', 0.6600000000000005)]",0.7110000000000004,,,32.0,0.008029999999999999,['Fail'],Fail,0.15000000000000002,0.1833333333333333,1.0,3.0,0.1
61.0,5.0,wc_5,,0.0,,,,222.0,,,,Fail,,,,,
61.0,5.0,wc_5,wc_16,1.0,"[('wc_16', 0.7000000000000005), ('wc_10', 0.6600000000000005), ('wc_3', 0.15000000000000002)]",0.9133000000000002,,,33.0,0.040244999999999996,['Fail'],Fail,0.7000000000000005,-0.7000000000000005,0.0,0.0,1.0
71.0,5.0,wc_5,,0.0,,,,422.0,,,,Pass,,,,,
71.0,5.0,wc_5,,0.0,,,78.0,,,,,Pass,,,,,
71.0,5.0,wc_5,,0.0,,,,0.0,,,,Pass,,,,,
71.0,5.0,wc_5,wc_5,0.0,"[('wc_5', 0.2300000000000001)]",0.2300000000000001,,,22.0,0.002134,['Fail'],Pass,0.2300000000000001,-0.1050000000000001,1.0,8.0,0.2
71.0,5.0,wc_5,,0.0,,,,141.0,,,,Pass,,,,,
71.0,5.0,wc_5,wc_14,0.0,"[('wc_14', 0.5700000000000004)]",0.5700000000000004,,,20.0,0.003997,['Pass'],Pass,0.5700000000000004,-0.2842857142857147,2.0,7.0,0.9
71.0,5.0,wc_5,,0.0,,,,162.0,,,,Pass,,,,,
71.0,5.0,wc_5,wc_7,0.0,"[('wc_14', 0.5700000000000004)]",0.5700000000000004,,,33.0,0.0059110000000000005,['Pass'],Pass,0.3400000000000002,-0.19714285714285734,1.0,7.0,0.2
71.0,5.0,wc_5,,0.0,,,,0.0,,,,Pass,,,,,
71.0,5.0,wc_5,wc_9,0.0,"[('wc_9', 0.5500000000000004), ('wc_14', 0.5700000000000004)]",0.8065000000000003,,,33.0,0.008268999999999999,['Pass'],Pass,0.5500000000000004,-0.5500000000000004,0.0,0.0,0.6
71.0,5.0,wc_5,,0.0,,,,202.0,,,,Pass,,,,,
71.0,5.0,wc_5,wc_17,0.0,"[('wc_17', 0.2300000000000001), ('wc_14', 0.5700000000000004), ('wc_9', 0.5500000000000004)]",0.8510050000000002,,,36.0,0.009726,['Pass'],Pass,0.2300000000000001,0.21444444444444433,4.0,9.0,0.1
71.0,5.0,wc_5,,0.0,,,,382.0,,,,Pass,,,,,
71.0,5.0,wc_5,wc_4,0.0,"[('wc_14', 0.5700000000000004), ('wc_9', 0.5500000000000004), ('wc_17', 0.2300000000000001)]",0.8510050000000002,,,37.0,0.010705000000000001,['Pass'],Pass,0.4400000000000003,-0.04000000000000026,2.0,5.0,0.6
71.0,5.0,wc_5,,0.0,,,,103.0,,,,Pass,,,,,
71.0,5.0,wc_5,wc_3,0.0,"[('wc_3', 0.16000000000000003), ('wc_14', 0.5700000000000004), ('wc_9', 0.5500000000000004), ('wc_17', 0.2300000000000001)]",0.8748442000000003,,,21.0,0.012233,['Pass'],Pass,0.16000000000000003,0.33999999999999997,2.0,4.0,0.1
71.0,5.0,wc_5,,0.0,,,,141.0,,,,Pass,,,,,
71.0,5.0,wc_5,wc_8,1.0,"[('wc_8', 0.6300000000000004), ('wc_14', 0.5700000000000004), ('wc_9', 0.5500000000000004), ('wc_17', 0.2300000000000001), ('wc_3', 0.16000000000000003)]",0.9536923540000002,,,26.0,0.046263,['Pass'],Pass,0.6300000000000004,-0.6300000000000004,0.0,0.0,1.0
79.0,6.0,wc_6,,0.0,,,,82.0,,,,Fail,,,,,
79.0,6.0,wc_6,,0.0,,,73.0,,,,,Fail,,,,,
79.0,6.0,wc_6,,0.0,,,,0.0,,,,Fail,,,,,
79.0,6.0,wc_6,wc_6,0.0,"[('wc_6', 0.39000000000000024)]",0.39000000000000024,,,28.0,0.002312,['Fail'],Fail,0.39000000000000024,-0.39000000000000024,0.0,4.0,0.5
79.0,6.0,wc_6,,0.0,,,,0.0,,,,Fail,,,,,
79.0,6.0,wc_6,wc_11,0.0,"[('wc_11', 0.5900000000000004), ('wc_6', 0.39000000000000024)]",0.7499000000000003,,,32.0,0.0040409999999999995,['Fail'],Fail,0.5900000000000004,-0.5900000000000004,0.0,1.0,0.7
79.0,6.0,wc_6,,0.0,,,,342.0,,,,Fail,,,,,
79.0,6.0,wc_6,wc_4,0.0,"[('wc_4', 0.43000000000000027), ('wc_6', 0.39000000000000024), ('wc_11', 0.5900000000000004)]",0.8574430000000003,,,31.0,0.005689,['Fail'],Fail,0.43000000000000027,-0.09666666666666696,2.0,6.0,0.6
79.0,6.0,wc_6,,0.0,,,,101.0,,,,Fail,,,,,
79.0,6.0,wc_6,wc_7,1.0,"[('wc_7', 0.3300000000000002), ('wc_6', 0.39000000000000024), ('wc_11', 0.5900000000000004), ('wc_4', 0.43000000000000027)]",0.9044868100000002,,,23.0,0.055265,['Fail'],Fail,0.3300000000000002,-0.10777777777777797,2.0,9.0,0.2
88.0,6.0,wc_6,,0.0,,,,102.0,,,,Fail,,,,,
88.0,6.0,wc_6,,0.0,,,73.0,,,,,Fail,,,,,
88.0,6.0,wc_6,,0.0,,,,0.0,,,,Fail,,,,,
88.0,6.0,wc_6,wc_6,0.0,"[('wc_6', 0.39000000000000024)]",0.39000000000000024,,,30.0,0.002282,['Pass'],Fail,0.39000000000000024,-0.19000000000000022,1.0,5.0,0.5
88.0,6.0,wc_6,,0.0,,,,321.0,,,,Fail,,,,,
88.0,6.0,wc_6,wc_3,0.0,"[('wc_3', 0.17000000000000004), ('wc_6', 0.39000000000000024)]",0.49370000000000025,,,32.0,0.004175,['Pass'],Fail,0.17000000000000004,0.32999999999999996,3.0,6.0,0.1
88.0,6.0,wc_6,,0.0,,,,121.0,,,,Fail,,,,,
88.0,6.0,wc_6,wc_7,0.0,"[('wc_7', 0.3300000000000002), ('wc_6', 0.39000000000000024), ('wc_3', 0.17000000000000004)]",0.6607790000000002,,,36.0,0.006404,['Pass'],Fail,0.3300000000000002,-0.10777777777777797,2.0,9.0,0.2
88.0,6.0,wc_6,,0.0,,,,223.0,,,,Fail,,,,,
88.0,6.0,wc_6,wc_16,0.0,"[('wc_16', 0.7000000000000005)]",0.7000000000000005,,,27.0,0.008289999999999999,['Fail'],Fail,0.7000000000000005,-0.7000000000000005,0.0,2.0,1.0
88.0,6.0,wc_6,,0.0,,,,342.0,,,,Fail,,,,,
88.0,6.0,wc_6,wc_9,0.0,"[('wc_9', 0.5600000000000004), ('wc_16', 0.7000000000000005)]",0.8680000000000003,,,40.0,0.009783,['Fail'],Fail,0.5600000000000004,-0.060000000000000386,1.0,2.0,0.6
88.0,6.0,wc_6,,0.0,,,,101.0,,,,Fail,,,,,
88.0,6.0,wc_6,wc_8,1.0,"[('wc_8', 0.6300000000000004), ('wc_16', 0.7000000000000005), ('wc_9', 0.5600000000000004)]",0.9511600000000002,,,23.0,0.04395000000000001,['Fail'],Fail,0.6300000000000004,-0.13000000000000045,1.0,2.0,1.0
97.0,6.0,wc_6,,0.0,,,,82.0,,,,Pass,,,,,
97.0,6.0,wc_6,,0.0,,,72.0,,,,,Pass,,,,,
97.0,6.0,wc_6,,0.0,,,,0.0,,,,Pass,,,,,
97.0,6.0,wc_6,wc_6,0.0,"[('wc_6', 0.3800000000000002)]",0.3800000000000002,,,34.0,0.002329,['Pass'],Pass,0.3800000000000002,-0.21333333333333357,1.0,6.0,0.5
97.0,6.0,wc_6,,0.0,,,,321.0,,,,Pass,,,,,
97.0,6.0,wc_6,wc_3,0.0,"[('wc_6', 0.3800000000000002)]",0.3800000000000002,,,22.0,0.004152,['Pass'],Pass,0.17000000000000004,0.2585714285714285,3.0,7.0,0.1
97.0,6.0,wc_6,,0.0,,,,161.0,,,,Pass,,,,,
97.0,6.0,wc_6,wc_13,0.0,"[('wc_13', 0.31000000000000016), ('wc_3', 0.17000000000000004)]",0.4273000000000001,,,30.0,0.005918999999999999,['Fail'],Pass,0.31000000000000016,-0.1433333333333335,0.0,0.0,0.1
97.0,6.0,wc_6,,0.0,,,,242.0,,,,Pass,,,,,
97.0,6.0,wc_6,wc_2,0.0,"[('wc_2', 0.5500000000000004), ('wc_6', 0.3800000000000002)]",0.7210000000000003,,,27.0,0.007852,['Pass'],Pass,0.5500000000000004,-0.21666666666666706,0.0,0.0,0.5
97.0,6.0,wc_6,,0.0,,,,263.0,,,,Pass,,,,,
97.0,6.0,wc_6,wc_17,0.0,"[('wc_17', 0.2400000000000001), ('wc_6', 0.3800000000000002), ('wc_2', 0.5500000000000004)]",0.7879600000000002,,,24.0,0.010712,['Pass'],Pass,0.2400000000000001,-0.2400000000000001,0.0,2.0,0.1
97.0,6.0,wc_6,,0.0,,,,402.0,,,,Pass,,,,,
97.0,6.0,wc_6,wc_5,0.0,"[('wc_6', 0.3800000000000002), ('wc_2', 0.5500000000000004), ('wc_17', 0.2400000000000001)]",0.7879600000000003,,,21.0,0.011241000000000001,['Pass'],Pass,0.22000000000000008,-0.12909090909090917,0.0,0.0,0.2
97.0,6.0,wc_6,,0.0,,,,101.0,,,,Pass,,,,,
97.0,6.0,wc_6,wc_8,1.0,"[('wc_8', 0.6300000000000004), ('wc_6', 0.3800000000000002), ('wc_2', 0.5500000000000004), ('wc_17', 0.2400000000000001)]",0.9215452000000002,,,33.0,0.045356999999999995,['Pass'],Pass,0.6400000000000005,0.026666666666666172,2.0,3.0,1.0
105.0,7.0,wc_7,,0.0,,,,102.0,,,,Pass,,,,,
105.0,7.0,wc_7,,0.0,,,57.0,,,,,Pass,,,,,
105.0,7.0,wc_7,,0.0,,,,0.0,,,,Pass,,,,,
105.0,7.0,wc_7,wc_7,0.0,"[('wc_7', 0.3200000000000002)]",0.3200000000000002,,,35.0,0.002286,['Fail'],Pass,0.3200000000000002,-0.3200000000000002,0.0,1.0,0.2
105.0,7.0,wc_7,,0.0,,,,142.0,,,,Pass,,,,,
105.0,7.0,wc_7,wc_12,0.0,"[('wc_12', 0.4800000000000003)]",0.4800000000000003,,,26.0,0.00418,['Pass'],Pass,0.4800000000000003,-0.23000000000000032,2.0,8.0,0.6
105.0,7.0,wc_7,,0.0,,,,0.0,,,,Pass,,,,,
105.0,7.0,wc_7,wc_17,0.0,"[('wc_17', 0.2500000000000001), ('wc_7', 0.3200000000000002)]",0.4900000000000002,,,24.0,0.006464,['Fail'],Pass,0.2500000000000001,0.0833333333333332,1.0,3.0,0.1
105.0,7.0,wc_7,,0.0,,,,263.0,,,,Pass,,,,,
105.0,7.0,wc_7,wc_2,0.0,"[('wc_2', 0.5600000000000004), ('wc_12', 0.4800000000000003)]",0.7712000000000003,,,27.0,0.007817,['Pass'],Pass,0.5600000000000004,0.4399999999999996,1.0,1.0,0.5
105.0,7.0,wc_7,,0.0,,,,182.0,,,,Pass,,,,,
105.0,7.0,wc_7,wc_13,0.0,"[('wc_13', 0.30000000000000016), ('wc_12', 0.4800000000000003), ('wc_2', 0.5600000000000004)]",0.8398400000000003,,,24.0,0.01418,['Pass'],Pass,0.30000000000000016,-0.30000000000000016,0.0,1.0,0.1
105.0,7.0,wc_7,,0.0,,,,341.0,,,,Pass,,,,,
105.0,7.0,wc_7,wc_11,1.0,"[('wc_11', 0.5900000000000004), ('wc_12', 0.4800000000000003), ('wc_2', 0.5600000000000004), ('wc_13', 0.30000000000000016)]",0.9343344000000002,,,40.0,0.043841,['Pass'],Pass,0.5900000000000004,-0.1900000000000004,2.0,5.0,0.7
116.0,10.0,wc_10,,0.0,,,,103.0,,,,Pass,,,,,
116.0,10.0,wc_10,,0.0,,,80.0,,,,,Pass,,,,,
116.0,10.0,wc_10,,0.0,,,,0.0,,,,Pass,,,,,
116.0,10.0,wc_10,wc_10,0.0,"[('wc_10', 0.6600000000000005)]",0.6600000000000005,,,32.0,0.002175,['Pass'],Pass,0.6600000000000005,-0.4457142857142862,0.0,0.0,0.7
116.0,10.0,wc_10,,0.0,,,,223.0,,,,Pass,,,,,
116.0,10.0,wc_10,wc_1,0.0,"[('wc_1', 0.5500000000000004), ('wc_10', 0.6600000000000005)]",0.8470000000000003,,,24.0,0.004294,['Pass'],Pass,0.5500000000000004,-0.31470588235294156,0.0,0.0,0.6
116.0,10.0,wc_10,,0.0,,,,0.0,,,,Pass,,,,,
116.0,10.0,wc_10,wc_2,1.0,"[('wc_2', 0.5700000000000004), ('wc_10', 0.6600000000000005), ('wc_1', 0.5500000000000004)]",0.9342100000000002,,,34.0,0.04499000000000001,['Pass'],Pass,0.5800000000000004,0.4199999999999996,3.0,3.0,0.5
125.0,8.0,wc_8,,0.0,,,,162.0,,,,Fail,,,,,
125.0,8.0,wc_8,,0.0,,,77.0,,,,,Fail,,,,,
125.0,8.0,wc_8,,0.0,,,,0.0,,,,Fail,,,,,
125.0,8.0,wc_8,wc_8,0.0,"[('wc_8', 0.6400000000000005)]",0.6400000000000005,,,25.0,0.00238,['Fail'],Fail,0.6400000000000005,-0.24000000000000044,2.0,5.0,1.0
125.0,8.0,wc_8,,0.0,,,,281.0,,,,Fail,,,,,
125.0,8.0,wc_8,wc_3,0.0,"[('wc_3', 0.17000000000000004), ('wc_8', 0.6400000000000005)]",0.7012000000000004,,,30.0,0.004439,['Fail'],Fail,0.17000000000000004,0.12999999999999995,0.0,0.0,0.1
125.0,8.0,wc_8,,0.0,,,,162.0,,,,Fail,,,,,
125.0,8.0,wc_8,wc_9,0.0,"[('wc_9', 0.5700000000000004), ('wc_8', 0.6400000000000005), ('wc_3', 0.17000000000000004)]",0.8715160000000003,,,27.0,0.005805,['Fail'],Fail,0.5700000000000004,-0.23666666666666708,2.0,6.0,0.6
125.0,8.0,wc_8,,0.0,,,,263.0,,,,Fail,,,,,
125.0,8.0,wc_8,wc_2,1.0,"[('wc_2', 0.5800000000000004), ('wc_8', 0.6400000000000005), ('wc_3', 0.17000000000000004), ('wc_9', 0.5700000000000004)]",0.9460367200000002,,,31.0,0.041502,['Fail'],Fail,0.5900000000000004,0.4099999999999996,4.0,4.0,0.5
137.0,9.0,wc_9,,0.0,,,,183.0,,,,Fail,,,,,
137.0,9.0,wc_9,,0.0,,,59.0,,,,,Fail,,,,,
137.0,9.0,wc_9,,0.0,,,,0.0,,,,Fail,,,,,
137.0,9.0,wc_9,wc_9,0.0,"[('wc_9', 0.5700000000000004)]",0.5700000000000004,,,37.0,0.00235,['Fail'],Fail,0.5700000000000004,-0.14142857142857185,3.0,7.0,0.6
137.0,9.0,wc_9,,0.0,,,,362.0,,,,Fail,,,,,
137.0,9.0,wc_9,wc_3,0.0,"[('wc_9', 0.5700000000000004)]",0.5700000000000004,,,33.0,0.004235,['Fail'],Fail,0.18000000000000005,0.82,1.0,1.0,0.1
137.0,9.0,wc_9,,0.0,,,,101.0,,,,Fail,,,,,
137.0,9.0,wc_9,wc_6,0.0,"[('wc_9', 0.5700000000000004)]",0.5700000000000004,,,40.0,0.005804,['Fail'],Fail,0.3800000000000002,-0.18000000000000022,0.0,0.0,0.5
137.0,9.0,wc_9,,0.0,,,,202.0,,,,Fail,,,,,
137.0,9.0,wc_9,wc_14,0.0,"[('wc_14', 0.5700000000000004), ('wc_9', 0.5700000000000004)]",0.8151000000000004,,,27.0,0.008037,['Fail'],Fail,0.5700000000000004,-0.3557142857142861,0.0,0.0,0.9
137.0,9.0,wc_9,,0.0,,,,102.0,,,,Fail,,,,,
137.0,9.0,wc_9,wc_13,0.0,"[('wc_9', 0.5700000000000004), ('wc_14', 0.5700000000000004)]",0.8151000000000004,,,34.0,0.010863,['Fail'],Fail,0.31000000000000016,-0.060000000000000164,1.0,4.0,0.1
137.0,9.0,wc_9,,0.0,,,,202.0,,,,Fail,,,,,
137.0,9.0,wc_9,wc_8,1.0,"[('wc_8', 0.6400000000000005), ('wc_9', 0.5700000000000004), ('wc_14', 0.5700000000000004)]",0.9334360000000002,,,34.0,0.04621000000000001,['Fail'],Fail,0.6400000000000005,-0.06857142857142906,4.0,7.0,1.0
147.0,9.0,wc_9,,0.0,,,,0.0,,,,Fail,,,,,
147.0,9.0,wc_9,,0.0,,,64.0,,,,,Fail,,,,,
147.0,9.0,wc_9,,0.0,,,,0.0,,,,Fail,,,,,
147.0,9.0,wc_9,wc_9,0.0,"[('wc_9', 0.5700000000000004)]",0.5700000000000004,,,28.0,0.002476,['Fail'],Fail,0.5700000000000004,-0.0700000000000004,4.0,8.0,0.6
147.0,9.0,wc_9,,0.0,,,,162.0,,,,Fail,,,,,
147.0,9.0,wc_9,wc_15,0.0,"[('wc_15', 0.6300000000000004), ('wc_9', 0.5700000000000004)]",0.8409000000000003,,,33.0,0.004173,['Fail'],Fail,0.6300000000000004,-0.5466666666666671,0.0,0.0,0.8
147.0,9.0,wc_9,,0.0,,,,382.0,,,,Fail,,,,,
147.0,9.0,wc_9,wc_10,0.0,"[('wc_9', 0.5700000000000004), ('wc_15', 0.6300000000000004)]",0.8409000000000003,,,32.0,0.006819,['Fail'],Fail,0.6700000000000005,-0.33666666666666717,1.0,3.0,0.7
147.0,9.0,wc_9,,0.0,,,,61.0,,,,Fail,,,,,
147.0,9.0,wc_9,wc_7,0.0,"[('wc_9', 0.5700000000000004), ('wc_15', 0.6300000000000004)]",0.8409000000000003,,,34.0,0.008317,['Fail'],Fail,0.31000000000000016,-0.31000000000000016,0.0,5.0,0.2
147.0,9.0,wc_9,,0.0,,,,142.0,,,,Fail,,,,,
147.0,9.0,wc_9,wc_12,0.0,"[('wc_12', 0.4800000000000003), ('wc_10', 0.6700000000000005), ('wc_7', 0.31000000000000016)]",0.8815960000000003,,,36.0,0.013203,['Pass'],Fail,0.4800000000000003,-0.23000000000000032,0.0,0.0,0.6
147.0,9.0,wc_9,,0.0,,,,242.0,,,,Fail,,,,,
147.0,9.0,wc_9,wc_1,1.0,"[('wc_1', 0.5600000000000004), ('wc_9', 0.5700000000000004), ('wc_15', 0.6300000000000004)]",0.9299960000000003,,,22.0,0.04764499999999999,['Fail'],Fail,0.5600000000000004,-0.060000000000000386,2.0,4.0,0.6
159.0,8.0,wc_8,,0.0,,,,182.0,,,,Fail,,,,,
159.0,8.0,wc_8,,0.0,,,62.0,,,,,Fail,,,,,
159.0,8.0,wc_8,,0.0,,,,0.0,,,,Fail,,,,,
159.0,8.0,wc_8,wc_8,0.0,"[('wc_8', 0.6400000000000005)]",0.6400000000000005,,,22.0,0.002164,['Fail'],Fail,0.6400000000000005,-0.14000000000000046,4.0,8.0,1.0
159.0,8.0,wc_8,,0.0,,,,142.0,,,,Fail,,,,,
159.0,8.0,wc_8,wc_13,0.0,"[('wc_8', 0.6400000000000005)]",0.6400000000000005,,,23.0,0.00466,['Fail'],Fail,0.30000000000000016,-0.1333333333333335,1.0,6.0,0.1
159.0,8.0,wc_8,,0.0,,,,162.0,,,,Fail,,,,,
159.0,8.0,wc_8,wc_6,0.0,"[('wc_6', 0.3700000000000002), ('wc_8', 0.6400000000000005)]",0.7732000000000003,,,34.0,0.006673999999999999,['Fail'],Fail,0.3700000000000002,-0.3700000000000002,0.0,2.0,0.5
159.0,8.0,wc_8,,0.0,,,,202.0,,,,Fail,,,,,
159.0,8.0,wc_8,wc_14,1.0,"[('wc_14', 0.5800000000000004), ('wc_8', 0.6400000000000005), ('wc_6', 0.3700000000000002)]",0.9047440000000002,,,21.0,0.04157,['Fail'],Fail,0.5900000000000004,0.07666666666666622,2.0,3.0,0.9
176.0,9.0,wc_9,,0.0,,,,281.0,,,,Fail,,,,,
176.0,9.0,wc_9,,0.0,,,66.0,,,,,Fail,,,,,
176.0,9.0,wc_9,,0.0,,,,0.0,,,,Fail,,,,,
176.0,9.0,wc_9,wc_9,0.0,"[('wc_9', 0.5700000000000004)]",0.5700000000000004,,,32.0,0.002304,['Fail'],Fail,0.5700000000000004,-0.0700000000000004,0.0,0.0,0.6
176.0,9.0,wc_9,,0.0,,,,61.0,,,,Fail,,,,,
176.0,9.0,wc_9,wc_6,0.0,"[('wc_6', 0.3700000000000002), ('wc_9', 0.5700000000000004)]",0.7291000000000003,,,22.0,0.004801,['Fail'],Fail,0.3700000000000002,-0.0366666666666669,1.0,3.0,0.5
176.0,9.0,wc_9,,0.0,,,,223.0,,,,Fail,,,,,
176.0,9.0,wc_9,wc_15,1.0,"[('wc_15', 0.6400000000000005), ('wc_9', 0.5700000000000004), ('wc_6', 0.3700000000000002)]",0.9024760000000003,,,22.0,0.037673,['Fail'],Fail,0.6500000000000005,0.016666666666666163,2.0,3.0,0.8
187.0,9.0,wc_9,,0.0,,,,362.0,,,,Fail,,,,,
187.0,9.0,wc_9,,0.0,,,64.0,,,,,Fail,,,,,
187.0,9.0,wc_9,,0.0,,,,0.0,,,,Fail,,,,,
187.0,9.0,wc_9,wc_9,0.0,"[('wc_9', 0.5800000000000004)]",0.5800000000000004,,,38.0,0.002547,['Fail'],Fail,0.5800000000000004,0.4199999999999996,1.0,1.0,0.6
187.0,9.0,wc_9,,0.0,,,,402.0,,,,Fail,,,,,
187.0,9.0,wc_9,wc_5,0.0,"[('wc_9', 0.5800000000000004)]",0.5800000000000004,,,34.0,0.004116,['Fail'],Fail,0.21000000000000008,-0.21000000000000008,0.0,8.0,0.2
187.0,9.0,wc_9,,0.0,,,,81.0,,,,Fail,,,,,
187.0,9.0,wc_9,wc_7,0.0,"[('wc_9', 0.5800000000000004)]",0.5800000000000004,,,28.0,0.005765,['Fail'],Fail,0.30000000000000016,-0.30000000000000016,0.0,8.0,0.2
187.0,9.0,wc_9,,0.0,,,,182.0,,,,Fail,,,,,
187.0,9.0,wc_9,wc_1,0.0,"[('wc_1', 0.5600000000000004), ('wc_9', 0.5800000000000004)]",0.8152000000000004,,,23.0,0.008086,['Fail'],Fail,0.5600000000000004,-0.22666666666666707,2.0,6.0,0.6
187.0,9.0,wc_9,,0.0,,,,263.0,,,,Fail,,,,,
187.0,9.0,wc_9,wc_16,1.0,"[('wc_16', 0.7000000000000005), ('wc_9', 0.5800000000000004), ('wc_1', 0.5600000000000004)]",0.9445600000000002,,,36.0,0.04518,['Fail'],Fail,0.7000000000000005,-0.7000000000000005,0.0,0.0,1.0
206.0,8.0,wc_8,,0.0,,,,243.0,,,,Fail,,,,,
206.0,8.0,wc_8,,0.0,,,77.0,,,,,Fail,,,,,
206.0,8.0,wc_8,,0.0,,,,0.0,,,,Fail,,,,,
206.0,8.0,wc_8,wc_8,0.0,"[('wc_8', 0.6400000000000005)]",0.6400000000000005,,,21.0,0.00262,['Fail'],Fail,0.6400000000000005,-0.18545454545454593,0.0,0.0,1.0
206.0,8.0,wc_8,,0.0,,,,102.0,,,,Fail,,,,,
206.0,8.0,wc_8,wc_7,0.0,"[('wc_7', 0.29000000000000015), ('wc_8', 0.6400000000000005)]",0.7444000000000004,,,21.0,0.004594,['Fail'],Fail,0.29000000000000015,-0.29000000000000015,0.0,9.0,0.2
206.0,8.0,wc_8,,0.0,,,,203.0,,,,Fail,,,,,
206.0,8.0,wc_8,wc_15,1.0,"[('wc_15', 0.6500000000000005), ('wc_8', 0.6400000000000005), ('wc_7', 0.29000000000000015)]",0.9105400000000002,,,38.0,0.04699999999999999,['Fail'],Fail,0.6500000000000005,-0.05000000000000049,3.0,5.0,0.8
226.0,11.0,wc_11,,0.0,,,,402.0,,,,Fail,,,,,
226.0,11.0,wc_11,,0.0,,,69.0,,,,,Fail,,,,,
226.0,11.0,wc_11,,0.0,,,,0.0,,,,Fail,,,,,
226.0,11.0,wc_11,wc_11,0.0,"[('wc_11', 0.5900000000000004)]",0.5900000000000004,,,37.0,0.002118,['Fail'],Fail,0.5900000000000004,-0.43615384615384656,0.0,0.0,0.7
226.0,11.0,wc_11,,0.0,,,,61.0,,,,Fail,,,,,
226.0,11.0,wc_11,wc_12,0.0,"[('wc_12', 0.4700000000000003), ('wc_11', 0.5900000000000004)]",0.7827000000000004,,,21.0,0.0039310000000000005,['Fail'],Fail,0.4700000000000003,-0.4700000000000003,0.0,5.0,0.6
226.0,11.0,wc_11,,0.0,,,,0.0,,,,Fail,,,,,
226.0,11.0,wc_11,wc_17,0.0,"[('wc_17', 0.2500000000000001), ('wc_11', 0.5900000000000004), ('wc_12', 0.4700000000000003)]",0.8370250000000002,,,27.0,0.0057339999999999995,['Fail'],Fail,0.2500000000000001,-0.1666666666666668,0.0,0.0,0.1
226.0,11.0,wc_11,,0.0,,,,83.0,,,,Fail,,,,,
226.0,11.0,wc_11,wc_15,1.0,"[('wc_15', 0.6500000000000005), ('wc_11', 0.5900000000000004), ('wc_12', 0.4700000000000003), ('wc_17', 0.2500000000000001)]",0.9429587500000002,,,38.0,0.040878,['Fail'],Fail,0.6600000000000005,0.0066666666666661545,4.0,6.0,0.8
246.0,9.0,wc_9,,0.0,,,,362.0,,,,Fail,,,,,
246.0,9.0,wc_9,,0.0,,,73.0,,,,,Fail,,,,,
246.0,9.0,wc_9,,0.0,,,,0.0,,,,Fail,,,,,
246.0,9.0,wc_9,wc_9,0.0,"[('wc_9', 0.5900000000000004)]",0.5900000000000004,,,38.0,0.002198,['Fail'],Fail,0.5900000000000004,-0.09000000000000041,2.0,4.0,0.6
246.0,9.0,wc_9,,0.0,,,,162.0,,,,Fail,,,,,
246.0,9.0,wc_9,wc_15,0.0,"[('wc_15', 0.6600000000000005), ('wc_9', 0.5900000000000004)]",0.8606000000000004,,,21.0,0.003994,['Fail'],Fail,0.6600000000000005,0.0066666666666661545,4.0,6.0,0.8
246.0,9.0,wc_9,,0.0,,,,0.0,,,,Fail,,,,,
246.0,9.0,wc_9,wc_16,1.0,"[('wc_16', 0.7000000000000005), ('wc_9', 0.5900000000000004), ('wc_15', 0.6600000000000005)]",0.9581800000000001,,,36.0,0.040773000000000004,['Fail'],Fail,0.7000000000000005,-0.3666666666666672,1.0,3.0,1.0
271.0,9.0,wc_9,,0.0,,,,342.0,,,,Pass,,,,,
271.0,9.0,wc_9,,0.0,,,60.0,,,,,Pass,,,,,
271.0,9.0,wc_9,,0.0,,,,0.0,,,,Pass,,,,,
271.0,9.0,wc_9,wc_9,0.0,"[('wc_9', 0.5900000000000004)]",0.5900000000000004,,,35.0,0.001993,['Pass'],Pass,0.5900000000000004,0.009999999999999565,3.0,5.0,0.6
271.0,9.0,wc_9,,0.0,,,,182.0,,,,Pass,,,,,
271.0,9.0,wc_9,wc_16,0.0,"[('wc_16', 0.7000000000000005), ('wc_9', 0.5900000000000004)]",0.8770000000000003,,,39.0,0.003932,['Pass'],Pass,0.7000000000000005,-0.3666666666666672,1.0,3.0,1.0
271.0,9.0,wc_9,,0.0,,,,382.0,,,,Pass,,,,,
271.0,9.0,wc_9,wc_11,1.0,"[('wc_11', 0.6000000000000004), ('wc_9', 0.5900000000000004), ('wc_16', 0.7000000000000005)]",0.9508000000000002,,,27.0,0.038529999999999995,['Pass'],Pass,0.6100000000000004,0.0566666666666662,2.0,3.0,0.7
286.0,11.0,wc_11,,0.0,,,,0.0,,,,Pass,,,,,
286.0,11.0,wc_11,,0.0,,,76.0,,,,,Pass,,,,,
286.0,11.0,wc_11,,0.0,,,,0.0,,,,Pass,,,,,
286.0,11.0,wc_11,wc_11,0.0,"[('wc_11', 0.6100000000000004)]",0.6100000000000004,,,32.0,0.002349,['Pass'],Pass,0.6100000000000004,0.0566666666666662,2.0,3.0,0.7
286.0,11.0,wc_11,,0.0,,,,223.0,,,,Pass,,,,,
286.0,11.0,wc_11,wc_2,0.0,"[('wc_2', 0.5900000000000004), ('wc_11', 0.6100000000000004)]",0.8401000000000003,,,29.0,0.003934,['Pass'],Pass,0.5900000000000004,-0.2823076923076927,0.0,0.0,0.5
286.0,11.0,wc_11,,0.0,,,,0.0,,,,Pass,,,,,
286.0,11.0,wc_11,wc_4,1.0,"[('wc_4', 0.43000000000000027), ('wc_11', 0.6100000000000004), ('wc_2', 0.5900000000000004)]",0.9088570000000002,,,33.0,0.04070599999999999,['Pass'],Pass,0.43000000000000027,-0.43000000000000027,0.0,0.0,0.6
305.0,8.0,wc_8,,0.0,,,,121.0,,,,Fail,,,,,
305.0,8.0,wc_8,,0.0,,,53.0,,,,,Fail,,,,,
305.0,8.0,wc_8,,0.0,,,,0.0,,,,Fail,,,,,
305.0,8.0,wc_8,wc_8,0.0,"[('wc_8', 0.6500000000000005)]",0.6500000000000005,,,35.0,0.002067,['Fail'],Fail,0.6500000000000005,-0.45000000000000046,1.0,5.0,1.0
305.0,8.0,wc_8,,0.0,,,,183.0,,,,Fail,,,,,
305.0,8.0,wc_8,wc_15,0.0,"[('wc_15', 0.6700000000000005), ('wc_8', 0.6500000000000005)]",0.8845000000000003,,,29.0,0.004510999999999999,['Fail'],Fail,0.6700000000000005,-0.1144444444444449,5.0,9.0,0.8
305.0,8.0,wc_8,,0.0,,,,61.0,,,,Fail,,,,,
305.0,8.0,wc_8,wc_12,1.0,"[('wc_12', 0.4700000000000003), ('wc_8', 0.6500000000000005), ('wc_15', 0.6700000000000005)]",0.9387850000000002,,,26.0,0.040337000000000005,['Fail'],Fail,0.4700000000000003,-0.4700000000000003,0.0,0.0,0.6
339.0,8.0,wc_8,,0.0,,,,222.0,,,,Fail,,,,,
339.0,8.0,wc_8,,0.0,,,69.0,,,,,Fail,,,,,
339.0,8.0,wc_8,,0.0,,,,0.0,,,,Fail,,,,,
339.0,8.0,wc_8,wc_8,0.0,"[('wc_8', 0.6500000000000005)]",0.6500000000000005,,,37.0,0.002369,['Fail'],Fail,0.6500000000000005,-0.31666666666666715,2.0,6.0,1.0
339.0,8.0,wc_8,,0.0,,,,182.0,,,,Fail,,,,,
339.0,8.0,wc_8,wc_2,0.0,"[('wc_8', 0.6500000000000005)]",0.6500000000000005,,,26.0,0.004921,['Fail'],Fail,0.6000000000000004,-0.10000000000000042,1.0,2.0,0.5
339.0,8.0,wc_8,,0.0,,,,122.0,,,,Fail,,,,,
339.0,8.0,wc_8,wc_6,0.0,"[('wc_6', 0.3800000000000002), ('wc_8', 0.6500000000000005)]",0.7830000000000004,,,23.0,0.005681,['Fail'],Fail,0.3800000000000002,-0.1981818181818184,0.0,0.0,0.5
339.0,8.0,wc_8,,0.0,,,,223.0,,,,Fail,,,,,
339.0,8.0,wc_8,wc_15,1.0,"[('wc_15', 0.6700000000000005), ('wc_8', 0.6500000000000005), ('wc_6', 0.3800000000000002)]",0.9283900000000003,,,20.0,0.041863,['Fail'],Fail,0.6800000000000005,0.3199999999999995,1.0,1.0,0.8
391.0,8.0,wc_8,,0.0,,,,263.0,,,,Pass,,,,,
391.0,8.0,wc_8,,0.0,,,72.0,,,,,Pass,,,,,
391.0,8.0,wc_8,,0.0,,,,0.0,,,,Pass,,,,,
391.0,8.0,wc_8,wc_8,0.0,"[('wc_8', 0.6500000000000005)]",0.6500000000000005,,,33.0,0.00217,['Pass'],Pass,0.6500000000000005,-0.22142857142857192,3.0,7.0,1.0
391.0,8.0,wc_8,,0.0,,,,162.0,,,,Pass,,,,,
391.0,8.0,wc_8,wc_14,0.0,"[('wc_14', 0.5900000000000004), ('wc_8', 0.6500000000000005)]",0.8565000000000004,,,26.0,0.012538,['Pass'],Pass,0.5900000000000004,-0.4233333333333338,0.0,0.0,0.9
391.0,8.0,wc_8,,0.0,,,,142.0,,,,Pass,,,,,
391.0,8.0,wc_8,wc_6,0.0,"[('wc_8', 0.6500000000000005), ('wc_14', 0.5900000000000004)]",0.8565000000000004,,,27.0,0.005660999999999999,['Pass'],Pass,0.39000000000000024,0.6099999999999998,1.0,1.0,0.5
391.0,8.0,wc_8,,0.0,,,,263.0,,,,Pass,,,,,
391.0,8.0,wc_8,wc_17,0.0,"[('wc_8', 0.6500000000000005), ('wc_14', 0.5900000000000004)]",0.8565000000000004,,,38.0,0.007827,['Pass'],Pass,0.2600000000000001,-0.09333333333333346,1.0,6.0,0.1
391.0,8.0,wc_8,,0.0,,,,362.0,,,,Pass,,,,,
391.0,8.0,wc_8,wc_11,1.0,"[('wc_11', 0.6200000000000004), ('wc_8', 0.6500000000000005), ('wc_14', 0.5900000000000004)]",0.9454700000000001,,,37.0,0.046912999999999996,['Pass'],Pass,0.6200000000000004,-0.04857142857142904,4.0,7.0,0.7
411.0,12.0,wc_12,,0.0,,,,61.0,,,,Fail,,,,,
411.0,12.0,wc_12,,0.0,,,56.0,,,,,Fail,,,,,
411.0,12.0,wc_12,,0.0,,,,0.0,,,,Fail,,,,,
411.0,12.0,wc_12,wc_12,0.0,"[('wc_12', 0.4700000000000003)]",0.4700000000000003,,,23.0,0.001968,['Fail'],Fail,0.4700000000000003,-0.4700000000000003,0.0,2.0,0.6
411.0,12.0,wc_12,,0.0,,,,321.0,,,,Fail,,,,,
411.0,12.0,wc_12,wc_9,0.0,"[('wc_9', 0.6000000000000004), ('wc_12', 0.4700000000000003)]",0.7880000000000004,,,32.0,0.004056000000000001,['Fail'],Fail,0.6000000000000004,-0.2000000000000004,0.0,0.0,0.6
411.0,12.0,wc_12,,0.0,,,,121.0,,,,Fail,,,,,
411.0,12.0,wc_12,wc_13,0.0,"[('wc_12', 0.4700000000000003), ('wc_9', 0.6000000000000004)]",0.7880000000000004,,,31.0,0.006173,['Fail'],Fail,0.29000000000000015,-0.23117647058823543,0.0,0.0,0.1
411.0,12.0,wc_12,,0.0,,,,0.0,,,,Fail,,,,,
411.0,12.0,wc_12,wc_16,1.0,"[('wc_16', 0.7000000000000005), ('wc_12', 0.4700000000000003), ('wc_9', 0.6000000000000004)]",0.9364000000000002,,,39.0,0.046319000000000006,['Fail'],Fail,0.7000000000000005,-0.3666666666666672,3.0,9.0,1.0
421.0,12.0,wc_12,,0.0,,,,41.0,,,,Pass,,,,,
421.0,12.0,wc_12,,0.0,,,65.0,,,,,Pass,,,,,
421.0,12.0,wc_12,,0.0,,,,0.0,,,,Pass,,,,,
421.0,12.0,wc_12,wc_12,0.0,"[('wc_12', 0.4700000000000003)]",0.4700000000000003,,,37.0,0.002454,['Pass'],Pass,0.4700000000000003,-0.136666666666667,1.0,3.0,0.6
421.0,12.0,wc_12,,0.0,,,,0.0,,,,Pass,,,,,
421.0,12.0,wc_12,wc_14,0.0,"[('wc_14', 0.6000000000000004), ('wc_12', 0.4700000000000003)]",0.7880000000000004,,,39.0,0.004006,['Pass'],Pass,0.6000000000000004,-0.10000000000000042,1.0,2.0,0.9
421.0,12.0,wc_12,,0.0,,,,0.0,,,,Pass,,,,,
421.0,12.0,wc_12,wc_15,0.0,"[('wc_12', 0.4700000000000003), ('wc_14', 0.6000000000000004)]",0.7880000000000004,,,27.0,0.006082,['Pass'],Pass,0.6800000000000005,-0.3466666666666672,1.0,3.0,0.8
421.0,12.0,wc_12,,0.0,,,,243.0,,,,Pass,,,,,
421.0,12.0,wc_12,wc_7,0.0,"[('wc_12', 0.4700000000000003), ('wc_14', 0.6000000000000004)]",0.7880000000000004,,,22.0,0.00827,['Pass'],Pass,0.29000000000000015,-0.29000000000000015,0.0,8.0,0.2
421.0,12.0,wc_12,,0.0,,,,0.0,,,,Pass,,,,,
421.0,12.0,wc_12,wc_10,1.0,"[('wc_10', 0.6600000000000005), ('wc_12', 0.4700000000000003), ('wc_14', 0.6000000000000004)]",0.9279200000000002,,,25.0,0.04756300000000001,['Pass'],Pass,0.6600000000000005,-0.6600000000000005,0.0,0.0,0.7
430.0,13.0,wc_13,,0.0,,,,101.0,,,,Fail,,,,,
430.0,13.0,wc_13,,0.0,,,71.0,,,,,Fail,,,,,
430.0,13.0,wc_13,,0.0,,,,0.0,,,,Fail,,,,,
430.0,13.0,wc_13,wc_13,0.0,"[('wc_13', 0.28000000000000014)]",0.28000000000000014,,,22.0,0.002196,['Fail'],Fail,0.28000000000000014,-0.28000000000000014,0.0,2.0,0.1
430.0,13.0,wc_13,,0.0,,,,242.0,,,,Fail,,,,,
430.0,13.0,wc_13,wc_2,0.0,"[('wc_2', 0.5900000000000004), ('wc_13', 0.28000000000000014)]",0.7048000000000003,,,26.0,0.0038840000000000003,['Fail'],Fail,0.5900000000000004,-0.4233333333333338,1.0,6.0,0.5
430.0,13.0,wc_13,,0.0,,,,263.0,,,,Fail,,,,,
430.0,13.0,wc_13,wc_17,0.0,"[('wc_17', 0.2500000000000001), ('wc_13', 0.28000000000000014), ('wc_2', 0.5900000000000004)]",0.7786000000000003,,,40.0,0.005973,['Fail'],Fail,0.2500000000000001,-0.138888888888889,1.0,9.0,0.1
430.0,13.0,wc_13,,0.0,,,,103.0,,,,Fail,,,,,
430.0,13.0,wc_13,wc_16,1.0,"[('wc_16', 0.7000000000000005), ('wc_13', 0.28000000000000014), ('wc_2', 0.5900000000000004), ('wc_17', 0.2500000000000001)]",0.9335800000000002,,,23.0,0.044743,['Fail'],Fail,0.7000000000000005,-0.7000000000000005,0.0,0.0,1.0
444.0,13.0,wc_13,,0.0,,,,61.0,,,,Fail,,,,,
444.0,13.0,wc_13,,0.0,,,78.0,,,,,Fail,,,,,
444.0,13.0,wc_13,,0.0,,,,0.0,,,,Fail,,,,,
444.0,13.0,wc_13,wc_13,0.0,"[('wc_13', 0.29000000000000015)]",0.29000000000000015,,,35.0,0.00222,['Pass'],Fail,0.29000000000000015,0.04333333333333317,1.0,3.0,0.1
444.0,13.0,wc_13,,0.0,,,,0.0,,,,Fail,,,,,
444.0,13.0,wc_13,wc_14,0.0,"[('wc_14', 0.6100000000000004)]",0.6100000000000004,,,36.0,0.004073,['Fail'],Fail,0.6100000000000004,-0.11000000000000043,2.0,4.0,0.9
444.0,13.0,wc_13,,0.0,,,,82.0,,,,Fail,,,,,
444.0,13.0,wc_13,wc_12,0.0,"[('wc_12', 0.4800000000000003), ('wc_14', 0.6100000000000004)]",0.7972000000000004,,,31.0,0.006038,['Fail'],Fail,0.4800000000000003,-0.0800000000000003,2.0,5.0,0.6
444.0,13.0,wc_13,,0.0,,,,202.0,,,,Fail,,,,,
444.0,13.0,wc_13,wc_7,0.0,"[('wc_7', 0.28000000000000014), ('wc_14', 0.6100000000000004), ('wc_12', 0.4800000000000003)]",0.8539840000000003,,,34.0,0.007428,['Fail'],Fail,0.28000000000000014,-0.28000000000000014,0.0,0.0,0.2
444.0,13.0,wc_13,,0.0,,,,102.0,,,,Fail,,,,,
444.0,13.0,wc_13,wc_6,1.0,"[('wc_6', 0.39000000000000024), ('wc_14', 0.6100000000000004), ('wc_12', 0.4800000000000003), ('wc_7', 0.28000000000000014)]",0.9109302400000002,,,25.0,0.045040000000000004,['Fail'],Fail,0.39000000000000024,-0.05666666666666692,2.0,6.0,0.5
456.0,13.0,wc_13,,0.0,,,,182.0,,,,Pass,,,,,
456.0,13.0,wc_13,,0.0,,,76.0,,,,,Pass,,,,,
456.0,13.0,wc_13,,0.0,,,,0.0,,,,Pass,,,,,
456.0,13.0,wc_13,wc_13,0.0,"[('wc_13', 0.28000000000000014)]",0.28000000000000014,,,22.0,0.002174,['Fail'],Pass,0.28000000000000014,-0.030000000000000138,1.0,4.0,0.1
456.0,13.0,wc_13,,0.0,,,,381.0,,,,Pass,,,,,
456.0,13.0,wc_13,wc_5,0.0,"[('wc_13', 0.28000000000000014)]",0.28000000000000014,,,28.0,0.00398,['Fail'],Pass,0.20000000000000007,-0.20000000000000007,0.0,0.0,0.2
456.0,13.0,wc_13,,0.0,,,,83.0,,,,Pass,,,,,
456.0,13.0,wc_13,wc_3,0.0,"[('wc_3', 0.18000000000000005), ('wc_5', 0.20000000000000007)]",0.3440000000000001,,,28.0,0.005755,['Pass'],Pass,0.18000000000000005,-0.1244444444444445,0.0,0.0,0.1
456.0,13.0,wc_13,,0.0,,,,202.0,,,,Pass,,,,,
456.0,13.0,wc_13,wc_11,0.0,"[('wc_11', 0.6200000000000004), ('wc_5', 0.20000000000000007), ('wc_3', 0.18000000000000005)]",0.7507200000000003,,,37.0,0.007755,['Pass'],Pass,0.6200000000000004,-0.2563636363636368,0.0,0.0,0.7
456.0,13.0,wc_13,,0.0,,,,61.0,,,,Pass,,,,,
456.0,13.0,wc_13,wc_8,1.0,"[('wc_8', 0.6500000000000005), ('wc_5', 0.20000000000000007), ('wc_3', 0.18000000000000005), ('wc_11', 0.6200000000000004)]",0.9127520000000002,,,39.0,0.047166,['Pass'],Pass,0.6500000000000005,-0.6500000000000005,0.0,0.0,1.0
470.0,14.0,wc_14,,0.0,,,,162.0,,,,Fail,,,,,
470.0,14.0,wc_14,,0.0,,,53.0,,,,,Fail,,,,,
470.0,14.0,wc_14,,0.0,,,,0.0,,,,Fail,,,,,
470.0,14.0,wc_14,wc_14,0.0,"[('wc_14', 0.6100000000000004)]",0.6100000000000004,,,28.0,0.003281,['Fail'],Fail,0.6100000000000004,-0.11000000000000043,3.0,6.0,0.9
470.0,14.0,wc_14,,0.0,,,,142.0,,,,Fail,,,,,
470.0,14.0,wc_14,wc_6,0.0,"[('wc_6', 0.39000000000000024), ('wc_14', 0.6100000000000004)]",0.7621000000000003,,,24.0,0.0038669999999999998,['Fail'],Fail,0.39000000000000024,-0.10428571428571454,2.0,7.0,0.5
470.0,14.0,wc_14,,0.0,,,,0.0,,,,Fail,,,,,
470.0,14.0,wc_14,wc_11,1.0,"[('wc_11', 0.6300000000000004), ('wc_14', 0.6100000000000004), ('wc_6', 0.39000000000000024)]",0.9119770000000003,,,40.0,0.04245900000000001,['Fail'],Fail,0.6400000000000005,0.35999999999999954,2.0,2.0,0.7
477.0,15.0,wc_15,,0.0,,,,122.0,,,,Pass,,,,,
477.0,15.0,wc_15,,0.0,,,76.0,,,,,Pass,,,,,
477.0,15.0,wc_15,,0.0,,,,0.0,,,,Pass,,,,,
477.0,15.0,wc_15,wc_15,0.0,"[('wc_15', 0.6700000000000005)]",0.6700000000000005,,,28.0,0.002254,['Pass'],Pass,0.6700000000000005,-0.5450000000000005,1.0,8.0,0.8
477.0,15.0,wc_15,,0.0,,,,303.0,,,,Pass,,,,,
477.0,15.0,wc_15,wc_2,0.0,"[('wc_2', 0.5900000000000004), ('wc_15', 0.6700000000000005)]",0.8647000000000004,,,22.0,0.004034,['Pass'],Pass,0.5900000000000004,-0.3900000000000004,0.0,0.0,0.5
477.0,15.0,wc_15,,0.0,,,,182.0,,,,Pass,,,,,
477.0,15.0,wc_15,wc_13,1.0,"[('wc_13', 0.27000000000000013), ('wc_15', 0.6700000000000005), ('wc_2', 0.5900000000000004)]",0.9012310000000002,,,29.0,0.05194,['Pass'],Pass,0.28000000000000014,0.005714285714285561,2.0,7.0,0.1
493.0,14.0,wc_14,,0.0,,,,0.0,,,,Pass,,,,,
493.0,14.0,wc_14,,0.0,,,52.0,,,,,Pass,,,,,
493.0,14.0,wc_14,,0.0,,,,0.0,,,,Pass,,,,,
493.0,14.0,wc_14,wc_14,0.0,"[('wc_14', 0.6100000000000004)]",0.6100000000000004,,,37.0,0.002441,['Pass'],Pass,0.6100000000000004,-0.11000000000000043,4.0,8.0,0.9
493.0,14.0,wc_14,,0.0,,,,0.0,,,,Pass,,,,,
493.0,14.0,wc_14,wc_17,0.0,"[('wc_14', 0.6100000000000004)]",0.6100000000000004,,,21.0,0.004718,['Pass'],Pass,0.2500000000000001,-0.2500000000000001,0.0,4.0,0.1
493.0,14.0,wc_14,,0.0,,,,83.0,,,,Pass,,,,,
493.0,14.0,wc_14,wc_15,0.0,"[('wc_15', 0.6700000000000005), ('wc_14', 0.6100000000000004)]",0.8713000000000003,,,29.0,0.007215,['Pass'],Pass,0.6700000000000005,-0.4477777777777783,2.0,9.0,0.8
493.0,14.0,wc_14,,0.0,,,,0.0,,,,Pass,,,,,
493.0,14.0,wc_14,wc_16,1.0,"[('wc_16', 0.7000000000000005), ('wc_14', 0.6100000000000004), ('wc_15', 0.6700000000000005)]",0.9613900000000002,,,31.0,0.048432,['Pass'],Pass,0.7000000000000005,-0.5000000000000004,1.0,5.0,1.0
505.0,16.0,wc_16,,0.0,,,,0.0,,,,Pass,,,,,
505.0,16.0,wc_16,,0.0,,,65.0,,,,,Pass,,,,,
505.0,16.0,wc_16,,0.0,,,,0.0,,,,Pass,,,,,
505.0,16.0,wc_16,wc_16,0.0,"[('wc_16', 0.7000000000000005)]",0.7000000000000005,,,36.0,0.002434,['Pass'],Pass,0.7000000000000005,-0.5000000000000004,1.0,5.0,1.0
505.0,16.0,wc_16,,0.0,,,,422.0,,,,Pass,,,,,
505.0,16.0,wc_16,wc_5,0.0,"[('wc_5', 0.21000000000000008), ('wc_16', 0.7000000000000005)]",0.7630000000000005,,,30.0,0.004177999999999999,['Pass'],Pass,0.21000000000000008,0.039999999999999925,1.0,4.0,0.2
505.0,16.0,wc_16,,0.0,,,,202.0,,,,Pass,,,,,
505.0,16.0,wc_16,wc_17,0.0,"[('wc_17', 0.2400000000000001), ('wc_16', 0.7000000000000005), ('wc_5', 0.21000000000000008)]",0.8198800000000004,,,20.0,0.00601,['Pass'],Pass,0.2400000000000001,-0.2400000000000001,0.0,5.0,0.1
505.0,16.0,wc_16,,0.0,,,,322.0,,,,Pass,,,,,
505.0,16.0,wc_16,wc_9,1.0,"[('wc_9', 0.6100000000000004), ('wc_16', 0.7000000000000005), ('wc_5', 0.21000000000000008), ('wc_17', 0.2400000000000001)]",0.9297532000000002,,,27.0,0.046790000000000005,['Pass'],Pass,0.6100000000000004,-0.3877777777777782,2.0,9.0,0.6
512.0,17.0,wc_17,,0.0,,,,202.0,,,,Pass,,,,,
512.0,17.0,wc_17,,0.0,,,61.0,,,,,Pass,,,,,
512.0,17.0,wc_17,,0.0,,,,0.0,,,,Pass,,,,,
512.0,17.0,wc_17,wc_17,0.0,"[('wc_17', 0.2400000000000001)]",0.2400000000000001,,,39.0,0.002168,['Pass'],Pass,0.2400000000000001,-0.07333333333333344,1.0,6.0,0.1
512.0,17.0,wc_17,,0.0,,,,342.0,,,,Pass,,,,,
512.0,17.0,wc_17,wc_10,0.0,"[('wc_10', 0.6600000000000005), ('wc_17', 0.2400000000000001)]",0.7416000000000004,,,28.0,0.004321,['Pass'],Pass,0.6600000000000005,-0.6600000000000005,0.0,7.0,0.7
512.0,17.0,wc_17,,0.0,,,,362.0,,,,Pass,,,,,
512.0,17.0,wc_17,wc_4,0.0,"[('wc_4', 0.43000000000000027), ('wc_17', 0.2400000000000001), ('wc_10', 0.6600000000000005)]",0.8527120000000004,,,35.0,0.005873,['Pass'],Pass,0.43000000000000027,-0.43000000000000027,0.0,0.0,0.6
512.0,17.0,wc_17,,0.0,,,,142.0,,,,Pass,,,,,
512.0,17.0,wc_17,wc_9,0.0,"[('wc_17', 0.2400000000000001), ('wc_10', 0.6600000000000005), ('wc_4', 0.43000000000000027)]",0.8527120000000002,,,20.0,0.013593999999999998,['Pass'],Pass,0.6100000000000004,-0.3877777777777782,2.0,9.0,0.6
512.0,17.0,wc_17,,0.0,,,,121.0,,,,Pass,,,,,
512.0,17.0,wc_17,wc_13,0.0,"[('wc_17', 0.2400000000000001), ('wc_10', 0.6600000000000005), ('wc_4', 0.43000000000000027)]",0.8527120000000002,,,23.0,0.012894,['Pass'],Pass,0.28000000000000014,-0.05777777777777793,2.0,9.0,0.1
512.0,17.0,wc_17,,0.0,,,,222.0,,,,Pass,,,,,
512.0,17.0,wc_17,wc_1,1.0,"[('wc_1', 0.5600000000000004), ('wc_17', 0.2400000000000001), ('wc_10', 0.6600000000000005), ('wc_4', 0.43000000000000027)]",0.9351932800000002,,,33.0,0.057491,['Pass'],Pass,0.5600000000000004,-0.5600000000000004,0.0,0.0,0.6
