mpecck/BCQC/bcqc_with_qdt/results/raw/input_16/independent_qc/training/20_workpiece/20200429_095228/wp_13_qc_majority_0.9.csv
production_index,step_idx,production_workcell,qc,consent,winner_qc_list,score,production_time,transport_time,inspection_time,network_time,qc_results,actual_quality,qc_score,score_error,in_winner_counter,in_qc_counter,qc_capability
44.0,1.0,wc_1,,0.0,,,78.0,,,,,Fail,,,,,
44.0,1.0,wc_1,,0.0,,,,0.0,,,,Fail,,,,,
44.0,1.0,wc_1,wc_1,0.0,"[('wc_1', 0.6900000000000005)]",0.6900000000000005,,,21.0,0.002384,['Fail'],Fail,0.6900000000000005,-0.1900000000000005,3.0,6.0,0.7
44.0,1.0,wc_1,,0.0,,,,283.0,,,,Fail,,,,,
44.0,1.0,wc_1,wc_17,0.0,"[('wc_17', 0.8400000000000006), ('wc_1', 0.6900000000000005)]",0.9504000000000002,,,27.0,0.004028,['Fail'],Fail,0.8400000000000006,-0.173333333333334,4.0,6.0,0.9
44.0,1.0,wc_1,,0.0,,,,362.0,,,,Fail,,,,,
44.0,1.0,wc_1,wc_3,1.0,"[('wc_3', 0.29000000000000015), ('wc_1', 0.6900000000000005), ('wc_17', 0.8400000000000006)]",0.9647840000000002,,,39.0,0.049364000000000005,['Fail'],Fail,0.30000000000000016,0.19999999999999984,2.0,4.0,0.2
144.0,1.0,wc_1,,0.0,,,,81.0,,,,Fail,,,,,
144.0,1.0,wc_1,,0.0,,,55.0,,,,,Fail,,,,,
144.0,1.0,wc_1,,0.0,,,,0.0,,,,Fail,,,,,
144.0,1.0,wc_1,wc_1,0.0,"[('wc_1', 0.6900000000000005)]",0.6900000000000005,,,31.0,0.002198,['Fail'],Fail,0.6900000000000005,-0.1185714285714291,4.0,7.0,0.7
144.0,1.0,wc_1,,0.0,,,,222.0,,,,Fail,,,,,
144.0,1.0,wc_1,wc_14,0.0,"[('wc_14', 0.30000000000000016), ('wc_1', 0.6900000000000005)]",0.7830000000000004,,,30.0,0.005996,['Fail'],Fail,0.30000000000000016,-0.050000000000000155,0.0,0.0,0.2
144.0,1.0,wc_1,,0.0,,,,142.0,,,,Fail,,,,,
144.0,1.0,wc_1,wc_6,1.0,"[('wc_6', 0.8000000000000006), ('wc_1', 0.6900000000000005), ('wc_14', 0.30000000000000016)]",0.9566000000000002,,,24.0,0.04594500000000001,['Fail'],Fail,0.8000000000000006,-0.4666666666666673,2.0,6.0,0.7
240.0,1.0,wc_1,,0.0,,,,202.0,,,,Fail,,,,,
240.0,1.0,wc_1,,0.0,,,77.0,,,,,Fail,,,,,
240.0,1.0,wc_1,,0.0,,,,0.0,,,,Fail,,,,,
240.0,1.0,wc_1,wc_1,0.0,"[('wc_1', 0.6900000000000005)]",0.6900000000000005,,,30.0,0.002231,['Fail'],Fail,0.6900000000000005,-0.0650000000000005,5.0,8.0,0.7
240.0,1.0,wc_1,,0.0,,,,0.0,,,,Fail,,,,,
240.0,1.0,wc_1,wc_4,0.0,"[('wc_1', 0.6900000000000005)]",0.6900000000000005,,,22.0,0.006219,['Fail'],Fail,0.6300000000000004,-0.38000000000000045,1.0,4.0,0.5
240.0,1.0,wc_1,,0.0,,,,121.0,,,,Fail,,,,,
240.0,1.0,wc_1,wc_12,0.0,"[('wc_12', 0.27000000000000013), ('wc_1', 0.6900000000000005)]",0.7737000000000004,,,20.0,0.006318000000000001,['Fail'],Fail,0.27000000000000013,-0.055714285714285855,0.0,0.0,0.1
240.0,1.0,wc_1,,0.0,,,,262.0,,,,Fail,,,,,
240.0,1.0,wc_1,wc_2,0.0,"[('wc_2', 0.4900000000000003), ('wc_1', 0.6900000000000005), ('wc_12', 0.27000000000000013)]",0.8845870000000002,,,20.0,0.009191,['Fail'],Fail,0.4900000000000003,-0.3650000000000003,1.0,8.0,0.3
240.0,1.0,wc_1,,0.0,,,,243.0,,,,Fail,,,,,
240.0,1.0,wc_1,wc_16,1.0,"[('wc_16', 0.21000000000000008), ('wc_1', 0.6900000000000005), ('wc_12', 0.27000000000000013), ('wc_2', 0.4900000000000003)]",0.9088237300000003,,,39.0,0.04549,['Fail'],Fail,0.21000000000000008,-0.21000000000000008,0.0,0.0,0.1
296.0,1.0,wc_1,,0.0,,,,263.0,,,,Fail,,,,,
296.0,1.0,wc_1,,0.0,,,69.0,,,,,Fail,,,,,
296.0,1.0,wc_1,,0.0,,,,0.0,,,,Fail,,,,,
296.0,1.0,wc_1,wc_1,0.0,"[('wc_1', 0.6900000000000005)]",0.6900000000000005,,,39.0,0.005047,['Pass'],Fail,0.6900000000000005,-0.023333333333333872,6.0,9.0,0.7
296.0,1.0,wc_1,,0.0,,,,283.0,,,,Fail,,,,,
296.0,1.0,wc_1,wc_17,0.0,"[('wc_17', 0.8400000000000006)]",0.8400000000000006,,,39.0,0.0056500000000000005,['Fail'],Fail,0.8400000000000006,-0.28444444444444505,5.0,9.0,0.9
296.0,1.0,wc_1,,0.0,,,,61.0,,,,Fail,,,,,
296.0,1.0,wc_1,wc_14,0.0,"[('wc_14', 0.31000000000000016), ('wc_17', 0.8400000000000006)]",0.8896000000000005,,,24.0,0.009151,['Fail'],Fail,0.31000000000000016,0.18999999999999984,1.0,2.0,0.2
296.0,1.0,wc_1,,0.0,,,,321.0,,,,Fail,,,,,
296.0,1.0,wc_1,wc_11,1.0,"[('wc_11', 0.3600000000000002), ('wc_17', 0.8400000000000006), ('wc_14', 0.31000000000000016)]",0.9293440000000003,,,22.0,0.04586900000000001,['Fail'],Fail,0.3600000000000002,-0.3600000000000002,0.0,0.0,0.3
353.0,1.0,wc_1,,0.0,,,,203.0,,,,Pass,,,,,
353.0,1.0,wc_1,,0.0,,,66.0,,,,,Pass,,,,,
353.0,1.0,wc_1,,0.0,,,,0.0,,,,Pass,,,,,
353.0,1.0,wc_1,wc_1,0.0,"[('wc_1', 0.6800000000000005)]",0.6800000000000005,,,31.0,0.002667,['Fail'],Pass,0.6800000000000005,-0.6800000000000005,0.0,0.0,0.7
353.0,1.0,wc_1,,0.0,,,,0.0,,,,Pass,,,,,
353.0,1.0,wc_1,wc_3,0.0,"[('wc_1', 0.6800000000000005)]",0.6800000000000005,,,23.0,0.006728,['Fail'],Pass,0.30000000000000016,-0.014285714285714457,2.0,7.0,0.2
353.0,1.0,wc_1,,0.0,,,,242.0,,,,Pass,,,,,
353.0,1.0,wc_1,wc_17,0.0,"[('wc_17', 0.8400000000000006), ('wc_3', 0.30000000000000016)]",0.8880000000000005,,,29.0,0.006116999999999999,['Pass'],Pass,0.8400000000000006,-0.8400000000000006,0.0,0.0,0.9
353.0,1.0,wc_1,,0.0,,,,83.0,,,,Pass,,,,,
353.0,1.0,wc_1,wc_15,1.0,"[('wc_15', 0.39000000000000024), ('wc_3', 0.30000000000000016), ('wc_17', 0.8400000000000006)]",0.9316800000000003,,,37.0,0.049108000000000006,['Pass'],Pass,0.39000000000000024,-0.39000000000000024,0.0,0.0,0.2
361.0,4.0,wc_4,,0.0,,,,422.0,,,,Pass,,,,,
361.0,4.0,wc_4,,0.0,,,61.0,,,,,Pass,,,,,
361.0,4.0,wc_4,,0.0,,,,0.0,,,,Pass,,,,,
361.0,4.0,wc_4,wc_4,0.0,"[('wc_4', 0.6200000000000004)]",0.6200000000000004,,,31.0,0.002137,['Pass'],Pass,0.6200000000000004,-0.4771428571428576,1.0,7.0,0.5
361.0,4.0,wc_4,,0.0,,,,121.0,,,,Pass,,,,,
361.0,4.0,wc_4,wc_8,0.0,"[('wc_4', 0.6200000000000004)]",0.6200000000000004,,,37.0,0.004241,['Pass'],Pass,0.41000000000000025,-0.3433333333333336,0.0,0.0,0.3
361.0,4.0,wc_4,,0.0,,,,0.0,,,,Pass,,,,,
361.0,4.0,wc_4,wc_9,0.0,"[('wc_9', 0.7100000000000005), ('wc_4', 0.6200000000000004)]",0.8898000000000004,,,23.0,0.007101,['Pass'],Pass,0.7100000000000005,-0.6100000000000005,0.0,0.0,0.8
361.0,4.0,wc_4,,0.0,,,,141.0,,,,Pass,,,,,
361.0,4.0,wc_4,wc_14,1.0,"[('wc_14', 0.3200000000000002), ('wc_4', 0.6200000000000004), ('wc_9', 0.7100000000000005)]",0.9250640000000002,,,34.0,0.040777999999999995,['Pass'],Pass,0.3300000000000002,0.2699999999999998,3.0,5.0,0.2
384.0,2.0,wc_2,,0.0,,,,222.0,,,,Pass,,,,,
384.0,2.0,wc_2,,0.0,,,54.0,,,,,Pass,,,,,
384.0,2.0,wc_2,,0.0,,,,0.0,,,,Pass,,,,,
384.0,2.0,wc_2,wc_2,0.0,"[('wc_2', 0.4900000000000003)]",0.4900000000000003,,,37.0,0.002079,['Fail'],Pass,0.4900000000000003,-0.3233333333333337,0.0,0.0,0.3
384.0,2.0,wc_2,,0.0,,,,182.0,,,,Pass,,,,,
384.0,2.0,wc_2,wc_13,0.0,"[('wc_2', 0.4900000000000003)]",0.4900000000000003,,,29.0,0.0042109999999999995,['Fail'],Pass,0.30000000000000016,-0.15000000000000016,0.0,0.0,0.2
384.0,2.0,wc_2,,0.0,,,,321.0,,,,Pass,,,,,
384.0,2.0,wc_2,wc_10,0.0,"[('wc_10', 0.9700000000000008), ('wc_13', 0.30000000000000016)]",0.9790000000000005,,,27.0,0.005965000000000001,['Pass'],Pass,0.9700000000000008,-0.8450000000000008,1.0,8.0,1.0
384.0,2.0,wc_2,,0.0,,,,81.0,,,,Pass,,,,,
384.0,2.0,wc_2,wc_12,1.0,"[('wc_12', 0.28000000000000014), ('wc_13', 0.30000000000000016), ('wc_10', 0.9700000000000008)]",0.9848800000000004,,,39.0,0.043068999999999996,['Pass'],Pass,0.29000000000000015,0.10999999999999988,2.0,5.0,0.1
409.0,3.0,wc_3,,0.0,,,,361.0,,,,Pass,,,,,
409.0,3.0,wc_3,,0.0,,,59.0,,,,,Pass,,,,,
409.0,3.0,wc_3,,0.0,,,,0.0,,,,Pass,,,,,
409.0,3.0,wc_3,wc_3,0.0,"[('wc_3', 0.31000000000000016)]",0.31000000000000016,,,28.0,0.00213,['Pass'],Pass,0.31000000000000016,-0.010000000000000175,0.0,0.0,0.2
409.0,3.0,wc_3,,0.0,,,,101.0,,,,Pass,,,,,
409.0,3.0,wc_3,wc_2,0.0,"[('wc_2', 0.4800000000000003), ('wc_3', 0.31000000000000016)]",0.6412000000000003,,,33.0,0.00413,['Pass'],Pass,0.4800000000000003,-0.4800000000000003,0.0,1.0,0.3
409.0,3.0,wc_3,,0.0,,,,223.0,,,,Pass,,,,,
409.0,3.0,wc_3,wc_15,0.0,"[('wc_15', 0.39000000000000024), ('wc_3', 0.31000000000000016), ('wc_2', 0.4800000000000003)]",0.7811320000000003,,,35.0,0.005691,['Pass'],Pass,0.39000000000000024,-0.39000000000000024,0.0,2.0,0.2
409.0,3.0,wc_3,,0.0,,,,61.0,,,,Pass,,,,,
409.0,3.0,wc_3,wc_12,0.0,"[('wc_12', 0.29000000000000015), ('wc_3', 0.31000000000000016), ('wc_2', 0.4800000000000003), ('wc_15', 0.39000000000000024)]",0.8446037200000003,,,20.0,0.008229,['Pass'],Pass,0.29000000000000015,0.10999999999999988,2.0,5.0,0.1
409.0,3.0,wc_3,,0.0,,,,401.0,,,,Pass,,,,,
409.0,3.0,wc_3,wc_5,1.0,"[('wc_5', 0.5800000000000004), ('wc_3', 0.31000000000000016), ('wc_2', 0.4800000000000003), ('wc_15', 0.39000000000000024), ('wc_12', 0.29000000000000015)]",0.9347335624000002,,,22.0,0.044123,['Pass'],Pass,0.5800000000000004,-0.5800000000000004,0.0,0.0,0.5
416.0,5.0,wc_5,,0.0,,,,0.0,,,,Pass,,,,,
416.0,5.0,wc_5,,0.0,,,52.0,,,,,Pass,,,,,
416.0,5.0,wc_5,,0.0,,,,0.0,,,,Pass,,,,,
416.0,5.0,wc_5,wc_5,0.0,"[('wc_5', 0.5800000000000004)]",0.5800000000000004,,,24.0,0.002244,['Fail'],Pass,0.5800000000000004,-0.5800000000000004,0.0,0.0,0.5
416.0,5.0,wc_5,,0.0,,,,83.0,,,,Pass,,,,,
416.0,5.0,wc_5,wc_3,0.0,"[('wc_3', 0.3200000000000002), ('wc_5', 0.5800000000000004)]",0.7144000000000004,,,27.0,0.004198,['Fail'],Pass,0.3200000000000002,0.6799999999999998,1.0,1.0,0.2
416.0,5.0,wc_5,,0.0,,,,222.0,,,,Pass,,,,,
416.0,5.0,wc_5,wc_16,0.0,"[('wc_16', 0.21000000000000008), ('wc_5', 0.5800000000000004), ('wc_3', 0.3200000000000002)]",0.7743760000000003,,,20.0,0.006661,['Fail'],Pass,0.21000000000000008,-0.21000000000000008,0.0,5.0,0.1
416.0,5.0,wc_5,,0.0,,,,342.0,,,,Pass,,,,,
416.0,5.0,wc_5,wc_9,0.0,"[('wc_5', 0.5800000000000004), ('wc_3', 0.3200000000000002), ('wc_16', 0.21000000000000008)]",0.7743760000000003,,,35.0,0.008785,['Fail'],Pass,0.7200000000000005,-0.3866666666666672,1.0,3.0,0.8
416.0,5.0,wc_5,,0.0,,,,81.0,,,,Pass,,,,,
416.0,5.0,wc_5,wc_7,1.0,"[('wc_7', 0.6600000000000005), ('wc_5', 0.5800000000000004), ('wc_3', 0.3200000000000002), ('wc_16', 0.21000000000000008)]",0.9232878400000002,,,30.0,0.04143,['Fail'],Pass,0.6600000000000005,-0.6600000000000005,0.0,0.0,0.6
431.0,6.0,wc_6,,0.0,,,,102.0,,,,Pass,,,,,
431.0,6.0,wc_6,,0.0,,,79.0,,,,,Pass,,,,,
431.0,6.0,wc_6,,0.0,,,,0.0,,,,Pass,,,,,
431.0,6.0,wc_6,wc_6,0.0,"[('wc_6', 0.8000000000000006)]",0.8000000000000006,,,34.0,0.002804,['Pass'],Pass,0.8000000000000006,-0.6461538461538467,0.0,0.0,0.7
431.0,6.0,wc_6,,0.0,,,,182.0,,,,Pass,,,,,
431.0,6.0,wc_6,wc_13,0.0,"[('wc_13', 0.31000000000000016), ('wc_6', 0.8000000000000006)]",0.8620000000000004,,,40.0,0.00411,['Pass'],Pass,0.31000000000000016,0.02333333333333315,1.0,3.0,0.2
431.0,6.0,wc_6,,0.0,,,,182.0,,,,Pass,,,,,
431.0,6.0,wc_6,wc_7,1.0,"[('wc_7', 0.6600000000000005), ('wc_6', 0.8000000000000006), ('wc_13', 0.31000000000000016)]",0.9530800000000003,,,26.0,0.044542000000000005,['Pass'],Pass,0.6700000000000005,0.3299999999999995,1.0,1.0,0.6
445.0,8.0,wc_8,,0.0,,,,0.0,,,,Pass,,,,,
445.0,8.0,wc_8,,0.0,,,67.0,,,,,Pass,,,,,
445.0,8.0,wc_8,,0.0,,,,0.0,,,,Pass,,,,,
445.0,8.0,wc_8,wc_8,0.0,"[('wc_8', 0.40000000000000024)]",0.40000000000000024,,,30.0,0.002464,['Pass'],Pass,0.40000000000000024,-0.40000000000000024,0.0,5.0,0.3
445.0,8.0,wc_8,,0.0,,,,122.0,,,,Pass,,,,,
445.0,8.0,wc_8,wc_12,0.0,"[('wc_12', 0.30000000000000016), ('wc_8', 0.40000000000000024)]",0.5800000000000003,,,24.0,0.006087,['Pass'],Pass,0.30000000000000016,0.07499999999999984,3.0,8.0,0.1
445.0,8.0,wc_8,,0.0,,,,242.0,,,,Pass,,,,,
445.0,8.0,wc_8,wc_1,0.0,"[('wc_1', 0.6700000000000005), ('wc_8', 0.40000000000000024), ('wc_12', 0.30000000000000016)]",0.8614000000000003,,,26.0,0.007913,['Pass'],Pass,0.6700000000000005,-0.6700000000000005,0.0,6.0,0.7
445.0,8.0,wc_8,,0.0,,,,162.0,,,,Pass,,,,,
445.0,8.0,wc_8,wc_7,1.0,"[('wc_7', 0.6700000000000005), ('wc_8', 0.40000000000000024), ('wc_12', 0.30000000000000016), ('wc_1', 0.6700000000000005)]",0.9542620000000002,,,37.0,0.041759000000000004,['Pass'],Pass,0.6800000000000005,0.3199999999999995,2.0,2.0,0.6
462.0,9.0,wc_9,,0.0,,,,0.0,,,,Pass,,,,,
462.0,9.0,wc_9,,0.0,,,52.0,,,,,Pass,,,,,
462.0,9.0,wc_9,,0.0,,,,0.0,,,,Pass,,,,,
462.0,9.0,wc_9,wc_9,0.0,"[('wc_9', 0.7100000000000005)]",0.7100000000000005,,,33.0,0.002148,['Pass'],Pass,0.7100000000000005,-0.5433333333333339,1.0,6.0,0.8
462.0,9.0,wc_9,,0.0,,,,81.0,,,,Pass,,,,,
462.0,9.0,wc_9,wc_7,0.0,"[('wc_7', 0.6800000000000005), ('wc_9', 0.7100000000000005)]",0.9072000000000003,,,23.0,0.003889,['Pass'],Pass,0.6800000000000005,0.3199999999999995,2.0,2.0,0.6
462.0,9.0,wc_9,,0.0,,,,0.0,,,,Pass,,,,,
462.0,9.0,wc_9,wc_11,0.0,"[('wc_9', 0.7100000000000005), ('wc_7', 0.6800000000000005)]",0.9072000000000003,,,39.0,0.0057280000000000005,['Pass'],Pass,0.3600000000000002,-0.3600000000000002,0.0,7.0,0.3
462.0,9.0,wc_9,,0.0,,,,103.0,,,,Pass,,,,,
462.0,9.0,wc_9,wc_10,1.0,"[('wc_10', 0.9700000000000008), ('wc_9', 0.7100000000000005), ('wc_7', 0.6800000000000005)]",0.9972160000000001,,,26.0,0.042573,['Pass'],Pass,0.9700000000000008,-0.9700000000000008,0.0,0.0,1.0
476.0,7.0,wc_7,,0.0,,,,61.0,,,,Fail,,,,,
476.0,7.0,wc_7,,0.0,,,51.0,,,,,Fail,,,,,
476.0,7.0,wc_7,,0.0,,,,0.0,,,,Fail,,,,,
476.0,7.0,wc_7,wc_7,0.0,"[('wc_7', 0.6900000000000005)]",0.6900000000000005,,,30.0,0.003043,['Fail'],Fail,0.6900000000000005,0.3099999999999995,3.0,3.0,0.6
476.0,7.0,wc_7,,0.0,,,,223.0,,,,Fail,,,,,
476.0,7.0,wc_7,wc_16,0.0,"[('wc_7', 0.6900000000000005)]",0.6900000000000005,,,36.0,0.0042710000000000005,['Fail'],Fail,0.21000000000000008,-0.09888888888888897,1.0,9.0,0.1
476.0,7.0,wc_7,,0.0,,,,382.0,,,,Fail,,,,,
476.0,7.0,wc_7,wc_11,0.0,"[('wc_11', 0.3500000000000002), ('wc_7', 0.6900000000000005)]",0.7985000000000004,,,20.0,0.005977,['Fail'],Fail,0.3500000000000002,-0.3500000000000002,0.0,8.0,0.3
476.0,7.0,wc_7,,0.0,,,,223.0,,,,Fail,,,,,
476.0,7.0,wc_7,wc_2,0.0,"[('wc_2', 0.4900000000000003), ('wc_7', 0.6900000000000005), ('wc_11', 0.3500000000000002)]",0.8972350000000002,,,32.0,0.00921,['Fail'],Fail,0.4900000000000003,-0.3233333333333337,1.0,6.0,0.3
476.0,7.0,wc_7,,0.0,,,,183.0,,,,Fail,,,,,
476.0,7.0,wc_7,wc_9,1.0,"[('wc_9', 0.7100000000000005), ('wc_7', 0.6900000000000005), ('wc_11', 0.3500000000000002), ('wc_2', 0.4900000000000003)]",0.9701981500000001,,,24.0,0.045647,['Fail'],Fail,0.7100000000000005,-0.3350000000000005,3.0,8.0,0.8
486.0,7.0,wc_7,,0.0,,,,81.0,,,,Pass,,,,,
486.0,7.0,wc_7,,0.0,,,69.0,,,,,Pass,,,,,
486.0,7.0,wc_7,,0.0,,,,0.0,,,,Pass,,,,,
486.0,7.0,wc_7,wc_7,0.0,"[('wc_7', 0.7000000000000005)]",0.7000000000000005,,,33.0,0.002214,['Fail'],Pass,0.7000000000000005,0.2999999999999995,4.0,4.0,0.6
486.0,7.0,wc_7,,0.0,,,,182.0,,,,Pass,,,,,
486.0,7.0,wc_7,wc_14,0.0,"[('wc_14', 0.3300000000000002), ('wc_7', 0.7000000000000005)]",0.7990000000000004,,,20.0,0.004151,['Fail'],Pass,0.3300000000000002,-0.08000000000000018,0.0,0.0,0.2
486.0,7.0,wc_7,,0.0,,,,0.0,,,,Pass,,,,,
486.0,7.0,wc_7,wc_16,0.0,"[('wc_7', 0.7000000000000005), ('wc_14', 0.3300000000000002)]",0.7990000000000004,,,31.0,0.005466,['Fail'],Pass,0.20000000000000007,-0.20000000000000007,0.0,0.0,0.1
486.0,7.0,wc_7,,0.0,,,,362.0,,,,Pass,,,,,
486.0,7.0,wc_7,wc_10,0.0,"[('wc_10', 0.9700000000000008), ('wc_16', 0.20000000000000007)]",0.9760000000000006,,,27.0,0.007547,['Pass'],Pass,0.9700000000000008,-0.9700000000000008,0.0,1.0,1.0
486.0,7.0,wc_7,,0.0,,,,243.0,,,,Pass,,,,,
486.0,7.0,wc_7,wc_2,0.0,"[('wc_16', 0.20000000000000007), ('wc_10', 0.9700000000000008)]",0.9760000000000006,,,28.0,0.010369,['Pass'],Pass,0.4900000000000003,-0.20428571428571463,2.0,7.0,0.3
486.0,7.0,wc_7,,0.0,,,,223.0,,,,Pass,,,,,
486.0,7.0,wc_7,wc_15,1.0,"[('wc_15', 0.39000000000000024), ('wc_16', 0.20000000000000007), ('wc_10', 0.9700000000000008)]",0.9853600000000003,,,24.0,0.047143000000000004,['Pass'],Pass,0.39000000000000024,-0.16777777777777803,2.0,9.0,0.2
497.0,10.0,wc_10,,0.0,,,,382.0,,,,Pass,,,,,
497.0,10.0,wc_10,,0.0,,,64.0,,,,,Pass,,,,,
497.0,10.0,wc_10,,0.0,,,,0.0,,,,Pass,,,,,
497.0,10.0,wc_10,wc_10,0.0,"[('wc_10', 0.9700000000000008)]",0.9700000000000008,,,22.0,0.002237,['Pass'],Pass,0.9700000000000008,-0.47000000000000075,1.0,2.0,1.0
497.0,10.0,wc_10,,0.0,,,,342.0,,,,Pass,,,,,
497.0,10.0,wc_10,wc_3,0.0,"[('wc_10', 0.9700000000000008)]",0.9700000000000008,,,34.0,0.004762,['Pass'],Pass,0.3300000000000002,-0.044285714285714484,2.0,7.0,0.2
497.0,10.0,wc_10,,0.0,,,,202.0,,,,Pass,,,,,
497.0,10.0,wc_10,wc_11,0.0,"[('wc_10', 0.9700000000000008)]",0.9700000000000008,,,26.0,0.006142999999999999,['Pass'],Pass,0.3500000000000002,-0.2500000000000002,0.0,0.0,0.3
497.0,10.0,wc_10,,0.0,,,,142.0,,,,Pass,,,,,
497.0,10.0,wc_10,wc_16,0.0,"[('wc_10', 0.9700000000000008)]",0.9700000000000008,,,33.0,0.007847,['Pass'],Pass,0.21000000000000008,0.7899999999999999,1.0,1.0,0.1
497.0,10.0,wc_10,,0.0,,,,81.0,,,,Pass,,,,,
497.0,10.0,wc_10,wc_14,0.0,"[('wc_10', 0.9700000000000008)]",0.9700000000000008,,,34.0,0.013090000000000001,['Pass'],Pass,0.3200000000000002,-0.3200000000000002,0.0,1.0,0.2
497.0,10.0,wc_10,,0.0,,,,222.0,,,,Pass,,,,,
497.0,10.0,wc_10,wc_2,0.0,"[('wc_10', 0.9700000000000008)]",0.9700000000000008,,,31.0,0.012055000000000001,['Pass'],Pass,0.4800000000000003,-0.23000000000000032,2.0,8.0,0.3
497.0,10.0,wc_10,,0.0,,,,162.0,,,,Pass,,,,,
497.0,10.0,wc_10,wc_12,0.0,"[('wc_10', 0.9700000000000008)]",0.9700000000000008,,,21.0,0.012871,['Pass'],Pass,0.31000000000000016,0.02333333333333315,0.0,0.0,0.1
497.0,10.0,wc_10,,0.0,,,,202.0,,,,Pass,,,,,
497.0,10.0,wc_10,wc_7,1.0,"[('wc_7', 0.7000000000000005), ('wc_3', 0.3300000000000002), ('wc_11', 0.3500000000000002), ('wc_16', 0.21000000000000008), ('wc_14', 0.3200000000000002), ('wc_2', 0.4800000000000003), ('wc_12', 0.31000000000000016)]",0.9748175574160001,,,32.0,0.05008599999999999,['Fail'],Pass,0.7100000000000005,0.12333333333333285,5.0,6.0,0.6
513.0,11.0,wc_11,,0.0,,,,0.0,,,,Fail,,,,,
513.0,11.0,wc_11,,0.0,,,56.0,,,,,Fail,,,,,
513.0,11.0,wc_11,,0.0,,,,0.0,,,,Fail,,,,,
513.0,11.0,wc_11,wc_11,0.0,"[('wc_11', 0.3600000000000002)]",0.3600000000000002,,,39.0,0.003248,['Fail'],Fail,0.3600000000000002,0.6399999999999998,1.0,1.0,0.3
513.0,11.0,wc_11,,0.0,,,,322.0,,,,Fail,,,,,
513.0,11.0,wc_11,wc_3,0.0,"[('wc_3', 0.3400000000000002), ('wc_11', 0.3600000000000002)]",0.5776000000000003,,,33.0,0.00496,['Fail'],Fail,0.3400000000000002,0.03499999999999981,3.0,8.0,0.2
513.0,11.0,wc_11,,0.0,,,,101.0,,,,Fail,,,,,
513.0,11.0,wc_11,wc_2,0.0,"[('wc_11', 0.3600000000000002), ('wc_3', 0.3400000000000002)]",0.5776000000000003,,,37.0,0.007475000000000001,['Fail'],Fail,0.4800000000000003,-0.146666666666667,3.0,9.0,0.3
513.0,11.0,wc_11,,0.0,,,,162.0,,,,Fail,,,,,
513.0,11.0,wc_11,wc_8,0.0,"[('wc_8', 0.40000000000000024), ('wc_2', 0.4800000000000003)]",0.6880000000000004,,,27.0,0.007741,['Pass'],Fail,0.40000000000000024,-0.30000000000000027,0.0,0.0,0.3
513.0,11.0,wc_11,,0.0,,,,122.0,,,,Fail,,,,,
513.0,11.0,wc_11,wc_12,0.0,"[('wc_12', 0.3200000000000002), ('wc_2', 0.4800000000000003), ('wc_8', 0.40000000000000024)]",0.7878400000000003,,,20.0,0.009651000000000002,['Pass'],Fail,0.3200000000000002,0.6799999999999998,1.0,1.0,0.1
513.0,11.0,wc_11,,0.0,,,,381.0,,,,Fail,,,,,
513.0,11.0,wc_11,wc_4,0.0,"[('wc_4', 0.6200000000000004), ('wc_11', 0.3600000000000002), ('wc_3', 0.3400000000000002)]",0.8394880000000002,,,24.0,0.010326,['Fail'],Fail,0.6200000000000004,-0.502352941176471,0.0,0.0,0.5
513.0,11.0,wc_11,,0.0,,,,162.0,,,,Fail,,,,,
513.0,11.0,wc_11,wc_10,1.0,"[('wc_10', 0.9600000000000007), ('wc_11', 0.3600000000000002), ('wc_3', 0.3400000000000002), ('wc_4', 0.6200000000000004)]",0.9935795200000002,,,32.0,0.045878,['Fail'],Fail,0.9600000000000007,-0.46000000000000074,2.0,4.0,1.0
524.0,11.0,wc_11,,0.0,,,,0.0,,,,Fail,,,,,
524.0,11.0,wc_11,,0.0,,,72.0,,,,,Fail,,,,,
524.0,11.0,wc_11,,0.0,,,,0.0,,,,Fail,,,,,
524.0,11.0,wc_11,wc_11,0.0,"[('wc_11', 0.3700000000000002)]",0.3700000000000002,,,26.0,0.002147,['Pass'],Fail,0.3700000000000002,0.6299999999999998,2.0,2.0,0.3
524.0,11.0,wc_11,,0.0,,,,101.0,,,,Fail,,,,,
524.0,11.0,wc_11,wc_14,0.0,"[('wc_14', 0.3300000000000002), ('wc_11', 0.3700000000000002)]",0.5779000000000003,,,32.0,0.004298,['Pass'],Fail,0.3300000000000002,0.0033333333333331328,1.0,3.0,0.2
524.0,11.0,wc_11,,0.0,,,,202.0,,,,Fail,,,,,
524.0,11.0,wc_11,wc_1,0.0,"[('wc_1', 0.6700000000000005)]",0.6700000000000005,,,24.0,0.006215,['Fail'],Fail,0.6700000000000005,-0.5866666666666671,0.0,0.0,0.7
524.0,11.0,wc_11,,0.0,,,,162.0,,,,Fail,,,,,
524.0,11.0,wc_11,wc_7,0.0,"[('wc_7', 0.7100000000000005), ('wc_1', 0.6700000000000005)]",0.9043000000000003,,,36.0,0.007995,['Fail'],Fail,0.7100000000000005,0.004285714285713782,5.0,7.0,0.6
524.0,11.0,wc_11,,0.0,,,,223.0,,,,Fail,,,,,
524.0,11.0,wc_11,wc_16,0.0,"[('wc_1', 0.6700000000000005), ('wc_7', 0.7100000000000005)]",0.9043000000000003,,,29.0,0.010135,['Fail'],Fail,0.22000000000000008,0.44666666666666655,2.0,3.0,0.1
524.0,11.0,wc_11,,0.0,,,,243.0,,,,Fail,,,,,
524.0,11.0,wc_11,wc_8,0.0,"[('wc_1', 0.6700000000000005), ('wc_7', 0.7100000000000005)]",0.9043000000000003,,,22.0,0.013526999999999999,['Fail'],Fail,0.39000000000000024,-0.39000000000000024,0.0,1.0,0.3
524.0,11.0,wc_11,,0.0,,,,82.0,,,,Fail,,,,,
524.0,11.0,wc_11,wc_6,1.0,"[('wc_6', 0.8100000000000006), ('wc_1', 0.6700000000000005), ('wc_7', 0.7100000000000005)]",0.9818170000000002,,,23.0,0.051046999999999995,['Fail'],Fail,0.8100000000000006,-0.5600000000000006,2.0,8.0,0.7
549.0,11.0,wc_11,,0.0,,,,0.0,,,,Pass,,,,,
549.0,11.0,wc_11,,0.0,,,57.0,,,,,Pass,,,,,
549.0,11.0,wc_11,,0.0,,,,0.0,,,,Pass,,,,,
549.0,11.0,wc_11,wc_11,0.0,"[('wc_11', 0.3700000000000002)]",0.3700000000000002,,,20.0,0.002266,['Pass'],Pass,0.3700000000000002,0.2966666666666664,2.0,3.0,0.3
549.0,11.0,wc_11,,0.0,,,,41.0,,,,Pass,,,,,
549.0,11.0,wc_11,wc_7,0.0,"[('wc_7', 0.7200000000000005), ('wc_11', 0.3700000000000002)]",0.8236000000000003,,,40.0,0.004024,['Pass'],Pass,0.7200000000000005,0.02999999999999947,6.0,8.0,0.6
549.0,11.0,wc_11,,0.0,,,,182.0,,,,Pass,,,,,
549.0,11.0,wc_11,wc_1,1.0,"[('wc_1', 0.6800000000000005), ('wc_11', 0.3700000000000002), ('wc_7', 0.7200000000000005)]",0.9435520000000002,,,22.0,0.043481,['Pass'],Pass,0.6900000000000005,0.3099999999999995,2.0,2.0,0.7
564.0,12.0,wc_12,,0.0,,,,182.0,,,,Pass,,,,,
564.0,12.0,wc_12,,0.0,,,75.0,,,,,Pass,,,,,
564.0,12.0,wc_12,,0.0,,,,0.0,,,,Pass,,,,,
564.0,12.0,wc_12,wc_12,0.0,"[('wc_12', 0.3200000000000002)]",0.3200000000000002,,,39.0,0.002376,['Pass'],Pass,0.3200000000000002,-0.07000000000000017,1.0,4.0,0.1
564.0,12.0,wc_12,,0.0,,,,202.0,,,,Pass,,,,,
564.0,12.0,wc_12,wc_7,0.0,"[('wc_7', 0.7300000000000005)]",0.7300000000000005,,,37.0,0.004137999999999999,['Fail'],Pass,0.7300000000000005,0.04777777777777725,7.0,9.0,0.6
564.0,12.0,wc_12,,0.0,,,,182.0,,,,Pass,,,,,
564.0,12.0,wc_12,wc_1,0.0,"[('wc_1', 0.6900000000000005), ('wc_12', 0.3200000000000002)]",0.7892000000000003,,,20.0,0.005933,['Pass'],Pass,0.6900000000000005,0.3099999999999995,2.0,2.0,0.7
564.0,12.0,wc_12,,0.0,,,,0.0,,,,Pass,,,,,
564.0,12.0,wc_12,wc_2,0.0,"[('wc_2', 0.4700000000000003), ('wc_7', 0.7300000000000005)]",0.8569000000000003,,,26.0,0.00841,['Fail'],Pass,0.4700000000000003,-0.4700000000000003,0.0,2.0,0.3
564.0,12.0,wc_12,,0.0,,,,0.0,,,,Pass,,,,,
564.0,12.0,wc_12,wc_3,0.0,"[('wc_3', 0.3500000000000002), ('wc_12', 0.3200000000000002), ('wc_1', 0.6900000000000005)]",0.8629800000000003,,,31.0,0.010563,['Pass'],Pass,0.3500000000000002,0.013636363636363447,0.0,0.0,0.2
564.0,12.0,wc_12,,0.0,,,,161.0,,,,Pass,,,,,
564.0,12.0,wc_12,wc_13,1.0,"[('wc_13', 0.3200000000000002), ('wc_7', 0.7300000000000005), ('wc_2', 0.4700000000000003)]",0.9026920000000003,,,26.0,0.049935999999999994,['Fail'],Pass,0.3200000000000002,-0.3200000000000002,0.0,0.0,0.2
580.0,13.0,wc_13,,0.0,,,,0.0,,,,Fail,,,,,
580.0,13.0,wc_13,,0.0,,,67.0,,,,,Fail,,,,,
580.0,13.0,wc_13,,0.0,,,,0.0,,,,Fail,,,,,
580.0,13.0,wc_13,wc_13,0.0,"[('wc_13', 0.3200000000000002)]",0.3200000000000002,,,27.0,0.002497,['Fail'],Fail,0.3200000000000002,-0.3200000000000002,0.0,0.0,0.2
580.0,13.0,wc_13,,0.0,,,,0.0,,,,Fail,,,,,
580.0,13.0,wc_13,wc_14,0.0,"[('wc_14', 0.3200000000000002), ('wc_13', 0.3200000000000002)]",0.5376000000000003,,,31.0,0.003853,['Fail'],Fail,0.3200000000000002,-0.15333333333333352,1.0,6.0,0.2
580.0,13.0,wc_13,,0.0,,,,142.0,,,,Fail,,,,,
580.0,13.0,wc_13,wc_6,1.0,"[('wc_6', 0.8100000000000006), ('wc_13', 0.3200000000000002), ('wc_14', 0.3200000000000002)]",0.9121440000000003,,,26.0,0.039088,['Fail'],Fail,0.8100000000000006,-0.8100000000000006,0.0,0.0,0.7
594.0,13.0,wc_13,,0.0,,,,182.0,,,,Pass,,,,,
594.0,13.0,wc_13,,0.0,,,69.0,,,,,Pass,,,,,
594.0,13.0,wc_13,,0.0,,,,0.0,,,,Pass,,,,,
594.0,13.0,wc_13,wc_13,0.0,"[('wc_13', 0.3300000000000002)]",0.3300000000000002,,,25.0,0.002324,['Fail'],Pass,0.3300000000000002,0.6699999999999998,1.0,1.0,0.2
594.0,13.0,wc_13,,0.0,,,,182.0,,,,Pass,,,,,
594.0,13.0,wc_13,wc_7,0.0,"[('wc_7', 0.7400000000000005)]",0.7400000000000005,,,39.0,0.01502,['Pass'],Pass,0.7400000000000005,-0.7400000000000005,0.0,1.0,0.6
594.0,13.0,wc_13,,0.0,,,,182.0,,,,Pass,,,,,
594.0,13.0,wc_13,wc_1,0.0,"[('wc_1', 0.6800000000000005), ('wc_7', 0.7400000000000005)]",0.9168000000000003,,,33.0,0.005567,['Pass'],Pass,0.6800000000000005,-0.1800000000000005,2.0,4.0,0.7
594.0,13.0,wc_13,,0.0,,,,222.0,,,,Pass,,,,,
594.0,13.0,wc_13,wc_14,1.0,"[('wc_14', 0.3200000000000002), ('wc_7', 0.7400000000000005), ('wc_1', 0.6800000000000005)]",0.9434240000000003,,,27.0,0.041106000000000004,['Pass'],Pass,0.3300000000000002,0.04499999999999982,3.0,8.0,0.2
601.0,14.0,wc_14,,0.0,,,,0.0,,,,Pass,,,,,
601.0,14.0,wc_14,,0.0,,,79.0,,,,,Pass,,,,,
601.0,14.0,wc_14,,0.0,,,,0.0,,,,Pass,,,,,
601.0,14.0,wc_14,wc_14,0.0,"[('wc_14', 0.3300000000000002)]",0.3300000000000002,,,29.0,0.001997,['Fail'],Pass,0.3300000000000002,0.04499999999999982,3.0,8.0,0.2
601.0,14.0,wc_14,,0.0,,,,321.0,,,,Pass,,,,,
601.0,14.0,wc_14,wc_11,0.0,"[('wc_11', 0.3800000000000002)]",0.3800000000000002,,,39.0,0.003905,['Pass'],Pass,0.3800000000000002,0.04857142857142832,3.0,7.0,0.3
601.0,14.0,wc_14,,0.0,,,,81.0,,,,Pass,,,,,
601.0,14.0,wc_14,wc_13,0.0,"[('wc_13', 0.3300000000000002), ('wc_11', 0.3800000000000002)]",0.5846000000000002,,,36.0,0.005812,['Pass'],Pass,0.3300000000000002,0.16999999999999982,1.0,2.0,0.2
601.0,14.0,wc_14,,0.0,,,,0.0,,,,Pass,,,,,
601.0,14.0,wc_14,wc_17,1.0,"[('wc_17', 0.8500000000000006), ('wc_11', 0.3800000000000002), ('wc_13', 0.3300000000000002)]",0.9376900000000004,,,39.0,0.043583,['Pass'],Pass,0.8500000000000006,-0.8500000000000006,0.0,0.0,0.9
607.0,15.0,wc_15,,0.0,,,,83.0,,,,Pass,,,,,
607.0,15.0,wc_15,,0.0,,,53.0,,,,,Pass,,,,,
607.0,15.0,wc_15,,0.0,,,,0.0,,,,Pass,,,,,
607.0,15.0,wc_15,wc_15,0.0,"[('wc_15', 0.39000000000000024)]",0.39000000000000024,,,27.0,0.001868,['Fail'],Pass,0.39000000000000024,-0.2723529411764708,0.0,0.0,0.2
607.0,15.0,wc_15,,0.0,,,,402.0,,,,Pass,,,,,
607.0,15.0,wc_15,wc_11,0.0,"[('wc_15', 0.39000000000000024)]",0.39000000000000024,,,30.0,0.003843,['Fail'],Pass,0.39000000000000024,0.10999999999999976,4.0,8.0,0.3
607.0,15.0,wc_15,,0.0,,,,203.0,,,,Pass,,,,,
607.0,15.0,wc_15,wc_1,0.0,"[('wc_1', 0.6800000000000005), ('wc_11', 0.39000000000000024)]",0.8048000000000004,,,33.0,0.005706,['Pass'],Pass,0.6800000000000005,-0.1800000000000005,3.0,6.0,0.7
607.0,15.0,wc_15,,0.0,,,,0.0,,,,Pass,,,,,
607.0,15.0,wc_15,wc_3,0.0,"[('wc_11', 0.39000000000000024), ('wc_1', 0.6800000000000005)]",0.8048000000000004,,,28.0,0.0075569999999999995,['Pass'],Pass,0.3400000000000002,-0.3400000000000002,0.0,4.0,0.2
607.0,15.0,wc_15,,0.0,,,,161.0,,,,Pass,,,,,
607.0,15.0,wc_15,wc_13,0.0,"[('wc_11', 0.39000000000000024), ('wc_1', 0.6800000000000005)]",0.8048000000000004,,,33.0,0.010812,['Pass'],Pass,0.3400000000000002,0.32666666666666644,2.0,3.0,0.2
607.0,15.0,wc_15,,0.0,,,,202.0,,,,Pass,,,,,
607.0,15.0,wc_15,wc_8,0.0,"[('wc_8', 0.3800000000000002), ('wc_11', 0.39000000000000024), ('wc_1', 0.6800000000000005)]",0.8789760000000003,,,33.0,0.013054,['Pass'],Pass,0.3800000000000002,-0.3800000000000002,0.0,7.0,0.3
607.0,15.0,wc_15,,0.0,,,,122.0,,,,Pass,,,,,
607.0,15.0,wc_15,wc_12,0.0,"[('wc_11', 0.39000000000000024), ('wc_1', 0.6800000000000005), ('wc_8', 0.3800000000000002)]",0.8789760000000003,,,38.0,0.014739,['Pass'],Pass,0.31000000000000016,-0.18500000000000016,1.0,8.0,0.1
607.0,15.0,wc_15,,0.0,,,,381.0,,,,Pass,,,,,
607.0,15.0,wc_15,wc_4,1.0,"[('wc_4', 0.6300000000000004), ('wc_15', 0.39000000000000024), ('wc_3', 0.3400000000000002), ('wc_13', 0.3400000000000002), ('wc_12', 0.31000000000000016)]",0.9321627052000001,,,28.0,0.05283499999999999,['Fail'],Pass,0.6300000000000004,-0.38000000000000045,2.0,8.0,0.5
616.0,16.0,wc_16,,0.0,,,,202.0,,,,Pass,,,,,
616.0,16.0,wc_16,,0.0,,,58.0,,,,,Pass,,,,,
616.0,16.0,wc_16,,0.0,,,,0.0,,,,Pass,,,,,
616.0,16.0,wc_16,wc_16,0.0,"[('wc_16', 0.22000000000000008)]",0.22000000000000008,,,35.0,0.002134,['Pass'],Pass,0.22000000000000008,-0.020000000000000073,0.0,0.0,0.1
616.0,16.0,wc_16,,0.0,,,,283.0,,,,Pass,,,,,
616.0,16.0,wc_16,wc_2,0.0,"[('wc_2', 0.4700000000000003)]",0.4700000000000003,,,33.0,0.004302,['Fail'],Pass,0.4700000000000003,-0.32714285714285746,1.0,7.0,0.3
616.0,16.0,wc_16,,0.0,,,,203.0,,,,Pass,,,,,
616.0,16.0,wc_16,wc_10,0.0,"[('wc_10', 0.9600000000000007), ('wc_16', 0.22000000000000008)]",0.9688000000000005,,,29.0,0.006569,['Pass'],Pass,0.9600000000000007,-0.778181818181819,0.0,0.0,1.0
616.0,16.0,wc_16,,0.0,,,,342.0,,,,Pass,,,,,
616.0,16.0,wc_16,wc_3,1.0,"[('wc_3', 0.3400000000000002), ('wc_16', 0.22000000000000008), ('wc_10', 0.9600000000000007)]",0.9794080000000004,,,26.0,0.04536099999999999,['Pass'],Pass,0.3400000000000002,-0.006666666666666876,2.0,6.0,0.2
624.0,17.0,wc_17,,0.0,,,,242.0,,,,Pass,,,,,
624.0,17.0,wc_17,,0.0,,,55.0,,,,,Pass,,,,,
624.0,17.0,wc_17,,0.0,,,,0.0,,,,Pass,,,,,
624.0,17.0,wc_17,wc_17,0.0,"[('wc_17', 0.8500000000000006)]",0.8500000000000006,,,23.0,0.002175,['Pass'],Pass,0.8500000000000006,-0.8500000000000006,0.0,2.0,0.9
624.0,17.0,wc_17,,0.0,,,,103.0,,,,Pass,,,,,
624.0,17.0,wc_17,wc_16,0.0,"[('wc_17', 0.8500000000000006)]",0.8500000000000006,,,21.0,0.0039970000000000006,['Pass'],Pass,0.2300000000000001,0.7699999999999999,1.0,1.0,0.1
624.0,17.0,wc_17,,0.0,,,,61.0,,,,Pass,,,,,
624.0,17.0,wc_17,wc_13,0.0,"[('wc_13', 0.3500000000000002), ('wc_17', 0.8500000000000006)]",0.9025000000000004,,,33.0,0.006268000000000001,['Pass'],Pass,0.3500000000000002,0.24999999999999978,3.0,5.0,0.2
624.0,17.0,wc_17,,0.0,,,,0.0,,,,Pass,,,,,
624.0,17.0,wc_17,wc_14,0.0,"[('wc_17', 0.8500000000000006), ('wc_13', 0.3500000000000002)]",0.9025000000000004,,,25.0,0.007677,['Pass'],Pass,0.3300000000000002,-0.057272727272727475,0.0,0.0,0.2
624.0,17.0,wc_17,,0.0,,,,361.0,,,,Pass,,,,,
624.0,17.0,wc_17,wc_5,1.0,"[('wc_5', 0.5900000000000004), ('wc_17', 0.8500000000000006), ('wc_13', 0.3500000000000002)]",0.9600250000000002,,,31.0,0.056480999999999996,['Pass'],Pass,0.5900000000000004,-0.5900000000000004,0.0,0.0,0.5
