mpecck/BCQC/bcqc_with_qdt/results/raw/input_16/independent_qc/training/20_workpiece/20200429_095228/wp_15_qc_majority_0.9.csv
production_index,step_idx,production_workcell,qc,consent,winner_qc_list,score,production_time,transport_time,inspection_time,network_time,qc_results,actual_quality,qc_score,score_error,in_winner_counter,in_qc_counter,qc_capability
55.0,1.0,wc_1,,0.0,,,55.0,,,,,Fail,,,,,
55.0,1.0,wc_1,,0.0,,,,0.0,,,,Fail,,,,,
55.0,1.0,wc_1,wc_1,0.0,"[('wc_1', 0.6800000000000005)]",0.6800000000000005,,,37.0,0.002306,['Fail'],Fail,0.6800000000000005,-0.4800000000000005,0.0,0.0,0.7
55.0,1.0,wc_1,,0.0,,,,182.0,,,,Fail,,,,,
55.0,1.0,wc_1,wc_8,0.0,"[('wc_8', 0.3400000000000002), ('wc_1', 0.6800000000000005)]",0.7888000000000004,,,36.0,0.0041659999999999996,['Fail'],Fail,0.3400000000000002,-0.24909090909090928,0.0,0.0,0.3
55.0,1.0,wc_1,,0.0,,,,82.0,,,,Fail,,,,,
55.0,1.0,wc_1,wc_6,1.0,"[('wc_6', 0.8100000000000006), ('wc_1', 0.6800000000000005), ('wc_8', 0.3400000000000002)]",0.9598720000000002,,,31.0,0.046825,['Fail'],Fail,0.8100000000000006,-0.8100000000000006,0.0,0.0,0.7
153.0,1.0,wc_1,,0.0,,,,202.0,,,,Pass,,,,,
153.0,1.0,wc_1,,0.0,,,73.0,,,,,Pass,,,,,
153.0,1.0,wc_1,,0.0,,,,0.0,,,,Pass,,,,,
153.0,1.0,wc_1,wc_1,0.0,"[('wc_1', 0.6900000000000005)]",0.6900000000000005,,,20.0,0.002358,['Pass'],Pass,0.6900000000000005,0.3099999999999995,1.0,1.0,0.7
153.0,1.0,wc_1,,0.0,,,,222.0,,,,Pass,,,,,
153.0,1.0,wc_1,wc_14,0.0,"[('wc_14', 0.31000000000000016), ('wc_1', 0.6900000000000005)]",0.7861000000000005,,,25.0,0.004445,['Pass'],Pass,0.31000000000000016,-0.010000000000000175,0.0,0.0,0.2
153.0,1.0,wc_1,,0.0,,,,321.0,,,,Pass,,,,,
153.0,1.0,wc_1,wc_11,0.0,"[('wc_11', 0.41000000000000025), ('wc_1', 0.6900000000000005), ('wc_14', 0.31000000000000016)]",0.8737990000000003,,,22.0,0.007201,['Pass'],Pass,0.41000000000000025,-0.16000000000000025,2.0,8.0,0.3
153.0,1.0,wc_1,,0.0,,,,41.0,,,,Pass,,,,,
153.0,1.0,wc_1,wc_7,1.0,"[('wc_7', 0.7300000000000005), ('wc_1', 0.6900000000000005), ('wc_14', 0.31000000000000016), ('wc_11', 0.41000000000000025)]",0.9659257300000001,,,26.0,0.050893,['Pass'],Pass,0.7300000000000005,-0.7300000000000005,0.0,0.0,0.6
163.0,4.0,wc_4,,0.0,,,,321.0,,,,Fail,,,,,
163.0,4.0,wc_4,,0.0,,,53.0,,,,,Fail,,,,,
163.0,4.0,wc_4,,0.0,,,,0.0,,,,Fail,,,,,
163.0,4.0,wc_4,wc_4,0.0,"[('wc_4', 0.7000000000000005)]",0.7000000000000005,,,23.0,0.0023,['Pass'],Fail,0.7000000000000005,-0.5000000000000004,1.0,5.0,0.5
163.0,4.0,wc_4,,0.0,,,,61.0,,,,Fail,,,,,
163.0,4.0,wc_4,wc_1,0.0,"[('wc_4', 0.7000000000000005)]",0.7000000000000005,,,31.0,0.005629,['Pass'],Fail,0.7000000000000005,0.2999999999999995,2.0,2.0,0.7
163.0,4.0,wc_4,,0.0,,,,182.0,,,,Fail,,,,,
163.0,4.0,wc_4,wc_8,0.0,"[('wc_8', 0.3500000000000002), ('wc_1', 0.7000000000000005)]",0.8050000000000004,,,32.0,0.007197,['Fail'],Fail,0.3500000000000002,0.1499999999999998,1.0,2.0,0.3
163.0,4.0,wc_4,,0.0,,,,321.0,,,,Fail,,,,,
163.0,4.0,wc_4,wc_5,1.0,"[('wc_5', 0.5700000000000004), ('wc_1', 0.7000000000000005), ('wc_8', 0.3500000000000002)]",0.9161500000000002,,,23.0,0.05146600000000001,['Fail'],Fail,0.5700000000000004,-0.2842857142857147,2.0,7.0,0.5
174.0,4.0,wc_4,,0.0,,,,103.0,,,,Fail,,,,,
174.0,4.0,wc_4,,0.0,,,60.0,,,,,Fail,,,,,
174.0,4.0,wc_4,,0.0,,,,0.0,,,,Fail,,,,,
174.0,4.0,wc_4,wc_4,0.0,"[('wc_4', 0.6900000000000005)]",0.6900000000000005,,,27.0,0.002361,['Fail'],Fail,0.6900000000000005,-0.5233333333333339,1.0,6.0,0.5
174.0,4.0,wc_4,,0.0,,,,61.0,,,,Fail,,,,,
174.0,4.0,wc_4,wc_1,0.0,"[('wc_1', 0.7100000000000005), ('wc_4', 0.6900000000000005)]",0.9101000000000004,,,37.0,0.004163,['Fail'],Fail,0.7100000000000005,0.2899999999999995,3.0,3.0,0.7
174.0,4.0,wc_4,,0.0,,,,0.0,,,,Fail,,,,,
174.0,4.0,wc_4,wc_2,1.0,"[('wc_2', 0.4600000000000003), ('wc_4', 0.6900000000000005), ('wc_1', 0.7100000000000005)]",0.9514540000000002,,,27.0,0.03972,['Fail'],Fail,0.4600000000000003,-0.1742857142857146,2.0,7.0,0.3
185.0,3.0,wc_3,,0.0,,,,0.0,,,,Fail,,,,,
185.0,3.0,wc_3,,0.0,,,59.0,,,,,Fail,,,,,
185.0,3.0,wc_3,,0.0,,,,0.0,,,,Fail,,,,,
185.0,3.0,wc_3,wc_3,0.0,"[('wc_3', 0.31000000000000016)]",0.31000000000000016,,,27.0,0.002034,['Pass'],Fail,0.31000000000000016,-0.21000000000000016,0.0,0.0,0.2
185.0,3.0,wc_3,,0.0,,,,141.0,,,,Fail,,,,,
185.0,3.0,wc_3,wc_12,0.0,"[('wc_3', 0.31000000000000016)]",0.31000000000000016,,,36.0,0.004084,['Pass'],Fail,0.2300000000000001,-0.2300000000000001,0.0,0.0,0.1
185.0,3.0,wc_3,,0.0,,,,182.0,,,,Fail,,,,,
185.0,3.0,wc_3,wc_6,0.0,"[('wc_6', 0.8100000000000006), ('wc_12', 0.2300000000000001)]",0.8537000000000005,,,39.0,0.006318000000000001,['Fail'],Fail,0.8100000000000006,-0.8100000000000006,0.0,3.0,0.7
185.0,3.0,wc_3,,0.0,,,,202.0,,,,Fail,,,,,
185.0,3.0,wc_3,wc_1,1.0,"[('wc_1', 0.7200000000000005), ('wc_12', 0.2300000000000001), ('wc_6', 0.8100000000000006)]",0.9590360000000002,,,36.0,0.045313000000000006,['Fail'],Fail,0.7300000000000005,0.26999999999999946,5.0,5.0,0.7
196.0,3.0,wc_3,,0.0,,,,0.0,,,,Pass,,,,,
196.0,3.0,wc_3,,0.0,,,57.0,,,,,Pass,,,,,
196.0,3.0,wc_3,,0.0,,,,0.0,,,,Pass,,,,,
196.0,3.0,wc_3,wc_3,0.0,"[('wc_3', 0.30000000000000016)]",0.30000000000000016,,,39.0,0.001945,['Fail'],Pass,0.30000000000000016,-0.30000000000000016,0.0,1.0,0.2
196.0,3.0,wc_3,,0.0,,,,81.0,,,,Pass,,,,,
196.0,3.0,wc_3,wc_1,0.0,"[('wc_1', 0.7300000000000005)]",0.7300000000000005,,,29.0,0.0069689999999999995,['Pass'],Pass,0.7300000000000005,0.26999999999999946,5.0,5.0,0.7
196.0,3.0,wc_3,,0.0,,,,243.0,,,,Pass,,,,,
196.0,3.0,wc_3,wc_15,0.0,"[('wc_15', 0.40000000000000024), ('wc_1', 0.7300000000000005)]",0.8380000000000004,,,26.0,0.006104,['Pass'],Pass,0.40000000000000024,-0.3411764705882355,0.0,0.0,0.2
196.0,3.0,wc_3,,0.0,,,,243.0,,,,Pass,,,,,
196.0,3.0,wc_3,wc_7,1.0,"[('wc_7', 0.7300000000000005), ('wc_1', 0.7300000000000005), ('wc_15', 0.40000000000000024)]",0.9562600000000002,,,35.0,0.042457999999999996,['Pass'],Pass,0.7300000000000005,-0.48000000000000054,1.0,4.0,0.6
209.0,4.0,wc_4,,0.0,,,,321.0,,,,Pass,,,,,
209.0,4.0,wc_4,,0.0,,,73.0,,,,,Pass,,,,,
209.0,4.0,wc_4,,0.0,,,,0.0,,,,Pass,,,,,
209.0,4.0,wc_4,wc_4,0.0,"[('wc_4', 0.6900000000000005)]",0.6900000000000005,,,35.0,0.002329,['Pass'],Pass,0.6900000000000005,-0.4677777777777783,2.0,9.0,0.5
209.0,4.0,wc_4,,0.0,,,,182.0,,,,Pass,,,,,
209.0,4.0,wc_4,wc_11,0.0,"[('wc_11', 0.41000000000000025), ('wc_4', 0.6900000000000005)]",0.8171000000000004,,,36.0,0.004405,['Pass'],Pass,0.41000000000000025,-0.17923076923076947,0.0,0.0,0.3
209.0,4.0,wc_4,,0.0,,,,362.0,,,,Pass,,,,,
209.0,4.0,wc_4,wc_5,1.0,"[('wc_5', 0.5700000000000004), ('wc_4', 0.6900000000000005), ('wc_11', 0.41000000000000025)]",0.9213530000000002,,,29.0,0.039538000000000004,['Pass'],Pass,0.5700000000000004,-0.5700000000000004,0.0,0.0,0.5
219.0,2.0,wc_2,,0.0,,,,61.0,,,,Fail,,,,,
219.0,2.0,wc_2,,0.0,,,54.0,,,,,Fail,,,,,
219.0,2.0,wc_2,,0.0,,,,0.0,,,,Fail,,,,,
219.0,2.0,wc_2,wc_2,0.0,"[('wc_2', 0.4600000000000003)]",0.4600000000000003,,,24.0,0.002507,['Pass'],Fail,0.4600000000000003,-0.2600000000000003,0.0,0.0,0.3
219.0,2.0,wc_2,,0.0,,,,162.0,,,,Fail,,,,,
219.0,2.0,wc_2,wc_12,0.0,"[('wc_2', 0.4600000000000003)]",0.4600000000000003,,,26.0,0.004462,['Pass'],Fail,0.2400000000000001,0.09333333333333321,1.0,3.0,0.1
219.0,2.0,wc_2,,0.0,,,,361.0,,,,Fail,,,,,
219.0,2.0,wc_2,wc_11,0.0,"[('wc_11', 0.42000000000000026), ('wc_2', 0.4600000000000003)]",0.6868000000000003,,,33.0,0.0056830000000000006,['Pass'],Fail,0.42000000000000026,0.5799999999999997,1.0,1.0,0.3
219.0,2.0,wc_2,,0.0,,,,101.0,,,,Fail,,,,,
219.0,2.0,wc_2,wc_14,0.0,"[('wc_2', 0.4600000000000003), ('wc_11', 0.42000000000000026)]",0.6868000000000003,,,30.0,0.007807,['Pass'],Fail,0.3200000000000002,-0.15333333333333352,1.0,6.0,0.2
219.0,2.0,wc_2,,0.0,,,,142.0,,,,Fail,,,,,
219.0,2.0,wc_2,wc_6,1.0,"[('wc_6', 0.8100000000000006), ('wc_12', 0.2400000000000001), ('wc_14', 0.3200000000000002)]",0.9018080000000004,,,34.0,0.04461099999999999,['Fail'],Fail,0.8100000000000006,-0.5242857142857149,2.0,7.0,0.7
229.0,2.0,wc_2,,0.0,,,,222.0,,,,Fail,,,,,
229.0,2.0,wc_2,,0.0,,,52.0,,,,,Fail,,,,,
229.0,2.0,wc_2,,0.0,,,,0.0,,,,Fail,,,,,
229.0,2.0,wc_2,wc_2,0.0,"[('wc_2', 0.4500000000000003)]",0.4500000000000003,,,21.0,0.002306,['Pass'],Fail,0.4500000000000003,-0.4500000000000003,0.0,1.0,0.3
229.0,2.0,wc_2,,0.0,,,,162.0,,,,Fail,,,,,
229.0,2.0,wc_2,wc_12,0.0,"[('wc_2', 0.4500000000000003)]",0.4500000000000003,,,28.0,0.0044340000000000004,['Pass'],Fail,0.2500000000000001,0.2499999999999999,2.0,4.0,0.1
229.0,2.0,wc_2,,0.0,,,,222.0,,,,Fail,,,,,
229.0,2.0,wc_2,wc_8,0.0,"[('wc_8', 0.3600000000000002), ('wc_12', 0.2500000000000001)]",0.5200000000000002,,,27.0,0.006024999999999999,['Fail'],Fail,0.3600000000000002,-0.11000000000000021,2.0,8.0,0.3
229.0,2.0,wc_2,,0.0,,,,301.0,,,,Fail,,,,,
229.0,2.0,wc_2,wc_4,0.0,"[('wc_4', 0.6900000000000005), ('wc_12', 0.2500000000000001), ('wc_8', 0.3600000000000002)]",0.8512000000000003,,,33.0,0.008033,['Fail'],Fail,0.6900000000000005,-0.6900000000000005,0.0,1.0,0.5
229.0,2.0,wc_2,,0.0,,,,141.0,,,,Fail,,,,,
229.0,2.0,wc_2,wc_13,1.0,"[('wc_13', 0.3600000000000002), ('wc_12', 0.2500000000000001), ('wc_8', 0.3600000000000002), ('wc_4', 0.6900000000000005)]",0.9047680000000002,,,29.0,0.044607999999999995,['Fail'],Fail,0.3600000000000002,-0.3600000000000002,0.0,0.0,0.2
239.0,2.0,wc_2,,0.0,,,,242.0,,,,Pass,,,,,
239.0,2.0,wc_2,,0.0,,,54.0,,,,,Pass,,,,,
239.0,2.0,wc_2,,0.0,,,,0.0,,,,Pass,,,,,
239.0,2.0,wc_2,wc_2,0.0,"[('wc_2', 0.4400000000000003)]",0.4400000000000003,,,32.0,0.002256,['Fail'],Pass,0.4400000000000003,-0.4400000000000003,0.0,2.0,0.3
239.0,2.0,wc_2,,0.0,,,,0.0,,,,Pass,,,,,
239.0,2.0,wc_2,wc_3,0.0,"[('wc_3', 0.29000000000000015), ('wc_2', 0.4400000000000003)]",0.6024000000000003,,,26.0,0.0039559999999999994,['Fail'],Pass,0.29000000000000015,-0.29000000000000015,0.0,5.0,0.2
239.0,2.0,wc_2,,0.0,,,,242.0,,,,Pass,,,,,
239.0,2.0,wc_2,wc_17,0.0,"[('wc_17', 0.9000000000000007)]",0.9000000000000007,,,21.0,0.005871,['Pass'],Pass,0.9000000000000007,-0.8000000000000007,0.0,0.0,0.9
239.0,2.0,wc_2,,0.0,,,,103.0,,,,Pass,,,,,
239.0,2.0,wc_2,wc_16,0.0,"[('wc_17', 0.9000000000000007)]",0.9000000000000007,,,40.0,0.007764999999999999,['Pass'],Pass,0.2600000000000001,-0.1830769230769232,0.0,0.0,0.1
239.0,2.0,wc_2,,0.0,,,,203.0,,,,Pass,,,,,
239.0,2.0,wc_2,wc_6,0.0,"[('wc_6', 0.8100000000000006), ('wc_17', 0.9000000000000007)]",0.9810000000000002,,,26.0,0.011706999999999999,['Pass'],Pass,0.8100000000000006,-0.5600000000000006,2.0,8.0,0.7
239.0,2.0,wc_2,,0.0,,,,202.0,,,,Pass,,,,,
239.0,2.0,wc_2,wc_1,1.0,"[('wc_1', 0.7400000000000005), ('wc_17', 0.9000000000000007), ('wc_6', 0.8100000000000006)]",0.9950600000000001,,,29.0,0.046899,['Pass'],Pass,0.7400000000000005,-0.7400000000000005,0.0,0.0,0.7
263.0,5.0,wc_5,,0.0,,,,0.0,,,,Pass,,,,,
263.0,5.0,wc_5,,0.0,,,64.0,,,,,Pass,,,,,
263.0,5.0,wc_5,,0.0,,,,0.0,,,,Pass,,,,,
263.0,5.0,wc_5,wc_5,0.0,"[('wc_5', 0.5700000000000004)]",0.5700000000000004,,,31.0,0.002297,['Fail'],Pass,0.5700000000000004,-0.5700000000000004,0.0,3.0,0.5
263.0,5.0,wc_5,,0.0,,,,101.0,,,,Pass,,,,,
263.0,5.0,wc_5,wc_12,0.0,"[('wc_5', 0.5700000000000004)]",0.5700000000000004,,,26.0,0.004814000000000001,['Fail'],Pass,0.2600000000000001,0.23999999999999988,3.0,6.0,0.1
263.0,5.0,wc_5,,0.0,,,,321.0,,,,Pass,,,,,
263.0,5.0,wc_5,wc_9,0.0,"[('wc_9', 0.7400000000000005), ('wc_12', 0.2600000000000001)]",0.8076000000000004,,,32.0,0.006722,['Pass'],Pass,0.7400000000000005,-0.6066666666666672,0.0,0.0,0.8
263.0,5.0,wc_5,,0.0,,,,202.0,,,,Pass,,,,,
263.0,5.0,wc_5,wc_17,1.0,"[('wc_17', 0.9100000000000007), ('wc_12', 0.2600000000000001), ('wc_9', 0.7400000000000005)]",0.9826840000000002,,,27.0,0.04565,['Pass'],Pass,0.9200000000000007,0.0799999999999993,2.0,2.0,0.9
280.0,6.0,wc_6,,0.0,,,,183.0,,,,Pass,,,,,
280.0,6.0,wc_6,,0.0,,,77.0,,,,,Pass,,,,,
280.0,6.0,wc_6,,0.0,,,,0.0,,,,Pass,,,,,
280.0,6.0,wc_6,wc_6,0.0,"[('wc_6', 0.8100000000000006)]",0.8100000000000006,,,23.0,0.002662,['Pass'],Pass,0.8100000000000006,-0.5100000000000007,0.0,0.0,0.7
280.0,6.0,wc_6,,0.0,,,,0.0,,,,Pass,,,,,
280.0,6.0,wc_6,wc_9,0.0,"[('wc_9', 0.7500000000000006), ('wc_6', 0.8100000000000006)]",0.9525000000000002,,,34.0,0.006777,['Pass'],Pass,0.7500000000000006,0.24999999999999944,1.0,1.0,0.8
280.0,6.0,wc_6,,0.0,,,,382.0,,,,Pass,,,,,
280.0,6.0,wc_6,wc_4,1.0,"[('wc_4', 0.6900000000000005), ('wc_6', 0.8100000000000006), ('wc_9', 0.7500000000000006)]",0.9852750000000001,,,23.0,0.050408999999999995,['Pass'],Pass,0.6900000000000005,-0.2900000000000005,2.0,5.0,0.5
293.0,10.0,wc_10,,0.0,,,,162.0,,,,Pass,,,,,
293.0,10.0,wc_10,,0.0,,,72.0,,,,,Pass,,,,,
293.0,10.0,wc_10,,0.0,,,,0.0,,,,Pass,,,,,
293.0,10.0,wc_10,wc_10,0.0,"[('wc_10', 0.9800000000000008)]",0.9800000000000008,,,39.0,0.002987,['Pass'],Pass,0.9800000000000008,-0.8133333333333341,0.0,0.0,1.0
293.0,10.0,wc_10,,0.0,,,,243.0,,,,Pass,,,,,
293.0,10.0,wc_10,wc_2,0.0,"[('wc_2', 0.43000000000000027), ('wc_10', 0.9800000000000008)]",0.9886000000000005,,,39.0,0.003998,['Pass'],Pass,0.43000000000000027,-0.43000000000000027,0.0,5.0,0.3
293.0,10.0,wc_10,,0.0,,,,263.0,,,,Pass,,,,,
293.0,10.0,wc_10,wc_17,1.0,"[('wc_17', 0.9200000000000007), ('wc_10', 0.9800000000000008), ('wc_2', 0.43000000000000027)]",0.9990880000000001,,,25.0,0.043987,['Pass'],Pass,0.9200000000000007,-0.1700000000000007,3.0,4.0,0.9
306.0,8.0,wc_8,,0.0,,,,223.0,,,,Fail,,,,,
306.0,8.0,wc_8,,0.0,,,51.0,,,,,Fail,,,,,
306.0,8.0,wc_8,,0.0,,,,0.0,,,,Fail,,,,,
306.0,8.0,wc_8,wc_8,0.0,"[('wc_8', 0.3600000000000002)]",0.3600000000000002,,,33.0,0.002463,['Fail'],Fail,0.3600000000000002,-0.12923076923076943,0.0,0.0,0.3
306.0,8.0,wc_8,,0.0,,,,203.0,,,,Fail,,,,,
306.0,8.0,wc_8,wc_16,0.0,"[('wc_8', 0.3600000000000002)]",0.3600000000000002,,,25.0,0.003997,['Fail'],Fail,0.2500000000000001,-0.2500000000000001,0.0,4.0,0.1
306.0,8.0,wc_8,,0.0,,,,263.0,,,,Fail,,,,,
306.0,8.0,wc_8,wc_1,0.0,"[('wc_1', 0.7400000000000005), ('wc_8', 0.3600000000000002)]",0.8336000000000003,,,23.0,0.005696,['Fail'],Fail,0.7400000000000005,-0.7400000000000005,0.0,3.0,0.7
306.0,8.0,wc_8,,0.0,,,,243.0,,,,Fail,,,,,
306.0,8.0,wc_8,wc_15,0.0,"[('wc_8', 0.3600000000000002), ('wc_1', 0.7400000000000005)]",0.8336000000000003,,,37.0,0.007889,['Fail'],Fail,0.41000000000000025,-0.28500000000000025,1.0,8.0,0.2
306.0,8.0,wc_8,,0.0,,,,303.0,,,,Fail,,,,,
306.0,8.0,wc_8,wc_2,1.0,"[('wc_2', 0.43000000000000027), ('wc_8', 0.3600000000000002), ('wc_1', 0.7400000000000005)]",0.9051520000000003,,,36.0,0.045208,['Fail'],Fail,0.43000000000000027,-0.14428571428571457,2.0,7.0,0.3
316.0,7.0,wc_7,,0.0,,,,142.0,,,,Pass,,,,,
316.0,7.0,wc_7,,0.0,,,51.0,,,,,Pass,,,,,
316.0,7.0,wc_7,,0.0,,,,0.0,,,,Pass,,,,,
316.0,7.0,wc_7,wc_7,0.0,"[('wc_7', 0.7300000000000005)]",0.7300000000000005,,,30.0,0.002273,['Pass'],Pass,0.7300000000000005,-0.6466666666666672,0.0,0.0,0.6
316.0,7.0,wc_7,,0.0,,,,321.0,,,,Pass,,,,,
316.0,7.0,wc_7,wc_4,0.0,"[('wc_4', 0.6900000000000005), ('wc_7', 0.7300000000000005)]",0.9163000000000003,,,38.0,0.0059900000000000005,['Pass'],Pass,0.6900000000000005,-0.4042857142857148,2.0,7.0,0.5
316.0,7.0,wc_7,,0.0,,,,103.0,,,,Pass,,,,,
316.0,7.0,wc_7,wc_3,0.0,"[('wc_7', 0.7300000000000005), ('wc_4', 0.6900000000000005)]",0.9163000000000003,,,40.0,0.006326,['Pass'],Pass,0.28000000000000014,-0.28000000000000014,0.0,0.0,0.2
316.0,7.0,wc_7,,0.0,,,,162.0,,,,Pass,,,,,
316.0,7.0,wc_7,wc_9,1.0,"[('wc_9', 0.7600000000000006), ('wc_7', 0.7300000000000005), ('wc_4', 0.6900000000000005)]",0.9799120000000001,,,36.0,0.04693200000000001,['Pass'],Pass,0.7600000000000006,-0.1600000000000006,3.0,5.0,0.8
332.0,11.0,wc_11,,0.0,,,,0.0,,,,Fail,,,,,
332.0,11.0,wc_11,,0.0,,,79.0,,,,,Fail,,,,,
332.0,11.0,wc_11,,0.0,,,,0.0,,,,Fail,,,,,
332.0,11.0,wc_11,wc_11,0.0,"[('wc_11', 0.42000000000000026)]",0.42000000000000026,,,39.0,0.002295,['Fail'],Fail,0.42000000000000026,-0.30888888888888916,1.0,9.0,0.3
332.0,11.0,wc_11,,0.0,,,,142.0,,,,Fail,,,,,
332.0,11.0,wc_11,wc_16,0.0,"[('wc_11', 0.42000000000000026)]",0.42000000000000026,,,21.0,0.004373,['Fail'],Fail,0.2400000000000001,-0.2400000000000001,0.0,6.0,0.1
332.0,11.0,wc_11,,0.0,,,,81.0,,,,Fail,,,,,
332.0,11.0,wc_11,wc_14,0.0,"[('wc_14', 0.3200000000000002), ('wc_16', 0.2400000000000001)]",0.4832000000000002,,,37.0,0.005888,['Pass'],Fail,0.3200000000000002,-0.17714285714285732,0.0,0.0,0.2
332.0,11.0,wc_11,,0.0,,,,222.0,,,,Fail,,,,,
332.0,11.0,wc_11,wc_2,0.0,"[('wc_2', 0.43000000000000027), ('wc_11', 0.42000000000000026)]",0.6694000000000003,,,31.0,0.00782,['Fail'],Fail,0.43000000000000027,-0.18000000000000027,2.0,8.0,0.3
332.0,11.0,wc_11,,0.0,,,,102.0,,,,Fail,,,,,
332.0,11.0,wc_11,wc_1,1.0,"[('wc_1', 0.7400000000000005), ('wc_11', 0.42000000000000026), ('wc_2', 0.43000000000000027)]",0.9140440000000003,,,40.0,0.04683699999999999,['Fail'],Fail,0.7400000000000005,-0.40666666666666723,2.0,6.0,0.7
347.0,9.0,wc_9,,0.0,,,,203.0,,,,Fail,,,,,
347.0,9.0,wc_9,,0.0,,,78.0,,,,,Fail,,,,,
347.0,9.0,wc_9,,0.0,,,,0.0,,,,Fail,,,,,
347.0,9.0,wc_9,wc_9,0.0,"[('wc_9', 0.7600000000000006)]",0.7600000000000006,,,22.0,0.002283,['Fail'],Fail,0.7600000000000006,-0.26000000000000056,3.0,6.0,0.8
347.0,9.0,wc_9,,0.0,,,,362.0,,,,Fail,,,,,
347.0,9.0,wc_9,wc_3,0.0,"[('wc_9', 0.7600000000000006)]",0.7600000000000006,,,38.0,0.0047220000000000005,['Fail'],Fail,0.27000000000000013,-0.27000000000000013,0.0,2.0,0.2
347.0,9.0,wc_9,,0.0,,,,202.0,,,,Fail,,,,,
347.0,9.0,wc_9,wc_11,0.0,"[('wc_11', 0.42000000000000026), ('wc_9', 0.7600000000000006)]",0.8608000000000005,,,36.0,0.006568,['Fail'],Fail,0.42000000000000026,-0.42000000000000026,0.0,0.0,0.3
347.0,9.0,wc_9,,0.0,,,,61.0,,,,Fail,,,,,
347.0,9.0,wc_9,wc_12,0.0,"[('wc_9', 0.7600000000000006), ('wc_11', 0.42000000000000026)]",0.8608000000000005,,,27.0,0.007655,['Fail'],Fail,0.27000000000000013,0.06333333333333319,0.0,0.0,0.1
347.0,9.0,wc_9,,0.0,,,,202.0,,,,Fail,,,,,
347.0,9.0,wc_9,wc_7,0.0,"[('wc_7', 0.7400000000000005), ('wc_3', 0.27000000000000013), ('wc_12', 0.27000000000000013)]",0.8614460000000004,,,39.0,0.009146999999999999,['Pass'],Fail,0.7400000000000005,-0.24000000000000055,1.0,2.0,0.6
347.0,9.0,wc_9,,0.0,,,,0.0,,,,Fail,,,,,
347.0,9.0,wc_9,wc_10,1.0,"[('wc_10', 0.9900000000000008), ('wc_9', 0.7600000000000006), ('wc_11', 0.42000000000000026)]",0.9986080000000002,,,30.0,0.045122,['Fail'],Fail,0.9900000000000008,-0.5900000000000007,2.0,5.0,1.0
359.0,8.0,wc_8,,0.0,,,,81.0,,,,Fail,,,,,
359.0,8.0,wc_8,,0.0,,,70.0,,,,,Fail,,,,,
359.0,8.0,wc_8,,0.0,,,,0.0,,,,Fail,,,,,
359.0,8.0,wc_8,wc_8,0.0,"[('wc_8', 0.3700000000000002)]",0.3700000000000002,,,39.0,0.002488,['Pass'],Fail,0.3700000000000002,-0.12000000000000022,1.0,4.0,0.3
359.0,8.0,wc_8,,0.0,,,,142.0,,,,Fail,,,,,
359.0,8.0,wc_8,wc_13,0.0,"[('wc_13', 0.3600000000000002), ('wc_8', 0.3700000000000002)]",0.5968000000000002,,,26.0,0.004667,['Pass'],Fail,0.3600000000000002,-0.3600000000000002,0.0,8.0,0.2
359.0,8.0,wc_8,,0.0,,,,0.0,,,,Fail,,,,,
359.0,8.0,wc_8,wc_16,0.0,"[('wc_16', 0.2300000000000001), ('wc_8', 0.3700000000000002), ('wc_13', 0.3600000000000002)]",0.6895360000000003,,,40.0,0.006933999999999999,['Pass'],Fail,0.2300000000000001,-0.2300000000000001,0.0,8.0,0.1
359.0,8.0,wc_8,,0.0,,,,203.0,,,,Fail,,,,,
359.0,8.0,wc_8,wc_6,0.0,"[('wc_6', 0.8200000000000006)]",0.8200000000000006,,,22.0,0.007623999999999999,['Fail'],Fail,0.8200000000000006,-0.653333333333334,1.0,6.0,0.7
359.0,8.0,wc_8,,0.0,,,,222.0,,,,Fail,,,,,
359.0,8.0,wc_8,wc_2,0.0,"[('wc_2', 0.43000000000000027), ('wc_8', 0.3700000000000002), ('wc_13', 0.3600000000000002), ('wc_16', 0.2300000000000001)]",0.8230355200000002,,,29.0,0.010253000000000002,['Pass'],Fail,0.43000000000000027,-0.13000000000000028,0.0,0.0,0.3
359.0,8.0,wc_8,,0.0,,,,223.0,,,,Fail,,,,,
359.0,8.0,wc_8,wc_11,0.0,"[('wc_11', 0.43000000000000027), ('wc_6', 0.8200000000000006)]",0.8974000000000004,,,32.0,0.011204,['Fail'],Fail,0.43000000000000027,0.5699999999999997,1.0,1.0,0.3
359.0,8.0,wc_8,,0.0,,,,342.0,,,,Fail,,,,,
359.0,8.0,wc_8,wc_4,1.0,"[('wc_4', 0.6900000000000005), ('wc_8', 0.3700000000000002), ('wc_13', 0.3600000000000002), ('wc_16', 0.2300000000000001), ('wc_2', 0.43000000000000027)]",0.9451410112000002,,,31.0,0.04679,['Pass'],Fail,0.6900000000000005,-0.6900000000000005,0.0,0.0,0.5
372.0,11.0,wc_11,,0.0,,,,182.0,,,,Fail,,,,,
372.0,11.0,wc_11,,0.0,,,65.0,,,,,Fail,,,,,
372.0,11.0,wc_11,,0.0,,,,0.0,,,,Fail,,,,,
372.0,11.0,wc_11,wc_11,0.0,"[('wc_11', 0.43000000000000027)]",0.43000000000000027,,,25.0,0.002358,['Pass'],Fail,0.43000000000000027,0.06999999999999973,1.0,2.0,0.3
372.0,11.0,wc_11,,0.0,,,,83.0,,,,Fail,,,,,
372.0,11.0,wc_11,wc_9,0.0,"[('wc_9', 0.7600000000000006)]",0.7600000000000006,,,27.0,0.005441,['Fail'],Fail,0.7600000000000006,-0.26000000000000056,4.0,8.0,0.8
372.0,11.0,wc_11,,0.0,,,,182.0,,,,Fail,,,,,
372.0,11.0,wc_11,wc_16,0.0,"[('wc_9', 0.7600000000000006)]",0.7600000000000006,,,30.0,0.0065130000000000006,['Fail'],Fail,0.2300000000000001,-0.11888888888888899,1.0,9.0,0.1
372.0,11.0,wc_11,,0.0,,,,422.0,,,,Fail,,,,,
372.0,11.0,wc_11,wc_5,0.0,"[('wc_5', 0.5600000000000004), ('wc_9', 0.7600000000000006)]",0.8944000000000003,,,24.0,0.007411,['Fail'],Fail,0.5600000000000004,-0.5600000000000004,0.0,0.0,0.5
372.0,11.0,wc_11,,0.0,,,,61.0,,,,Fail,,,,,
372.0,11.0,wc_11,wc_6,1.0,"[('wc_6', 0.8100000000000006), ('wc_9', 0.7600000000000006), ('wc_5', 0.5600000000000004)]",0.9799360000000001,,,27.0,0.043396000000000004,['Fail'],Fail,0.8100000000000006,-0.5600000000000006,2.0,8.0,0.7
388.0,11.0,wc_11,,0.0,,,,0.0,,,,Fail,,,,,
388.0,11.0,wc_11,,0.0,,,73.0,,,,,Fail,,,,,
388.0,11.0,wc_11,,0.0,,,,0.0,,,,Fail,,,,,
388.0,11.0,wc_11,wc_11,0.0,"[('wc_11', 0.42000000000000026)]",0.42000000000000026,,,32.0,0.002741,['Pass'],Fail,0.42000000000000026,-0.08666666666666695,1.0,3.0,0.3
388.0,11.0,wc_11,,0.0,,,,61.0,,,,Fail,,,,,
388.0,11.0,wc_11,wc_12,0.0,"[('wc_11', 0.42000000000000026)]",0.42000000000000026,,,31.0,0.004306,['Pass'],Fail,0.2600000000000001,-0.2600000000000001,0.0,3.0,0.1
388.0,11.0,wc_11,,0.0,,,,361.0,,,,Fail,,,,,
388.0,11.0,wc_11,wc_3,0.0,"[('wc_3', 0.2600000000000001), ('wc_12', 0.2600000000000001)]",0.45240000000000014,,,40.0,0.006118,['Fail'],Fail,0.2600000000000001,-0.2600000000000001,0.0,5.0,0.2
388.0,11.0,wc_11,,0.0,,,,162.0,,,,Fail,,,,,
388.0,11.0,wc_11,wc_9,0.0,"[('wc_9', 0.7600000000000006), ('wc_12', 0.2600000000000001), ('wc_3', 0.2600000000000001)]",0.8685760000000003,,,20.0,0.007769999999999999,['Fail'],Fail,0.7600000000000006,-0.20444444444444498,5.0,9.0,0.8
388.0,11.0,wc_11,,0.0,,,,182.0,,,,Fail,,,,,
388.0,11.0,wc_11,wc_16,0.0,"[('wc_12', 0.2600000000000001), ('wc_3', 0.2600000000000001), ('wc_9', 0.7600000000000006)]",0.8685760000000003,,,31.0,0.010532999999999999,['Fail'],Fail,0.22000000000000008,-0.22000000000000008,0.0,0.0,0.1
388.0,11.0,wc_11,,0.0,,,,61.0,,,,Fail,,,,,
388.0,11.0,wc_11,wc_13,0.0,"[('wc_12', 0.2600000000000001), ('wc_3', 0.2600000000000001), ('wc_9', 0.7600000000000006)]",0.8685760000000003,,,33.0,0.011178,['Fail'],Fail,0.3600000000000002,-0.26000000000000023,0.0,0.0,0.2
388.0,11.0,wc_11,,0.0,,,,202.0,,,,Fail,,,,,
388.0,11.0,wc_11,wc_8,0.0,"[('wc_12', 0.2600000000000001), ('wc_3', 0.2600000000000001), ('wc_9', 0.7600000000000006)]",0.8685760000000003,,,33.0,0.013865,['Fail'],Fail,0.3800000000000002,-0.04666666666666691,2.0,6.0,0.3
388.0,11.0,wc_11,,0.0,,,,223.0,,,,Fail,,,,,
388.0,11.0,wc_11,wc_17,1.0,"[('wc_17', 0.9200000000000007), ('wc_12', 0.2600000000000001), ('wc_3', 0.2600000000000001), ('wc_9', 0.7600000000000006)]",0.9894860800000002,,,25.0,0.051318,['Fail'],Fail,0.9200000000000007,-0.9200000000000007,0.0,0.0,0.9
401.0,11.0,wc_11,,0.0,,,,362.0,,,,Fail,,,,,
401.0,11.0,wc_11,,0.0,,,71.0,,,,,Fail,,,,,
401.0,11.0,wc_11,,0.0,,,,0.0,,,,Fail,,,,,
401.0,11.0,wc_11,wc_11,0.0,"[('wc_11', 0.41000000000000025)]",0.41000000000000025,,,37.0,0.003231,['Fail'],Fail,0.41000000000000025,-0.16000000000000025,1.0,4.0,0.3
401.0,11.0,wc_11,,0.0,,,,101.0,,,,Fail,,,,,
401.0,11.0,wc_11,wc_14,0.0,"[('wc_14', 0.31000000000000016), ('wc_11', 0.41000000000000025)]",0.5929000000000002,,,29.0,0.004063,['Fail'],Fail,0.31000000000000016,-0.31000000000000016,0.0,5.0,0.2
401.0,11.0,wc_11,,0.0,,,,361.0,,,,Fail,,,,,
401.0,11.0,wc_11,wc_5,0.0,"[('wc_5', 0.5700000000000004), ('wc_11', 0.41000000000000025), ('wc_14', 0.31000000000000016)]",0.8249470000000003,,,33.0,0.006411999999999999,['Fail'],Fail,0.5700000000000004,-0.0700000000000004,1.0,2.0,0.5
401.0,11.0,wc_11,,0.0,,,,122.0,,,,Fail,,,,,
401.0,11.0,wc_11,wc_9,1.0,"[('wc_9', 0.7600000000000006), ('wc_11', 0.41000000000000025), ('wc_14', 0.31000000000000016), ('wc_5', 0.5700000000000004)]",0.9579872800000002,,,24.0,0.04359099999999999,['Fail'],Fail,0.7700000000000006,0.22999999999999943,1.0,1.0,0.8
420.0,8.0,wc_8,,0.0,,,,101.0,,,,Pass,,,,,
420.0,8.0,wc_8,,0.0,,,80.0,,,,,Pass,,,,,
420.0,8.0,wc_8,,0.0,,,,0.0,,,,Pass,,,,,
420.0,8.0,wc_8,wc_8,0.0,"[('wc_8', 0.3700000000000002)]",0.3700000000000002,,,31.0,0.002557,['Fail'],Pass,0.3700000000000002,-0.12000000000000022,2.0,8.0,0.3
420.0,8.0,wc_8,,0.0,,,,0.0,,,,Pass,,,,,
420.0,8.0,wc_8,wc_11,0.0,"[('wc_11', 0.41000000000000025)]",0.41000000000000025,,,22.0,0.005171,['Pass'],Pass,0.41000000000000025,-0.010000000000000231,2.0,5.0,0.3
420.0,8.0,wc_8,,0.0,,,,162.0,,,,Pass,,,,,
420.0,8.0,wc_8,wc_17,0.0,"[('wc_17', 0.9200000000000007), ('wc_11', 0.41000000000000025)]",0.9528000000000004,,,39.0,0.007089,['Pass'],Pass,0.9200000000000007,-0.9200000000000007,0.0,1.0,0.9
420.0,8.0,wc_8,,0.0,,,,41.0,,,,Pass,,,,,
420.0,8.0,wc_8,wc_13,1.0,"[('wc_13', 0.3500000000000002), ('wc_11', 0.41000000000000025), ('wc_17', 0.9200000000000007)]",0.9693200000000003,,,30.0,0.04427,['Pass'],Pass,0.3500000000000002,-0.016666666666666885,1.0,3.0,0.2
435.0,11.0,wc_11,,0.0,,,,341.0,,,,Fail,,,,,
435.0,11.0,wc_11,,0.0,,,53.0,,,,,Fail,,,,,
435.0,11.0,wc_11,,0.0,,,,0.0,,,,Fail,,,,,
435.0,11.0,wc_11,wc_11,0.0,"[('wc_11', 0.42000000000000026)]",0.42000000000000026,,,27.0,0.002226,['Fail'],Fail,0.42000000000000026,0.07999999999999974,3.0,6.0,0.3
435.0,11.0,wc_11,,0.0,,,,83.0,,,,Fail,,,,,
435.0,11.0,wc_11,wc_9,0.0,"[('wc_9', 0.7700000000000006), ('wc_11', 0.42000000000000026)]",0.8666000000000004,,,40.0,0.004937,['Fail'],Fail,0.7700000000000006,-0.2700000000000006,1.0,2.0,0.8
435.0,11.0,wc_11,,0.0,,,,362.0,,,,Fail,,,,,
435.0,11.0,wc_11,wc_3,0.0,"[('wc_11', 0.42000000000000026), ('wc_9', 0.7700000000000006)]",0.8666000000000004,,,24.0,0.00632,['Fail'],Fail,0.2600000000000001,-0.13500000000000012,1.0,8.0,0.2
435.0,11.0,wc_11,,0.0,,,,81.0,,,,Fail,,,,,
435.0,11.0,wc_11,wc_1,1.0,"[('wc_1', 0.7400000000000005), ('wc_11', 0.42000000000000026), ('wc_9', 0.7700000000000006)]",0.9653160000000002,,,29.0,0.044793999999999994,['Fail'],Fail,0.7400000000000005,-0.7400000000000005,0.0,0.0,0.7
454.0,11.0,wc_11,,0.0,,,,243.0,,,,Pass,,,,,
454.0,11.0,wc_11,,0.0,,,57.0,,,,,Pass,,,,,
454.0,11.0,wc_11,,0.0,,,,0.0,,,,Pass,,,,,
454.0,11.0,wc_11,wc_11,0.0,"[('wc_11', 0.43000000000000027)]",0.43000000000000027,,,27.0,0.002326,['Fail'],Pass,0.43000000000000027,0.14142857142857113,4.0,7.0,0.3
454.0,11.0,wc_11,,0.0,,,,362.0,,,,Pass,,,,,
454.0,11.0,wc_11,wc_5,0.0,"[('wc_5', 0.5800000000000004)]",0.5800000000000004,,,28.0,0.004537,['Pass'],Pass,0.5800000000000004,-0.18000000000000038,2.0,5.0,0.5
454.0,11.0,wc_11,,0.0,,,,61.0,,,,Pass,,,,,
454.0,11.0,wc_11,wc_2,0.0,"[('wc_2', 0.4400000000000003), ('wc_11', 0.43000000000000027)]",0.6808000000000003,,,27.0,0.013567,['Fail'],Pass,0.4400000000000003,-0.27333333333333365,1.0,6.0,0.3
454.0,11.0,wc_11,,0.0,,,,263.0,,,,Pass,,,,,
454.0,11.0,wc_11,wc_17,0.0,"[('wc_17', 0.9200000000000007), ('wc_5', 0.5800000000000004)]",0.9664000000000004,,,38.0,0.008106,['Pass'],Pass,0.9200000000000007,-0.5866666666666673,1.0,3.0,0.9
454.0,11.0,wc_11,,0.0,,,,83.0,,,,Pass,,,,,
454.0,11.0,wc_11,wc_15,0.0,"[('wc_5', 0.5800000000000004), ('wc_17', 0.9200000000000007)]",0.9664000000000004,,,27.0,0.010617,['Pass'],Pass,0.40000000000000024,-0.34444444444444466,0.0,0.0,0.2
454.0,11.0,wc_11,,0.0,,,,362.0,,,,Pass,,,,,
454.0,11.0,wc_11,wc_9,0.0,"[('wc_5', 0.5800000000000004), ('wc_17', 0.9200000000000007)]",0.9664000000000004,,,32.0,0.011791,['Pass'],Pass,0.7700000000000006,-0.10333333333333394,2.0,3.0,0.8
454.0,11.0,wc_11,,0.0,,,,101.0,,,,Pass,,,,,
454.0,11.0,wc_11,wc_8,1.0,"[('wc_8', 0.3600000000000002), ('wc_5', 0.5800000000000004), ('wc_17', 0.9200000000000007)]",0.9784960000000003,,,29.0,0.047994999999999996,['Pass'],Pass,0.3600000000000002,-0.3600000000000002,0.0,0.0,0.3
474.0,9.0,wc_9,,0.0,,,,0.0,,,,Fail,,,,,
474.0,9.0,wc_9,,0.0,,,64.0,,,,,Fail,,,,,
474.0,9.0,wc_9,,0.0,,,,0.0,,,,Fail,,,,,
474.0,9.0,wc_9,wc_9,0.0,"[('wc_9', 0.7600000000000006)]",0.7600000000000006,,,20.0,0.002083,['Fail'],Fail,0.7600000000000006,-0.26000000000000056,2.0,4.0,0.8
474.0,9.0,wc_9,,0.0,,,,182.0,,,,Fail,,,,,
474.0,9.0,wc_9,wc_16,0.0,"[('wc_9', 0.7600000000000006)]",0.7600000000000006,,,35.0,0.004986,['Fail'],Fail,0.21000000000000008,-0.21000000000000008,0.0,5.0,0.1
474.0,9.0,wc_9,,0.0,,,,223.0,,,,Fail,,,,,
474.0,9.0,wc_9,wc_7,0.0,"[('wc_7', 0.7300000000000005), ('wc_16', 0.21000000000000008)]",0.7867000000000004,,,29.0,0.005769,['Pass'],Fail,0.7300000000000005,-0.6300000000000006,0.0,0.0,0.6
474.0,9.0,wc_9,,0.0,,,,341.0,,,,Fail,,,,,
474.0,9.0,wc_9,wc_5,0.0,"[('wc_5', 0.5800000000000004), ('wc_9', 0.7600000000000006)]",0.8992000000000003,,,39.0,0.007606,['Fail'],Fail,0.5800000000000004,-0.0800000000000004,3.0,6.0,0.5
474.0,9.0,wc_9,,0.0,,,,202.0,,,,Fail,,,,,
474.0,9.0,wc_9,wc_17,1.0,"[('wc_17', 0.9200000000000007), ('wc_9', 0.7600000000000006), ('wc_5', 0.5800000000000004)]",0.9919360000000002,,,36.0,0.04634799999999999,['Fail'],Fail,0.9200000000000007,-0.32000000000000073,3.0,5.0,0.9
493.0,9.0,wc_9,,0.0,,,,322.0,,,,Pass,,,,,
493.0,9.0,wc_9,,0.0,,,65.0,,,,,Pass,,,,,
493.0,9.0,wc_9,,0.0,,,,0.0,,,,Pass,,,,,
493.0,9.0,wc_9,wc_9,0.0,"[('wc_9', 0.7600000000000006)]",0.7600000000000006,,,35.0,0.002401,['Pass'],Pass,0.7600000000000006,-0.1600000000000006,3.0,5.0,0.8
493.0,9.0,wc_9,,0.0,,,,61.0,,,,Pass,,,,,
493.0,9.0,wc_9,wc_6,0.0,"[('wc_6', 0.8100000000000006), ('wc_9', 0.7600000000000006)]",0.9544000000000002,,,36.0,0.004006,['Pass'],Pass,0.8100000000000006,-0.6671428571428577,0.0,0.0,0.7
493.0,9.0,wc_9,,0.0,,,,222.0,,,,Pass,,,,,
493.0,9.0,wc_9,wc_2,0.0,"[('wc_9', 0.7600000000000006), ('wc_6', 0.8100000000000006)]",0.9544000000000002,,,28.0,0.00617,['Pass'],Pass,0.43000000000000027,-0.30500000000000027,1.0,8.0,0.3
493.0,9.0,wc_9,,0.0,,,,182.0,,,,Pass,,,,,
493.0,9.0,wc_9,wc_13,1.0,"[('wc_13', 0.3500000000000002), ('wc_9', 0.7600000000000006), ('wc_6', 0.8100000000000006)]",0.9703600000000002,,,27.0,0.041932,['Pass'],Pass,0.3500000000000002,-0.0642857142857145,2.0,7.0,0.2
504.0,12.0,wc_12,,0.0,,,,102.0,,,,Fail,,,,,
504.0,12.0,wc_12,,0.0,,,70.0,,,,,Fail,,,,,
504.0,12.0,wc_12,,0.0,,,,0.0,,,,Fail,,,,,
504.0,12.0,wc_12,wc_12,0.0,"[('wc_12', 0.2600000000000001)]",0.2600000000000001,,,20.0,0.002335,['Pass'],Fail,0.2600000000000001,-0.16000000000000011,0.0,0.0,0.1
504.0,12.0,wc_12,,0.0,,,,321.0,,,,Fail,,,,,
504.0,12.0,wc_12,wc_9,0.0,"[('wc_9', 0.7600000000000006), ('wc_12', 0.2600000000000001)]",0.8224000000000005,,,39.0,0.004898,['Pass'],Fail,0.7600000000000006,-0.09333333333333393,4.0,6.0,0.8
504.0,12.0,wc_12,,0.0,,,,61.0,,,,Fail,,,,,
504.0,12.0,wc_12,wc_6,0.0,"[('wc_12', 0.2600000000000001), ('wc_9', 0.7600000000000006)]",0.8224000000000005,,,28.0,0.005965,['Pass'],Fail,0.8200000000000006,0.17999999999999938,1.0,1.0,0.7
504.0,12.0,wc_12,,0.0,,,,222.0,,,,Fail,,,,,
504.0,12.0,wc_12,wc_2,0.0,"[('wc_2', 0.42000000000000026), ('wc_12', 0.2600000000000001), ('wc_9', 0.7600000000000006)]",0.8969920000000003,,,29.0,0.007657000000000001,['Pass'],Fail,0.42000000000000026,-0.30888888888888916,1.0,9.0,0.3
504.0,12.0,wc_12,,0.0,,,,102.0,,,,Fail,,,,,
504.0,12.0,wc_12,wc_1,0.0,"[('wc_1', 0.7400000000000005), ('wc_6', 0.8200000000000006)]",0.9532000000000003,,,39.0,0.009415,['Fail'],Fail,0.7400000000000005,-0.7400000000000005,0.0,3.0,0.7
504.0,12.0,wc_12,,0.0,,,,0.0,,,,Fail,,,,,
504.0,12.0,wc_12,wc_4,1.0,"[('wc_4', 0.6900000000000005), ('wc_6', 0.8200000000000006), ('wc_1', 0.7400000000000005)]",0.9854920000000001,,,30.0,0.048335,['Fail'],Fail,0.6900000000000005,-0.5788888888888895,1.0,9.0,0.5
512.0,12.0,wc_12,,0.0,,,,121.0,,,,Fail,,,,,
512.0,12.0,wc_12,,0.0,,,53.0,,,,,Fail,,,,,
512.0,12.0,wc_12,,0.0,,,,0.0,,,,Fail,,,,,
512.0,12.0,wc_12,wc_12,0.0,"[('wc_12', 0.2500000000000001)]",0.2500000000000001,,,27.0,0.002876,['Pass'],Fail,0.2500000000000001,-0.2500000000000001,0.0,1.0,0.1
512.0,12.0,wc_12,,0.0,,,,182.0,,,,Fail,,,,,
512.0,12.0,wc_12,wc_6,0.0,"[('wc_6', 0.8300000000000006)]",0.8300000000000006,,,22.0,0.004445,['Fail'],Fail,0.8300000000000006,0.16999999999999937,2.0,2.0,0.7
512.0,12.0,wc_12,,0.0,,,,222.0,,,,Fail,,,,,
512.0,12.0,wc_12,wc_2,0.0,"[('wc_6', 0.8300000000000006)]",0.8300000000000006,,,40.0,0.006711,['Fail'],Fail,0.41000000000000025,-0.41000000000000025,0.0,0.0,0.3
512.0,12.0,wc_12,,0.0,,,,243.0,,,,Fail,,,,,
512.0,12.0,wc_12,wc_16,0.0,"[('wc_16', 0.20000000000000007), ('wc_6', 0.8300000000000006)]",0.8640000000000005,,,39.0,0.007760999999999999,['Fail'],Fail,0.20000000000000007,-0.20000000000000007,0.0,8.0,0.1
512.0,12.0,wc_12,,0.0,,,,81.0,,,,Fail,,,,,
512.0,12.0,wc_12,wc_14,0.0,"[('wc_6', 0.8300000000000006), ('wc_16', 0.20000000000000007)]",0.8640000000000005,,,24.0,0.009243,['Fail'],Fail,0.31000000000000016,-0.22666666666666685,0.0,0.0,0.2
512.0,12.0,wc_12,,0.0,,,,162.0,,,,Fail,,,,,
512.0,12.0,wc_12,wc_7,1.0,"[('wc_7', 0.7200000000000005), ('wc_6', 0.8300000000000006), ('wc_16', 0.20000000000000007)]",0.9619200000000002,,,32.0,0.046544999999999996,['Fail'],Fail,0.7200000000000005,-0.47000000000000053,1.0,4.0,0.6
521.0,12.0,wc_12,,0.0,,,,142.0,,,,Pass,,,,,
521.0,12.0,wc_12,,0.0,,,55.0,,,,,Pass,,,,,
521.0,12.0,wc_12,,0.0,,,,0.0,,,,Pass,,,,,
521.0,12.0,wc_12,wc_12,0.0,"[('wc_12', 0.2400000000000001)]",0.2400000000000001,,,33.0,0.002267,['Fail'],Pass,0.2400000000000001,-0.2400000000000001,0.0,2.0,0.1
521.0,12.0,wc_12,,0.0,,,,0.0,,,,Pass,,,,,
521.0,12.0,wc_12,wc_14,0.0,"[('wc_14', 0.30000000000000016), ('wc_12', 0.2400000000000001)]",0.4680000000000002,,,20.0,0.0044069999999999995,['Fail'],Pass,0.30000000000000016,-0.30000000000000016,0.0,1.0,0.2
521.0,12.0,wc_12,,0.0,,,,361.0,,,,Pass,,,,,
521.0,12.0,wc_12,wc_5,0.0,"[('wc_5', 0.5800000000000004)]",0.5800000000000004,,,37.0,0.006208999999999999,['Pass'],Pass,0.5800000000000004,-0.18000000000000038,0.0,0.0,0.5
521.0,12.0,wc_12,,0.0,,,,101.0,,,,Pass,,,,,
521.0,12.0,wc_12,wc_8,0.0,"[('wc_8', 0.3600000000000002), ('wc_5', 0.5800000000000004)]",0.7312000000000003,,,34.0,0.008837000000000001,['Pass'],Pass,0.3600000000000002,-0.3600000000000002,0.0,4.0,0.3
521.0,12.0,wc_12,,0.0,,,,142.0,,,,Pass,,,,,
521.0,12.0,wc_12,wc_13,0.0,"[('wc_13', 0.3500000000000002), ('wc_5', 0.5800000000000004), ('wc_8', 0.3600000000000002)]",0.8252800000000002,,,40.0,0.010554999999999998,['Pass'],Pass,0.3500000000000002,-0.127777777777778,2.0,9.0,0.2
521.0,12.0,wc_12,,0.0,,,,182.0,,,,Pass,,,,,
521.0,12.0,wc_12,wc_7,0.0,"[('wc_7', 0.7200000000000005), ('wc_12', 0.2400000000000001), ('wc_14', 0.30000000000000016)]",0.8510400000000004,,,36.0,0.01235,['Fail'],Pass,0.7200000000000005,-0.47000000000000053,1.0,4.0,0.6
521.0,12.0,wc_12,,0.0,,,,202.0,,,,Pass,,,,,
521.0,12.0,wc_12,wc_2,0.0,"[('wc_2', 0.40000000000000024), ('wc_5', 0.5800000000000004), ('wc_8', 0.3600000000000002), ('wc_13', 0.3500000000000002)]",0.8951680000000002,,,37.0,0.014584,['Pass'],Pass,0.40000000000000024,-0.40000000000000024,0.0,1.0,0.3
521.0,12.0,wc_12,,0.0,,,,243.0,,,,Pass,,,,,
521.0,12.0,wc_12,wc_16,0.0,"[('wc_5', 0.5800000000000004), ('wc_8', 0.3600000000000002), ('wc_13', 0.3500000000000002), ('wc_2', 0.40000000000000024)]",0.8951680000000002,,,36.0,0.016003000000000003,['Pass'],Pass,0.20000000000000007,-0.08888888888888896,1.0,9.0,0.1
521.0,12.0,wc_12,,0.0,,,,342.0,,,,Pass,,,,,
521.0,12.0,wc_12,wc_9,1.0,"[('wc_9', 0.7500000000000006), ('wc_5', 0.5800000000000004), ('wc_8', 0.3600000000000002), ('wc_13', 0.3500000000000002), ('wc_2', 0.40000000000000024)]",0.9737920000000001,,,22.0,0.057321000000000004,['Pass'],Pass,0.7500000000000006,-0.19444444444444497,5.0,9.0,0.8
536.0,13.0,wc_13,,0.0,,,,121.0,,,,Fail,,,,,
536.0,13.0,wc_13,,0.0,,,60.0,,,,,Fail,,,,,
536.0,13.0,wc_13,,0.0,,,,0.0,,,,Fail,,,,,
536.0,13.0,wc_13,wc_13,0.0,"[('wc_13', 0.3500000000000002)]",0.3500000000000002,,,22.0,0.002353,['Pass'],Fail,0.3500000000000002,-0.3500000000000002,0.0,0.0,0.2
536.0,13.0,wc_13,,0.0,,,,321.0,,,,Fail,,,,,
536.0,13.0,wc_13,wc_10,0.0,"[('wc_10', 0.9900000000000008)]",0.9900000000000008,,,20.0,0.00398,['Fail'],Fail,0.9900000000000008,-0.8723529411764713,0.0,0.0,1.0
536.0,13.0,wc_13,,0.0,,,,61.0,,,,Fail,,,,,
536.0,13.0,wc_13,wc_7,0.0,"[('wc_7', 0.7100000000000005), ('wc_10', 0.9900000000000008)]",0.9971000000000002,,,20.0,0.006691,['Fail'],Fail,0.7100000000000005,-0.5100000000000005,1.0,5.0,0.6
536.0,13.0,wc_13,,0.0,,,,243.0,,,,Fail,,,,,
536.0,13.0,wc_13,wc_17,1.0,"[('wc_17', 0.9200000000000007), ('wc_10', 0.9900000000000008), ('wc_7', 0.7100000000000005)]",0.999768,,,35.0,0.04511999999999999,['Fail'],Fail,0.9200000000000007,-0.9200000000000007,0.0,0.0,0.9
561.0,13.0,wc_13,,0.0,,,,41.0,,,,Pass,,,,,
561.0,13.0,wc_13,,0.0,,,77.0,,,,,Pass,,,,,
561.0,13.0,wc_13,,0.0,,,,0.0,,,,Pass,,,,,
561.0,13.0,wc_13,wc_13,0.0,"[('wc_13', 0.3400000000000002)]",0.3400000000000002,,,26.0,0.002262,['Pass'],Pass,0.3400000000000002,-0.3400000000000002,0.0,1.0,0.2
561.0,13.0,wc_13,,0.0,,,,0.0,,,,Pass,,,,,
561.0,13.0,wc_13,wc_14,0.0,"[('wc_14', 0.29000000000000015), ('wc_13', 0.3400000000000002)]",0.5314000000000002,,,24.0,0.0041329999999999995,['Pass'],Pass,0.29000000000000015,-0.29000000000000015,0.0,3.0,0.2
561.0,13.0,wc_13,,0.0,,,,341.0,,,,Pass,,,,,
561.0,13.0,wc_13,wc_4,0.0,"[('wc_4', 0.6900000000000005), ('wc_13', 0.3400000000000002), ('wc_14', 0.29000000000000015)]",0.8547340000000003,,,26.0,0.005652000000000001,['Pass'],Pass,0.6900000000000005,-0.6066666666666671,0.0,0.0,0.5
561.0,13.0,wc_13,,0.0,,,,182.0,,,,Pass,,,,,
561.0,13.0,wc_13,wc_15,1.0,"[('wc_15', 0.39000000000000024), ('wc_13', 0.3400000000000002), ('wc_14', 0.29000000000000015), ('wc_4', 0.6900000000000005)]",0.9113877400000002,,,23.0,0.041357000000000005,['Pass'],Pass,0.39000000000000024,-0.26500000000000024,1.0,8.0,0.2
568.0,14.0,wc_14,,0.0,,,,101.0,,,,Fail,,,,,
568.0,14.0,wc_14,,0.0,,,77.0,,,,,Fail,,,,,
568.0,14.0,wc_14,,0.0,,,,0.0,,,,Fail,,,,,
568.0,14.0,wc_14,wc_14,0.0,"[('wc_14', 0.29000000000000015)]",0.29000000000000015,,,26.0,0.001831,['Pass'],Fail,0.29000000000000015,-0.04000000000000015,1.0,4.0,0.2
568.0,14.0,wc_14,,0.0,,,,82.0,,,,Fail,,,,,
568.0,14.0,wc_14,wc_12,0.0,"[('wc_12', 0.2300000000000001), ('wc_14', 0.29000000000000015)]",0.45330000000000015,,,24.0,0.004125,['Pass'],Fail,0.2300000000000001,-0.2300000000000001,0.0,5.0,0.1
568.0,14.0,wc_14,,0.0,,,,202.0,,,,Fail,,,,,
568.0,14.0,wc_14,wc_7,0.0,"[('wc_7', 0.7100000000000005)]",0.7100000000000005,,,24.0,0.005714,['Fail'],Fail,0.7100000000000005,-0.4242857142857148,2.0,7.0,0.6
568.0,14.0,wc_14,,0.0,,,,243.0,,,,Fail,,,,,
568.0,14.0,wc_14,wc_17,0.0,"[('wc_17', 0.9200000000000007), ('wc_7', 0.7100000000000005)]",0.9768000000000002,,,22.0,0.008405,['Fail'],Fail,0.9200000000000007,-0.9200000000000007,0.0,1.0,0.9
568.0,14.0,wc_14,,0.0,,,,362.0,,,,Fail,,,,,
568.0,14.0,wc_14,wc_3,0.0,"[('wc_7', 0.7100000000000005), ('wc_17', 0.9200000000000007)]",0.9768000000000002,,,25.0,0.010252,['Fail'],Fail,0.2500000000000001,-0.1911764705882354,0.0,0.0,0.2
568.0,14.0,wc_14,,0.0,,,,161.0,,,,Fail,,,,,
568.0,14.0,wc_14,wc_13,1.0,"[('wc_13', 0.3500000000000002), ('wc_7', 0.7100000000000005), ('wc_17', 0.9200000000000007)]",0.9849200000000001,,,28.0,0.044846,['Fail'],Fail,0.3600000000000002,0.3066666666666664,2.0,3.0,0.2
575.0,14.0,wc_14,,0.0,,,,0.0,,,,Pass,,,,,
575.0,14.0,wc_14,,0.0,,,53.0,,,,,Pass,,,,,
575.0,14.0,wc_14,,0.0,,,,0.0,,,,Pass,,,,,
575.0,14.0,wc_14,wc_14,0.0,"[('wc_14', 0.28000000000000014)]",0.28000000000000014,,,29.0,0.002435,['Pass'],Pass,0.28000000000000014,-0.08000000000000013,1.0,5.0,0.2
575.0,14.0,wc_14,,0.0,,,,0.0,,,,Pass,,,,,
575.0,14.0,wc_14,wc_17,0.0,"[('wc_17', 0.9200000000000007), ('wc_14', 0.28000000000000014)]",0.9424000000000006,,,38.0,0.004398,['Pass'],Pass,0.9200000000000007,-0.4200000000000007,1.0,2.0,0.9
575.0,14.0,wc_14,,0.0,,,,362.0,,,,Pass,,,,,
575.0,14.0,wc_14,wc_3,0.0,"[('wc_14', 0.28000000000000014), ('wc_17', 0.9200000000000007)]",0.9424000000000006,,,21.0,0.005718,['Pass'],Pass,0.2400000000000001,-0.2400000000000001,0.0,1.0,0.2
575.0,14.0,wc_14,,0.0,,,,141.0,,,,Pass,,,,,
575.0,14.0,wc_14,wc_8,1.0,"[('wc_8', 0.3600000000000002), ('wc_14', 0.28000000000000014), ('wc_17', 0.9200000000000007)]",0.9631360000000003,,,33.0,0.042453,['Pass'],Pass,0.3600000000000002,-0.137777777777778,2.0,9.0,0.3
583.0,15.0,wc_15,,0.0,,,,183.0,,,,Pass,,,,,
583.0,15.0,wc_15,,0.0,,,77.0,,,,,Pass,,,,,
583.0,15.0,wc_15,,0.0,,,,0.0,,,,Pass,,,,,
583.0,15.0,wc_15,wc_15,0.0,"[('wc_15', 0.39000000000000024)]",0.39000000000000024,,,20.0,0.002525,['Pass'],Pass,0.39000000000000024,-0.29000000000000026,0.0,0.0,0.2
583.0,15.0,wc_15,,0.0,,,,442.0,,,,Pass,,,,,
583.0,15.0,wc_15,wc_5,0.0,"[('wc_5', 0.5900000000000004), ('wc_15', 0.39000000000000024)]",0.7499000000000003,,,31.0,0.004134,['Pass'],Pass,0.5900000000000004,-0.3900000000000004,1.0,5.0,0.5
583.0,15.0,wc_15,,0.0,,,,101.0,,,,Pass,,,,,
583.0,15.0,wc_15,wc_8,0.0,"[('wc_8', 0.3600000000000002), ('wc_15', 0.39000000000000024), ('wc_5', 0.5900000000000004)]",0.8399360000000002,,,32.0,0.006454,['Pass'],Pass,0.3600000000000002,-0.137777777777778,2.0,9.0,0.3
583.0,15.0,wc_15,,0.0,,,,162.0,,,,Pass,,,,,
583.0,15.0,wc_15,wc_1,1.0,"[('wc_1', 0.7400000000000005), ('wc_15', 0.39000000000000024), ('wc_5', 0.5900000000000004), ('wc_8', 0.3600000000000002)]",0.9583833600000001,,,34.0,0.043549,['Pass'],Pass,0.7400000000000005,-0.7400000000000005,0.0,0.0,0.7
591.0,16.0,wc_16,,0.0,,,,263.0,,,,Pass,,,,,
591.0,16.0,wc_16,,0.0,,,50.0,,,,,Pass,,,,,
591.0,16.0,wc_16,,0.0,,,,0.0,,,,Pass,,,,,
591.0,16.0,wc_16,wc_16,0.0,"[('wc_16', 0.19000000000000006)]",0.19000000000000006,,,35.0,0.002461,['Pass'],Pass,0.19000000000000006,-0.19000000000000006,0.0,5.0,0.1
591.0,16.0,wc_16,,0.0,,,,41.0,,,,Pass,,,,,
591.0,16.0,wc_16,wc_12,0.0,"[('wc_12', 0.22000000000000008), ('wc_16', 0.19000000000000006)]",0.3682000000000001,,,20.0,0.0039369999999999995,['Pass'],Pass,0.22000000000000008,-0.22000000000000008,0.0,8.0,0.1
591.0,16.0,wc_16,,0.0,,,,381.0,,,,Pass,,,,,
591.0,16.0,wc_16,wc_4,0.0,"[('wc_4', 0.7000000000000005), ('wc_16', 0.19000000000000006), ('wc_12', 0.22000000000000008)]",0.8104600000000004,,,33.0,0.006116,['Pass'],Pass,0.7000000000000005,-0.4500000000000005,1.0,4.0,0.5
591.0,16.0,wc_16,,0.0,,,,142.0,,,,Pass,,,,,
591.0,16.0,wc_16,wc_9,1.0,"[('wc_9', 0.7500000000000006), ('wc_16', 0.19000000000000006), ('wc_12', 0.22000000000000008), ('wc_4', 0.7000000000000005)]",0.9526150000000002,,,29.0,0.04438,['Pass'],Pass,0.7500000000000006,-0.7500000000000006,0.0,0.0,0.8
598.0,17.0,wc_17,,0.0,,,,202.0,,,,Pass,,,,,
598.0,17.0,wc_17,,0.0,,,76.0,,,,,Pass,,,,,
598.0,17.0,wc_17,,0.0,,,,0.0,,,,Pass,,,,,
598.0,17.0,wc_17,wc_17,0.0,"[('wc_17', 0.9200000000000007)]",0.9200000000000007,,,37.0,0.002129,['Pass'],Pass,0.9200000000000007,-0.5200000000000007,2.0,5.0,0.9
598.0,17.0,wc_17,,0.0,,,,362.0,,,,Pass,,,,,
598.0,17.0,wc_17,wc_3,0.0,"[('wc_3', 0.2300000000000001), ('wc_17', 0.9200000000000007)]",0.9384000000000006,,,31.0,0.004138,['Pass'],Pass,0.2300000000000001,-0.2300000000000001,0.0,4.0,0.2
598.0,17.0,wc_17,,0.0,,,,0.0,,,,Pass,,,,,
598.0,17.0,wc_17,wc_5,1.0,"[('wc_5', 0.5900000000000004), ('wc_17', 0.9200000000000007), ('wc_3', 0.2300000000000001)]",0.9747440000000003,,,36.0,0.04172700000000001,['Pass'],Pass,0.5900000000000004,-0.2150000000000004,3.0,8.0,0.5
