mpecck/BCQC/bcqc_with_qdt/results/raw/input_16/independent_qc/training/20_workpiece/20200429_095228/wp_4_qc_majority_0.9.csv
production_index,step_idx,production_workcell,qc,consent,winner_qc_list,score,production_time,transport_time,inspection_time,network_time,qc_results,actual_quality,qc_score,score_error,in_winner_counter,in_qc_counter,qc_capability
5.0,1.0,wc_1,,0.0,,,73.0,,,,,Fail,,,,,
5.0,1.0,wc_1,,0.0,,,,0.0,,,,Fail,,,,,
5.0,1.0,wc_1,wc_1,0.0,"[('wc_1', 0.4700000000000003)]",0.4700000000000003,,,39.0,0.002561,['Fail'],Fail,0.4700000000000003,-0.07000000000000028,0.0,0.0,0.7
5.0,1.0,wc_1,,0.0,,,,283.0,,,,Fail,,,,,
5.0,1.0,wc_1,wc_17,0.0,"[('wc_17', 0.5000000000000003), ('wc_1', 0.4700000000000003)]",0.7350000000000003,,,24.0,0.005707,['Fail'],Fail,0.5000000000000003,0.1666666666666663,4.0,6.0,0.9
5.0,1.0,wc_1,,0.0,,,,61.0,,,,Fail,,,,,
5.0,1.0,wc_1,wc_14,0.0,"[('wc_1', 0.4700000000000003), ('wc_17', 0.5000000000000003)]",0.7350000000000003,,,22.0,0.005847,['Fail'],Fail,0.29000000000000015,-0.04000000000000015,1.0,4.0,0.2
5.0,1.0,wc_1,,0.0,,,,162.0,,,,Fail,,,,,
5.0,1.0,wc_1,wc_7,0.0,"[('wc_1', 0.4700000000000003), ('wc_17', 0.5000000000000003)]",0.7350000000000003,,,38.0,0.008527999999999999,['Fail'],Fail,0.40000000000000024,-0.15000000000000024,1.0,4.0,0.6
5.0,1.0,wc_1,,0.0,,,,102.0,,,,Fail,,,,,
5.0,1.0,wc_1,wc_6,0.0,"[('wc_6', 0.5500000000000004), ('wc_1', 0.4700000000000003), ('wc_17', 0.5000000000000003)]",0.8807500000000003,,,20.0,0.009916,['Fail'],Fail,0.5500000000000004,-0.5500000000000004,0.0,4.0,0.7
5.0,1.0,wc_1,,0.0,,,,222.0,,,,Fail,,,,,
5.0,1.0,wc_1,wc_2,1.0,"[('wc_2', 0.3200000000000002), ('wc_1', 0.4700000000000003), ('wc_17', 0.5000000000000003), ('wc_6', 0.5500000000000004)]",0.9189100000000002,,,30.0,0.039282,['Fail'],Fail,0.3300000000000002,0.6699999999999998,3.0,3.0,0.3
112.0,1.0,wc_1,,0.0,,,,102.0,,,,Fail,,,,,
112.0,1.0,wc_1,,0.0,,,51.0,,,,,Fail,,,,,
112.0,1.0,wc_1,,0.0,,,,0.0,,,,Fail,,,,,
112.0,1.0,wc_1,wc_1,0.0,"[('wc_1', 0.4800000000000003)]",0.4800000000000003,,,33.0,0.002231,['Fail'],Fail,0.4800000000000003,0.5199999999999997,1.0,1.0,0.7
112.0,1.0,wc_1,,0.0,,,,142.0,,,,Fail,,,,,
112.0,1.0,wc_1,wc_6,0.0,"[('wc_6', 0.5500000000000004), ('wc_1', 0.4800000000000003)]",0.7660000000000003,,,20.0,0.0039570000000000004,['Fail'],Fail,0.5500000000000004,-0.35000000000000037,1.0,5.0,0.7
112.0,1.0,wc_1,,0.0,,,,361.0,,,,Fail,,,,,
112.0,1.0,wc_1,wc_5,0.0,"[('wc_5', 0.4500000000000003), ('wc_1', 0.4800000000000003), ('wc_6', 0.5500000000000004)]",0.8713000000000002,,,21.0,0.006286,['Fail'],Fail,0.4500000000000003,-0.2000000000000003,1.0,4.0,0.5
112.0,1.0,wc_1,,0.0,,,,182.0,,,,Fail,,,,,
112.0,1.0,wc_1,wc_16,0.0,"[('wc_1', 0.4800000000000003), ('wc_6', 0.5500000000000004), ('wc_5', 0.4500000000000003)]",0.8713000000000003,,,23.0,0.008383999999999999,['Fail'],Fail,0.21000000000000008,-0.09888888888888897,1.0,9.0,0.1
112.0,1.0,wc_1,,0.0,,,,223.0,,,,Fail,,,,,
112.0,1.0,wc_1,wc_7,1.0,"[('wc_7', 0.39000000000000024), ('wc_1', 0.4800000000000003), ('wc_6', 0.5500000000000004), ('wc_5', 0.4500000000000003)]",0.9214930000000001,,,20.0,0.039726,['Fail'],Fail,0.39000000000000024,-0.05666666666666692,2.0,6.0,0.6
204.0,1.0,wc_1,,0.0,,,,182.0,,,,Fail,,,,,
204.0,1.0,wc_1,,0.0,,,76.0,,,,,Fail,,,,,
204.0,1.0,wc_1,,0.0,,,,0.0,,,,Fail,,,,,
204.0,1.0,wc_1,wc_1,0.0,"[('wc_1', 0.4900000000000003)]",0.4900000000000003,,,30.0,0.002369,['Fail'],Fail,0.4900000000000003,0.5099999999999997,2.0,2.0,0.7
204.0,1.0,wc_1,,0.0,,,,223.0,,,,Fail,,,,,
204.0,1.0,wc_1,wc_10,0.0,"[('wc_10', 0.6300000000000004), ('wc_1', 0.4900000000000003)]",0.8113000000000004,,,39.0,0.003962,['Fail'],Fail,0.6300000000000004,-0.2014285714285719,3.0,7.0,1.0
204.0,1.0,wc_1,,0.0,,,,101.0,,,,Fail,,,,,
204.0,1.0,wc_1,wc_13,0.0,"[('wc_1', 0.4900000000000003), ('wc_10', 0.6300000000000004)]",0.8113000000000004,,,22.0,0.00576,['Fail'],Fail,0.27000000000000013,-0.27000000000000013,0.0,8.0,0.2
204.0,1.0,wc_1,,0.0,,,,0.0,,,,Fail,,,,,
204.0,1.0,wc_1,wc_16,0.0,"[('wc_16', 0.20000000000000007), ('wc_1', 0.4900000000000003), ('wc_10', 0.6300000000000004)]",0.8490400000000002,,,35.0,0.007661,['Fail'],Fail,0.20000000000000007,-0.20000000000000007,0.0,0.0,0.1
204.0,1.0,wc_1,,0.0,,,,203.0,,,,Fail,,,,,
204.0,1.0,wc_1,wc_6,1.0,"[('wc_6', 0.5500000000000004), ('wc_1', 0.4900000000000003), ('wc_10', 0.6300000000000004), ('wc_16', 0.20000000000000007)]",0.9320680000000002,,,36.0,0.039319999999999994,['Fail'],Fail,0.5500000000000004,-0.12142857142857183,3.0,7.0,0.7
269.0,1.0,wc_1,,0.0,,,,202.0,,,,Fail,,,,,
269.0,1.0,wc_1,,0.0,,,74.0,,,,,Fail,,,,,
269.0,1.0,wc_1,,0.0,,,,0.0,,,,Fail,,,,,
269.0,1.0,wc_1,wc_1,0.0,"[('wc_1', 0.5000000000000003)]",0.5000000000000003,,,34.0,0.002435,['Fail'],Fail,0.5000000000000003,0.49999999999999967,3.0,3.0,0.7
269.0,1.0,wc_1,,0.0,,,,203.0,,,,Fail,,,,,
269.0,1.0,wc_1,wc_9,0.0,"[('wc_9', 0.5800000000000004), ('wc_1', 0.5000000000000003)]",0.7900000000000004,,,40.0,0.0043809999999999995,['Fail'],Fail,0.5800000000000004,-0.0800000000000004,3.0,6.0,0.8
269.0,1.0,wc_1,,0.0,,,,402.0,,,,Fail,,,,,
269.0,1.0,wc_1,wc_5,0.0,"[('wc_5', 0.4500000000000003), ('wc_1', 0.5000000000000003), ('wc_9', 0.5800000000000004)]",0.8845000000000003,,,22.0,0.0061340000000000006,['Fail'],Fail,0.4500000000000003,-0.11666666666666697,2.0,6.0,0.5
269.0,1.0,wc_1,,0.0,,,,182.0,,,,Fail,,,,,
269.0,1.0,wc_1,wc_16,0.0,"[('wc_1', 0.5000000000000003), ('wc_9', 0.5800000000000004), ('wc_5', 0.4500000000000003)]",0.8845000000000003,,,37.0,0.007765,['Fail'],Fail,0.21000000000000008,0.7899999999999999,1.0,1.0,0.1
269.0,1.0,wc_1,,0.0,,,,0.0,,,,Fail,,,,,
269.0,1.0,wc_1,wc_17,1.0,"[('wc_17', 0.5100000000000003), ('wc_1', 0.5000000000000003), ('wc_9', 0.5800000000000004), ('wc_5', 0.4500000000000003)]",0.9434050000000002,,,40.0,0.04015200000000001,['Fail'],Fail,0.5200000000000004,-0.5200000000000004,0.0,0.0,0.9
328.0,1.0,wc_1,,0.0,,,,243.0,,,,Pass,,,,,
328.0,1.0,wc_1,,0.0,,,78.0,,,,,Pass,,,,,
328.0,1.0,wc_1,,0.0,,,,0.0,,,,Pass,,,,,
328.0,1.0,wc_1,wc_1,0.0,"[('wc_1', 0.5100000000000003)]",0.5100000000000003,,,40.0,0.001979,['Pass'],Pass,0.5100000000000003,0.48999999999999966,4.0,4.0,0.7
328.0,1.0,wc_1,,0.0,,,,203.0,,,,Pass,,,,,
328.0,1.0,wc_1,wc_9,0.0,"[('wc_9', 0.5800000000000004), ('wc_1', 0.5100000000000003)]",0.7942000000000004,,,29.0,0.004065,['Pass'],Pass,0.5800000000000004,-0.008571428571429007,4.0,7.0,0.8
328.0,1.0,wc_1,,0.0,,,,382.0,,,,Pass,,,,,
328.0,1.0,wc_1,wc_4,0.0,"[('wc_4', 0.4700000000000003), ('wc_1', 0.5100000000000003), ('wc_9', 0.5800000000000004)]",0.8909260000000002,,,36.0,0.006163999999999999,['Pass'],Pass,0.4700000000000003,-0.2881818181818185,0.0,0.0,0.5
328.0,1.0,wc_1,,0.0,,,,101.0,,,,Pass,,,,,
328.0,1.0,wc_1,wc_7,1.0,"[('wc_7', 0.39000000000000024), ('wc_1', 0.5100000000000003), ('wc_9', 0.5800000000000004), ('wc_4', 0.4700000000000003)]",0.9334648600000002,,,39.0,0.039375999999999994,['Pass'],Pass,0.39000000000000024,-0.05666666666666692,3.0,9.0,0.6
336.0,4.0,wc_4,,0.0,,,,321.0,,,,Pass,,,,,
336.0,4.0,wc_4,,0.0,,,54.0,,,,,Pass,,,,,
336.0,4.0,wc_4,,0.0,,,,0.0,,,,Pass,,,,,
336.0,4.0,wc_4,wc_4,0.0,"[('wc_4', 0.4800000000000003)]",0.4800000000000003,,,36.0,0.001973,['Pass'],Pass,0.4800000000000003,0.5199999999999997,1.0,1.0,0.5
336.0,4.0,wc_4,,0.0,,,,182.0,,,,Pass,,,,,
336.0,4.0,wc_4,wc_15,0.0,"[('wc_15', 0.29000000000000015), ('wc_4', 0.4800000000000003)]",0.6308000000000002,,,20.0,0.004387,['Pass'],Pass,0.29000000000000015,-0.21857142857142872,0.0,0.0,0.2
336.0,4.0,wc_4,,0.0,,,,0.0,,,,Pass,,,,,
336.0,4.0,wc_4,wc_17,0.0,"[('wc_17', 0.5200000000000004), ('wc_4', 0.4800000000000003), ('wc_15', 0.29000000000000015)]",0.8227840000000003,,,35.0,0.006514000000000001,['Pass'],Pass,0.5200000000000004,-0.5200000000000004,0.0,1.0,0.9
336.0,4.0,wc_4,,0.0,,,,243.0,,,,Pass,,,,,
336.0,4.0,wc_4,wc_1,0.0,"[('wc_4', 0.4800000000000003), ('wc_15', 0.29000000000000015), ('wc_17', 0.5200000000000004)]",0.8227840000000003,,,23.0,0.008193,['Pass'],Pass,0.5200000000000004,0.47999999999999965,5.0,5.0,0.7
336.0,4.0,wc_4,,0.0,,,,182.0,,,,Pass,,,,,
336.0,4.0,wc_4,wc_12,0.0,"[('wc_12', 0.22000000000000008), ('wc_4', 0.4800000000000003), ('wc_15', 0.29000000000000015), ('wc_17', 0.5200000000000004)]",0.8617715200000002,,,32.0,0.009670999999999999,['Pass'],Pass,0.22000000000000008,-0.22000000000000008,0.0,5.0,0.1
336.0,4.0,wc_4,,0.0,,,,401.0,,,,Pass,,,,,
336.0,4.0,wc_4,wc_5,1.0,"[('wc_5', 0.4500000000000003), ('wc_4', 0.4800000000000003), ('wc_15', 0.29000000000000015), ('wc_17', 0.5200000000000004), ('wc_12', 0.22000000000000008)]",0.9239743360000001,,,34.0,0.043995,['Pass'],Pass,0.4500000000000003,-0.005555555555555869,4.0,9.0,0.5
352.0,3.0,wc_3,,0.0,,,,83.0,,,,Fail,,,,,
352.0,3.0,wc_3,,0.0,,,55.0,,,,,Fail,,,,,
352.0,3.0,wc_3,,0.0,,,,0.0,,,,Fail,,,,,
352.0,3.0,wc_3,wc_3,0.0,"[('wc_3', 0.29000000000000015)]",0.29000000000000015,,,28.0,0.003635,['Pass'],Fail,0.29000000000000015,-0.29000000000000015,0.0,8.0,0.2
352.0,3.0,wc_3,,0.0,,,,202.0,,,,Fail,,,,,
352.0,3.0,wc_3,wc_11,0.0,"[('wc_3', 0.29000000000000015)]",0.29000000000000015,,,29.0,0.004627,['Pass'],Fail,0.22000000000000008,-0.12000000000000008,0.0,0.0,0.3
352.0,3.0,wc_3,,0.0,,,,203.0,,,,Fail,,,,,
352.0,3.0,wc_3,wc_1,0.0,"[('wc_1', 0.5200000000000004), ('wc_11', 0.22000000000000008)]",0.6256000000000004,,,36.0,0.007108,['Fail'],Fail,0.5200000000000004,0.313333333333333,5.0,6.0,0.7
352.0,3.0,wc_3,,0.0,,,,0.0,,,,Fail,,,,,
352.0,3.0,wc_3,wc_5,0.0,"[('wc_11', 0.22000000000000008), ('wc_1', 0.5200000000000004)]",0.6256000000000004,,,22.0,0.010593,['Fail'],Fail,0.4500000000000003,-0.005555555555555869,4.0,9.0,0.5
352.0,3.0,wc_3,,0.0,,,,202.0,,,,Fail,,,,,
352.0,3.0,wc_3,wc_17,0.0,"[('wc_17', 0.5200000000000004), ('wc_11', 0.22000000000000008), ('wc_1', 0.5200000000000004)]",0.8202880000000004,,,29.0,0.010298000000000002,['Fail'],Fail,0.5200000000000004,-0.02000000000000035,1.0,2.0,0.9
352.0,3.0,wc_3,,0.0,,,,83.0,,,,Fail,,,,,
352.0,3.0,wc_3,wc_15,0.0,"[('wc_15', 0.30000000000000016), ('wc_11', 0.22000000000000008), ('wc_1', 0.5200000000000004), ('wc_17', 0.5200000000000004)]",0.8742016000000002,,,24.0,0.012385999999999998,['Fail'],Fail,0.30000000000000016,0.6999999999999998,1.0,1.0,0.2
352.0,3.0,wc_3,,0.0,,,,362.0,,,,Fail,,,,,
352.0,3.0,wc_3,wc_9,1.0,"[('wc_9', 0.5900000000000004), ('wc_11', 0.22000000000000008), ('wc_1', 0.5200000000000004), ('wc_17', 0.5200000000000004), ('wc_15', 0.30000000000000016)]",0.9484226560000002,,,29.0,0.041437,['Fail'],Fail,0.5900000000000004,-0.5900000000000004,0.0,0.0,0.8
360.0,2.0,wc_2,,0.0,,,,263.0,,,,Fail,,,,,
360.0,2.0,wc_2,,0.0,,,54.0,,,,,Fail,,,,,
360.0,2.0,wc_2,,0.0,,,,0.0,,,,Fail,,,,,
360.0,2.0,wc_2,wc_2,0.0,"[('wc_2', 0.3300000000000002)]",0.3300000000000002,,,34.0,0.002153,['Fail'],Fail,0.3300000000000002,0.0033333333333331328,3.0,9.0,0.3
360.0,2.0,wc_2,,0.0,,,,203.0,,,,Fail,,,,,
360.0,2.0,wc_2,wc_10,0.0,"[('wc_10', 0.6300000000000004), ('wc_2', 0.3300000000000002)]",0.7521000000000004,,,30.0,0.010107,['Fail'],Fail,0.6300000000000004,-0.29666666666666713,0.0,0.0,1.0
360.0,2.0,wc_2,,0.0,,,,41.0,,,,Fail,,,,,
360.0,2.0,wc_2,wc_6,0.0,"[('wc_6', 0.5500000000000004), ('wc_2', 0.3300000000000002), ('wc_10', 0.6300000000000004)]",0.8884450000000003,,,25.0,0.006039000000000001,['Fail'],Fail,0.5500000000000004,-0.27727272727272767,0.0,0.0,0.7
360.0,2.0,wc_2,,0.0,,,,243.0,,,,Fail,,,,,
360.0,2.0,wc_2,wc_16,0.0,"[('wc_2', 0.3300000000000002), ('wc_10', 0.6300000000000004), ('wc_6', 0.5500000000000004)]",0.8884450000000003,,,40.0,0.009401999999999999,['Fail'],Fail,0.21000000000000008,-0.010000000000000064,1.0,5.0,0.1
360.0,2.0,wc_2,,0.0,,,,342.0,,,,Fail,,,,,
360.0,2.0,wc_2,wc_9,1.0,"[('wc_9', 0.5900000000000004), ('wc_2', 0.3300000000000002), ('wc_10', 0.6300000000000004), ('wc_6', 0.5500000000000004)]",0.9542624500000001,,,24.0,0.043308,['Fail'],Fail,0.6000000000000004,0.3999999999999996,1.0,1.0,0.8
374.0,3.0,wc_3,,0.0,,,,362.0,,,,Fail,,,,,
374.0,3.0,wc_3,,0.0,,,52.0,,,,,Fail,,,,,
374.0,3.0,wc_3,,0.0,,,,0.0,,,,Fail,,,,,
374.0,3.0,wc_3,wc_3,0.0,"[('wc_3', 0.28000000000000014)]",0.28000000000000014,,,39.0,0.002137,['Pass'],Fail,0.28000000000000014,-0.28000000000000014,0.0,0.0,0.2
374.0,3.0,wc_3,,0.0,,,,162.0,,,,Fail,,,,,
374.0,3.0,wc_3,wc_9,0.0,"[('wc_9', 0.6000000000000004)]",0.6000000000000004,,,21.0,0.004895,['Fail'],Fail,0.6000000000000004,0.3999999999999996,1.0,1.0,0.8
374.0,3.0,wc_3,,0.0,,,,101.0,,,,Fail,,,,,
374.0,3.0,wc_3,wc_8,0.0,"[('wc_8', 0.4400000000000003), ('wc_9', 0.6000000000000004)]",0.7760000000000004,,,25.0,0.005673,['Fail'],Fail,0.4400000000000003,-0.4400000000000003,0.0,9.0,0.3
374.0,3.0,wc_3,,0.0,,,,223.0,,,,Fail,,,,,
374.0,3.0,wc_3,wc_17,0.0,"[('wc_17', 0.5300000000000004), ('wc_9', 0.6000000000000004), ('wc_8', 0.4400000000000003)]",0.8947200000000002,,,32.0,0.008731,['Fail'],Fail,0.5300000000000004,-0.03000000000000036,2.0,4.0,0.9
374.0,3.0,wc_3,,0.0,,,,342.0,,,,Fail,,,,,
374.0,3.0,wc_3,wc_10,1.0,"[('wc_10', 0.6400000000000005), ('wc_9', 0.6000000000000004), ('wc_8', 0.4400000000000003), ('wc_17', 0.5300000000000004)]",0.9620992000000002,,,35.0,0.04104700000000001,['Fail'],Fail,0.6500000000000005,0.34999999999999953,2.0,2.0,1.0
396.0,2.0,wc_2,,0.0,,,,243.0,,,,Pass,,,,,
396.0,2.0,wc_2,,0.0,,,69.0,,,,,Pass,,,,,
396.0,2.0,wc_2,,0.0,,,,0.0,,,,Pass,,,,,
396.0,2.0,wc_2,wc_2,0.0,"[('wc_2', 0.3400000000000002)]",0.3400000000000002,,,36.0,0.0022,['Pass'],Pass,0.3400000000000002,-0.3400000000000002,0.0,1.0,0.3
396.0,2.0,wc_2,,0.0,,,,102.0,,,,Pass,,,,,
396.0,2.0,wc_2,wc_1,0.0,"[('wc_1', 0.5300000000000004), ('wc_2', 0.3400000000000002)]",0.6898000000000003,,,21.0,0.003978,['Pass'],Pass,0.5300000000000004,0.13666666666666627,6.0,9.0,0.7
396.0,2.0,wc_2,,0.0,,,,0.0,,,,Pass,,,,,
396.0,2.0,wc_2,wc_5,0.0,"[('wc_5', 0.4400000000000003), ('wc_2', 0.3400000000000002), ('wc_1', 0.5300000000000004)]",0.8262880000000002,,,37.0,0.006283,['Pass'],Pass,0.4400000000000003,-0.4400000000000003,0.0,2.0,0.5
396.0,2.0,wc_2,,0.0,,,,83.0,,,,Pass,,,,,
396.0,2.0,wc_2,wc_3,0.0,"[('wc_2', 0.3400000000000002), ('wc_1', 0.5300000000000004), ('wc_5', 0.4400000000000003)]",0.8262880000000002,,,32.0,0.008129,['Pass'],Pass,0.27000000000000013,-0.27000000000000013,0.0,1.0,0.2
396.0,2.0,wc_2,,0.0,,,,182.0,,,,Pass,,,,,
396.0,2.0,wc_2,wc_10,1.0,"[('wc_10', 0.6500000000000005), ('wc_2', 0.3400000000000002), ('wc_1', 0.5300000000000004), ('wc_5', 0.4400000000000003)]",0.9392008000000002,,,31.0,0.041562999999999996,['Pass'],Pass,0.6600000000000005,0.3399999999999995,3.0,3.0,1.0
421.0,3.0,wc_3,,0.0,,,,342.0,,,,Pass,,,,,
421.0,3.0,wc_3,,0.0,,,65.0,,,,,Pass,,,,,
421.0,3.0,wc_3,,0.0,,,,0.0,,,,Pass,,,,,
421.0,3.0,wc_3,wc_3,0.0,"[('wc_3', 0.2600000000000001)]",0.2600000000000001,,,20.0,0.003549,['Pass'],Pass,0.2600000000000001,-0.2600000000000001,0.0,2.0,0.2
421.0,3.0,wc_3,,0.0,,,,182.0,,,,Pass,,,,,
421.0,3.0,wc_3,wc_10,0.0,"[('wc_10', 0.6600000000000005), ('wc_3', 0.2600000000000001)]",0.7484000000000004,,,24.0,0.006592,['Pass'],Pass,0.6600000000000005,0.3399999999999995,3.0,3.0,1.0
421.0,3.0,wc_3,,0.0,,,,382.0,,,,Pass,,,,,
421.0,3.0,wc_3,wc_5,0.0,"[('wc_5', 0.4400000000000003), ('wc_3', 0.2600000000000001), ('wc_10', 0.6600000000000005)]",0.8591040000000003,,,30.0,0.008565,['Pass'],Pass,0.4400000000000003,-0.10666666666666696,1.0,3.0,0.5
421.0,3.0,wc_3,,0.0,,,,202.0,,,,Pass,,,,,
421.0,3.0,wc_3,wc_17,1.0,"[('wc_17', 0.5400000000000004), ('wc_3', 0.2600000000000001), ('wc_10', 0.6600000000000005), ('wc_5', 0.4400000000000003)]",0.9351878400000002,,,39.0,0.040226000000000005,['Pass'],Pass,0.5500000000000004,0.02142857142857102,4.0,7.0,0.9
434.0,5.0,wc_5,,0.0,,,,402.0,,,,Pass,,,,,
434.0,5.0,wc_5,,0.0,,,69.0,,,,,Pass,,,,,
434.0,5.0,wc_5,,0.0,,,,0.0,,,,Pass,,,,,
434.0,5.0,wc_5,wc_5,0.0,"[('wc_5', 0.4500000000000003)]",0.4500000000000003,,,26.0,0.00232,['Pass'],Pass,0.4500000000000003,0.04999999999999971,2.0,4.0,0.5
434.0,5.0,wc_5,,0.0,,,,101.0,,,,Pass,,,,,
434.0,5.0,wc_5,wc_8,0.0,"[('wc_8', 0.4400000000000003), ('wc_5', 0.4500000000000003)]",0.6920000000000004,,,26.0,0.005495,['Pass'],Pass,0.4400000000000003,-0.4400000000000003,0.0,2.0,0.3
434.0,5.0,wc_5,,0.0,,,,0.0,,,,Pass,,,,,
434.0,5.0,wc_5,wc_10,0.0,"[('wc_10', 0.6700000000000005), ('wc_5', 0.4500000000000003), ('wc_8', 0.4400000000000003)]",0.8983600000000003,,,40.0,0.007011999999999999,['Pass'],Pass,0.6700000000000005,0.3299999999999995,4.0,4.0,1.0
434.0,5.0,wc_5,,0.0,,,,223.0,,,,Pass,,,,,
434.0,5.0,wc_5,wc_1,1.0,"[('wc_1', 0.5400000000000004), ('wc_5', 0.4500000000000003), ('wc_8', 0.4400000000000003), ('wc_10', 0.6700000000000005)]",0.9532456000000001,,,20.0,0.039284,['Pass'],Pass,0.5400000000000004,-0.04000000000000037,1.0,2.0,0.7
440.0,6.0,wc_6,,0.0,,,,142.0,,,,Fail,,,,,
440.0,6.0,wc_6,,0.0,,,59.0,,,,,Fail,,,,,
440.0,6.0,wc_6,,0.0,,,,0.0,,,,Fail,,,,,
440.0,6.0,wc_6,wc_6,0.0,"[('wc_6', 0.5600000000000004)]",0.5600000000000004,,,21.0,0.007066,['Fail'],Fail,0.5600000000000004,-0.3600000000000004,1.0,5.0,0.7
440.0,6.0,wc_6,,0.0,,,,243.0,,,,Fail,,,,,
440.0,6.0,wc_6,wc_16,0.0,"[('wc_6', 0.5600000000000004)]",0.5600000000000004,,,26.0,0.005326,['Fail'],Fail,0.20000000000000007,-0.10000000000000006,0.0,0.0,0.1
440.0,6.0,wc_6,,0.0,,,,382.0,,,,Fail,,,,,
440.0,6.0,wc_6,wc_3,0.0,"[('wc_6', 0.5600000000000004)]",0.5600000000000004,,,37.0,0.006063,['Fail'],Fail,0.27000000000000013,-0.02000000000000013,1.0,4.0,0.2
440.0,6.0,wc_6,,0.0,,,,161.0,,,,Fail,,,,,
440.0,6.0,wc_6,wc_13,0.0,"[('wc_13', 0.2600000000000001), ('wc_6', 0.5600000000000004)]",0.6744000000000003,,,30.0,0.010275999999999999,['Fail'],Fail,0.2600000000000001,-0.2600000000000001,0.0,0.0,0.2
440.0,6.0,wc_6,,0.0,,,,321.0,,,,Fail,,,,,
440.0,6.0,wc_6,wc_10,0.0,"[('wc_10', 0.6800000000000005), ('wc_6', 0.5600000000000004), ('wc_13', 0.2600000000000001)]",0.8958080000000003,,,33.0,0.010234,['Fail'],Fail,0.6800000000000005,0.3199999999999995,5.0,5.0,1.0
440.0,6.0,wc_6,,0.0,,,,121.0,,,,Fail,,,,,
440.0,6.0,wc_6,wc_14,1.0,"[('wc_14', 0.28000000000000014), ('wc_6', 0.5600000000000004), ('wc_13', 0.2600000000000001), ('wc_10', 0.6800000000000005)]",0.9249817600000002,,,39.0,0.04681199999999999,['Fail'],Fail,0.28000000000000014,-0.28000000000000014,0.0,0.0,0.2
458.0,6.0,wc_6,,0.0,,,,142.0,,,,Pass,,,,,
458.0,6.0,wc_6,,0.0,,,75.0,,,,,Pass,,,,,
458.0,6.0,wc_6,,0.0,,,,0.0,,,,Pass,,,,,
458.0,6.0,wc_6,wc_6,0.0,"[('wc_6', 0.5600000000000004)]",0.5600000000000004,,,20.0,0.002063,['Pass'],Pass,0.5600000000000004,-0.22666666666666707,2.0,6.0,0.7
458.0,6.0,wc_6,,0.0,,,,182.0,,,,Pass,,,,,
458.0,6.0,wc_6,wc_13,0.0,"[('wc_6', 0.5600000000000004)]",0.5600000000000004,,,37.0,0.004413,['Pass'],Pass,0.27000000000000013,0.7299999999999999,1.0,1.0,0.2
458.0,6.0,wc_6,,0.0,,,,341.0,,,,Pass,,,,,
458.0,6.0,wc_6,wc_11,0.0,"[('wc_11', 0.2300000000000001), ('wc_6', 0.5600000000000004)]",0.6612000000000003,,,39.0,0.007084,['Pass'],Pass,0.2300000000000001,-0.08714285714285724,1.0,7.0,0.3
458.0,6.0,wc_6,,0.0,,,,203.0,,,,Pass,,,,,
458.0,6.0,wc_6,wc_1,0.0,"[('wc_1', 0.5400000000000004), ('wc_6', 0.5600000000000004), ('wc_11', 0.2300000000000001)]",0.8441520000000002,,,20.0,0.016378,['Pass'],Pass,0.5400000000000004,-0.20666666666666705,1.0,3.0,0.7
458.0,6.0,wc_6,,0.0,,,,0.0,,,,Pass,,,,,
458.0,6.0,wc_6,wc_2,0.0,"[('wc_2', 0.3500000000000002), ('wc_6', 0.5600000000000004), ('wc_11', 0.2300000000000001), ('wc_1', 0.5400000000000004)]",0.8986988000000002,,,20.0,0.011037,['Pass'],Pass,0.3500000000000002,-0.1500000000000002,1.0,5.0,0.3
458.0,6.0,wc_6,,0.0,,,,142.0,,,,Pass,,,,,
458.0,6.0,wc_6,wc_7,1.0,"[('wc_7', 0.39000000000000024), ('wc_6', 0.5600000000000004), ('wc_11', 0.2300000000000001), ('wc_1', 0.5400000000000004), ('wc_2', 0.3500000000000002)]",0.9382062680000002,,,39.0,0.047852000000000006,['Pass'],Pass,0.39000000000000024,-0.39000000000000024,0.0,0.0,0.6
477.0,10.0,wc_10,,0.0,,,,0.0,,,,Fail,,,,,
477.0,10.0,wc_10,,0.0,,,58.0,,,,,Fail,,,,,
477.0,10.0,wc_10,,0.0,,,,0.0,,,,Fail,,,,,
477.0,10.0,wc_10,wc_10,0.0,"[('wc_10', 0.6900000000000005)]",0.6900000000000005,,,23.0,0.002223,['Fail'],Fail,0.6900000000000005,0.1671428571428566,6.0,7.0,1.0
477.0,10.0,wc_10,,0.0,,,,342.0,,,,Fail,,,,,
477.0,10.0,wc_10,wc_3,0.0,"[('wc_10', 0.6900000000000005)]",0.6900000000000005,,,33.0,0.00383,['Fail'],Fail,0.2600000000000001,-0.09333333333333346,1.0,6.0,0.2
477.0,10.0,wc_10,,0.0,,,,161.0,,,,Fail,,,,,
477.0,10.0,wc_10,wc_13,0.0,"[('wc_10', 0.6900000000000005)]",0.6900000000000005,,,32.0,0.006129000000000001,['Fail'],Fail,0.27000000000000013,0.22999999999999987,1.0,2.0,0.2
477.0,10.0,wc_10,,0.0,,,,0.0,,,,Fail,,,,,
477.0,10.0,wc_10,wc_14,0.0,"[('wc_14', 0.28000000000000014), ('wc_10', 0.6900000000000005)]",0.7768000000000004,,,39.0,0.011269999999999999,['Fail'],Fail,0.28000000000000014,-0.28000000000000014,0.0,1.0,0.2
477.0,10.0,wc_10,,0.0,,,,222.0,,,,Fail,,,,,
477.0,10.0,wc_10,wc_2,0.0,"[('wc_2', 0.3500000000000002), ('wc_10', 0.6900000000000005), ('wc_14', 0.28000000000000014)]",0.8549200000000003,,,39.0,0.009516,['Fail'],Fail,0.3500000000000002,-0.016666666666666885,2.0,6.0,0.3
477.0,10.0,wc_10,,0.0,,,,223.0,,,,Fail,,,,,
477.0,10.0,wc_10,wc_11,0.0,"[('wc_11', 0.2400000000000001), ('wc_10', 0.6900000000000005), ('wc_14', 0.28000000000000014), ('wc_2', 0.3500000000000002)]",0.8897392000000003,,,26.0,0.011508000000000001,['Fail'],Fail,0.2400000000000001,0.009999999999999898,2.0,8.0,0.3
477.0,10.0,wc_10,,0.0,,,,61.0,,,,Fail,,,,,
477.0,10.0,wc_10,wc_12,1.0,"[('wc_12', 0.22000000000000008), ('wc_10', 0.6900000000000005), ('wc_14', 0.28000000000000014), ('wc_2', 0.3500000000000002), ('wc_11', 0.2400000000000001)]",0.9139965760000002,,,22.0,0.061618000000000006,['Fail'],Fail,0.22000000000000008,-0.22000000000000008,0.0,0.0,0.1
484.0,8.0,wc_8,,0.0,,,,222.0,,,,Fail,,,,,
484.0,8.0,wc_8,,0.0,,,53.0,,,,,Fail,,,,,
484.0,8.0,wc_8,,0.0,,,,0.0,,,,Fail,,,,,
484.0,8.0,wc_8,wc_8,0.0,"[('wc_8', 0.4400000000000003)]",0.4400000000000003,,,25.0,0.002469,['Fail'],Fail,0.4400000000000003,-0.27333333333333365,1.0,6.0,0.3
484.0,8.0,wc_8,,0.0,,,,122.0,,,,Fail,,,,,
484.0,8.0,wc_8,wc_12,0.0,"[('wc_8', 0.4400000000000003)]",0.4400000000000003,,,35.0,0.00626,['Fail'],Fail,0.22000000000000008,-0.22000000000000008,0.0,0.0,0.1
484.0,8.0,wc_8,,0.0,,,,202.0,,,,Fail,,,,,
484.0,8.0,wc_8,wc_7,0.0,"[('wc_7', 0.39000000000000024), ('wc_12', 0.22000000000000008)]",0.5242000000000002,,,34.0,0.005986,['Pass'],Fail,0.39000000000000024,-0.39000000000000024,0.0,1.0,0.6
484.0,8.0,wc_8,,0.0,,,,202.0,,,,Fail,,,,,
484.0,8.0,wc_8,wc_2,0.0,"[('wc_2', 0.3600000000000002), ('wc_8', 0.4400000000000003)]",0.6416000000000003,,,24.0,0.008329,['Fail'],Fail,0.3600000000000002,0.06857142857142834,3.0,7.0,0.3
484.0,8.0,wc_8,,0.0,,,,122.0,,,,Fail,,,,,
484.0,8.0,wc_8,wc_6,0.0,"[('wc_6', 0.5600000000000004), ('wc_12', 0.22000000000000008), ('wc_7', 0.39000000000000024)]",0.7906480000000002,,,30.0,0.00897,['Pass'],Fail,0.5600000000000004,-0.1850000000000004,3.0,8.0,0.7
484.0,8.0,wc_8,,0.0,,,,361.0,,,,Fail,,,,,
484.0,8.0,wc_8,wc_5,0.0,"[('wc_5', 0.4600000000000003), ('wc_8', 0.4400000000000003), ('wc_2', 0.3600000000000002)]",0.8064640000000003,,,25.0,0.011956,['Fail'],Fail,0.4600000000000003,-0.0850000000000003,3.0,8.0,0.5
484.0,8.0,wc_8,,0.0,,,,182.0,,,,Fail,,,,,
484.0,8.0,wc_8,wc_16,0.0,"[('wc_16', 0.19000000000000006), ('wc_12', 0.22000000000000008), ('wc_7', 0.39000000000000024), ('wc_6', 0.5600000000000004)]",0.8304248800000003,,,28.0,0.013621000000000001,['Pass'],Fail,0.19000000000000006,-0.19000000000000006,0.0,3.0,0.1
484.0,8.0,wc_8,,0.0,,,,362.0,,,,Fail,,,,,
484.0,8.0,wc_8,wc_10,1.0,"[('wc_10', 0.7000000000000005), ('wc_8', 0.4400000000000003), ('wc_2', 0.3600000000000002), ('wc_5', 0.4600000000000003)]",0.9419392000000002,,,24.0,0.054914000000000004,['Fail'],Fail,0.7100000000000005,0.17888888888888832,8.0,9.0,1.0
495.0,8.0,wc_8,,0.0,,,,81.0,,,,Fail,,,,,
495.0,8.0,wc_8,,0.0,,,78.0,,,,,Fail,,,,,
495.0,8.0,wc_8,,0.0,,,,0.0,,,,Fail,,,,,
495.0,8.0,wc_8,wc_8,0.0,"[('wc_8', 0.4400000000000003)]",0.4400000000000003,,,32.0,0.002331,['Fail'],Fail,0.4400000000000003,-0.15428571428571458,2.0,7.0,0.3
495.0,8.0,wc_8,,0.0,,,,102.0,,,,Fail,,,,,
495.0,8.0,wc_8,wc_7,0.0,"[('wc_7', 0.3800000000000002), ('wc_8', 0.4400000000000003)]",0.6528000000000003,,,32.0,0.004653,['Fail'],Fail,0.3800000000000002,-0.3800000000000002,0.0,2.0,0.6
495.0,8.0,wc_8,,0.0,,,,202.0,,,,Fail,,,,,
495.0,8.0,wc_8,wc_2,0.0,"[('wc_2', 0.3700000000000002), ('wc_8', 0.4400000000000003), ('wc_7', 0.3800000000000002)]",0.7812640000000003,,,29.0,0.006776,['Fail'],Fail,0.3700000000000002,0.12999999999999978,4.0,8.0,0.3
495.0,8.0,wc_8,,0.0,,,,122.0,,,,Fail,,,,,
495.0,8.0,wc_8,wc_6,1.0,"[('wc_6', 0.5500000000000004), ('wc_8', 0.4400000000000003), ('wc_7', 0.3800000000000002), ('wc_2', 0.3700000000000002)]",0.9015688000000002,,,28.0,0.052541,['Fail'],Fail,0.5500000000000004,-0.5500000000000004,0.0,0.0,0.7
507.0,9.0,wc_9,,0.0,,,,0.0,,,,Pass,,,,,
507.0,9.0,wc_9,,0.0,,,67.0,,,,,Pass,,,,,
507.0,9.0,wc_9,,0.0,,,,0.0,,,,Pass,,,,,
507.0,9.0,wc_9,wc_9,0.0,"[('wc_9', 0.6100000000000004)]",0.6100000000000004,,,23.0,0.002673,['Pass'],Pass,0.6100000000000004,-0.4100000000000004,0.0,0.0,0.8
507.0,9.0,wc_9,,0.0,,,,0.0,,,,Pass,,,,,
507.0,9.0,wc_9,wc_11,0.0,"[('wc_11', 0.2500000000000001), ('wc_9', 0.6100000000000004)]",0.7075000000000004,,,22.0,0.004468,['Pass'],Pass,0.2500000000000001,0.022727272727272596,0.0,0.0,0.3
507.0,9.0,wc_9,,0.0,,,,61.0,,,,Pass,,,,,
507.0,9.0,wc_9,wc_8,0.0,"[('wc_8', 0.4400000000000003), ('wc_9', 0.6100000000000004), ('wc_11', 0.2500000000000001)]",0.8362000000000003,,,40.0,0.0065249999999999996,['Pass'],Pass,0.4400000000000003,-0.06500000000000028,3.0,8.0,0.3
507.0,9.0,wc_9,,0.0,,,,321.0,,,,Pass,,,,,
507.0,9.0,wc_9,wc_5,1.0,"[('wc_5', 0.4600000000000003), ('wc_9', 0.6100000000000004), ('wc_11', 0.2500000000000001), ('wc_8', 0.4400000000000003)]",0.9115480000000002,,,36.0,0.04731300000000001,['Pass'],Pass,0.4600000000000003,-0.4600000000000003,0.0,0.0,0.5
517.0,7.0,wc_7,,0.0,,,,81.0,,,,Pass,,,,,
517.0,7.0,wc_7,,0.0,,,71.0,,,,,Pass,,,,,
517.0,7.0,wc_7,,0.0,,,,0.0,,,,Pass,,,,,
517.0,7.0,wc_7,wc_7,0.0,"[('wc_7', 0.3800000000000002)]",0.3800000000000002,,,28.0,0.002107,['Pass'],Pass,0.3800000000000002,-0.13000000000000023,1.0,4.0,0.6
517.0,7.0,wc_7,,0.0,,,,0.0,,,,Pass,,,,,
517.0,7.0,wc_7,wc_10,0.0,"[('wc_10', 0.7100000000000005), ('wc_7', 0.3800000000000002)]",0.8202000000000004,,,33.0,0.004376,['Pass'],Pass,0.7100000000000005,0.017272727272726773,0.0,0.0,1.0
517.0,7.0,wc_7,,0.0,,,,41.0,,,,Pass,,,,,
517.0,7.0,wc_7,wc_6,1.0,"[('wc_6', 0.5500000000000004), ('wc_7', 0.3800000000000002), ('wc_10', 0.7100000000000005)]",0.9190900000000003,,,30.0,0.04608899999999999,['Pass'],Pass,0.5500000000000004,-0.05000000000000038,1.0,2.0,0.7
528.0,8.0,wc_8,,0.0,,,,0.0,,,,Fail,,,,,
528.0,8.0,wc_8,,0.0,,,61.0,,,,,Fail,,,,,
528.0,8.0,wc_8,,0.0,,,,0.0,,,,Fail,,,,,
528.0,8.0,wc_8,wc_8,0.0,"[('wc_8', 0.4400000000000003)]",0.4400000000000003,,,34.0,0.002221,['Pass'],Fail,0.4400000000000003,-0.04000000000000026,0.0,0.0,0.3
528.0,8.0,wc_8,,0.0,,,,0.0,,,,Fail,,,,,
528.0,8.0,wc_8,wc_10,0.0,"[('wc_10', 0.7200000000000005)]",0.7200000000000005,,,29.0,0.0039109999999999995,['Fail'],Fail,0.7200000000000005,0.27999999999999947,1.0,1.0,1.0
528.0,8.0,wc_8,,0.0,,,,0.0,,,,Fail,,,,,
528.0,8.0,wc_8,wc_11,0.0,"[('wc_10', 0.7200000000000005)]",0.7200000000000005,,,36.0,0.006367999999999999,['Fail'],Fail,0.2600000000000001,0.23999999999999988,1.0,2.0,0.3
528.0,8.0,wc_8,,0.0,,,,61.0,,,,Fail,,,,,
528.0,8.0,wc_8,wc_12,0.0,"[('wc_12', 0.21000000000000008), ('wc_10', 0.7200000000000005)]",0.7788000000000004,,,35.0,0.007716000000000001,['Fail'],Fail,0.21000000000000008,-0.21000000000000008,0.0,4.0,0.1
528.0,8.0,wc_8,,0.0,,,,0.0,,,,Fail,,,,,
528.0,8.0,wc_8,wc_16,0.0,"[('wc_10', 0.7200000000000005), ('wc_12', 0.21000000000000008)]",0.7788000000000004,,,24.0,0.009446,['Fail'],Fail,0.18000000000000005,-0.18000000000000005,0.0,7.0,0.1
528.0,8.0,wc_8,,0.0,,,,402.0,,,,Fail,,,,,
528.0,8.0,wc_8,wc_4,0.0,"[('wc_4', 0.4900000000000003), ('wc_10', 0.7200000000000005), ('wc_12', 0.21000000000000008)]",0.8871880000000003,,,33.0,0.014036,['Fail'],Fail,0.4900000000000003,-0.356666666666667,0.0,0.0,0.5
528.0,8.0,wc_8,,0.0,,,,61.0,,,,Fail,,,,,
528.0,8.0,wc_8,wc_1,1.0,"[('wc_1', 0.5400000000000004), ('wc_10', 0.7200000000000005), ('wc_12', 0.21000000000000008), ('wc_4', 0.4900000000000003)]",0.9481064800000002,,,33.0,0.048170000000000004,['Fail'],Fail,0.5400000000000004,-0.5400000000000004,0.0,0.0,0.7
540.0,8.0,wc_8,,0.0,,,,182.0,,,,Fail,,,,,
540.0,8.0,wc_8,,0.0,,,68.0,,,,,Fail,,,,,
540.0,8.0,wc_8,,0.0,,,,0.0,,,,Fail,,,,,
540.0,8.0,wc_8,wc_8,0.0,"[('wc_8', 0.43000000000000027)]",0.43000000000000027,,,31.0,0.002172,['Fail'],Fail,0.43000000000000027,-0.43000000000000027,0.0,1.0,0.3
540.0,8.0,wc_8,,0.0,,,,0.0,,,,Fail,,,,,
540.0,8.0,wc_8,wc_11,0.0,"[('wc_11', 0.2600000000000001), ('wc_8', 0.43000000000000027)]",0.5782000000000003,,,32.0,0.00395,['Fail'],Fail,0.2600000000000001,0.0733333333333332,1.0,3.0,0.3
540.0,8.0,wc_8,,0.0,,,,162.0,,,,Fail,,,,,
540.0,8.0,wc_8,wc_17,0.0,"[('wc_17', 0.5500000000000004), ('wc_8', 0.43000000000000027), ('wc_11', 0.2600000000000001)]",0.8101900000000003,,,28.0,0.0058390000000000004,['Fail'],Fail,0.5500000000000004,-0.3000000000000004,0.0,0.0,0.9
540.0,8.0,wc_8,,0.0,,,,183.0,,,,Fail,,,,,
540.0,8.0,wc_8,wc_6,0.0,"[('wc_8', 0.43000000000000027), ('wc_11', 0.2600000000000001), ('wc_17', 0.5500000000000004)]",0.8101900000000003,,,34.0,0.0076500000000000005,['Fail'],Fail,0.5500000000000004,-0.21666666666666706,1.0,3.0,0.7
540.0,8.0,wc_8,,0.0,,,,223.0,,,,Fail,,,,,
540.0,8.0,wc_8,wc_15,0.0,"[('wc_8', 0.43000000000000027), ('wc_11', 0.2600000000000001), ('wc_17', 0.5500000000000004)]",0.8101900000000003,,,23.0,0.009581,['Fail'],Fail,0.31000000000000016,-0.17666666666666683,0.0,0.0,0.2
540.0,8.0,wc_8,,0.0,,,,362.0,,,,Fail,,,,,
540.0,8.0,wc_8,wc_9,0.0,"[('wc_9', 0.6200000000000004), ('wc_6', 0.5500000000000004), ('wc_15', 0.31000000000000016)]",0.8820100000000003,,,23.0,0.01393,['Pass'],Fail,0.6200000000000004,-0.2866666666666671,1.0,3.0,0.8
540.0,8.0,wc_8,,0.0,,,,182.0,,,,Fail,,,,,
540.0,8.0,wc_8,wc_16,1.0,"[('wc_16', 0.17000000000000004), ('wc_6', 0.5500000000000004), ('wc_15', 0.31000000000000016), ('wc_9', 0.6200000000000004)]",0.9020683000000003,,,35.0,0.049923,['Pass'],Fail,0.17000000000000004,-0.058888888888888935,1.0,9.0,0.1
546.0,8.0,wc_8,,0.0,,,,243.0,,,,Pass,,,,,
546.0,8.0,wc_8,,0.0,,,56.0,,,,,Pass,,,,,
546.0,8.0,wc_8,,0.0,,,,0.0,,,,Pass,,,,,
546.0,8.0,wc_8,wc_8,0.0,"[('wc_8', 0.42000000000000026)]",0.42000000000000026,,,23.0,0.002008,['Fail'],Pass,0.42000000000000026,-0.42000000000000026,0.0,2.0,0.3
546.0,8.0,wc_8,,0.0,,,,301.0,,,,Pass,,,,,
546.0,8.0,wc_8,wc_4,0.0,"[('wc_4', 0.5000000000000003)]",0.5000000000000003,,,25.0,0.004121,['Pass'],Pass,0.5000000000000003,-3.3306690738754696e-16,1.0,2.0,0.5
546.0,8.0,wc_8,,0.0,,,,162.0,,,,Pass,,,,,
546.0,8.0,wc_8,wc_10,0.0,"[('wc_10', 0.7300000000000005), ('wc_4', 0.5000000000000003)]",0.8650000000000003,,,27.0,0.012047,['Pass'],Pass,0.7300000000000005,-0.06333333333333391,2.0,3.0,1.0
546.0,8.0,wc_8,,0.0,,,,342.0,,,,Pass,,,,,
546.0,8.0,wc_8,wc_3,0.0,"[('wc_4', 0.5000000000000003), ('wc_10', 0.7300000000000005)]",0.8650000000000003,,,25.0,0.00768,['Pass'],Pass,0.2500000000000001,-0.17307692307692318,0.0,0.0,0.2
546.0,8.0,wc_8,,0.0,,,,242.0,,,,Pass,,,,,
546.0,8.0,wc_8,wc_17,0.0,"[('wc_4', 0.5000000000000003), ('wc_10', 0.7300000000000005)]",0.8650000000000003,,,34.0,0.010428,['Pass'],Pass,0.5400000000000004,-0.5400000000000004,0.0,1.0,0.9
546.0,8.0,wc_8,,0.0,,,,183.0,,,,Pass,,,,,
546.0,8.0,wc_8,wc_6,1.0,"[('wc_6', 0.5500000000000004), ('wc_4', 0.5000000000000003), ('wc_10', 0.7300000000000005)]",0.9392500000000003,,,36.0,0.046104000000000006,['Pass'],Pass,0.5600000000000004,0.03999999999999959,3.0,5.0,0.7
555.0,10.0,wc_10,,0.0,,,,0.0,,,,Fail,,,,,
555.0,10.0,wc_10,,0.0,,,67.0,,,,,Fail,,,,,
555.0,10.0,wc_10,,0.0,,,,0.0,,,,Fail,,,,,
555.0,10.0,wc_10,wc_10,0.0,"[('wc_10', 0.7400000000000005)]",0.7400000000000005,,,23.0,0.002279,['Fail'],Fail,0.7400000000000005,0.009999999999999454,3.0,4.0,1.0
555.0,10.0,wc_10,,0.0,,,,0.0,,,,Fail,,,,,
555.0,10.0,wc_10,wc_11,0.0,"[('wc_11', 0.2500000000000001), ('wc_10', 0.7400000000000005)]",0.8050000000000004,,,34.0,0.0042970000000000005,['Fail'],Fail,0.2500000000000001,-0.0500000000000001,1.0,5.0,0.3
555.0,10.0,wc_10,,0.0,,,,203.0,,,,Fail,,,,,
555.0,10.0,wc_10,wc_1,1.0,"[('wc_1', 0.5400000000000004), ('wc_10', 0.7400000000000005), ('wc_11', 0.2500000000000001)]",0.9103000000000003,,,35.0,0.041364,['Fail'],Fail,0.5400000000000004,-0.20666666666666705,1.0,3.0,0.7
562.0,11.0,wc_11,,0.0,,,,243.0,,,,Fail,,,,,
562.0,11.0,wc_11,,0.0,,,52.0,,,,,Fail,,,,,
562.0,11.0,wc_11,,0.0,,,,0.0,,,,Fail,,,,,
562.0,11.0,wc_11,wc_11,0.0,"[('wc_11', 0.2600000000000001)]",0.2600000000000001,,,37.0,0.002144,['Pass'],Fail,0.2600000000000001,0.0733333333333332,2.0,6.0,0.3
562.0,11.0,wc_11,,0.0,,,,142.0,,,,Fail,,,,,
562.0,11.0,wc_11,wc_16,0.0,"[('wc_16', 0.17000000000000004), ('wc_11', 0.2600000000000001)]",0.38580000000000014,,,35.0,0.0040409999999999995,['Pass'],Fail,0.17000000000000004,-0.07909090909090913,0.0,0.0,0.1
562.0,11.0,wc_11,,0.0,,,,422.0,,,,Fail,,,,,
562.0,11.0,wc_11,wc_5,0.0,"[('wc_5', 0.4600000000000003)]",0.4600000000000003,,,21.0,0.006657,['Fail'],Fail,0.4600000000000003,-0.4600000000000003,0.0,5.0,0.5
562.0,11.0,wc_11,,0.0,,,,122.0,,,,Fail,,,,,
562.0,11.0,wc_11,wc_9,0.0,"[('wc_9', 0.6200000000000004), ('wc_5', 0.4600000000000003)]",0.7948000000000004,,,24.0,0.008944,['Fail'],Fail,0.6200000000000004,-0.2866666666666671,2.0,6.0,0.8
562.0,11.0,wc_11,,0.0,,,,81.0,,,,Fail,,,,,
562.0,11.0,wc_11,wc_7,0.0,"[('wc_7', 0.39000000000000024), ('wc_5', 0.4600000000000003), ('wc_9', 0.6200000000000004)]",0.8748280000000003,,,25.0,0.011642,['Fail'],Fail,0.39000000000000024,-0.16777777777777803,2.0,9.0,0.6
562.0,11.0,wc_11,,0.0,,,,102.0,,,,Fail,,,,,
562.0,11.0,wc_11,wc_6,1.0,"[('wc_6', 0.5600000000000004), ('wc_5', 0.4600000000000003), ('wc_9', 0.6200000000000004), ('wc_7', 0.39000000000000024)]",0.9449243200000002,,,20.0,0.05709700000000001,['Fail'],Fail,0.5700000000000004,0.0014285714285710016,4.0,7.0,0.7
576.0,11.0,wc_11,,0.0,,,,0.0,,,,Pass,,,,,
576.0,11.0,wc_11,,0.0,,,52.0,,,,,Pass,,,,,
576.0,11.0,wc_11,,0.0,,,,0.0,,,,Pass,,,,,
576.0,11.0,wc_11,wc_11,0.0,"[('wc_11', 0.2600000000000001)]",0.2600000000000001,,,38.0,0.002485,['Fail'],Pass,0.2600000000000001,0.02571428571428558,2.0,7.0,0.3
576.0,11.0,wc_11,,0.0,,,,83.0,,,,Pass,,,,,
576.0,11.0,wc_11,wc_9,0.0,"[('wc_9', 0.6200000000000004)]",0.6200000000000004,,,28.0,0.004601,['Pass'],Pass,0.6200000000000004,-0.1914285714285719,3.0,7.0,0.8
576.0,11.0,wc_11,,0.0,,,,263.0,,,,Pass,,,,,
576.0,11.0,wc_11,wc_2,0.0,"[('wc_2', 0.3800000000000002), ('wc_9', 0.6200000000000004)]",0.7644000000000004,,,36.0,0.00592,['Pass'],Pass,0.3800000000000002,-0.06750000000000023,0.0,0.0,0.3
576.0,11.0,wc_11,,0.0,,,,202.0,,,,Pass,,,,,
576.0,11.0,wc_11,wc_14,0.0,"[('wc_14', 0.29000000000000015), ('wc_9', 0.6200000000000004), ('wc_2', 0.3800000000000002)]",0.8327240000000002,,,28.0,0.011247,['Pass'],Pass,0.29000000000000015,-0.19909090909090923,0.0,0.0,0.2
576.0,11.0,wc_11,,0.0,,,,0.0,,,,Pass,,,,,
576.0,11.0,wc_11,wc_15,0.0,"[('wc_15', 0.3200000000000002), ('wc_9', 0.6200000000000004), ('wc_2', 0.3800000000000002), ('wc_14', 0.29000000000000015)]",0.8862523200000002,,,33.0,0.009566999999999999,['Pass'],Pass,0.3200000000000002,-0.07000000000000017,1.0,4.0,0.2
576.0,11.0,wc_11,,0.0,,,,442.0,,,,Pass,,,,,
576.0,11.0,wc_11,wc_5,1.0,"[('wc_5', 0.4600000000000003), ('wc_9', 0.6200000000000004), ('wc_2', 0.3800000000000002), ('wc_14', 0.29000000000000015), ('wc_15', 0.3200000000000002)]",0.9385762528000001,,,27.0,0.04958499999999999,['Pass'],Pass,0.4600000000000003,-0.1742857142857146,2.0,7.0,0.5
584.0,10.0,wc_10,,0.0,,,,142.0,,,,Pass,,,,,
584.0,10.0,wc_10,,0.0,,,65.0,,,,,Pass,,,,,
584.0,10.0,wc_10,,0.0,,,,0.0,,,,Pass,,,,,
584.0,10.0,wc_10,wc_10,0.0,"[('wc_10', 0.7500000000000006)]",0.7500000000000006,,,21.0,0.002325,['Pass'],Pass,0.7500000000000006,-0.17857142857142916,4.0,7.0,1.0
584.0,10.0,wc_10,,0.0,,,,223.0,,,,Pass,,,,,
584.0,10.0,wc_10,wc_1,0.0,"[('wc_1', 0.5400000000000004), ('wc_10', 0.7500000000000006)]",0.8850000000000003,,,35.0,0.004384000000000001,['Pass'],Pass,0.5400000000000004,-0.34000000000000036,1.0,5.0,0.7
584.0,10.0,wc_10,,0.0,,,,142.0,,,,Pass,,,,,
584.0,10.0,wc_10,wc_6,1.0,"[('wc_6', 0.5700000000000004), ('wc_10', 0.7500000000000006), ('wc_1', 0.5400000000000004)]",0.9505500000000002,,,38.0,0.04053999999999999,['Pass'],Pass,0.5700000000000004,-0.014444444444444815,5.0,9.0,0.7
590.0,12.0,wc_12,,0.0,,,,162.0,,,,Pass,,,,,
590.0,12.0,wc_12,,0.0,,,54.0,,,,,Pass,,,,,
590.0,12.0,wc_12,,0.0,,,,0.0,,,,Pass,,,,,
590.0,12.0,wc_12,wc_12,0.0,"[('wc_12', 0.21000000000000008)]",0.21000000000000008,,,32.0,0.002557,['Pass'],Pass,0.21000000000000008,-0.11909090909090916,0.0,0.0,0.1
590.0,12.0,wc_12,,0.0,,,,0.0,,,,Pass,,,,,
590.0,12.0,wc_12,wc_13,0.0,"[('wc_13', 0.27000000000000013), ('wc_12', 0.21000000000000008)]",0.4233000000000001,,,27.0,0.004429000000000001,['Pass'],Pass,0.27000000000000013,-0.1985714285714287,0.0,0.0,0.2
590.0,12.0,wc_12,,0.0,,,,0.0,,,,Pass,,,,,
590.0,12.0,wc_12,wc_15,0.0,"[('wc_12', 0.21000000000000008), ('wc_13', 0.27000000000000013)]",0.4233000000000001,,,37.0,0.006004000000000001,['Pass'],Pass,0.3300000000000002,0.0033333333333331328,2.0,6.0,0.2
590.0,12.0,wc_12,,0.0,,,,263.0,,,,Pass,,,,,
590.0,12.0,wc_12,wc_8,0.0,"[('wc_8', 0.41000000000000025), ('wc_15', 0.3300000000000002)]",0.6047000000000002,,,21.0,0.008093,['Fail'],Pass,0.41000000000000025,-0.41000000000000025,0.0,7.0,0.3
590.0,12.0,wc_12,,0.0,,,,223.0,,,,Pass,,,,,
590.0,12.0,wc_12,wc_17,0.0,"[('wc_17', 0.5300000000000004), ('wc_12', 0.21000000000000008), ('wc_13', 0.27000000000000013)]",0.7289510000000003,,,28.0,0.011604,['Pass'],Pass,0.5300000000000004,-0.5300000000000004,0.0,6.0,0.9
590.0,12.0,wc_12,,0.0,,,,362.0,,,,Pass,,,,,
590.0,12.0,wc_12,wc_11,0.0,"[('wc_11', 0.2500000000000001), ('wc_12', 0.21000000000000008), ('wc_13', 0.27000000000000013), ('wc_17', 0.5300000000000004)]",0.7967132500000003,,,32.0,0.011776000000000002,['Pass'],Pass,0.2500000000000001,-0.0277777777777779,2.0,9.0,0.3
590.0,12.0,wc_12,,0.0,,,,103.0,,,,Pass,,,,,
590.0,12.0,wc_12,wc_10,1.0,"[('wc_10', 0.7500000000000006), ('wc_12', 0.21000000000000008), ('wc_13', 0.27000000000000013), ('wc_17', 0.5300000000000004), ('wc_11', 0.2500000000000001)]",0.9491783125000002,,,23.0,0.052933,['Pass'],Pass,0.7500000000000006,-0.08333333333333393,6.0,9.0,1.0
599.0,13.0,wc_13,,0.0,,,,101.0,,,,Fail,,,,,
599.0,13.0,wc_13,,0.0,,,64.0,,,,,Fail,,,,,
599.0,13.0,wc_13,,0.0,,,,0.0,,,,Fail,,,,,
599.0,13.0,wc_13,wc_13,0.0,"[('wc_13', 0.28000000000000014)]",0.28000000000000014,,,29.0,0.002642,['Fail'],Fail,0.28000000000000014,0.7199999999999999,1.0,1.0,0.2
599.0,13.0,wc_13,,0.0,,,,0.0,,,,Fail,,,,,
599.0,13.0,wc_13,wc_16,0.0,"[('wc_13', 0.28000000000000014)]",0.28000000000000014,,,26.0,0.008298999999999999,['Fail'],Fail,0.16000000000000003,-0.16000000000000003,0.0,4.0,0.1
599.0,13.0,wc_13,,0.0,,,,103.0,,,,Fail,,,,,
599.0,13.0,wc_13,wc_15,0.0,"[('wc_15', 0.3200000000000002), ('wc_16', 0.16000000000000003)]",0.4288000000000002,,,26.0,0.007068,['Pass'],Fail,0.3200000000000002,-0.034285714285714475,2.0,7.0,0.2
599.0,13.0,wc_13,,0.0,,,,442.0,,,,Fail,,,,,
599.0,13.0,wc_13,wc_5,0.0,"[('wc_5', 0.4600000000000003), ('wc_13', 0.28000000000000014)]",0.6112000000000003,,,25.0,0.008788999999999998,['Fail'],Fail,0.4600000000000003,-0.2377777777777781,2.0,9.0,0.5
599.0,13.0,wc_13,,0.0,,,,141.0,,,,Fail,,,,,
599.0,13.0,wc_13,wc_14,0.0,"[('wc_13', 0.28000000000000014), ('wc_5', 0.4600000000000003)]",0.6112000000000003,,,28.0,0.011872,['Fail'],Fail,0.30000000000000016,0.03333333333333316,1.0,3.0,0.2
599.0,13.0,wc_13,,0.0,,,,341.0,,,,Fail,,,,,
599.0,13.0,wc_13,wc_4,0.0,"[('wc_4', 0.5100000000000003), ('wc_16', 0.16000000000000003), ('wc_15', 0.3200000000000002), ('wc_14', 0.30000000000000016)]",0.8040784000000003,,,20.0,0.012414000000000001,['Pass'],Fail,0.5100000000000003,-0.26000000000000034,2.0,8.0,0.5
599.0,13.0,wc_13,,0.0,,,,162.0,,,,Fail,,,,,
599.0,13.0,wc_13,wc_10,1.0,"[('wc_10', 0.7500000000000006), ('wc_16', 0.16000000000000003), ('wc_15', 0.3200000000000002), ('wc_14', 0.30000000000000016), ('wc_4', 0.5100000000000003)]",0.9510196000000002,,,28.0,0.04916999999999999,['Pass'],Fail,0.7500000000000006,-0.7500000000000006,0.0,0.0,1.0
608.0,13.0,wc_13,,0.0,,,,101.0,,,,Pass,,,,,
608.0,13.0,wc_13,,0.0,,,50.0,,,,,Pass,,,,,
608.0,13.0,wc_13,,0.0,,,,0.0,,,,Pass,,,,,
608.0,13.0,wc_13,wc_13,0.0,"[('wc_13', 0.28000000000000014)]",0.28000000000000014,,,28.0,0.003712,['Fail'],Pass,0.28000000000000014,0.21999999999999986,1.0,2.0,0.2
608.0,13.0,wc_13,,0.0,,,,222.0,,,,Pass,,,,,
608.0,13.0,wc_13,wc_1,0.0,"[('wc_1', 0.5400000000000004)]",0.5400000000000004,,,39.0,0.006333999999999999,['Pass'],Pass,0.5400000000000004,-0.29000000000000037,2.0,8.0,0.7
608.0,13.0,wc_13,,0.0,,,,142.0,,,,Pass,,,,,
608.0,13.0,wc_13,wc_6,0.0,"[('wc_6', 0.5700000000000004), ('wc_1', 0.5400000000000004)]",0.8022000000000004,,,31.0,0.006037000000000001,['Pass'],Pass,0.5700000000000004,-0.11545454545454586,0.0,0.0,0.7
608.0,13.0,wc_13,,0.0,,,,263.0,,,,Pass,,,,,
608.0,13.0,wc_13,wc_17,1.0,"[('wc_17', 0.5300000000000004), ('wc_1', 0.5400000000000004), ('wc_6', 0.5700000000000004)]",0.9070340000000002,,,34.0,0.047830000000000004,['Pass'],Pass,0.5300000000000004,-0.30777777777777815,2.0,9.0,0.9
614.0,15.0,wc_15,,0.0,,,,83.0,,,,Pass,,,,,
614.0,15.0,wc_15,,0.0,,,55.0,,,,,Pass,,,,,
614.0,15.0,wc_15,,0.0,,,,0.0,,,,Pass,,,,,
614.0,15.0,wc_15,wc_15,0.0,"[('wc_15', 0.3300000000000002)]",0.3300000000000002,,,26.0,0.002497,['Pass'],Pass,0.3300000000000002,0.0033333333333331328,3.0,9.0,0.2
614.0,15.0,wc_15,,0.0,,,,422.0,,,,Pass,,,,,
614.0,15.0,wc_15,wc_4,0.0,"[('wc_4', 0.5100000000000003), ('wc_15', 0.3300000000000002)]",0.6717000000000003,,,30.0,0.0043419999999999995,['Pass'],Pass,0.5100000000000003,-0.21000000000000035,0.0,0.0,0.5
614.0,15.0,wc_15,,0.0,,,,222.0,,,,Pass,,,,,
614.0,15.0,wc_15,wc_17,0.0,"[('wc_17', 0.5300000000000004), ('wc_15', 0.3300000000000002), ('wc_4', 0.5100000000000003)]",0.8456990000000002,,,22.0,0.00685,['Pass'],Pass,0.5300000000000004,-0.30777777777777815,2.0,9.0,0.9
614.0,15.0,wc_15,,0.0,,,,223.0,,,,Pass,,,,,
614.0,15.0,wc_15,wc_8,0.0,"[('wc_15', 0.3300000000000002), ('wc_4', 0.5100000000000003), ('wc_17', 0.5300000000000004)]",0.8456990000000002,,,28.0,0.007945,['Pass'],Pass,0.40000000000000024,-0.40000000000000024,0.0,0.0,0.3
614.0,15.0,wc_15,,0.0,,,,0.0,,,,Pass,,,,,
614.0,15.0,wc_15,wc_11,0.0,"[('wc_11', 0.2600000000000001), ('wc_15', 0.3300000000000002), ('wc_4', 0.5100000000000003), ('wc_17', 0.5300000000000004)]",0.8858172600000002,,,26.0,0.011007,['Pass'],Pass,0.2600000000000001,-0.2600000000000001,0.0,2.0,0.3
614.0,15.0,wc_15,,0.0,,,,142.0,,,,Pass,,,,,
614.0,15.0,wc_15,wc_16,0.0,"[('wc_15', 0.3300000000000002), ('wc_4', 0.5100000000000003), ('wc_17', 0.5300000000000004), ('wc_11', 0.2600000000000001)]",0.8858172600000002,,,37.0,0.011312000000000001,['Pass'],Pass,0.17000000000000004,-0.0033333333333333826,1.0,6.0,0.1
614.0,15.0,wc_15,,0.0,,,,342.0,,,,Pass,,,,,
614.0,15.0,wc_15,wc_9,1.0,"[('wc_9', 0.6200000000000004), ('wc_15', 0.3300000000000002), ('wc_4', 0.5100000000000003), ('wc_17', 0.5300000000000004), ('wc_11', 0.2600000000000001)]",0.9566105588000001,,,30.0,0.05046,['Pass'],Pass,0.6200000000000004,-0.6200000000000004,0.0,0.0,0.8
621.0,14.0,wc_14,,0.0,,,,141.0,,,,Pass,,,,,
621.0,14.0,wc_14,,0.0,,,68.0,,,,,Pass,,,,,
621.0,14.0,wc_14,,0.0,,,,0.0,,,,Pass,,,,,
621.0,14.0,wc_14,wc_14,0.0,"[('wc_14', 0.31000000000000016)]",0.31000000000000016,,,40.0,0.002331,['Pass'],Pass,0.31000000000000016,0.02333333333333315,2.0,6.0,0.2
621.0,14.0,wc_14,,0.0,,,,102.0,,,,Pass,,,,,
621.0,14.0,wc_14,wc_13,0.0,"[('wc_14', 0.31000000000000016)]",0.31000000000000016,,,39.0,0.004886,['Pass'],Pass,0.28000000000000014,-0.030000000000000138,1.0,4.0,0.2
621.0,14.0,wc_14,,0.0,,,,0.0,,,,Pass,,,,,
621.0,14.0,wc_14,wc_15,0.0,"[('wc_15', 0.3400000000000002), ('wc_13', 0.28000000000000014)]",0.5248000000000002,,,36.0,0.007214,['Fail'],Pass,0.3400000000000002,-0.3400000000000002,0.0,0.0,0.2
621.0,14.0,wc_14,,0.0,,,,61.0,,,,Pass,,,,,
621.0,14.0,wc_14,wc_12,0.0,"[('wc_12', 0.22000000000000008), ('wc_13', 0.28000000000000014), ('wc_15', 0.3400000000000002)]",0.6293440000000001,,,39.0,0.007676,['Fail'],Pass,0.22000000000000008,0.029999999999999916,1.0,4.0,0.1
621.0,14.0,wc_14,,0.0,,,,182.0,,,,Pass,,,,,
621.0,14.0,wc_14,wc_6,0.0,"[('wc_6', 0.5800000000000004), ('wc_14', 0.31000000000000016)]",0.7102000000000004,,,33.0,0.012035,['Pass'],Pass,0.5800000000000004,-0.0800000000000004,1.0,2.0,0.7
621.0,14.0,wc_14,,0.0,,,,0.0,,,,Pass,,,,,
621.0,14.0,wc_14,wc_8,0.0,"[('wc_8', 0.39000000000000024), ('wc_14', 0.31000000000000016), ('wc_6', 0.5800000000000004)]",0.8232220000000003,,,21.0,0.011618,['Pass'],Pass,0.39000000000000024,-0.39000000000000024,0.0,1.0,0.3
621.0,14.0,wc_14,,0.0,,,,182.0,,,,Pass,,,,,
621.0,14.0,wc_14,wc_2,0.0,"[('wc_14', 0.31000000000000016), ('wc_6', 0.5800000000000004), ('wc_8', 0.39000000000000024)]",0.8232220000000002,,,23.0,0.014253000000000002,['Pass'],Pass,0.39000000000000024,-0.22333333333333358,1.0,6.0,0.3
621.0,14.0,wc_14,,0.0,,,,0.0,,,,Pass,,,,,
621.0,14.0,wc_14,wc_3,0.0,"[('wc_3', 0.2400000000000001), ('wc_13', 0.28000000000000014), ('wc_15', 0.3400000000000002), ('wc_12', 0.22000000000000008), ('wc_2', 0.39000000000000024)]",0.8281638784000003,,,39.0,0.015143,['Fail'],Pass,0.2400000000000001,-0.2400000000000001,0.0,9.0,0.2
621.0,14.0,wc_14,,0.0,,,,81.0,,,,Pass,,,,,
621.0,14.0,wc_14,wc_1,1.0,"[('wc_1', 0.5400000000000004), ('wc_14', 0.31000000000000016), ('wc_6', 0.5800000000000004), ('wc_8', 0.39000000000000024)]",0.9186821200000002,,,24.0,0.053755,['Pass'],Pass,0.5400000000000004,-0.5400000000000004,0.0,0.0,0.7
632.0,16.0,wc_16,,0.0,,,,263.0,,,,Pass,,,,,
632.0,16.0,wc_16,,0.0,,,72.0,,,,,Pass,,,,,
632.0,16.0,wc_16,,0.0,,,,0.0,,,,Pass,,,,,
632.0,16.0,wc_16,wc_16,0.0,"[('wc_16', 0.16000000000000003)]",0.16000000000000003,,,32.0,0.002359,['Fail'],Pass,0.16000000000000003,-0.03500000000000003,1.0,8.0,0.1
632.0,16.0,wc_16,,0.0,,,,103.0,,,,Pass,,,,,
632.0,16.0,wc_16,wc_15,0.0,"[('wc_15', 0.3300000000000002)]",0.3300000000000002,,,31.0,0.007398999999999999,['Pass'],Pass,0.3300000000000002,-0.3300000000000002,0.0,1.0,0.2
632.0,16.0,wc_16,,0.0,,,,402.0,,,,Pass,,,,,
632.0,16.0,wc_16,wc_3,0.0,"[('wc_3', 0.2300000000000001), ('wc_16', 0.16000000000000003)]",0.35320000000000007,,,20.0,0.006488000000000001,['Fail'],Pass,0.2300000000000001,-0.2300000000000001,0.0,0.0,0.2
632.0,16.0,wc_16,,0.0,,,,242.0,,,,Pass,,,,,
632.0,16.0,wc_16,wc_17,0.0,"[('wc_17', 0.5300000000000004), ('wc_15', 0.3300000000000002)]",0.6851000000000003,,,26.0,0.008579,['Pass'],Pass,0.5300000000000004,-0.5300000000000004,0.0,1.0,0.9
632.0,16.0,wc_16,,0.0,,,,263.0,,,,Pass,,,,,
632.0,16.0,wc_16,wc_2,0.0,"[('wc_2', 0.3800000000000002), ('wc_15', 0.3300000000000002), ('wc_17', 0.5300000000000004)]",0.8047620000000003,,,36.0,0.009388,['Pass'],Pass,0.3800000000000002,-0.23714285714285738,1.0,7.0,0.3
632.0,16.0,wc_16,,0.0,,,,203.0,,,,Pass,,,,,
632.0,16.0,wc_16,wc_10,1.0,"[('wc_10', 0.7500000000000006), ('wc_15', 0.3300000000000002), ('wc_17', 0.5300000000000004), ('wc_2', 0.3800000000000002)]",0.9511905000000002,,,24.0,0.050324999999999995,['Pass'],Pass,0.7500000000000006,-0.5000000000000006,1.0,4.0,1.0
635.0,17.0,wc_17,,0.0,,,,182.0,,,,Pass,,,,,
635.0,17.0,wc_17,,0.0,,,61.0,,,,,Pass,,,,,
635.0,17.0,wc_17,,0.0,,,,0.0,,,,Pass,,,,,
635.0,17.0,wc_17,wc_17,0.0,"[('wc_17', 0.5300000000000004)]",0.5300000000000004,,,29.0,0.002174,['Pass'],Pass,0.5300000000000004,-0.03000000000000036,1.0,2.0,0.9
635.0,17.0,wc_17,,0.0,,,,362.0,,,,Pass,,,,,
635.0,17.0,wc_17,wc_11,0.0,"[('wc_11', 0.27000000000000013), ('wc_17', 0.5300000000000004)]",0.6569000000000003,,,25.0,0.003946,['Pass'],Pass,0.27000000000000013,-0.07000000000000012,1.0,5.0,0.3
635.0,17.0,wc_17,,0.0,,,,101.0,,,,Pass,,,,,
635.0,17.0,wc_17,wc_14,0.0,"[('wc_14', 0.3200000000000002), ('wc_17', 0.5300000000000004), ('wc_11', 0.27000000000000013)]",0.7666920000000003,,,33.0,0.006116,['Pass'],Pass,0.3200000000000002,0.05499999999999983,3.0,8.0,0.2
635.0,17.0,wc_17,,0.0,,,,102.0,,,,Pass,,,,,
635.0,17.0,wc_17,wc_13,0.0,"[('wc_13', 0.27000000000000013), ('wc_17', 0.5300000000000004), ('wc_11', 0.27000000000000013), ('wc_14', 0.3200000000000002)]",0.8296851600000003,,,20.0,0.008268999999999999,['Pass'],Pass,0.27000000000000013,-0.10333333333333347,1.0,6.0,0.2
635.0,17.0,wc_17,,0.0,,,,341.0,,,,Pass,,,,,
635.0,17.0,wc_17,wc_3,0.0,"[('wc_17', 0.5300000000000004), ('wc_11', 0.27000000000000013), ('wc_14', 0.3200000000000002), ('wc_13', 0.27000000000000013)]",0.8296851600000003,,,26.0,0.010385,['Pass'],Pass,0.22000000000000008,-0.22000000000000008,0.0,1.0,0.2
635.0,17.0,wc_17,,0.0,,,,0.0,,,,Pass,,,,,
635.0,17.0,wc_17,wc_5,0.0,"[('wc_17', 0.5300000000000004), ('wc_11', 0.27000000000000013), ('wc_14', 0.3200000000000002), ('wc_13', 0.27000000000000013)]",0.8296851600000003,,,35.0,0.013370999999999997,['Pass'],Pass,0.4500000000000003,-0.4500000000000003,0.0,4.0,0.5
635.0,17.0,wc_17,,0.0,,,,61.0,,,,Pass,,,,,
635.0,17.0,wc_17,wc_6,1.0,"[('wc_6', 0.5900000000000004), ('wc_17', 0.5300000000000004), ('wc_11', 0.27000000000000013), ('wc_14', 0.3200000000000002), ('wc_13', 0.27000000000000013)]",0.9301709156000002,,,28.0,0.050828000000000005,['Pass'],Pass,0.5900000000000004,0.009999999999999565,3.0,5.0,0.7
