mpecck/BCQC/bcqc_with_qdt/results/raw/input_16/independent_qc/training/20_workpiece/20200429_095228/wp_5_qc_majority_0.9.csv
production_index,step_idx,production_workcell,qc,consent,winner_qc_list,score,production_time,transport_time,inspection_time,network_time,qc_results,actual_quality,qc_score,score_error,in_winner_counter,in_qc_counter,qc_capability
7.0,1.0,wc_1,,0.0,,,68.0,,,,,Pass,,,,,
7.0,1.0,wc_1,,0.0,,,,0.0,,,,Pass,,,,,
7.0,1.0,wc_1,wc_1,0.0,"[('wc_1', 0.5400000000000004)]",0.5400000000000004,,,21.0,0.002373,['Pass'],Pass,0.5400000000000004,-0.5400000000000004,0.0,2.0,0.7
7.0,1.0,wc_1,,0.0,,,,263.0,,,,Pass,,,,,
7.0,1.0,wc_1,wc_16,0.0,"[('wc_1', 0.5400000000000004)]",0.5400000000000004,,,20.0,0.004075,['Pass'],Pass,0.15000000000000002,-0.05000000000000002,0.0,0.0,0.1
7.0,1.0,wc_1,,0.0,,,,243.0,,,,Pass,,,,,
7.0,1.0,wc_1,wc_8,0.0,"[('wc_8', 0.40000000000000024), ('wc_1', 0.5400000000000004)]",0.7240000000000003,,,20.0,0.006459,['Pass'],Pass,0.40000000000000024,-0.15000000000000024,1.0,4.0,0.3
7.0,1.0,wc_1,,0.0,,,,182.0,,,,Pass,,,,,
7.0,1.0,wc_1,wc_2,0.0,"[('wc_1', 0.5400000000000004), ('wc_8', 0.40000000000000024)]",0.7240000000000003,,,39.0,0.008204,['Pass'],Pass,0.3800000000000002,-0.15777777777777802,2.0,9.0,0.3
7.0,1.0,wc_1,,0.0,,,,122.0,,,,Pass,,,,,
7.0,1.0,wc_1,wc_6,0.0,"[('wc_6', 0.5900000000000004), ('wc_16', 0.15000000000000002), ('wc_2', 0.3800000000000002)]",0.7839300000000002,,,32.0,0.010056,['Fail'],Pass,0.5900000000000004,0.009999999999999565,3.0,5.0,0.7
7.0,1.0,wc_1,,0.0,,,,182.0,,,,Pass,,,,,
7.0,1.0,wc_1,wc_13,0.0,"[('wc_13', 0.28000000000000014), ('wc_1', 0.5400000000000004), ('wc_8', 0.40000000000000024)]",0.8012800000000003,,,25.0,0.017466000000000002,['Pass'],Pass,0.28000000000000014,0.005714285714285561,2.0,7.0,0.2
7.0,1.0,wc_1,,0.0,,,,0.0,,,,Pass,,,,,
7.0,1.0,wc_1,wc_15,0.0,"[('wc_15', 0.3400000000000002), ('wc_16', 0.15000000000000002), ('wc_2', 0.3800000000000002), ('wc_6', 0.5900000000000004)]",0.8573938000000002,,,28.0,0.015115,['Fail'],Pass,0.3400000000000002,-0.006666666666666876,1.0,3.0,0.2
7.0,1.0,wc_1,,0.0,,,,382.0,,,,Pass,,,,,
7.0,1.0,wc_1,wc_10,1.0,"[('wc_10', 0.7500000000000006), ('wc_1', 0.5400000000000004), ('wc_8', 0.40000000000000024), ('wc_13', 0.28000000000000014)]",0.9503200000000002,,,39.0,0.052074999999999996,['Pass'],Pass,0.7500000000000006,-0.41666666666666724,2.0,6.0,1.0
11.0,4.0,wc_4,,0.0,,,,362.0,,,,Fail,,,,,
11.0,4.0,wc_4,,0.0,,,78.0,,,,,Fail,,,,,
11.0,4.0,wc_4,,0.0,,,,0.0,,,,Fail,,,,,
11.0,4.0,wc_4,wc_4,0.0,"[('wc_4', 0.5200000000000004)]",0.5200000000000004,,,28.0,0.002574,['Fail'],Fail,0.5200000000000004,-0.32000000000000034,1.0,5.0,0.5
11.0,4.0,wc_4,,0.0,,,,103.0,,,,Fail,,,,,
11.0,4.0,wc_4,wc_3,0.0,"[('wc_3', 0.21000000000000008), ('wc_4', 0.5200000000000004)]",0.6208000000000002,,,24.0,0.004104999999999999,['Fail'],Fail,0.21000000000000008,-0.21000000000000008,0.0,3.0,0.2
11.0,4.0,wc_4,,0.0,,,,81.0,,,,Fail,,,,,
11.0,4.0,wc_4,wc_1,0.0,"[('wc_1', 0.5400000000000004), ('wc_4', 0.5200000000000004), ('wc_3', 0.21000000000000008)]",0.8255680000000003,,,25.0,0.006829999999999999,['Fail'],Fail,0.5400000000000004,-0.20666666666666705,1.0,3.0,0.7
11.0,4.0,wc_4,,0.0,,,,162.0,,,,Fail,,,,,
11.0,4.0,wc_4,wc_7,0.0,"[('wc_7', 0.39000000000000024), ('wc_4', 0.5200000000000004), ('wc_3', 0.21000000000000008), ('wc_1', 0.5400000000000004)]",0.8935964800000002,,,20.0,0.008039000000000001,['Fail'],Fail,0.39000000000000024,-0.39000000000000024,0.0,0.0,0.6
11.0,4.0,wc_4,,0.0,,,,162.0,,,,Fail,,,,,
11.0,4.0,wc_4,wc_13,1.0,"[('wc_13', 0.29000000000000015), ('wc_4', 0.5200000000000004), ('wc_3', 0.21000000000000008), ('wc_1', 0.5400000000000004), ('wc_7', 0.39000000000000024)]",0.9244535008000002,,,40.0,0.041253,['Fail'],Fail,0.30000000000000016,0.14444444444444426,4.0,9.0,0.2
14.0,4.0,wc_4,,0.0,,,,361.0,,,,Pass,,,,,
14.0,4.0,wc_4,,0.0,,,67.0,,,,,Pass,,,,,
14.0,4.0,wc_4,,0.0,,,,0.0,,,,Pass,,,,,
14.0,4.0,wc_4,wc_4,0.0,"[('wc_4', 0.5200000000000004)]",0.5200000000000004,,,37.0,0.002388,['Pass'],Pass,0.5200000000000004,-0.18666666666666704,2.0,6.0,0.5
14.0,4.0,wc_4,,0.0,,,,121.0,,,,Pass,,,,,
14.0,4.0,wc_4,wc_12,0.0,"[('wc_12', 0.21000000000000008), ('wc_4', 0.5200000000000004)]",0.6208000000000002,,,25.0,0.004346,['Pass'],Pass,0.21000000000000008,-0.09888888888888897,1.0,9.0,0.1
14.0,4.0,wc_4,,0.0,,,,0.0,,,,Pass,,,,,
14.0,4.0,wc_4,wc_16,0.0,"[('wc_4', 0.5200000000000004), ('wc_12', 0.21000000000000008)]",0.6208000000000002,,,30.0,0.0060290000000000005,['Pass'],Pass,0.14,-0.14,0.0,2.0,0.1
14.0,4.0,wc_4,,0.0,,,,283.0,,,,Pass,,,,,
14.0,4.0,wc_4,wc_2,0.0,"[('wc_2', 0.3700000000000002), ('wc_4', 0.5200000000000004), ('wc_12', 0.21000000000000008)]",0.7611040000000002,,,38.0,0.008533,['Pass'],Pass,0.3700000000000002,-0.3700000000000002,0.0,1.0,0.3
14.0,4.0,wc_4,,0.0,,,,182.0,,,,Pass,,,,,
14.0,4.0,wc_4,wc_13,0.0,"[('wc_13', 0.30000000000000016), ('wc_4', 0.5200000000000004), ('wc_12', 0.21000000000000008), ('wc_2', 0.3700000000000002)]",0.8327728000000002,,,27.0,0.009948,['Pass'],Pass,0.30000000000000016,0.14444444444444426,4.0,9.0,0.2
14.0,4.0,wc_4,,0.0,,,,381.0,,,,Pass,,,,,
14.0,4.0,wc_4,wc_5,1.0,"[('wc_5', 0.4400000000000003), ('wc_4', 0.5200000000000004), ('wc_12', 0.21000000000000008), ('wc_2', 0.3700000000000002), ('wc_13', 0.30000000000000016)]",0.9063527680000002,,,36.0,0.044580999999999996,['Pass'],Pass,0.4400000000000003,-0.3150000000000003,1.0,8.0,0.5
19.0,2.0,wc_2,,0.0,,,,61.0,,,,Pass,,,,,
19.0,2.0,wc_2,,0.0,,,75.0,,,,,Pass,,,,,
19.0,2.0,wc_2,,0.0,,,,0.0,,,,Pass,,,,,
19.0,2.0,wc_2,wc_2,0.0,"[('wc_2', 0.3800000000000002)]",0.3800000000000002,,,40.0,0.002435,['Pass'],Pass,0.3800000000000002,0.11999999999999977,1.0,2.0,0.3
19.0,2.0,wc_2,,0.0,,,,0.0,,,,Pass,,,,,
19.0,2.0,wc_2,wc_4,0.0,"[('wc_4', 0.5200000000000004), ('wc_2', 0.3800000000000002)]",0.7024000000000004,,,39.0,0.004640999999999999,['Pass'],Pass,0.5200000000000004,-0.0914285714285718,3.0,7.0,0.5
19.0,2.0,wc_2,,0.0,,,,103.0,,,,Pass,,,,,
19.0,2.0,wc_2,wc_3,0.0,"[('wc_2', 0.3800000000000002), ('wc_4', 0.5200000000000004)]",0.7024000000000004,,,24.0,0.008301,['Pass'],Pass,0.22000000000000008,-0.020000000000000073,1.0,5.0,0.2
19.0,2.0,wc_2,,0.0,,,,202.0,,,,Pass,,,,,
19.0,2.0,wc_2,wc_11,0.0,"[('wc_11', 0.28000000000000014), ('wc_2', 0.3800000000000002), ('wc_4', 0.5200000000000004)]",0.7857280000000003,,,24.0,0.009554,['Pass'],Pass,0.28000000000000014,-0.05777777777777793,2.0,9.0,0.3
19.0,2.0,wc_2,,0.0,,,,41.0,,,,Pass,,,,,
19.0,2.0,wc_2,wc_7,0.0,"[('wc_7', 0.40000000000000024), ('wc_2', 0.3800000000000002), ('wc_4', 0.5200000000000004), ('wc_11', 0.28000000000000014)]",0.8714368000000002,,,30.0,0.011589,['Pass'],Pass,0.40000000000000024,0.09999999999999976,1.0,2.0,0.6
19.0,2.0,wc_2,,0.0,,,,341.0,,,,Pass,,,,,
19.0,2.0,wc_2,wc_5,0.0,"[('wc_2', 0.3800000000000002), ('wc_4', 0.5200000000000004), ('wc_11', 0.28000000000000014), ('wc_7', 0.40000000000000024)]",0.8714368000000002,,,30.0,0.01585,['Pass'],Pass,0.4400000000000003,-0.3150000000000003,1.0,8.0,0.5
19.0,2.0,wc_2,,0.0,,,,202.0,,,,Pass,,,,,
19.0,2.0,wc_2,wc_17,1.0,"[('wc_17', 0.5400000000000004), ('wc_2', 0.3800000000000002), ('wc_4', 0.5200000000000004), ('wc_11', 0.28000000000000014), ('wc_7', 0.40000000000000024)]",0.9408609280000001,,,28.0,0.053546,['Pass'],Pass,0.5400000000000004,-0.11142857142857182,3.0,7.0,0.9
25.0,3.0,wc_3,,0.0,,,,362.0,,,,Fail,,,,,
25.0,3.0,wc_3,,0.0,,,56.0,,,,,Fail,,,,,
25.0,3.0,wc_3,,0.0,,,,0.0,,,,Fail,,,,,
25.0,3.0,wc_3,wc_3,0.0,"[('wc_3', 0.21000000000000008)]",0.21000000000000008,,,27.0,0.002482,['Pass'],Fail,0.21000000000000008,-0.04333333333333342,1.0,6.0,0.2
25.0,3.0,wc_3,,0.0,,,,101.0,,,,Fail,,,,,
25.0,3.0,wc_3,wc_6,0.0,"[('wc_6', 0.5800000000000004)]",0.5800000000000004,,,25.0,0.004409,['Fail'],Fail,0.5800000000000004,-0.2466666666666671,3.0,9.0,0.7
25.0,3.0,wc_3,,0.0,,,,0.0,,,,Fail,,,,,
25.0,3.0,wc_3,wc_11,0.0,"[('wc_6', 0.5800000000000004)]",0.5800000000000004,,,35.0,0.006607999999999999,['Fail'],Fail,0.29000000000000015,-0.29000000000000015,0.0,0.0,0.3
25.0,3.0,wc_3,,0.0,,,,103.0,,,,Fail,,,,,
25.0,3.0,wc_3,wc_10,0.0,"[('wc_10', 0.7500000000000006), ('wc_6', 0.5800000000000004)]",0.8950000000000004,,,36.0,0.00933,['Fail'],Fail,0.7500000000000006,-0.5277777777777783,2.0,9.0,1.0
25.0,3.0,wc_3,,0.0,,,,121.0,,,,Fail,,,,,
25.0,3.0,wc_3,wc_14,0.0,"[('wc_6', 0.5800000000000004), ('wc_10', 0.7500000000000006)]",0.8950000000000004,,,20.0,0.014673000000000002,['Fail'],Fail,0.3300000000000002,-0.022307692307692473,0.0,0.0,0.2
25.0,3.0,wc_3,,0.0,,,,0.0,,,,Fail,,,,,
25.0,3.0,wc_3,wc_16,0.0,"[('wc_6', 0.5800000000000004), ('wc_10', 0.7500000000000006)]",0.8950000000000004,,,36.0,0.013071,['Fail'],Fail,0.13,-0.13,0.0,4.0,0.1
25.0,3.0,wc_3,,0.0,,,,41.0,,,,Fail,,,,,
25.0,3.0,wc_3,wc_12,1.0,"[('wc_12', 0.21000000000000008), ('wc_6', 0.5800000000000004), ('wc_10', 0.7500000000000006)]",0.9170500000000003,,,27.0,0.056262999999999994,['Fail'],Fail,0.22000000000000008,0.2799999999999999,1.0,2.0,0.1
34.0,3.0,wc_3,,0.0,,,,361.0,,,,Fail,,,,,
34.0,3.0,wc_3,,0.0,,,54.0,,,,,Fail,,,,,
34.0,3.0,wc_3,,0.0,,,,0.0,,,,Fail,,,,,
34.0,3.0,wc_3,wc_3,0.0,"[('wc_3', 0.20000000000000007)]",0.20000000000000007,,,32.0,0.002418,['Fail'],Fail,0.20000000000000007,-0.05714285714285722,1.0,7.0,0.2
34.0,3.0,wc_3,,0.0,,,,161.0,,,,Fail,,,,,
34.0,3.0,wc_3,wc_13,0.0,"[('wc_13', 0.31000000000000016)]",0.31000000000000016,,,39.0,0.004694,['Pass'],Fail,0.31000000000000016,-0.31000000000000016,0.0,2.0,0.2
34.0,3.0,wc_3,,0.0,,,,0.0,,,,Fail,,,,,
34.0,3.0,wc_3,wc_16,0.0,"[('wc_13', 0.31000000000000016)]",0.31000000000000016,,,37.0,0.006456,['Pass'],Fail,0.12000000000000001,-0.12000000000000001,0.0,5.0,0.1
34.0,3.0,wc_3,,0.0,,,,81.0,,,,Fail,,,,,
34.0,3.0,wc_3,wc_14,0.0,"[('wc_14', 0.3200000000000002), ('wc_13', 0.31000000000000016)]",0.5308000000000002,,,36.0,0.007465000000000001,['Pass'],Fail,0.3200000000000002,-0.3200000000000002,0.0,1.0,0.2
34.0,3.0,wc_3,,0.0,,,,0.0,,,,Fail,,,,,
34.0,3.0,wc_3,wc_17,0.0,"[('wc_17', 0.5400000000000004), ('wc_13', 0.31000000000000016), ('wc_14', 0.3200000000000002)]",0.7841680000000003,,,23.0,0.009772000000000001,['Pass'],Fail,0.5400000000000004,-0.16500000000000037,3.0,8.0,0.9
34.0,3.0,wc_3,,0.0,,,,342.0,,,,Fail,,,,,
34.0,3.0,wc_3,wc_10,0.0,"[('wc_10', 0.7500000000000006), ('wc_3', 0.20000000000000007), ('wc_16', 0.12000000000000001)]",0.8240000000000004,,,27.0,0.013228,['Fail'],Fail,0.7500000000000006,-0.7500000000000006,0.0,0.0,1.0
34.0,3.0,wc_3,,0.0,,,,0.0,,,,Fail,,,,,
34.0,3.0,wc_3,wc_11,0.0,"[('wc_11', 0.28000000000000014), ('wc_13', 0.31000000000000016), ('wc_14', 0.3200000000000002), ('wc_17', 0.5400000000000004)]",0.8446009600000002,,,34.0,0.014795,['Pass'],Fail,0.28000000000000014,-0.28000000000000014,0.0,1.0,0.3
34.0,3.0,wc_3,,0.0,,,,203.0,,,,Fail,,,,,
34.0,3.0,wc_3,wc_1,1.0,"[('wc_1', 0.5400000000000004), ('wc_3', 0.20000000000000007), ('wc_16', 0.12000000000000001), ('wc_10', 0.7500000000000006)]",0.9190400000000003,,,24.0,0.045682,['Fail'],Fail,0.5400000000000004,-0.16500000000000037,3.0,8.0,0.7
46.0,3.0,wc_3,,0.0,,,,0.0,,,,Pass,,,,,
46.0,3.0,wc_3,,0.0,,,66.0,,,,,Pass,,,,,
46.0,3.0,wc_3,,0.0,,,,0.0,,,,Pass,,,,,
46.0,3.0,wc_3,wc_3,0.0,"[('wc_3', 0.21000000000000008)]",0.21000000000000008,,,35.0,0.002723,['Pass'],Pass,0.21000000000000008,0.039999999999999925,2.0,8.0,0.2
46.0,3.0,wc_3,,0.0,,,,242.0,,,,Pass,,,,,
46.0,3.0,wc_3,wc_17,0.0,"[('wc_17', 0.5300000000000004), ('wc_3', 0.21000000000000008)]",0.6287000000000003,,,39.0,0.004369,['Pass'],Pass,0.5300000000000004,-0.19666666666666704,3.0,9.0,0.9
46.0,3.0,wc_3,,0.0,,,,83.0,,,,Pass,,,,,
46.0,3.0,wc_3,wc_15,0.0,"[('wc_3', 0.21000000000000008), ('wc_17', 0.5300000000000004)]",0.6287000000000003,,,28.0,0.006777,['Pass'],Pass,0.3300000000000002,-0.21888888888888908,1.0,9.0,0.2
46.0,3.0,wc_3,,0.0,,,,263.0,,,,Pass,,,,,
46.0,3.0,wc_3,wc_8,0.0,"[('wc_8', 0.40000000000000024), ('wc_3', 0.21000000000000008), ('wc_17', 0.5300000000000004)]",0.7772200000000002,,,29.0,0.008161999999999999,['Pass'],Pass,0.40000000000000024,-0.20000000000000023,0.0,0.0,0.3
46.0,3.0,wc_3,,0.0,,,,0.0,,,,Pass,,,,,
46.0,3.0,wc_3,wc_10,1.0,"[('wc_10', 0.7600000000000006), ('wc_3', 0.21000000000000008), ('wc_17', 0.5300000000000004), ('wc_8', 0.40000000000000024)]",0.9465328000000002,,,40.0,0.046959999999999995,['Pass'],Pass,0.7700000000000006,0.22999999999999943,2.0,2.0,1.0
51.0,5.0,wc_5,,0.0,,,,382.0,,,,Fail,,,,,
51.0,5.0,wc_5,,0.0,,,50.0,,,,,Fail,,,,,
51.0,5.0,wc_5,,0.0,,,,0.0,,,,Fail,,,,,
51.0,5.0,wc_5,wc_5,0.0,"[('wc_5', 0.43000000000000027)]",0.43000000000000027,,,23.0,0.002539,['Fail'],Fail,0.43000000000000027,-0.34666666666666696,0.0,0.0,0.5
51.0,5.0,wc_5,,0.0,,,,182.0,,,,Fail,,,,,
51.0,5.0,wc_5,wc_16,0.0,"[('wc_16', 0.13), ('wc_5', 0.43000000000000027)]",0.5041000000000002,,,26.0,0.004228,['Fail'],Fail,0.13,0.012857142857142845,1.0,7.0,0.1
51.0,5.0,wc_5,,0.0,,,,382.0,,,,Fail,,,,,
51.0,5.0,wc_5,wc_11,0.0,"[('wc_11', 0.27000000000000013), ('wc_5', 0.43000000000000027), ('wc_16', 0.13)]",0.6379930000000003,,,24.0,0.006895999999999999,['Fail'],Fail,0.27000000000000013,-0.27000000000000013,0.0,3.0,0.3
51.0,5.0,wc_5,,0.0,,,,322.0,,,,Fail,,,,,
51.0,5.0,wc_5,wc_3,0.0,"[('wc_5', 0.43000000000000027), ('wc_16', 0.13), ('wc_11', 0.27000000000000013)]",0.6379930000000003,,,27.0,0.008715,['Fail'],Fail,0.22000000000000008,0.11333333333333323,3.0,9.0,0.2
51.0,5.0,wc_5,,0.0,,,,81.0,,,,Fail,,,,,
51.0,5.0,wc_5,wc_1,0.0,"[('wc_1', 0.5400000000000004), ('wc_5', 0.43000000000000027), ('wc_16', 0.13), ('wc_11', 0.27000000000000013)]",0.8334767800000003,,,31.0,0.010561000000000001,['Fail'],Fail,0.5400000000000004,-0.20666666666666705,3.0,9.0,0.7
51.0,5.0,wc_5,,0.0,,,,162.0,,,,Fail,,,,,
51.0,5.0,wc_5,wc_7,1.0,"[('wc_7', 0.41000000000000025), ('wc_5', 0.43000000000000027), ('wc_16', 0.13), ('wc_11', 0.27000000000000013), ('wc_1', 0.5400000000000004)]",0.9017513002000002,,,37.0,0.047922,['Fail'],Fail,0.42000000000000026,0.008571428571428286,3.0,7.0,0.6
57.0,5.0,wc_5,,0.0,,,,341.0,,,,Fail,,,,,
57.0,5.0,wc_5,,0.0,,,55.0,,,,,Fail,,,,,
57.0,5.0,wc_5,,0.0,,,,0.0,,,,Fail,,,,,
57.0,5.0,wc_5,wc_5,0.0,"[('wc_5', 0.4400000000000003)]",0.4400000000000003,,,25.0,0.00214,['Fail'],Fail,0.4400000000000003,0.5599999999999997,1.0,1.0,0.5
57.0,5.0,wc_5,,0.0,,,,121.0,,,,Fail,,,,,
57.0,5.0,wc_5,wc_13,0.0,"[('wc_13', 0.30000000000000016), ('wc_5', 0.4400000000000003)]",0.6080000000000003,,,26.0,0.004023,['Fail'],Fail,0.30000000000000016,-0.30000000000000016,0.0,5.0,0.2
57.0,5.0,wc_5,,0.0,,,,182.0,,,,Fail,,,,,
57.0,5.0,wc_5,wc_7,0.0,"[('wc_7', 0.42000000000000026), ('wc_5', 0.4400000000000003), ('wc_13', 0.30000000000000016)]",0.7726400000000002,,,37.0,0.018741,['Fail'],Fail,0.42000000000000026,0.008571428571428286,3.0,7.0,0.6
57.0,5.0,wc_5,,0.0,,,,243.0,,,,Fail,,,,,
57.0,5.0,wc_5,wc_17,0.0,"[('wc_17', 0.5300000000000004), ('wc_5', 0.4400000000000003), ('wc_13', 0.30000000000000016), ('wc_7', 0.42000000000000026)]",0.8931408000000002,,,22.0,0.00886,['Fail'],Fail,0.5300000000000004,-0.5300000000000004,0.0,1.0,0.9
57.0,5.0,wc_5,,0.0,,,,183.0,,,,Fail,,,,,
57.0,5.0,wc_5,wc_6,1.0,"[('wc_6', 0.5800000000000004), ('wc_5', 0.4400000000000003), ('wc_13', 0.30000000000000016), ('wc_7', 0.42000000000000026), ('wc_17', 0.5300000000000004)]",0.9551191360000001,,,34.0,0.045913999999999996,['Fail'],Fail,0.5800000000000004,-0.3300000000000004,1.0,4.0,0.7
64.0,5.0,wc_5,,0.0,,,,361.0,,,,Pass,,,,,
64.0,5.0,wc_5,,0.0,,,62.0,,,,,Pass,,,,,
64.0,5.0,wc_5,,0.0,,,,0.0,,,,Pass,,,,,
64.0,5.0,wc_5,wc_5,0.0,"[('wc_5', 0.4500000000000003)]",0.4500000000000003,,,23.0,0.003456,['Pass'],Pass,0.4500000000000003,0.5499999999999997,2.0,2.0,0.5
64.0,5.0,wc_5,,0.0,,,,101.0,,,,Pass,,,,,
64.0,5.0,wc_5,wc_8,0.0,"[('wc_8', 0.41000000000000025), ('wc_5', 0.4500000000000003)]",0.6755000000000003,,,37.0,0.004327,['Pass'],Pass,0.41000000000000025,-0.07666666666666694,1.0,3.0,0.3
64.0,5.0,wc_5,,0.0,,,,223.0,,,,Pass,,,,,
64.0,5.0,wc_5,wc_17,0.0,"[('wc_17', 0.5300000000000004), ('wc_5', 0.4500000000000003), ('wc_8', 0.41000000000000025)]",0.8474850000000003,,,30.0,0.0057669999999999996,['Pass'],Pass,0.5300000000000004,-0.03000000000000036,1.0,2.0,0.9
64.0,5.0,wc_5,,0.0,,,,342.0,,,,Pass,,,,,
64.0,5.0,wc_5,wc_10,1.0,"[('wc_10', 0.7700000000000006), ('wc_5', 0.4500000000000003), ('wc_8', 0.41000000000000025), ('wc_17', 0.5300000000000004)]",0.9649215500000001,,,38.0,0.04252,['Pass'],Pass,0.7700000000000006,-0.1700000000000006,3.0,5.0,1.0
71.0,6.0,wc_6,,0.0,,,,41.0,,,,Pass,,,,,
71.0,6.0,wc_6,,0.0,,,74.0,,,,,Pass,,,,,
71.0,6.0,wc_6,,0.0,,,,0.0,,,,Pass,,,,,
71.0,6.0,wc_6,wc_6,0.0,"[('wc_6', 0.5800000000000004)]",0.5800000000000004,,,28.0,0.002525,['Pass'],Pass,0.5800000000000004,-0.3800000000000004,1.0,5.0,0.7
71.0,6.0,wc_6,,0.0,,,,0.0,,,,Pass,,,,,
71.0,6.0,wc_6,wc_11,0.0,"[('wc_6', 0.5800000000000004)]",0.5800000000000004,,,35.0,0.004671,['Pass'],Pass,0.27000000000000013,-0.10333333333333347,1.0,6.0,0.3
71.0,6.0,wc_6,,0.0,,,,362.0,,,,Pass,,,,,
71.0,6.0,wc_6,wc_5,0.0,"[('wc_5', 0.4600000000000003), ('wc_11', 0.27000000000000013)]",0.6058000000000003,,,23.0,0.006494,['Fail'],Pass,0.4600000000000003,0.5399999999999997,3.0,3.0,0.5
71.0,6.0,wc_6,,0.0,,,,141.0,,,,Pass,,,,,
71.0,6.0,wc_6,wc_14,0.0,"[('wc_14', 0.31000000000000016), ('wc_11', 0.27000000000000013), ('wc_5', 0.4600000000000003)]",0.7280020000000003,,,24.0,0.007766,['Fail'],Pass,0.31000000000000016,-0.31000000000000016,0.0,6.0,0.2
71.0,6.0,wc_6,,0.0,,,,0.0,,,,Pass,,,,,
71.0,6.0,wc_6,wc_15,0.0,"[('wc_15', 0.3200000000000002), ('wc_11', 0.27000000000000013), ('wc_5', 0.4600000000000003), ('wc_14', 0.31000000000000016)]",0.8150413600000002,,,36.0,0.009572,['Fail'],Pass,0.3200000000000002,-0.3200000000000002,0.0,3.0,0.2
71.0,6.0,wc_6,,0.0,,,,0.0,,,,Pass,,,,,
71.0,6.0,wc_6,wc_17,0.0,"[('wc_11', 0.27000000000000013), ('wc_5', 0.4600000000000003), ('wc_14', 0.31000000000000016), ('wc_15', 0.3200000000000002)]",0.8150413600000002,,,23.0,0.011764,['Fail'],Pass,0.5400000000000004,0.12666666666666626,2.0,3.0,0.9
71.0,6.0,wc_6,,0.0,,,,382.0,,,,Pass,,,,,
71.0,6.0,wc_6,wc_4,1.0,"[('wc_4', 0.5200000000000004), ('wc_6', 0.5800000000000004), ('wc_17', 0.5400000000000004)]",0.9072640000000002,,,33.0,0.045987,['Pass'],Pass,0.5200000000000004,-0.5200000000000004,0.0,0.0,0.5
79.0,7.0,wc_7,,0.0,,,,101.0,,,,Pass,,,,,
79.0,7.0,wc_7,,0.0,,,70.0,,,,,Pass,,,,,
79.0,7.0,wc_7,,0.0,,,,0.0,,,,Pass,,,,,
79.0,7.0,wc_7,wc_7,0.0,"[('wc_7', 0.43000000000000027)]",0.43000000000000027,,,23.0,0.003414,['Pass'],Pass,0.43000000000000027,-0.03000000000000025,0.0,0.0,0.6
79.0,7.0,wc_7,,0.0,,,,223.0,,,,Pass,,,,,
79.0,7.0,wc_7,wc_16,0.0,"[('wc_7', 0.43000000000000027)]",0.43000000000000027,,,35.0,0.004156,['Pass'],Pass,0.14,0.04181818181818181,0.0,0.0,0.1
79.0,7.0,wc_7,,0.0,,,,103.0,,,,Pass,,,,,
79.0,7.0,wc_7,wc_15,0.0,"[('wc_15', 0.31000000000000016), ('wc_7', 0.43000000000000027)]",0.6067000000000002,,,30.0,0.0067929999999999996,['Pass'],Pass,0.31000000000000016,-0.31000000000000016,0.0,4.0,0.2
79.0,7.0,wc_7,,0.0,,,,0.0,,,,Pass,,,,,
79.0,7.0,wc_7,wc_17,0.0,"[('wc_17', 0.5500000000000004), ('wc_7', 0.43000000000000027), ('wc_15', 0.31000000000000016)]",0.8230150000000003,,,33.0,0.012878,['Pass'],Pass,0.5500000000000004,0.19999999999999962,3.0,4.0,0.9
79.0,7.0,wc_7,,0.0,,,,41.0,,,,Pass,,,,,
79.0,7.0,wc_7,wc_13,0.0,"[('wc_13', 0.30000000000000016), ('wc_7', 0.43000000000000027), ('wc_15', 0.31000000000000016), ('wc_17', 0.5500000000000004)]",0.8761105000000002,,,21.0,0.010418,['Pass'],Pass,0.30000000000000016,-0.17500000000000016,1.0,8.0,0.2
79.0,7.0,wc_7,,0.0,,,,301.0,,,,Pass,,,,,
79.0,7.0,wc_7,wc_9,1.0,"[('wc_9', 0.6200000000000004), ('wc_7', 0.43000000000000027), ('wc_15', 0.31000000000000016), ('wc_17', 0.5500000000000004), ('wc_13', 0.30000000000000016)]",0.9529219900000001,,,34.0,0.044789999999999996,['Pass'],Pass,0.6200000000000004,-0.6200000000000004,0.0,0.0,0.8
89.0,8.0,wc_8,,0.0,,,,101.0,,,,Fail,,,,,
89.0,8.0,wc_8,,0.0,,,75.0,,,,,Fail,,,,,
89.0,8.0,wc_8,,0.0,,,,0.0,,,,Fail,,,,,
89.0,8.0,wc_8,wc_8,0.0,"[('wc_8', 0.42000000000000026)]",0.42000000000000026,,,35.0,0.001957,['Pass'],Fail,0.42000000000000026,-0.08666666666666695,2.0,6.0,0.3
89.0,8.0,wc_8,,0.0,,,,162.0,,,,Fail,,,,,
89.0,8.0,wc_8,wc_14,0.0,"[('wc_8', 0.42000000000000026)]",0.42000000000000026,,,28.0,0.004316,['Pass'],Fail,0.30000000000000016,-0.30000000000000016,0.0,8.0,0.2
89.0,8.0,wc_8,,0.0,,,,361.0,,,,Fail,,,,,
89.0,8.0,wc_8,wc_5,0.0,"[('wc_5', 0.4600000000000003), ('wc_14', 0.30000000000000016)]",0.6220000000000003,,,30.0,0.006131999999999999,['Fail'],Fail,0.4600000000000003,0.13999999999999968,3.0,5.0,0.5
89.0,8.0,wc_8,,0.0,,,,121.0,,,,Fail,,,,,
89.0,8.0,wc_8,wc_13,0.0,"[('wc_13', 0.30000000000000016), ('wc_14', 0.30000000000000016), ('wc_5', 0.4600000000000003)]",0.7354000000000003,,,37.0,0.008478,['Fail'],Fail,0.30000000000000016,-0.07777777777777795,2.0,9.0,0.2
89.0,8.0,wc_8,,0.0,,,,341.0,,,,Fail,,,,,
89.0,8.0,wc_8,wc_3,0.0,"[('wc_14', 0.30000000000000016), ('wc_5', 0.4600000000000003), ('wc_13', 0.30000000000000016)]",0.7354000000000003,,,38.0,0.010032,['Fail'],Fail,0.22000000000000008,-0.22000000000000008,0.0,4.0,0.2
89.0,8.0,wc_8,,0.0,,,,242.0,,,,Fail,,,,,
89.0,8.0,wc_8,wc_17,0.0,"[('wc_17', 0.5600000000000004), ('wc_14', 0.30000000000000016), ('wc_5', 0.4600000000000003), ('wc_13', 0.30000000000000016)]",0.8835760000000003,,,32.0,0.013105,['Fail'],Fail,0.5600000000000004,0.23999999999999966,4.0,5.0,0.9
89.0,8.0,wc_8,,0.0,,,,103.0,,,,Fail,,,,,
89.0,8.0,wc_8,wc_16,0.0,"[('wc_14', 0.30000000000000016), ('wc_5', 0.4600000000000003), ('wc_13', 0.30000000000000016), ('wc_17', 0.5600000000000004)]",0.8835760000000003,,,40.0,0.014868,['Fail'],Fail,0.13,-0.13,0.0,1.0,0.1
89.0,8.0,wc_8,,0.0,,,,382.0,,,,Fail,,,,,
89.0,8.0,wc_8,wc_11,1.0,"[('wc_11', 0.2600000000000001), ('wc_14', 0.30000000000000016), ('wc_5', 0.4600000000000003), ('wc_13', 0.30000000000000016), ('wc_17', 0.5600000000000004)]",0.9138462400000001,,,22.0,0.048999999999999995,['Fail'],Fail,0.2600000000000001,-0.03777777777777791,2.0,9.0,0.3
96.0,9.0,wc_9,,0.0,,,,83.0,,,,Fail,,,,,
96.0,9.0,wc_9,,0.0,,,64.0,,,,,Fail,,,,,
96.0,9.0,wc_9,,0.0,,,,0.0,,,,Fail,,,,,
96.0,9.0,wc_9,wc_9,0.0,"[('wc_9', 0.6200000000000004)]",0.6200000000000004,,,39.0,0.002217,['Fail'],Fail,0.6200000000000004,-0.6200000000000004,0.0,1.0,0.8
96.0,9.0,wc_9,,0.0,,,,101.0,,,,Fail,,,,,
96.0,9.0,wc_9,wc_12,0.0,"[('wc_12', 0.22000000000000008), ('wc_9', 0.6200000000000004)]",0.7036000000000004,,,33.0,0.004347,['Fail'],Fail,0.22000000000000008,-0.12000000000000008,0.0,0.0,0.1
96.0,9.0,wc_9,,0.0,,,,341.0,,,,Fail,,,,,
96.0,9.0,wc_9,wc_10,1.0,"[('wc_10', 0.7700000000000006), ('wc_9', 0.6200000000000004), ('wc_12', 0.22000000000000008)]",0.9318280000000002,,,27.0,0.039384,['Fail'],Fail,0.7700000000000006,-0.32555555555555615,4.0,9.0,1.0
105.0,8.0,wc_8,,0.0,,,,81.0,,,,Fail,,,,,
105.0,8.0,wc_8,,0.0,,,72.0,,,,,Fail,,,,,
105.0,8.0,wc_8,,0.0,,,,0.0,,,,Fail,,,,,
105.0,8.0,wc_8,wc_8,0.0,"[('wc_8', 0.41000000000000025)]",0.41000000000000025,,,35.0,0.002735,['Fail'],Fail,0.41000000000000025,-0.16000000000000025,2.0,8.0,0.3
105.0,8.0,wc_8,,0.0,,,,321.0,,,,Fail,,,,,
105.0,8.0,wc_8,wc_5,0.0,"[('wc_5', 0.4700000000000003), ('wc_8', 0.41000000000000025)]",0.6873000000000002,,,29.0,0.004227,['Fail'],Fail,0.4700000000000003,0.10142857142857109,4.0,7.0,0.5
105.0,8.0,wc_8,,0.0,,,,182.0,,,,Fail,,,,,
105.0,8.0,wc_8,wc_16,0.0,"[('wc_8', 0.41000000000000025), ('wc_5', 0.4700000000000003)]",0.6873000000000002,,,26.0,0.0057599999999999995,['Fail'],Fail,0.12000000000000001,-0.12000000000000001,0.0,3.0,0.1
105.0,8.0,wc_8,,0.0,,,,103.0,,,,Fail,,,,,
105.0,8.0,wc_8,wc_15,0.0,"[('wc_8', 0.41000000000000025), ('wc_5', 0.4700000000000003)]",0.6873000000000002,,,22.0,0.008007,['Fail'],Fail,0.31000000000000016,-0.16714285714285732,1.0,7.0,0.2
105.0,8.0,wc_8,,0.0,,,,101.0,,,,Fail,,,,,
105.0,8.0,wc_8,wc_14,0.0,"[('wc_14', 0.30000000000000016), ('wc_8', 0.41000000000000025), ('wc_5', 0.4700000000000003)]",0.7811100000000002,,,31.0,0.009731000000000002,['Fail'],Fail,0.30000000000000016,-0.20000000000000015,0.0,0.0,0.2
105.0,8.0,wc_8,,0.0,,,,0.0,,,,Fail,,,,,
105.0,8.0,wc_8,wc_17,1.0,"[('wc_17', 0.5700000000000004), ('wc_8', 0.41000000000000025), ('wc_5', 0.4700000000000003), ('wc_14', 0.30000000000000016)]",0.9058773000000002,,,39.0,0.046521,['Fail'],Fail,0.5800000000000004,0.1699999999999996,6.0,8.0,0.9
118.0,8.0,wc_8,,0.0,,,,223.0,,,,Fail,,,,,
118.0,8.0,wc_8,,0.0,,,80.0,,,,,Fail,,,,,
118.0,8.0,wc_8,,0.0,,,,0.0,,,,Fail,,,,,
118.0,8.0,wc_8,wc_8,0.0,"[('wc_8', 0.41000000000000025)]",0.41000000000000025,,,20.0,0.002306,['Fail'],Fail,0.41000000000000025,-0.07666666666666694,3.0,9.0,0.3
118.0,8.0,wc_8,,0.0,,,,203.0,,,,Fail,,,,,
118.0,8.0,wc_8,wc_16,0.0,"[('wc_16', 0.11000000000000001), ('wc_8', 0.41000000000000025)]",0.4749000000000002,,,35.0,0.00422,['Fail'],Fail,0.11000000000000001,-0.11000000000000001,0.0,4.0,0.1
118.0,8.0,wc_8,,0.0,,,,203.0,,,,Fail,,,,,
118.0,8.0,wc_8,wc_6,0.0,"[('wc_6', 0.5800000000000004), ('wc_8', 0.41000000000000025), ('wc_16', 0.11000000000000001)]",0.7794580000000003,,,33.0,0.005859,['Fail'],Fail,0.5800000000000004,-0.3800000000000004,0.0,0.0,0.7
118.0,8.0,wc_8,,0.0,,,,182.0,,,,Fail,,,,,
118.0,8.0,wc_8,wc_13,0.0,"[('wc_8', 0.41000000000000025), ('wc_16', 0.11000000000000001), ('wc_6', 0.5800000000000004)]",0.7794580000000003,,,23.0,0.008077,['Fail'],Fail,0.30000000000000016,-0.30000000000000016,0.0,2.0,0.2
118.0,8.0,wc_8,,0.0,,,,381.0,,,,Fail,,,,,
118.0,8.0,wc_8,wc_5,0.0,"[('wc_5', 0.4800000000000003), ('wc_8', 0.41000000000000025), ('wc_16', 0.11000000000000001), ('wc_6', 0.5800000000000004)]",0.8853181600000002,,,22.0,0.011066000000000001,['Fail'],Fail,0.4800000000000003,0.14499999999999968,5.0,8.0,0.5
118.0,8.0,wc_8,,0.0,,,,81.0,,,,Fail,,,,,
118.0,8.0,wc_8,wc_7,1.0,"[('wc_7', 0.4400000000000003), ('wc_8', 0.41000000000000025), ('wc_16', 0.11000000000000001), ('wc_6', 0.5800000000000004), ('wc_5', 0.4800000000000003)]",0.9357781696000002,,,37.0,0.04712799999999999,['Fail'],Fail,0.4400000000000003,-0.04000000000000026,2.0,5.0,0.6
124.0,9.0,wc_9,,0.0,,,,0.0,,,,Fail,,,,,
124.0,9.0,wc_9,,0.0,,,66.0,,,,,Fail,,,,,
124.0,9.0,wc_9,,0.0,,,,0.0,,,,Fail,,,,,
124.0,9.0,wc_9,wc_9,0.0,"[('wc_9', 0.6200000000000004)]",0.6200000000000004,,,36.0,0.002078,['Fail'],Fail,0.6200000000000004,-0.37000000000000044,1.0,4.0,0.8
124.0,9.0,wc_9,,0.0,,,,0.0,,,,Fail,,,,,
124.0,9.0,wc_9,wc_11,0.0,"[('wc_11', 0.2600000000000001), ('wc_9', 0.6200000000000004)]",0.7188000000000003,,,27.0,0.0048330000000000005,['Fail'],Fail,0.2600000000000001,-0.09333333333333346,0.0,0.0,0.3
124.0,9.0,wc_9,,0.0,,,,122.0,,,,Fail,,,,,
124.0,9.0,wc_9,wc_15,0.0,"[('wc_15', 0.30000000000000016), ('wc_9', 0.6200000000000004), ('wc_11', 0.2600000000000001)]",0.8031600000000003,,,28.0,0.006183000000000001,['Fail'],Fail,0.30000000000000016,-0.18888888888888905,1.0,9.0,0.2
124.0,9.0,wc_9,,0.0,,,,402.0,,,,Fail,,,,,
124.0,9.0,wc_9,wc_3,0.0,"[('wc_3', 0.21000000000000008), ('wc_9', 0.6200000000000004), ('wc_11', 0.2600000000000001), ('wc_15', 0.30000000000000016)]",0.8444964000000003,,,20.0,0.007819999999999999,['Fail'],Fail,0.21000000000000008,-0.21000000000000008,0.0,8.0,0.2
124.0,9.0,wc_9,,0.0,,,,161.0,,,,Fail,,,,,
124.0,9.0,wc_9,wc_13,0.0,"[('wc_9', 0.6200000000000004), ('wc_11', 0.2600000000000001), ('wc_15', 0.30000000000000016), ('wc_3', 0.21000000000000008)]",0.8444964000000003,,,21.0,0.01103,['Fail'],Fail,0.29000000000000015,-0.29000000000000015,0.0,3.0,0.2
124.0,9.0,wc_9,,0.0,,,,182.0,,,,Fail,,,,,
124.0,9.0,wc_9,wc_7,1.0,"[('wc_7', 0.4400000000000003), ('wc_9', 0.6200000000000004), ('wc_11', 0.2600000000000001), ('wc_15', 0.30000000000000016), ('wc_3', 0.21000000000000008)]",0.9129179840000001,,,22.0,0.048829000000000004,['Fail'],Fail,0.4500000000000003,0.04999999999999971,3.0,6.0,0.6
135.0,11.0,wc_11,,0.0,,,,0.0,,,,Pass,,,,,
135.0,11.0,wc_11,,0.0,,,76.0,,,,,Pass,,,,,
135.0,11.0,wc_11,,0.0,,,,0.0,,,,Pass,,,,,
135.0,11.0,wc_11,wc_11,0.0,"[('wc_11', 0.27000000000000013)]",0.27000000000000013,,,27.0,0.003324,['Fail'],Pass,0.27000000000000013,0.7299999999999999,1.0,1.0,0.3
135.0,11.0,wc_11,,0.0,,,,203.0,,,,Pass,,,,,
135.0,11.0,wc_11,wc_1,0.0,"[('wc_1', 0.5400000000000004), ('wc_11', 0.27000000000000013)]",0.6642000000000003,,,39.0,0.004563,['Fail'],Pass,0.5400000000000004,-0.5400000000000004,0.0,9.0,0.7
135.0,11.0,wc_11,,0.0,,,,182.0,,,,Pass,,,,,
135.0,11.0,wc_11,wc_8,0.0,"[('wc_8', 0.41000000000000025), ('wc_11', 0.27000000000000013), ('wc_1', 0.5400000000000004)]",0.8018780000000003,,,34.0,0.008569,['Fail'],Pass,0.41000000000000025,-0.41000000000000025,0.0,1.0,0.3
135.0,11.0,wc_11,,0.0,,,,203.0,,,,Pass,,,,,
135.0,11.0,wc_11,wc_16,0.0,"[('wc_16', 0.12000000000000001), ('wc_11', 0.27000000000000013), ('wc_1', 0.5400000000000004), ('wc_8', 0.41000000000000025)]",0.8256526400000003,,,38.0,0.008768999999999999,['Fail'],Pass,0.12000000000000001,0.04666666666666665,1.0,6.0,0.1
135.0,11.0,wc_11,,0.0,,,,103.0,,,,Pass,,,,,
135.0,11.0,wc_11,wc_15,0.0,"[('wc_15', 0.30000000000000016), ('wc_11', 0.27000000000000013), ('wc_1', 0.5400000000000004), ('wc_8', 0.41000000000000025), ('wc_16', 0.12000000000000001)]",0.8779568480000002,,,35.0,0.010948,['Fail'],Pass,0.30000000000000016,-0.30000000000000016,0.0,0.0,0.2
135.0,11.0,wc_11,,0.0,,,,0.0,,,,Pass,,,,,
135.0,11.0,wc_11,wc_17,0.0,"[('wc_11', 0.27000000000000013), ('wc_1', 0.5400000000000004), ('wc_8', 0.41000000000000025), ('wc_16', 0.12000000000000001), ('wc_15', 0.30000000000000016)]",0.8779568480000002,,,29.0,0.011278,['Fail'],Pass,0.5800000000000004,0.019999999999999574,0.0,0.0,0.9
135.0,11.0,wc_11,,0.0,,,,183.0,,,,Pass,,,,,
135.0,11.0,wc_11,wc_6,0.0,"[('wc_11', 0.27000000000000013), ('wc_1', 0.5400000000000004), ('wc_8', 0.41000000000000025), ('wc_16', 0.12000000000000001), ('wc_15', 0.30000000000000016)]",0.8779568480000002,,,37.0,0.013731,['Fail'],Pass,0.5900000000000004,-0.09000000000000041,1.0,2.0,0.7
135.0,11.0,wc_11,,0.0,,,,0.0,,,,Pass,,,,,
135.0,11.0,wc_11,wc_7,1.0,"[('wc_7', 0.4500000000000003), ('wc_17', 0.5800000000000004), ('wc_6', 0.5900000000000004)]",0.9052900000000003,,,25.0,0.051334000000000005,['Pass'],Pass,0.4600000000000003,0.1114285714285711,4.0,7.0,0.6
143.0,9.0,wc_9,,0.0,,,,0.0,,,,Fail,,,,,
143.0,9.0,wc_9,,0.0,,,69.0,,,,,Fail,,,,,
143.0,9.0,wc_9,,0.0,,,,0.0,,,,Fail,,,,,
143.0,9.0,wc_9,wc_9,0.0,"[('wc_9', 0.6200000000000004)]",0.6200000000000004,,,26.0,0.002781,['Fail'],Fail,0.6200000000000004,-0.2866666666666671,2.0,6.0,0.8
143.0,9.0,wc_9,,0.0,,,,101.0,,,,Fail,,,,,
143.0,9.0,wc_9,wc_12,0.0,"[('wc_9', 0.6200000000000004)]",0.6200000000000004,,,36.0,0.0038339999999999997,['Fail'],Fail,0.2300000000000001,-0.030000000000000082,1.0,5.0,0.1
143.0,9.0,wc_9,,0.0,,,,341.0,,,,Fail,,,,,
143.0,9.0,wc_9,wc_10,0.0,"[('wc_10', 0.7700000000000006), ('wc_9', 0.6200000000000004)]",0.9126000000000003,,,40.0,0.006262,['Fail'],Fail,0.7700000000000006,-0.46230769230769286,0.0,0.0,1.0
143.0,9.0,wc_9,,0.0,,,,362.0,,,,Fail,,,,,
143.0,9.0,wc_9,wc_4,1.0,"[('wc_4', 0.5200000000000004), ('wc_9', 0.6200000000000004), ('wc_10', 0.7700000000000006)]",0.9580480000000002,,,35.0,0.045827,['Fail'],Fail,0.5200000000000004,-0.39500000000000035,1.0,8.0,0.5
154.0,9.0,wc_9,,0.0,,,,142.0,,,,Fail,,,,,
154.0,9.0,wc_9,,0.0,,,74.0,,,,,Fail,,,,,
154.0,9.0,wc_9,,0.0,,,,0.0,,,,Fail,,,,,
154.0,9.0,wc_9,wc_9,0.0,"[('wc_9', 0.6200000000000004)]",0.6200000000000004,,,39.0,0.002212,['Fail'],Fail,0.6200000000000004,-0.1914285714285719,3.0,7.0,0.8
154.0,9.0,wc_9,,0.0,,,,243.0,,,,Fail,,,,,
154.0,9.0,wc_9,wc_1,0.0,"[('wc_1', 0.5300000000000004), ('wc_9', 0.6200000000000004)]",0.8214000000000004,,,30.0,0.0043300000000000005,['Fail'],Fail,0.5300000000000004,-0.5300000000000004,0.0,1.0,0.7
154.0,9.0,wc_9,,0.0,,,,223.0,,,,Fail,,,,,
154.0,9.0,wc_9,wc_10,1.0,"[('wc_10', 0.7800000000000006), ('wc_9', 0.6200000000000004), ('wc_1', 0.5300000000000004)]",0.9607080000000002,,,20.0,0.042098,['Fail'],Fail,0.7900000000000006,0.2099999999999994,2.0,2.0,1.0
166.0,8.0,wc_8,,0.0,,,,81.0,,,,Fail,,,,,
166.0,8.0,wc_8,,0.0,,,75.0,,,,,Fail,,,,,
166.0,8.0,wc_8,,0.0,,,,0.0,,,,Fail,,,,,
166.0,8.0,wc_8,wc_8,0.0,"[('wc_8', 0.40000000000000024)]",0.40000000000000024,,,39.0,0.002176,['Fail'],Fail,0.40000000000000024,-0.40000000000000024,0.0,4.0,0.3
166.0,8.0,wc_8,,0.0,,,,223.0,,,,Fail,,,,,
166.0,8.0,wc_8,wc_17,0.0,"[('wc_17', 0.5900000000000004), ('wc_8', 0.40000000000000024)]",0.7540000000000003,,,25.0,0.005215,['Fail'],Fail,0.5900000000000004,-0.2566666666666671,1.0,3.0,0.9
166.0,8.0,wc_8,,0.0,,,,183.0,,,,Fail,,,,,
166.0,8.0,wc_8,wc_6,0.0,"[('wc_8', 0.40000000000000024), ('wc_17', 0.5900000000000004)]",0.7540000000000003,,,38.0,0.006035,['Fail'],Fail,0.6000000000000004,-0.2000000000000004,2.0,5.0,0.7
166.0,8.0,wc_8,,0.0,,,,202.0,,,,Fail,,,,,
166.0,8.0,wc_8,wc_1,0.0,"[('wc_1', 0.5300000000000004), ('wc_8', 0.40000000000000024), ('wc_17', 0.5900000000000004)]",0.8843800000000003,,,35.0,0.008487000000000001,['Fail'],Fail,0.5300000000000004,-0.03000000000000036,1.0,2.0,0.7
166.0,8.0,wc_8,,0.0,,,,202.0,,,,Fail,,,,,
166.0,8.0,wc_8,wc_13,0.0,"[('wc_8', 0.40000000000000024), ('wc_17', 0.5900000000000004), ('wc_1', 0.5300000000000004)]",0.8843800000000003,,,29.0,0.012638,['Fail'],Fail,0.28000000000000014,-0.28000000000000014,0.0,7.0,0.2
166.0,8.0,wc_8,,0.0,,,,341.0,,,,Fail,,,,,
166.0,8.0,wc_8,wc_11,1.0,"[('wc_11', 0.27000000000000013), ('wc_8', 0.40000000000000024), ('wc_17', 0.5900000000000004), ('wc_1', 0.5300000000000004)]",0.9155974000000002,,,39.0,0.05144499999999999,['Fail'],Fail,0.28000000000000014,0.11999999999999988,2.0,5.0,0.3
180.0,8.0,wc_8,,0.0,,,,61.0,,,,Pass,,,,,
180.0,8.0,wc_8,,0.0,,,74.0,,,,,Pass,,,,,
180.0,8.0,wc_8,,0.0,,,,0.0,,,,Pass,,,,,
180.0,8.0,wc_8,wc_8,0.0,"[('wc_8', 0.40000000000000024)]",0.40000000000000024,,,30.0,0.002144,['Fail'],Pass,0.40000000000000024,-0.20000000000000023,1.0,5.0,0.3
180.0,8.0,wc_8,,0.0,,,,321.0,,,,Pass,,,,,
180.0,8.0,wc_8,wc_5,0.0,"[('wc_5', 0.4900000000000003)]",0.4900000000000003,,,36.0,0.004193,['Pass'],Pass,0.4900000000000003,-0.06142857142857178,0.0,0.0,0.5
180.0,8.0,wc_8,,0.0,,,,122.0,,,,Pass,,,,,
180.0,8.0,wc_8,wc_9,0.0,"[('wc_9', 0.6200000000000004), ('wc_5', 0.4900000000000003)]",0.8062000000000004,,,37.0,0.007714,['Pass'],Pass,0.6200000000000004,-0.17555555555555602,4.0,9.0,0.8
180.0,8.0,wc_8,,0.0,,,,243.0,,,,Pass,,,,,
180.0,8.0,wc_8,wc_1,1.0,"[('wc_1', 0.5400000000000004), ('wc_5', 0.4900000000000003), ('wc_9', 0.6200000000000004)]",0.9108520000000002,,,28.0,0.045266,['Pass'],Pass,0.5500000000000004,0.19999999999999962,3.0,4.0,0.7
192.0,9.0,wc_9,,0.0,,,,203.0,,,,Fail,,,,,
192.0,9.0,wc_9,,0.0,,,50.0,,,,,Fail,,,,,
192.0,9.0,wc_9,,0.0,,,,0.0,,,,Fail,,,,,
192.0,9.0,wc_9,wc_9,0.0,"[('wc_9', 0.6200000000000004)]",0.6200000000000004,,,40.0,0.002272,['Fail'],Fail,0.6200000000000004,-0.6200000000000004,0.0,0.0,0.8
192.0,9.0,wc_9,,0.0,,,,141.0,,,,Fail,,,,,
192.0,9.0,wc_9,wc_14,0.0,"[('wc_14', 0.31000000000000016), ('wc_9', 0.6200000000000004)]",0.7378000000000003,,,27.0,0.0040160000000000005,['Fail'],Fail,0.31000000000000016,-0.18500000000000016,1.0,8.0,0.2
192.0,9.0,wc_9,,0.0,,,,321.0,,,,Fail,,,,,
192.0,9.0,wc_9,wc_11,0.0,"[('wc_11', 0.28000000000000014), ('wc_9', 0.6200000000000004), ('wc_14', 0.31000000000000016)]",0.8112160000000003,,,24.0,0.006888999999999999,['Fail'],Fail,0.28000000000000014,0.05333333333333318,2.0,6.0,0.3
192.0,9.0,wc_9,,0.0,,,,61.0,,,,Fail,,,,,
192.0,9.0,wc_9,wc_8,0.0,"[('wc_9', 0.6200000000000004), ('wc_14', 0.31000000000000016), ('wc_11', 0.28000000000000014)]",0.8112160000000003,,,24.0,0.008373,['Fail'],Fail,0.39000000000000024,-0.22333333333333358,1.0,6.0,0.3
192.0,9.0,wc_9,,0.0,,,,281.0,,,,Fail,,,,,
192.0,9.0,wc_9,wc_3,0.0,"[('wc_9', 0.6200000000000004), ('wc_14', 0.31000000000000016), ('wc_11', 0.28000000000000014)]",0.8112160000000003,,,39.0,0.010402,['Fail'],Fail,0.21000000000000008,-0.13857142857142865,0.0,0.0,0.2
192.0,9.0,wc_9,,0.0,,,,101.0,,,,Fail,,,,,
192.0,9.0,wc_9,wc_2,0.0,"[('wc_2', 0.39000000000000024), ('wc_9', 0.6200000000000004), ('wc_14', 0.31000000000000016), ('wc_11', 0.28000000000000014)]",0.8848417600000003,,,35.0,0.011600000000000001,['Fail'],Fail,0.39000000000000024,-0.294761904761905,0.0,0.0,0.3
192.0,9.0,wc_9,,0.0,,,,0.0,,,,Fail,,,,,
192.0,9.0,wc_9,wc_4,1.0,"[('wc_4', 0.5200000000000004), ('wc_9', 0.6200000000000004), ('wc_14', 0.31000000000000016), ('wc_11', 0.28000000000000014), ('wc_2', 0.39000000000000024)]",0.9447240448000002,,,32.0,0.048317,['Fail'],Fail,0.5200000000000004,-0.5200000000000004,0.0,0.0,0.5
205.0,8.0,wc_8,,0.0,,,,121.0,,,,Pass,,,,,
205.0,8.0,wc_8,,0.0,,,55.0,,,,,Pass,,,,,
205.0,8.0,wc_8,,0.0,,,,0.0,,,,Pass,,,,,
205.0,8.0,wc_8,wc_8,0.0,"[('wc_8', 0.3800000000000002)]",0.3800000000000002,,,31.0,0.002394,['Pass'],Pass,0.3800000000000002,-0.23714285714285738,1.0,7.0,0.3
205.0,8.0,wc_8,,0.0,,,,182.0,,,,Pass,,,,,
205.0,8.0,wc_8,wc_2,0.0,"[('wc_2', 0.40000000000000024), ('wc_8', 0.3800000000000002)]",0.6280000000000003,,,40.0,0.005059,['Pass'],Pass,0.40000000000000024,0.5999999999999998,1.0,1.0,0.3
205.0,8.0,wc_8,,0.0,,,,142.0,,,,Pass,,,,,
205.0,8.0,wc_8,wc_7,0.0,"[('wc_7', 0.4600000000000003), ('wc_8', 0.3800000000000002), ('wc_2', 0.40000000000000024)]",0.7991200000000003,,,36.0,0.006671,['Pass'],Pass,0.4600000000000003,-0.12666666666666698,0.0,0.0,0.6
205.0,8.0,wc_8,,0.0,,,,203.0,,,,Pass,,,,,
205.0,8.0,wc_8,wc_15,0.0,"[('wc_8', 0.3800000000000002), ('wc_2', 0.40000000000000024), ('wc_7', 0.4600000000000003)]",0.7991200000000003,,,28.0,0.008464000000000001,['Pass'],Pass,0.29000000000000015,-0.29000000000000015,0.0,6.0,0.2
205.0,8.0,wc_8,,0.0,,,,0.0,,,,Pass,,,,,
205.0,8.0,wc_8,wc_16,0.0,"[('wc_8', 0.3800000000000002), ('wc_2', 0.40000000000000024), ('wc_7', 0.4600000000000003)]",0.7991200000000003,,,31.0,0.010913,['Pass'],Pass,0.12000000000000001,-0.03666666666666668,0.0,0.0,0.1
205.0,8.0,wc_8,,0.0,,,,41.0,,,,Pass,,,,,
205.0,8.0,wc_8,wc_12,0.0,"[('wc_8', 0.3800000000000002), ('wc_2', 0.40000000000000024), ('wc_7', 0.4600000000000003)]",0.7991200000000003,,,24.0,0.010989,['Pass'],Pass,0.22000000000000008,-0.12000000000000008,0.0,0.0,0.1
205.0,8.0,wc_8,,0.0,,,,0.0,,,,Pass,,,,,
205.0,8.0,wc_8,wc_14,0.0,"[('wc_14', 0.31000000000000016), ('wc_8', 0.3800000000000002), ('wc_2', 0.40000000000000024), ('wc_7', 0.4600000000000003)]",0.8613928000000002,,,40.0,0.014592,['Pass'],Pass,0.31000000000000016,-0.08777777777777795,2.0,9.0,0.2
205.0,8.0,wc_8,,0.0,,,,142.0,,,,Pass,,,,,
205.0,8.0,wc_8,wc_6,1.0,"[('wc_6', 0.5900000000000004), ('wc_8', 0.3800000000000002), ('wc_2', 0.40000000000000024), ('wc_7', 0.4600000000000003), ('wc_14', 0.31000000000000016)]",0.9431710480000002,,,24.0,0.05270499999999999,['Pass'],Pass,0.5900000000000004,-0.2566666666666671,3.0,9.0,0.7
223.0,9.0,wc_9,,0.0,,,,0.0,,,,Fail,,,,,
223.0,9.0,wc_9,,0.0,,,67.0,,,,,Fail,,,,,
223.0,9.0,wc_9,,0.0,,,,0.0,,,,Fail,,,,,
223.0,9.0,wc_9,wc_9,0.0,"[('wc_9', 0.6300000000000004)]",0.6300000000000004,,,36.0,0.00235,['Fail'],Fail,0.6300000000000004,-0.13000000000000045,1.0,2.0,0.8
223.0,9.0,wc_9,,0.0,,,,81.0,,,,Fail,,,,,
223.0,9.0,wc_9,wc_7,0.0,"[('wc_7', 0.4700000000000003), ('wc_9', 0.6300000000000004)]",0.8039000000000004,,,38.0,0.004402,['Fail'],Fail,0.4700000000000003,0.5299999999999997,1.0,1.0,0.6
223.0,9.0,wc_9,,0.0,,,,321.0,,,,Fail,,,,,
223.0,9.0,wc_9,wc_4,1.0,"[('wc_4', 0.5200000000000004), ('wc_9', 0.6300000000000004), ('wc_7', 0.4700000000000003)]",0.9058720000000002,,,26.0,0.051390000000000005,['Fail'],Fail,0.5200000000000004,-0.02000000000000035,1.0,2.0,0.5
241.0,10.0,wc_10,,0.0,,,,162.0,,,,Pass,,,,,
241.0,10.0,wc_10,,0.0,,,74.0,,,,,Pass,,,,,
241.0,10.0,wc_10,,0.0,,,,0.0,,,,Pass,,,,,
241.0,10.0,wc_10,wc_10,0.0,"[('wc_10', 0.7900000000000006)]",0.7900000000000006,,,26.0,0.002142,['Pass'],Pass,0.7900000000000006,-0.5042857142857149,2.0,7.0,1.0
241.0,10.0,wc_10,,0.0,,,,382.0,,,,Pass,,,,,
241.0,10.0,wc_10,wc_5,0.0,"[('wc_5', 0.5000000000000003), ('wc_10', 0.7900000000000006)]",0.8950000000000004,,,32.0,0.004641,['Pass'],Pass,0.5000000000000003,-0.25000000000000033,1.0,4.0,0.5
241.0,10.0,wc_10,,0.0,,,,202.0,,,,Pass,,,,,
241.0,10.0,wc_10,wc_17,1.0,"[('wc_17', 0.5900000000000004), ('wc_10', 0.7900000000000006), ('wc_5', 0.5000000000000003)]",0.9569500000000002,,,28.0,0.045122,['Pass'],Pass,0.5900000000000004,-0.2566666666666671,3.0,9.0,0.9
284.0,9.0,wc_9,,0.0,,,,322.0,,,,Fail,,,,,
284.0,9.0,wc_9,,0.0,,,64.0,,,,,Fail,,,,,
284.0,9.0,wc_9,,0.0,,,,0.0,,,,Fail,,,,,
284.0,9.0,wc_9,wc_9,0.0,"[('wc_9', 0.6400000000000005)]",0.6400000000000005,,,20.0,0.002495,['Fail'],Fail,0.6400000000000005,-0.14000000000000046,2.0,4.0,0.8
284.0,9.0,wc_9,,0.0,,,,162.0,,,,Fail,,,,,
284.0,9.0,wc_9,wc_15,0.0,"[('wc_9', 0.6400000000000005)]",0.6400000000000005,,,27.0,0.004092,['Fail'],Fail,0.28000000000000014,-0.28000000000000014,0.0,9.0,0.2
284.0,9.0,wc_9,,0.0,,,,402.0,,,,Fail,,,,,
284.0,9.0,wc_9,wc_11,0.0,"[('wc_9', 0.6400000000000005)]",0.6400000000000005,,,38.0,0.005744,['Fail'],Fail,0.29000000000000015,0.009999999999999842,0.0,0.0,0.3
284.0,9.0,wc_9,,0.0,,,,223.0,,,,Fail,,,,,
284.0,9.0,wc_9,wc_2,0.0,"[('wc_2', 0.41000000000000025), ('wc_9', 0.6400000000000005)]",0.7876000000000003,,,20.0,0.007823,['Fail'],Fail,0.41000000000000025,0.08999999999999975,2.0,4.0,0.3
284.0,9.0,wc_9,,0.0,,,,182.0,,,,Fail,,,,,
284.0,9.0,wc_9,wc_13,0.0,"[('wc_13', 0.27000000000000013), ('wc_9', 0.6400000000000005), ('wc_2', 0.41000000000000025)]",0.8449480000000003,,,33.0,0.011712,['Fail'],Fail,0.27000000000000013,-0.27000000000000013,0.0,0.0,0.2
284.0,9.0,wc_9,,0.0,,,,381.0,,,,Fail,,,,,
284.0,9.0,wc_9,wc_5,0.0,"[('wc_9', 0.6400000000000005), ('wc_2', 0.41000000000000025), ('wc_13', 0.27000000000000013)]",0.8449480000000003,,,25.0,0.012756,['Fail'],Fail,0.5000000000000003,-0.10000000000000031,2.0,5.0,0.5
284.0,9.0,wc_9,,0.0,,,,202.0,,,,Fail,,,,,
284.0,9.0,wc_9,wc_17,1.0,"[('wc_17', 0.5900000000000004), ('wc_9', 0.6400000000000005), ('wc_2', 0.41000000000000025), ('wc_13', 0.27000000000000013)]",0.9364286800000001,,,29.0,0.05102,['Fail'],Fail,0.5900000000000004,-0.5900000000000004,0.0,0.0,0.9
308.0,9.0,wc_9,,0.0,,,,322.0,,,,Fail,,,,,
308.0,9.0,wc_9,,0.0,,,71.0,,,,,Fail,,,,,
308.0,9.0,wc_9,,0.0,,,,0.0,,,,Fail,,,,,
308.0,9.0,wc_9,wc_9,0.0,"[('wc_9', 0.6400000000000005)]",0.6400000000000005,,,27.0,0.002133,['Fail'],Fail,0.6400000000000005,-0.04000000000000048,3.0,5.0,0.8
308.0,9.0,wc_9,,0.0,,,,202.0,,,,Fail,,,,,
308.0,9.0,wc_9,wc_17,0.0,"[('wc_17', 0.5900000000000004), ('wc_9', 0.6400000000000005)]",0.8524000000000003,,,37.0,0.007520000000000001,['Fail'],Fail,0.5900000000000004,-0.5900000000000004,0.0,0.0,0.9
308.0,9.0,wc_9,,0.0,,,,83.0,,,,Fail,,,,,
308.0,9.0,wc_9,wc_15,0.0,"[('wc_9', 0.6400000000000005), ('wc_17', 0.5900000000000004)]",0.8524000000000003,,,20.0,0.007303,['Fail'],Fail,0.27000000000000013,-0.27000000000000013,0.0,0.0,0.2
308.0,9.0,wc_9,,0.0,,,,0.0,,,,Fail,,,,,
308.0,9.0,wc_9,wc_16,0.0,"[('wc_9', 0.6400000000000005), ('wc_17', 0.5900000000000004)]",0.8524000000000003,,,35.0,0.009462000000000002,['Fail'],Fail,0.11000000000000001,-0.11000000000000001,0.0,4.0,0.1
308.0,9.0,wc_9,,0.0,,,,81.0,,,,Fail,,,,,
308.0,9.0,wc_9,wc_14,0.0,"[('wc_14', 0.31000000000000016), ('wc_9', 0.6400000000000005), ('wc_17', 0.5900000000000004)]",0.8981560000000003,,,33.0,0.011029,['Fail'],Fail,0.31000000000000016,-0.31000000000000016,0.0,3.0,0.2
308.0,9.0,wc_9,,0.0,,,,162.0,,,,Fail,,,,,
308.0,9.0,wc_9,wc_7,1.0,"[('wc_7', 0.4800000000000003), ('wc_9', 0.6400000000000005), ('wc_17', 0.5900000000000004), ('wc_14', 0.31000000000000016)]",0.9470411200000002,,,36.0,0.051927,['Fail'],Fail,0.4900000000000003,0.10999999999999965,3.0,5.0,0.6
324.0,9.0,wc_9,,0.0,,,,0.0,,,,Pass,,,,,
324.0,9.0,wc_9,,0.0,,,80.0,,,,,Pass,,,,,
324.0,9.0,wc_9,,0.0,,,,0.0,,,,Pass,,,,,
324.0,9.0,wc_9,wc_9,0.0,"[('wc_9', 0.6500000000000005)]",0.6500000000000005,,,26.0,0.002388,['Pass'],Pass,0.6500000000000005,0.016666666666666163,4.0,6.0,0.8
324.0,9.0,wc_9,,0.0,,,,141.0,,,,Pass,,,,,
324.0,9.0,wc_9,wc_14,0.0,"[('wc_14', 0.31000000000000016), ('wc_9', 0.6500000000000005)]",0.7585000000000004,,,28.0,0.005018,['Pass'],Pass,0.31000000000000016,-0.060000000000000164,1.0,4.0,0.2
324.0,9.0,wc_9,,0.0,,,,142.0,,,,Pass,,,,,
324.0,9.0,wc_9,wc_6,0.0,"[('wc_9', 0.6500000000000005), ('wc_14', 0.31000000000000016)]",0.7585000000000004,,,23.0,0.005902,['Pass'],Pass,0.5900000000000004,-0.35923076923076963,0.0,0.0,0.7
324.0,9.0,wc_9,,0.0,,,,182.0,,,,Pass,,,,,
324.0,9.0,wc_9,wc_13,0.0,"[('wc_13', 0.28000000000000014), ('wc_9', 0.6500000000000005), ('wc_14', 0.31000000000000016)]",0.8261200000000003,,,27.0,0.007438999999999999,['Pass'],Pass,0.28000000000000014,0.21999999999999986,1.0,2.0,0.2
324.0,9.0,wc_9,,0.0,,,,361.0,,,,Pass,,,,,
324.0,9.0,wc_9,wc_4,1.0,"[('wc_4', 0.5200000000000004), ('wc_9', 0.6500000000000005), ('wc_14', 0.31000000000000016), ('wc_13', 0.28000000000000014)]",0.9165376000000002,,,21.0,0.05084399999999999,['Pass'],Pass,0.5200000000000004,-0.18666666666666704,2.0,6.0,0.5
395.0,12.0,wc_12,,0.0,,,,121.0,,,,Pass,,,,,
395.0,12.0,wc_12,,0.0,,,64.0,,,,,Pass,,,,,
395.0,12.0,wc_12,,0.0,,,,0.0,,,,Pass,,,,,
395.0,12.0,wc_12,wc_12,0.0,"[('wc_12', 0.21000000000000008)]",0.21000000000000008,,,32.0,0.003345,['Pass'],Pass,0.21000000000000008,-0.21000000000000008,0.0,6.0,0.1
395.0,12.0,wc_12,,0.0,,,,381.0,,,,Pass,,,,,
395.0,12.0,wc_12,wc_4,0.0,"[('wc_4', 0.5200000000000004), ('wc_12', 0.21000000000000008)]",0.6208000000000002,,,33.0,0.0041589999999999995,['Pass'],Pass,0.5200000000000004,-0.18666666666666704,2.0,6.0,0.5
395.0,12.0,wc_12,,0.0,,,,222.0,,,,Pass,,,,,
395.0,12.0,wc_12,wc_17,0.0,"[('wc_17', 0.6000000000000004), ('wc_12', 0.21000000000000008), ('wc_4', 0.5200000000000004)]",0.8483200000000003,,,32.0,0.006867999999999999,['Pass'],Pass,0.6000000000000004,-0.10000000000000042,1.0,2.0,0.9
395.0,12.0,wc_12,,0.0,,,,342.0,,,,Pass,,,,,
395.0,12.0,wc_12,wc_10,1.0,"[('wc_10', 0.7900000000000006), ('wc_12', 0.21000000000000008), ('wc_4', 0.5200000000000004), ('wc_17', 0.6000000000000004)]",0.9681472000000001,,,20.0,0.046596,['Pass'],Pass,0.7900000000000006,-0.7900000000000006,0.0,0.0,1.0
417.0,13.0,wc_13,,0.0,,,,101.0,,,,Fail,,,,,
417.0,13.0,wc_13,,0.0,,,69.0,,,,,Fail,,,,,
417.0,13.0,wc_13,,0.0,,,,0.0,,,,Fail,,,,,
417.0,13.0,wc_13,wc_13,0.0,"[('wc_13', 0.29000000000000015)]",0.29000000000000015,,,24.0,0.002042,['Fail'],Fail,0.29000000000000015,0.20999999999999985,2.0,4.0,0.2
417.0,13.0,wc_13,,0.0,,,,0.0,,,,Fail,,,,,
417.0,13.0,wc_13,wc_17,0.0,"[('wc_17', 0.6100000000000004), ('wc_13', 0.29000000000000015)]",0.7231000000000003,,,20.0,0.004083,['Fail'],Fail,0.6100000000000004,0.0566666666666662,2.0,3.0,0.9
417.0,13.0,wc_13,,0.0,,,,362.0,,,,Fail,,,,,
417.0,13.0,wc_13,wc_11,0.0,"[('wc_13', 0.29000000000000015), ('wc_17', 0.6100000000000004)]",0.7231000000000003,,,20.0,0.006317,['Fail'],Fail,0.28000000000000014,-0.28000000000000014,0.0,4.0,0.3
417.0,13.0,wc_13,,0.0,,,,21.0,,,,Fail,,,,,
417.0,13.0,wc_13,wc_6,0.0,"[('wc_6', 0.5800000000000004), ('wc_13', 0.29000000000000015), ('wc_17', 0.6100000000000004)]",0.8837020000000002,,,37.0,0.008791,['Fail'],Fail,0.5800000000000004,-0.5800000000000004,0.0,2.0,0.7
417.0,13.0,wc_13,,0.0,,,,243.0,,,,Fail,,,,,
417.0,13.0,wc_13,wc_16,0.0,"[('wc_13', 0.29000000000000015), ('wc_17', 0.6100000000000004), ('wc_6', 0.5800000000000004)]",0.8837020000000002,,,35.0,0.009756,['Fail'],Fail,0.10000000000000002,-0.10000000000000002,0.0,7.0,0.1
417.0,13.0,wc_13,,0.0,,,,402.0,,,,Fail,,,,,
417.0,13.0,wc_13,wc_4,0.0,"[('wc_13', 0.29000000000000015), ('wc_17', 0.6100000000000004), ('wc_6', 0.5800000000000004)]",0.8837020000000002,,,33.0,0.012596000000000001,['Fail'],Fail,0.5200000000000004,-0.0914285714285718,3.0,7.0,0.5
417.0,13.0,wc_13,,0.0,,,,103.0,,,,Fail,,,,,
417.0,13.0,wc_13,wc_3,0.0,"[('wc_13', 0.29000000000000015), ('wc_17', 0.6100000000000004), ('wc_6', 0.5800000000000004)]",0.8837020000000002,,,37.0,0.014397,['Fail'],Fail,0.20000000000000007,-0.20000000000000007,0.0,8.0,0.2
417.0,13.0,wc_13,,0.0,,,,141.0,,,,Fail,,,,,
417.0,13.0,wc_13,wc_8,1.0,"[('wc_8', 0.3800000000000002), ('wc_13', 0.29000000000000015), ('wc_17', 0.6100000000000004), ('wc_6', 0.5800000000000004)]",0.9278952400000002,,,22.0,0.05317999999999999,['Fail'],Fail,0.3800000000000002,-0.3800000000000002,0.0,0.0,0.3
457.0,13.0,wc_13,,0.0,,,,142.0,,,,Fail,,,,,
457.0,13.0,wc_13,,0.0,,,75.0,,,,,Fail,,,,,
457.0,13.0,wc_13,,0.0,,,,0.0,,,,Fail,,,,,
457.0,13.0,wc_13,wc_13,0.0,"[('wc_13', 0.30000000000000016)]",0.30000000000000016,,,24.0,0.002286,['Pass'],Fail,0.30000000000000016,0.2999999999999998,3.0,5.0,0.2
457.0,13.0,wc_13,,0.0,,,,361.0,,,,Fail,,,,,
457.0,13.0,wc_13,wc_4,0.0,"[('wc_4', 0.5100000000000003)]",0.5100000000000003,,,29.0,0.004253,['Fail'],Fail,0.5100000000000003,-0.13500000000000034,3.0,8.0,0.5
457.0,13.0,wc_13,,0.0,,,,121.0,,,,Fail,,,,,
457.0,13.0,wc_13,wc_8,0.0,"[('wc_8', 0.3800000000000002), ('wc_4', 0.5100000000000003)]",0.6962000000000004,,,30.0,0.0058839999999999995,['Fail'],Fail,0.3800000000000002,-0.3800000000000002,0.0,0.0,0.3
457.0,13.0,wc_13,,0.0,,,,223.0,,,,Fail,,,,,
457.0,13.0,wc_13,wc_17,0.0,"[('wc_17', 0.6200000000000004), ('wc_4', 0.5100000000000003), ('wc_8', 0.3800000000000002)]",0.8845560000000002,,,33.0,0.008772,['Fail'],Fail,0.6200000000000004,0.12999999999999956,3.0,4.0,0.9
457.0,13.0,wc_13,,0.0,,,,203.0,,,,Fail,,,,,
457.0,13.0,wc_13,wc_7,0.0,"[('wc_4', 0.5100000000000003), ('wc_8', 0.3800000000000002), ('wc_17', 0.6200000000000004)]",0.8845560000000002,,,34.0,0.010963999999999998,['Fail'],Fail,0.4900000000000003,-0.11500000000000032,3.0,8.0,0.6
457.0,13.0,wc_13,,0.0,,,,0.0,,,,Fail,,,,,
457.0,13.0,wc_13,wc_11,1.0,"[('wc_11', 0.27000000000000013), ('wc_4', 0.5100000000000003), ('wc_8', 0.3800000000000002), ('wc_17', 0.6200000000000004)]",0.9157258800000002,,,39.0,0.050072,['Fail'],Fail,0.27000000000000013,-0.10333333333333347,1.0,6.0,0.3
481.0,13.0,wc_13,,0.0,,,,81.0,,,,Fail,,,,,
481.0,13.0,wc_13,,0.0,,,65.0,,,,,Fail,,,,,
481.0,13.0,wc_13,,0.0,,,,0.0,,,,Fail,,,,,
481.0,13.0,wc_13,wc_13,0.0,"[('wc_13', 0.30000000000000016)]",0.30000000000000016,,,25.0,0.002355,['Fail'],Fail,0.30000000000000016,0.19999999999999984,3.0,6.0,0.2
481.0,13.0,wc_13,,0.0,,,,301.0,,,,Fail,,,,,
481.0,13.0,wc_13,wc_9,0.0,"[('wc_9', 0.6600000000000005), ('wc_13', 0.30000000000000016)]",0.7620000000000005,,,36.0,0.00401,['Fail'],Fail,0.6600000000000005,-0.16000000000000048,0.0,0.0,0.8
481.0,13.0,wc_13,,0.0,,,,61.0,,,,Fail,,,,,
481.0,13.0,wc_13,wc_6,1.0,"[('wc_6', 0.5800000000000004), ('wc_13', 0.30000000000000016), ('wc_9', 0.6600000000000005)]",0.9000400000000003,,,35.0,0.047868999999999995,['Fail'],Fail,0.5800000000000004,-0.18000000000000038,2.0,5.0,0.7
508.0,13.0,wc_13,,0.0,,,,182.0,,,,Pass,,,,,
508.0,13.0,wc_13,,0.0,,,64.0,,,,,Pass,,,,,
508.0,13.0,wc_13,,0.0,,,,0.0,,,,Pass,,,,,
508.0,13.0,wc_13,wc_13,0.0,"[('wc_13', 0.31000000000000016)]",0.31000000000000016,,,24.0,0.002275,['Pass'],Pass,0.31000000000000016,0.26142857142857123,4.0,7.0,0.2
508.0,13.0,wc_13,,0.0,,,,341.0,,,,Pass,,,,,
508.0,13.0,wc_13,wc_3,0.0,"[('wc_3', 0.19000000000000006), ('wc_13', 0.31000000000000016)]",0.44110000000000016,,,40.0,0.004775,['Pass'],Pass,0.19000000000000006,-0.19000000000000006,0.0,0.0,0.2
508.0,13.0,wc_13,,0.0,,,,141.0,,,,Pass,,,,,
508.0,13.0,wc_13,wc_12,0.0,"[('wc_12', 0.21000000000000008), ('wc_13', 0.31000000000000016), ('wc_3', 0.19000000000000006)]",0.5584690000000002,,,31.0,0.007367,['Pass'],Pass,0.21000000000000008,-0.11000000000000007,0.0,0.0,0.1
508.0,13.0,wc_13,,0.0,,,,341.0,,,,Pass,,,,,
508.0,13.0,wc_13,wc_10,1.0,"[('wc_10', 0.7900000000000006), ('wc_13', 0.31000000000000016), ('wc_3', 0.19000000000000006), ('wc_12', 0.21000000000000008)]",0.9072784900000003,,,35.0,0.048385000000000004,['Pass'],Pass,0.7900000000000006,-0.5400000000000006,1.0,4.0,1.0
518.0,14.0,wc_14,,0.0,,,,121.0,,,,Fail,,,,,
518.0,14.0,wc_14,,0.0,,,66.0,,,,,Fail,,,,,
518.0,14.0,wc_14,,0.0,,,,0.0,,,,Fail,,,,,
518.0,14.0,wc_14,wc_14,0.0,"[('wc_14', 0.3200000000000002)]",0.3200000000000002,,,20.0,0.002397,['Pass'],Fail,0.3200000000000002,-0.12000000000000016,0.0,0.0,0.2
518.0,14.0,wc_14,,0.0,,,,281.0,,,,Fail,,,,,
518.0,14.0,wc_14,wc_9,0.0,"[('wc_9', 0.6700000000000005), ('wc_14', 0.3200000000000002)]",0.7756000000000004,,,40.0,0.004321,['Pass'],Fail,0.6700000000000005,-0.17000000000000048,1.0,2.0,0.8
518.0,14.0,wc_14,,0.0,,,,101.0,,,,Fail,,,,,
518.0,14.0,wc_14,wc_12,0.0,"[('wc_12', 0.22000000000000008), ('wc_14', 0.3200000000000002), ('wc_9', 0.6700000000000005)]",0.8249680000000004,,,23.0,0.006751,['Pass'],Fail,0.22000000000000008,0.7799999999999999,1.0,1.0,0.1
518.0,14.0,wc_14,,0.0,,,,202.0,,,,Fail,,,,,
518.0,14.0,wc_14,wc_7,1.0,"[('wc_7', 0.4800000000000003), ('wc_14', 0.3200000000000002), ('wc_9', 0.6700000000000005), ('wc_12', 0.22000000000000008)]",0.9089833600000002,,,23.0,0.051677,['Pass'],Fail,0.4800000000000003,-0.4800000000000003,0.0,0.0,0.6
527.0,14.0,wc_14,,0.0,,,,182.0,,,,Pass,,,,,
527.0,14.0,wc_14,,0.0,,,51.0,,,,,Pass,,,,,
527.0,14.0,wc_14,,0.0,,,,0.0,,,,Pass,,,,,
527.0,14.0,wc_14,wc_14,0.0,"[('wc_14', 0.3300000000000002)]",0.3300000000000002,,,36.0,0.002243,['Pass'],Pass,0.3300000000000002,0.6699999999999998,1.0,1.0,0.2
527.0,14.0,wc_14,,0.0,,,,162.0,,,,Pass,,,,,
527.0,14.0,wc_14,wc_7,0.0,"[('wc_7', 0.4800000000000003), ('wc_14', 0.3300000000000002)]",0.6516000000000003,,,30.0,0.004156,['Pass'],Pass,0.4800000000000003,-0.4800000000000003,0.0,0.0,0.6
527.0,14.0,wc_14,,0.0,,,,0.0,,,,Pass,,,,,
527.0,14.0,wc_14,wc_9,0.0,"[('wc_9', 0.6700000000000005), ('wc_14', 0.3300000000000002), ('wc_7', 0.4800000000000003)]",0.8850280000000003,,,29.0,0.006129,['Pass'],Pass,0.6700000000000005,-0.0033333333333338544,2.0,3.0,0.8
527.0,14.0,wc_14,,0.0,,,,243.0,,,,Pass,,,,,
527.0,14.0,wc_14,wc_1,1.0,"[('wc_1', 0.5500000000000004), ('wc_14', 0.3300000000000002), ('wc_7', 0.4800000000000003), ('wc_9', 0.6700000000000005)]",0.9482626000000002,,,35.0,0.046758,['Pass'],Pass,0.5500000000000004,-0.5500000000000004,0.0,0.0,0.7
537.0,15.0,wc_15,,0.0,,,,243.0,,,,Pass,,,,,
537.0,15.0,wc_15,,0.0,,,79.0,,,,,Pass,,,,,
537.0,15.0,wc_15,,0.0,,,,0.0,,,,Pass,,,,,
537.0,15.0,wc_15,wc_15,0.0,"[('wc_15', 0.2600000000000001)]",0.2600000000000001,,,25.0,0.002479,['Fail'],Pass,0.2600000000000001,-0.2600000000000001,0.0,9.0,0.2
537.0,15.0,wc_15,,0.0,,,,382.0,,,,Pass,,,,,
537.0,15.0,wc_15,wc_10,0.0,"[('wc_10', 0.7900000000000006)]",0.7900000000000006,,,31.0,0.003999,['Pass'],Pass,0.7900000000000006,-0.623333333333334,1.0,6.0,1.0
537.0,15.0,wc_15,,0.0,,,,342.0,,,,Pass,,,,,
537.0,15.0,wc_15,wc_3,0.0,"[('wc_10', 0.7900000000000006)]",0.7900000000000006,,,26.0,0.006286999999999999,['Pass'],Pass,0.20000000000000007,0.13333333333333325,1.0,3.0,0.2
537.0,15.0,wc_15,,0.0,,,,222.0,,,,Pass,,,,,
537.0,15.0,wc_15,wc_16,0.0,"[('wc_16', 0.09000000000000002), ('wc_10', 0.7900000000000006)]",0.8089000000000006,,,27.0,0.007972,['Pass'],Pass,0.09000000000000002,-0.09000000000000002,0.0,0.0,0.1
537.0,15.0,wc_15,,0.0,,,,81.0,,,,Pass,,,,,
537.0,15.0,wc_15,wc_14,0.0,"[('wc_14', 0.3400000000000002), ('wc_10', 0.7900000000000006), ('wc_16', 0.09000000000000002)]",0.8738740000000004,,,26.0,0.010107,['Pass'],Pass,0.3400000000000002,0.6599999999999998,2.0,2.0,0.2
537.0,15.0,wc_15,,0.0,,,,182.0,,,,Pass,,,,,
537.0,15.0,wc_15,wc_8,1.0,"[('wc_8', 0.39000000000000024), ('wc_10', 0.7900000000000006), ('wc_16', 0.09000000000000002), ('wc_14', 0.3400000000000002)]",0.9230631400000002,,,25.0,0.053909,['Pass'],Pass,0.39000000000000024,-0.05666666666666692,2.0,6.0,0.3
552.0,16.0,wc_16,,0.0,,,,203.0,,,,Pass,,,,,
552.0,16.0,wc_16,,0.0,,,75.0,,,,,Pass,,,,,
552.0,16.0,wc_16,,0.0,,,,0.0,,,,Pass,,,,,
552.0,16.0,wc_16,wc_16,0.0,"[('wc_16', 0.10000000000000002)]",0.09999999999999998,,,30.0,0.002794,['Pass'],Pass,0.10000000000000002,0.9,1.0,1.0,0.1
552.0,16.0,wc_16,,0.0,,,,342.0,,,,Pass,,,,,
552.0,16.0,wc_16,wc_9,0.0,"[('wc_9', 0.6800000000000005), ('wc_16', 0.10000000000000002)]",0.7120000000000004,,,40.0,0.004387,['Pass'],Pass,0.6800000000000005,-0.08000000000000052,3.0,5.0,0.8
552.0,16.0,wc_16,,0.0,,,,0.0,,,,Pass,,,,,
552.0,16.0,wc_16,wc_10,0.0,"[('wc_10', 0.7900000000000006)]",0.7900000000000006,,,37.0,0.006929,['Fail'],Pass,0.7900000000000006,-0.5042857142857149,2.0,7.0,1.0
552.0,16.0,wc_16,,0.0,,,,362.0,,,,Pass,,,,,
552.0,16.0,wc_16,wc_4,0.0,"[('wc_4', 0.5100000000000003), ('wc_10', 0.7900000000000006)]",0.8971000000000003,,,26.0,0.011159,['Fail'],Pass,0.5100000000000003,-0.22428571428571464,0.0,0.0,0.5
552.0,16.0,wc_16,,0.0,,,,222.0,,,,Pass,,,,,
552.0,16.0,wc_16,wc_17,1.0,"[('wc_17', 0.6300000000000004), ('wc_10', 0.7900000000000006), ('wc_4', 0.5100000000000003)]",0.9619270000000002,,,27.0,0.04768700000000001,['Fail'],Pass,0.6300000000000004,-0.6300000000000004,0.0,0.0,0.9
565.0,17.0,wc_17,,0.0,,,,0.0,,,,Fail,,,,,
565.0,17.0,wc_17,,0.0,,,72.0,,,,,Fail,,,,,
565.0,17.0,wc_17,,0.0,,,,0.0,,,,Fail,,,,,
565.0,17.0,wc_17,wc_17,0.0,"[('wc_17', 0.6300000000000004)]",0.6300000000000004,,,38.0,0.002287,['Fail'],Fail,0.6300000000000004,-0.6300000000000004,0.0,0.0,0.9
565.0,17.0,wc_17,,0.0,,,,382.0,,,,Fail,,,,,
565.0,17.0,wc_17,wc_4,0.0,"[('wc_4', 0.5200000000000004), ('wc_17', 0.6300000000000004)]",0.8224000000000004,,,34.0,0.0044469999999999996,['Fail'],Fail,0.5200000000000004,0.47999999999999965,1.0,1.0,0.5
565.0,17.0,wc_17,,0.0,,,,121.0,,,,Fail,,,,,
565.0,17.0,wc_17,wc_8,0.0,"[('wc_8', 0.39000000000000024), ('wc_17', 0.6300000000000004), ('wc_4', 0.5200000000000004)]",0.8916640000000002,,,36.0,0.006106,['Fail'],Fail,0.39000000000000024,-0.10428571428571454,2.0,7.0,0.3
565.0,17.0,wc_17,,0.0,,,,82.0,,,,Fail,,,,,
565.0,17.0,wc_17,wc_6,1.0,"[('wc_6', 0.5800000000000004), ('wc_17', 0.6300000000000004), ('wc_4', 0.5200000000000004), ('wc_8', 0.39000000000000024)]",0.9544988800000002,,,36.0,0.04597999999999999,['Fail'],Fail,0.5800000000000004,-0.5800000000000004,0.0,0.0,0.7
578.0,17.0,wc_17,,0.0,,,,263.0,,,,Pass,,,,,
578.0,17.0,wc_17,,0.0,,,69.0,,,,,Pass,,,,,
578.0,17.0,wc_17,,0.0,,,,0.0,,,,Pass,,,,,
578.0,17.0,wc_17,wc_17,0.0,"[('wc_17', 0.6400000000000005)]",0.6400000000000005,,,32.0,0.002265,['Pass'],Pass,0.6400000000000005,0.35999999999999954,1.0,1.0,0.9
578.0,17.0,wc_17,,0.0,,,,41.0,,,,Pass,,,,,
578.0,17.0,wc_17,wc_13,0.0,"[('wc_13', 0.3200000000000002), ('wc_17', 0.6400000000000005)]",0.7552000000000003,,,22.0,0.004102,['Pass'],Pass,0.3200000000000002,0.06461538461538446,0.0,0.0,0.2
578.0,17.0,wc_17,,0.0,,,,162.0,,,,Pass,,,,,
578.0,17.0,wc_17,wc_6,0.0,"[('wc_6', 0.5800000000000004), ('wc_17', 0.6400000000000005), ('wc_13', 0.3200000000000002)]",0.8971840000000002,,,40.0,0.006267,['Pass'],Pass,0.5800000000000004,-0.5800000000000004,0.0,0.0,0.7
578.0,17.0,wc_17,,0.0,,,,162.0,,,,Pass,,,,,
578.0,17.0,wc_17,wc_12,0.0,"[('wc_17', 0.6400000000000005), ('wc_13', 0.3200000000000002), ('wc_6', 0.5800000000000004)]",0.8971840000000002,,,38.0,0.00879,['Pass'],Pass,0.2300000000000001,0.10333333333333322,2.0,6.0,0.1
578.0,17.0,wc_17,,0.0,,,,262.0,,,,Pass,,,,,
578.0,17.0,wc_17,wc_2,1.0,"[('wc_2', 0.42000000000000026), ('wc_17', 0.6400000000000005), ('wc_13', 0.3200000000000002), ('wc_6', 0.5800000000000004)]",0.9403667200000002,,,23.0,0.05266499999999999,['Pass'],Pass,0.42000000000000026,-0.42000000000000026,0.0,0.0,0.3
