mpecck/BCQC/bcqc_with_qdt/results/raw/input_9/independent_qc/score/5_workpiece/20200429_104700/wp_3_qc_majority_0.9.csv
production_index,step_idx,production_workcell,qc,consent,winner_qc_list,score,production_time,transport_time,inspection_time,network_time,qc_results,actual_quality,qc_score,score_error,in_winner_counter,in_qc_counter,qc_capability
2.0,1.0,wc_1,,0.0,,,77.0,,,,,Fail,,,,,
2.0,1.0,wc_1,,0.0,,,,0.0,,,,Fail,,,,,
2.0,1.0,wc_1,wc_1,0.0,"[('wc_1', 0.8600000000000007)]",0.8600000000000007,,,32.0,0.001873,['Pass'],Fail,0.8600000000000007,-0.6781818181818189,0.0,0.0,0.6
2.0,1.0,wc_1,,0.0,,,,0.0,,,,Fail,,,,,
2.0,1.0,wc_1,wc_2,0.0,"[('wc_1', 0.8600000000000007)]",0.8600000000000007,,,32.0,0.004001,['Pass'],Fail,0.5900000000000004,-0.45363636363636406,0.0,0.0,0.5
2.0,1.0,wc_1,,0.0,,,,0.0,,,,Fail,,,,,
2.0,1.0,wc_1,wc_3,0.0,"[('wc_1', 0.8600000000000007)]",0.8600000000000007,,,26.0,0.005913,['Pass'],Fail,0.11,-0.11,0.0,0.0,0.1
2.0,1.0,wc_1,,0.0,,,,0.0,,,,Fail,,,,,
2.0,1.0,wc_1,wc_4,0.0,"[('wc_4', 0.6300000000000004), ('wc_2', 0.5900000000000004), ('wc_3', 0.11)]",0.8649870000000003,,,29.0,0.009276,['Fail'],Fail,0.6300000000000004,-0.577368421052632,0.0,0.0,0.6
2.0,1.0,wc_1,,0.0,,,,0.0,,,,Fail,,,,,
2.0,1.0,wc_1,wc_5,1.0,"[('wc_5', 0.4000000000000001), ('wc_2', 0.5900000000000004), ('wc_3', 0.11), ('wc_4', 0.6300000000000004)]",0.9189922000000001,,,22.0,0.053336,['Fail'],Fail,0.4000000000000001,-0.35238095238095246,0.0,0.0,0.2
12.0,1.0,wc_1,,0.0,,,,41.0,,,,Pass,,,,,
12.0,1.0,wc_1,,0.0,,,50.0,,,,,Pass,,,,,
12.0,1.0,wc_1,,0.0,,,,0.0,,,,Pass,,,,,
12.0,1.0,wc_1,wc_1,0.0,"[('wc_1', 0.8600000000000007)]",0.8600000000000007,,,21.0,0.0024,['Pass'],Pass,0.8600000000000007,-0.8600000000000007,0.0,1.0,0.6
12.0,1.0,wc_1,,0.0,,,,0.0,,,,Pass,,,,,
12.0,1.0,wc_1,wc_2,0.0,"[('wc_1', 0.8600000000000007)]",0.8600000000000007,,,25.0,0.004295,['Pass'],Pass,0.5900000000000004,0.4099999999999996,1.0,1.0,0.5
12.0,1.0,wc_1,,0.0,,,,0.0,,,,Pass,,,,,
12.0,1.0,wc_1,wc_3,0.0,"[('wc_1', 0.8600000000000007)]",0.8600000000000007,,,31.0,0.007332,['Pass'],Pass,0.11,0.89,1.0,1.0,0.1
12.0,1.0,wc_1,,0.0,,,,0.0,,,,Pass,,,,,
12.0,1.0,wc_1,wc_4,0.0,"[('wc_4', 0.6300000000000004), ('wc_1', 0.8600000000000007)]",0.9482000000000003,,,37.0,0.008001000000000001,['Pass'],Pass,0.6300000000000004,0.36999999999999955,1.0,1.0,0.6
12.0,1.0,wc_1,,0.0,,,,0.0,,,,Pass,,,,,
12.0,1.0,wc_1,wc_5,0.0,"[('wc_1', 0.8600000000000007), ('wc_4', 0.6300000000000004)]",0.9482000000000003,,,21.0,0.009108,['Pass'],Pass,0.4000000000000001,-0.4000000000000001,0.0,0.0,0.2
12.0,1.0,wc_1,,0.0,,,,61.0,,,,Pass,,,,,
12.0,1.0,wc_1,wc_6,0.0,"[('wc_1', 0.8600000000000007), ('wc_4', 0.6300000000000004)]",0.9482000000000003,,,35.0,0.013878000000000001,['Pass'],Pass,0.6200000000000004,-0.35684210526315835,0.0,0.0,0.5
12.0,1.0,wc_1,,0.0,,,,0.0,,,,Pass,,,,,
12.0,1.0,wc_1,wc_7,0.0,"[('wc_1', 0.8600000000000007), ('wc_4', 0.6300000000000004)]",0.9482000000000003,,,34.0,0.016458000000000004,['Pass'],Pass,0.3000000000000002,-0.2000000000000002,0.0,0.0,0.2
12.0,1.0,wc_1,,0.0,,,,0.0,,,,Pass,,,,,
12.0,1.0,wc_1,wc_8,1.0,"[('wc_8', 0.8100000000000006), ('wc_1', 0.8600000000000007), ('wc_4', 0.6300000000000004)]",0.9901580000000001,,,39.0,0.054702,['Pass'],Pass,0.8100000000000006,-0.5100000000000007,0.0,0.0,1.0
19.0,4.0,wc_4,,0.0,,,,301.0,,,,Fail,,,,,
19.0,4.0,wc_4,,0.0,,,80.0,,,,,Fail,,,,,
19.0,4.0,wc_4,,0.0,,,,0.0,,,,Fail,,,,,
19.0,4.0,wc_4,wc_4,0.0,"[('wc_4', 0.6300000000000004)]",0.6300000000000004,,,33.0,0.002132,['Fail'],Fail,0.6300000000000004,0.36999999999999955,2.0,2.0,0.6
19.0,4.0,wc_4,,0.0,,,,0.0,,,,Fail,,,,,
19.0,4.0,wc_4,wc_5,0.0,"[('wc_4', 0.6300000000000004)]",0.6300000000000004,,,22.0,0.003967,['Fail'],Fail,0.4000000000000001,-0.4000000000000001,0.0,1.0,0.2
19.0,4.0,wc_4,,0.0,,,,41.0,,,,Fail,,,,,
19.0,4.0,wc_4,wc_1,0.0,"[('wc_1', 0.8600000000000007), ('wc_4', 0.6300000000000004)]",0.9482000000000003,,,21.0,0.0074659999999999995,['Fail'],Fail,0.8600000000000007,-0.36000000000000065,1.0,2.0,0.6
19.0,4.0,wc_4,,0.0,,,,0.0,,,,Fail,,,,,
19.0,4.0,wc_4,wc_2,1.0,"[('wc_2', 0.5900000000000004), ('wc_4', 0.6300000000000004), ('wc_1', 0.8600000000000007)]",0.9787620000000001,,,20.0,0.040229,['Fail'],Fail,0.5900000000000004,0.07666666666666622,2.0,3.0,0.5
24.0,2.0,wc_2,,0.0,,,,0.0,,,,Pass,,,,,
24.0,2.0,wc_2,,0.0,,,52.0,,,,,Pass,,,,,
24.0,2.0,wc_2,,0.0,,,,0.0,,,,Pass,,,,,
24.0,2.0,wc_2,wc_2,0.0,"[('wc_2', 0.5900000000000004)]",0.5900000000000004,,,30.0,0.002079,['Fail'],Pass,0.5900000000000004,0.07666666666666622,2.0,3.0,0.5
24.0,2.0,wc_2,,0.0,,,,0.0,,,,Pass,,,,,
24.0,2.0,wc_2,wc_3,0.0,"[('wc_3', 0.11), ('wc_2', 0.5900000000000004)]",0.6351000000000004,,,28.0,0.005445,['Fail'],Pass,0.11,0.22333333333333333,1.0,3.0,0.1
24.0,2.0,wc_2,,0.0,,,,0.0,,,,Pass,,,,,
24.0,2.0,wc_2,wc_4,0.0,"[('wc_2', 0.5900000000000004), ('wc_3', 0.11)]",0.6351000000000004,,,20.0,0.0066949999999999996,['Fail'],Pass,0.6300000000000004,0.36999999999999955,3.0,3.0,0.6
24.0,2.0,wc_2,,0.0,,,,0.0,,,,Pass,,,,,
24.0,2.0,wc_2,wc_5,0.0,"[('wc_5', 0.4000000000000001), ('wc_2', 0.5900000000000004), ('wc_3', 0.11)]",0.7810600000000003,,,34.0,0.013708,['Fail'],Pass,0.4000000000000001,-0.4000000000000001,0.0,2.0,0.2
24.0,2.0,wc_2,,0.0,,,,41.0,,,,Pass,,,,,
24.0,2.0,wc_2,wc_1,0.0,"[('wc_1', 0.8600000000000007), ('wc_4', 0.6300000000000004)]",0.9482000000000003,,,40.0,0.011008,['Pass'],Pass,0.8600000000000007,-0.19333333333333402,2.0,3.0,0.6
24.0,2.0,wc_2,,0.0,,,,142.0,,,,Pass,,,,,
24.0,2.0,wc_2,wc_6,1.0,"[('wc_6', 0.6200000000000004), ('wc_4', 0.6300000000000004), ('wc_1', 0.8600000000000007)]",0.9803160000000002,,,37.0,0.05568000000000001,['Pass'],Pass,0.6200000000000004,-0.2866666666666671,1.0,3.0,0.5
29.0,3.0,wc_3,,0.0,,,,321.0,,,,Fail,,,,,
29.0,3.0,wc_3,,0.0,,,58.0,,,,,Fail,,,,,
29.0,3.0,wc_3,,0.0,,,,0.0,,,,Fail,,,,,
29.0,3.0,wc_3,wc_3,0.0,"[('wc_3', 0.11)]",0.10999999999999999,,,20.0,0.002712,['Fail'],Fail,0.11,0.14,1.0,4.0,0.1
29.0,3.0,wc_3,,0.0,,,,0.0,,,,Fail,,,,,
29.0,3.0,wc_3,wc_4,0.0,"[('wc_4', 0.6300000000000004)]",0.6300000000000004,,,30.0,0.0038710000000000003,['Pass'],Fail,0.6300000000000004,0.36999999999999955,4.0,4.0,0.6
29.0,3.0,wc_3,,0.0,,,,0.0,,,,Fail,,,,,
29.0,3.0,wc_3,wc_5,0.0,"[('wc_4', 0.6300000000000004)]",0.6300000000000004,,,38.0,0.006056000000000001,['Pass'],Fail,0.4000000000000001,-0.4000000000000001,0.0,3.0,0.2
29.0,3.0,wc_3,,0.0,,,,41.0,,,,Fail,,,,,
29.0,3.0,wc_3,wc_1,1.0,"[('wc_1', 0.8600000000000007), ('wc_3', 0.11), ('wc_5', 0.4000000000000001)]",0.9252400000000004,,,36.0,0.046573,['Fail'],Fail,0.8600000000000007,-0.06000000000000061,4.0,5.0,0.6
32.0,3.0,wc_3,,0.0,,,,0.0,,,,Pass,,,,,
32.0,3.0,wc_3,,0.0,,,69.0,,,,,Pass,,,,,
32.0,3.0,wc_3,,0.0,,,,0.0,,,,Pass,,,,,
32.0,3.0,wc_3,wc_3,0.0,"[('wc_3', 0.11)]",0.10999999999999999,,,30.0,0.002321,['Pass'],Pass,0.11,0.29000000000000004,2.0,5.0,0.1
32.0,3.0,wc_3,,0.0,,,,0.0,,,,Pass,,,,,
32.0,3.0,wc_3,wc_4,0.0,"[('wc_4', 0.6300000000000004)]",0.6300000000000004,,,28.0,0.0047810000000000005,['Fail'],Pass,0.6300000000000004,0.1699999999999996,4.0,5.0,0.6
32.0,3.0,wc_3,,0.0,,,,0.0,,,,Pass,,,,,
32.0,3.0,wc_3,wc_5,0.0,"[('wc_4', 0.6300000000000004)]",0.6300000000000004,,,33.0,0.007135000000000001,['Fail'],Pass,0.4000000000000001,-0.15000000000000008,1.0,4.0,0.2
32.0,3.0,wc_3,,0.0,,,,41.0,,,,Pass,,,,,
32.0,3.0,wc_3,wc_1,0.0,"[('wc_1', 0.8600000000000007), ('wc_4', 0.6300000000000004)]",0.9482000000000003,,,32.0,0.008612,['Fail'],Pass,0.8600000000000007,-0.06000000000000061,4.0,5.0,0.6
32.0,3.0,wc_3,,0.0,,,,0.0,,,,Pass,,,,,
32.0,3.0,wc_3,wc_2,0.0,"[('wc_4', 0.6300000000000004), ('wc_1', 0.8600000000000007)]",0.9482000000000003,,,26.0,0.010355999999999999,['Fail'],Pass,0.5900000000000004,-0.1900000000000004,2.0,5.0,0.5
32.0,3.0,wc_3,,0.0,,,,122.0,,,,Pass,,,,,
32.0,3.0,wc_3,wc_6,0.0,"[('wc_4', 0.6300000000000004), ('wc_1', 0.8600000000000007)]",0.9482000000000003,,,20.0,0.013869,['Fail'],Pass,0.6200000000000004,-0.37000000000000044,1.0,4.0,0.5
32.0,3.0,wc_3,,0.0,,,,0.0,,,,Pass,,,,,
32.0,3.0,wc_3,wc_7,1.0,"[('wc_7', 0.3000000000000002), ('wc_4', 0.6300000000000004), ('wc_1', 0.8600000000000007)]",0.9637400000000003,,,29.0,0.045398999999999995,['Fail'],Pass,0.3000000000000002,-0.1000000000000002,1.0,5.0,0.2
38.0,4.0,wc_4,,0.0,,,,321.0,,,,Fail,,,,,
38.0,4.0,wc_4,,0.0,,,75.0,,,,,Fail,,,,,
38.0,4.0,wc_4,,0.0,,,,0.0,,,,Fail,,,,,
38.0,4.0,wc_4,wc_4,0.0,"[('wc_4', 0.6300000000000004)]",0.6300000000000004,,,24.0,0.002248,['Fail'],Fail,0.6300000000000004,0.20333333333333292,5.0,6.0,0.6
38.0,4.0,wc_4,,0.0,,,,0.0,,,,Fail,,,,,
38.0,4.0,wc_4,wc_5,0.0,"[('wc_5', 0.4000000000000001), ('wc_4', 0.6300000000000004)]",0.7780000000000004,,,27.0,0.0038650000000000004,['Fail'],Fail,0.4000000000000001,-0.20000000000000007,1.0,5.0,0.2
38.0,4.0,wc_4,,0.0,,,,41.0,,,,Fail,,,,,
38.0,4.0,wc_4,wc_1,1.0,"[('wc_1', 0.8600000000000007), ('wc_4', 0.6300000000000004), ('wc_5', 0.4000000000000001)]",0.9689200000000002,,,29.0,0.04348200000000001,['Fail'],Fail,0.8600000000000007,-0.0028571428571435575,6.0,7.0,0.6
42.0,4.0,wc_4,,0.0,,,,0.0,,,,Pass,,,,,
42.0,4.0,wc_4,,0.0,,,62.0,,,,,Pass,,,,,
42.0,4.0,wc_4,,0.0,,,,0.0,,,,Pass,,,,,
42.0,4.0,wc_4,wc_4,0.0,"[('wc_4', 0.6300000000000004)]",0.6300000000000004,,,24.0,0.002163,['Pass'],Pass,0.6300000000000004,0.22714285714285665,6.0,7.0,0.6
42.0,4.0,wc_4,,0.0,,,,0.0,,,,Pass,,,,,
42.0,4.0,wc_4,wc_5,0.0,"[('wc_5', 0.4000000000000001), ('wc_4', 0.6300000000000004)]",0.7780000000000004,,,25.0,0.004332,['Pass'],Pass,0.4000000000000001,-0.06666666666666676,2.0,6.0,0.2
42.0,4.0,wc_4,,0.0,,,,41.0,,,,Pass,,,,,
42.0,4.0,wc_4,wc_1,1.0,"[('wc_1', 0.8600000000000007), ('wc_4', 0.6300000000000004), ('wc_5', 0.4000000000000001)]",0.9689200000000002,,,37.0,0.04573999999999999,['Pass'],Pass,0.8600000000000007,0.014999999999999347,7.0,8.0,0.6
51.0,5.0,wc_5,,0.0,,,,0.0,,,,Pass,,,,,
51.0,5.0,wc_5,,0.0,,,69.0,,,,,Pass,,,,,
51.0,5.0,wc_5,,0.0,,,,0.0,,,,Pass,,,,,
51.0,5.0,wc_5,wc_5,0.0,"[('wc_5', 0.4000000000000001)]",0.40000000000000013,,,38.0,0.002826,['Fail'],Pass,0.4000000000000001,0.02857142857142847,3.0,7.0,0.2
51.0,5.0,wc_5,,0.0,,,,41.0,,,,Pass,,,,,
51.0,5.0,wc_5,wc_1,0.0,"[('wc_1', 0.8600000000000007)]",0.8600000000000007,,,26.0,0.004477,['Pass'],Pass,0.8600000000000007,0.014999999999999347,7.0,8.0,0.6
51.0,5.0,wc_5,,0.0,,,,0.0,,,,Pass,,,,,
51.0,5.0,wc_5,wc_2,0.0,"[('wc_1', 0.8600000000000007)]",0.8600000000000007,,,39.0,0.006598999999999999,['Pass'],Pass,0.5900000000000004,-0.3400000000000004,2.0,8.0,0.5
51.0,5.0,wc_5,,0.0,,,,0.0,,,,Pass,,,,,
51.0,5.0,wc_5,wc_3,0.0,"[('wc_3', 0.11), ('wc_1', 0.8600000000000007)]",0.8754000000000006,,,26.0,0.007817,['Pass'],Pass,0.11,0.14,2.0,8.0,0.1
51.0,5.0,wc_5,,0.0,,,,0.0,,,,Pass,,,,,
51.0,5.0,wc_5,wc_4,1.0,"[('wc_4', 0.6300000000000004), ('wc_1', 0.8600000000000007), ('wc_3', 0.11)]",0.9538980000000002,,,39.0,0.04088699999999999,['Pass'],Pass,0.6300000000000004,0.2588888888888884,8.0,9.0,0.6
56.0,6.0,wc_6,,0.0,,,,81.0,,,,Fail,,,,,
56.0,6.0,wc_6,,0.0,,,73.0,,,,,Fail,,,,,
56.0,6.0,wc_6,,0.0,,,,0.0,,,,Fail,,,,,
56.0,6.0,wc_6,wc_6,0.0,"[('wc_6', 0.6200000000000004)]",0.6200000000000004,,,21.0,0.002201,['Fail'],Fail,0.6200000000000004,-0.49500000000000044,1.0,8.0,0.5
56.0,6.0,wc_6,,0.0,,,,0.0,,,,Fail,,,,,
56.0,6.0,wc_6,wc_7,0.0,"[('wc_7', 0.3000000000000002), ('wc_6', 0.6200000000000004)]",0.7340000000000004,,,35.0,0.005664000000000001,['Fail'],Fail,0.3000000000000002,-0.1750000000000002,1.0,8.0,0.2
56.0,6.0,wc_6,,0.0,,,,0.0,,,,Fail,,,,,
56.0,6.0,wc_6,wc_8,1.0,"[('wc_8', 0.8100000000000006), ('wc_6', 0.6200000000000004), ('wc_7', 0.3000000000000002)]",0.9494600000000002,,,35.0,0.042903000000000004,['Fail'],Fail,0.8100000000000006,-0.6850000000000006,1.0,8.0,1.0
66.0,6.0,wc_6,,0.0,,,,82.0,,,,Fail,,,,,
66.0,6.0,wc_6,,0.0,,,67.0,,,,,Fail,,,,,
66.0,6.0,wc_6,,0.0,,,,0.0,,,,Fail,,,,,
66.0,6.0,wc_6,wc_6,0.0,"[('wc_6', 0.6200000000000004)]",0.6200000000000004,,,33.0,0.002108,['Fail'],Fail,0.6200000000000004,-0.39777777777777823,2.0,9.0,0.5
66.0,6.0,wc_6,,0.0,,,,0.0,,,,Fail,,,,,
66.0,6.0,wc_6,wc_7,0.0,"[('wc_7', 0.3000000000000002), ('wc_6', 0.6200000000000004)]",0.7340000000000004,,,40.0,0.003854,['Fail'],Fail,0.3000000000000002,-0.077777777777778,2.0,9.0,0.2
66.0,6.0,wc_6,,0.0,,,,0.0,,,,Fail,,,,,
66.0,6.0,wc_6,wc_8,1.0,"[('wc_8', 0.8100000000000006), ('wc_6', 0.6200000000000004), ('wc_7', 0.3000000000000002)]",0.9494600000000002,,,24.0,0.04174,['Fail'],Fail,0.8100000000000006,-0.5877777777777784,2.0,9.0,1.0
77.0,6.0,wc_6,,0.0,,,,82.0,,,,Pass,,,,,
77.0,6.0,wc_6,,0.0,,,57.0,,,,,Pass,,,,,
77.0,6.0,wc_6,,0.0,,,,0.0,,,,Pass,,,,,
77.0,6.0,wc_6,wc_6,0.0,"[('wc_6', 0.6200000000000004)]",0.6200000000000004,,,33.0,0.00219,['Pass'],Pass,0.6200000000000004,-0.32000000000000045,0.0,0.0,0.5
77.0,6.0,wc_6,,0.0,,,,0.0,,,,Pass,,,,,
77.0,6.0,wc_6,wc_7,0.0,"[('wc_7', 0.3000000000000002), ('wc_6', 0.6200000000000004)]",0.7340000000000004,,,20.0,0.003954,['Pass'],Pass,0.3000000000000002,-2.220446049250313e-16,0.0,0.0,0.2
77.0,6.0,wc_6,,0.0,,,,0.0,,,,Pass,,,,,
77.0,6.0,wc_6,wc_8,1.0,"[('wc_8', 0.8100000000000006), ('wc_6', 0.6200000000000004), ('wc_7', 0.3000000000000002)]",0.9494600000000002,,,28.0,0.042418,['Pass'],Pass,0.8100000000000006,-0.5100000000000007,0.0,0.0,1.0
81.0,9.0,wc_9,,0.0,,,,0.0,,,,Pass,,,,,
81.0,9.0,wc_9,,0.0,,,75.0,,,,,Pass,,,,,
81.0,9.0,wc_9,,0.0,,,,0.0,,,,Pass,,,,,
81.0,9.0,wc_9,wc_9,0.0,"[('wc_9', 0.6900000000000005)]",0.6900000000000005,,,39.0,0.00214,['Pass'],Pass,0.6900000000000005,-0.5865517241379316,0.0,0.0,0.6
81.0,9.0,wc_9,,0.0,,,,0.0,,,,Pass,,,,,
81.0,9.0,wc_9,wc_10,0.0,"[('wc_10', 0.8000000000000006), ('wc_9', 0.6900000000000005)]",0.9380000000000003,,,23.0,0.004628,['Pass'],Pass,0.8000000000000006,-0.558620689655173,0.0,0.0,0.7
81.0,9.0,wc_9,,0.0,,,,0.0,,,,Pass,,,,,
81.0,9.0,wc_9,wc_11,1.0,"[('wc_11', 0.8200000000000006), ('wc_9', 0.6900000000000005), ('wc_10', 0.8000000000000006)]",0.98884,,,37.0,0.037186,['Pass'],Pass,0.8200000000000006,-0.5533333333333339,0.0,0.0,0.7
85.0,10.0,wc_10,,0.0,,,,103.0,,,,Fail,,,,,
85.0,10.0,wc_10,,0.0,,,62.0,,,,,Fail,,,,,
85.0,10.0,wc_10,,0.0,,,,0.0,,,,Fail,,,,,
85.0,10.0,wc_10,wc_10,0.0,"[('wc_10', 0.8000000000000006)]",0.8000000000000006,,,29.0,0.00204,['Fail'],Fail,0.8000000000000006,0.1999999999999994,1.0,1.0,0.7
85.0,10.0,wc_10,,0.0,,,,0.0,,,,Fail,,,,,
85.0,10.0,wc_10,wc_11,0.0,"[('wc_11', 0.8200000000000006), ('wc_10', 0.8000000000000006)]",0.9640000000000002,,,30.0,0.004876999999999999,['Fail'],Fail,0.8200000000000006,-0.8200000000000006,0.0,0.0,0.7
85.0,10.0,wc_10,,0.0,,,,21.0,,,,Fail,,,,,
85.0,10.0,wc_10,wc_6,1.0,"[('wc_6', 0.6200000000000004), ('wc_10', 0.8000000000000006), ('wc_11', 0.8200000000000006)]",0.9863200000000001,,,20.0,0.041463,['Fail'],Fail,0.6200000000000004,0.04666666666666619,2.0,3.0,0.5
89.0,11.0,wc_11,,0.0,,,,0.0,,,,Fail,,,,,
89.0,11.0,wc_11,,0.0,,,50.0,,,,,Fail,,,,,
89.0,11.0,wc_11,,0.0,,,,0.0,,,,Fail,,,,,
89.0,11.0,wc_11,wc_11,0.0,"[('wc_11', 0.8200000000000006)]",0.8200000000000006,,,29.0,0.002125,['Fail'],Fail,0.8200000000000006,0.17999999999999938,1.0,1.0,0.7
89.0,11.0,wc_11,,0.0,,,,21.0,,,,Fail,,,,,
89.0,11.0,wc_11,wc_6,0.0,"[('wc_6', 0.6200000000000004), ('wc_11', 0.8200000000000006)]",0.9316000000000003,,,22.0,0.004507,['Fail'],Fail,0.6200000000000004,0.04666666666666619,2.0,3.0,0.5
89.0,11.0,wc_11,,0.0,,,,0.0,,,,Fail,,,,,
89.0,11.0,wc_11,wc_7,1.0,"[('wc_7', 0.3000000000000002), ('wc_11', 0.8200000000000006), ('wc_6', 0.6200000000000004)]",0.9521200000000002,,,23.0,0.04552400000000001,['Fail'],Fail,0.3000000000000002,0.1999999999999998,2.0,4.0,0.2
94.0,11.0,wc_11,,0.0,,,,0.0,,,,Pass,,,,,
94.0,11.0,wc_11,,0.0,,,57.0,,,,,Pass,,,,,
94.0,11.0,wc_11,,0.0,,,,0.0,,,,Pass,,,,,
94.0,11.0,wc_11,wc_11,0.0,"[('wc_11', 0.8200000000000006)]",0.8200000000000006,,,29.0,0.002115,['Pass'],Pass,0.8200000000000006,0.17999999999999938,2.0,2.0,0.7
94.0,11.0,wc_11,,0.0,,,,21.0,,,,Pass,,,,,
94.0,11.0,wc_11,wc_6,0.0,"[('wc_6', 0.6200000000000004), ('wc_11', 0.8200000000000006)]",0.9316000000000003,,,28.0,0.004106,['Pass'],Pass,0.6200000000000004,0.12999999999999956,3.0,4.0,0.5
94.0,11.0,wc_11,,0.0,,,,0.0,,,,Pass,,,,,
94.0,11.0,wc_11,wc_7,0.0,"[('wc_11', 0.8200000000000006), ('wc_6', 0.6200000000000004)]",0.9316000000000003,,,26.0,0.006752,['Pass'],Pass,0.3000000000000002,0.1999999999999998,2.0,4.0,0.2
94.0,11.0,wc_11,,0.0,,,,0.0,,,,Pass,,,,,
94.0,11.0,wc_11,wc_8,1.0,"[('wc_8', 0.8100000000000006), ('wc_11', 0.8200000000000006), ('wc_6', 0.6200000000000004)]",0.9870040000000001,,,36.0,0.039166999999999993,['Pass'],Pass,0.8100000000000006,-0.5600000000000006,1.0,4.0,1.0
98.0,11.0,wc_11,,0.0,,,,0.0,,,,Pass,,,,,
98.0,11.0,wc_11,,0.0,,,55.0,,,,,Pass,,,,,
98.0,11.0,wc_11,,0.0,,,,0.0,,,,Pass,,,,,
98.0,11.0,wc_11,wc_11,0.0,"[('wc_11', 0.8200000000000006)]",0.8200000000000006,,,24.0,0.003182,['Pass'],Pass,0.8200000000000006,0.17999999999999938,3.0,3.0,0.7
98.0,11.0,wc_11,,0.0,,,,21.0,,,,Pass,,,,,
98.0,11.0,wc_11,wc_6,0.0,"[('wc_6', 0.6200000000000004), ('wc_11', 0.8200000000000006)]",0.9316000000000003,,,32.0,0.005679999999999999,['Pass'],Pass,0.6200000000000004,0.1799999999999996,4.0,5.0,0.5
98.0,11.0,wc_11,,0.0,,,,0.0,,,,Pass,,,,,
98.0,11.0,wc_11,wc_7,1.0,"[('wc_7', 0.3000000000000002), ('wc_11', 0.8200000000000006), ('wc_6', 0.6200000000000004)]",0.9521200000000002,,,21.0,0.052007000000000005,['Pass'],Pass,0.3000000000000002,0.1999999999999998,3.0,6.0,0.2
104.0,10.0,wc_10,,0.0,,,,0.0,,,,Fail,,,,,
104.0,10.0,wc_10,,0.0,,,70.0,,,,,Fail,,,,,
104.0,10.0,wc_10,,0.0,,,,0.0,,,,Fail,,,,,
104.0,10.0,wc_10,wc_10,0.0,"[('wc_10', 0.8000000000000006)]",0.8000000000000006,,,30.0,0.002187,['Fail'],Fail,0.8000000000000006,-0.4000000000000006,2.0,5.0,0.7
104.0,10.0,wc_10,,0.0,,,,0.0,,,,Fail,,,,,
104.0,10.0,wc_10,wc_11,0.0,"[('wc_11', 0.8200000000000006), ('wc_10', 0.8000000000000006)]",0.9640000000000002,,,22.0,0.007047,['Fail'],Fail,0.8200000000000006,0.17999999999999938,4.0,4.0,0.7
104.0,10.0,wc_10,,0.0,,,,21.0,,,,Fail,,,,,
104.0,10.0,wc_10,wc_6,1.0,"[('wc_6', 0.6200000000000004), ('wc_10', 0.8000000000000006), ('wc_11', 0.8200000000000006)]",0.9863200000000001,,,39.0,0.04403499999999999,['Fail'],Fail,0.6200000000000004,0.23714285714285666,6.0,7.0,0.5
106.0,8.0,wc_8,,0.0,,,,0.0,,,,Fail,,,,,
106.0,8.0,wc_8,,0.0,,,52.0,,,,,Fail,,,,,
106.0,8.0,wc_8,,0.0,,,,0.0,,,,Fail,,,,,
106.0,8.0,wc_8,wc_8,0.0,"[('wc_8', 0.8100000000000006)]",0.8100000000000006,,,28.0,0.002339,['Pass'],Fail,0.8100000000000006,-0.643333333333334,1.0,6.0,1.0
106.0,8.0,wc_8,,0.0,,,,0.0,,,,Fail,,,,,
106.0,8.0,wc_8,wc_9,0.0,"[('wc_9', 0.6900000000000005), ('wc_8', 0.8100000000000006)]",0.9411000000000003,,,31.0,0.008347,['Pass'],Fail,0.6900000000000005,-0.5233333333333339,1.0,6.0,0.6
106.0,8.0,wc_8,,0.0,,,,0.0,,,,Fail,,,,,
106.0,8.0,wc_8,wc_10,0.0,"[('wc_8', 0.8100000000000006), ('wc_9', 0.6900000000000005)]",0.9411000000000003,,,40.0,0.010988999999999999,['Pass'],Fail,0.8000000000000006,-0.3000000000000006,3.0,6.0,0.7
106.0,8.0,wc_8,,0.0,,,,0.0,,,,Fail,,,,,
106.0,8.0,wc_8,wc_11,0.0,"[('wc_11', 0.8200000000000006), ('wc_10', 0.8000000000000006)]",0.9640000000000002,,,28.0,0.009179,['Fail'],Fail,0.8200000000000006,0.17999999999999938,5.0,5.0,0.7
106.0,8.0,wc_8,,0.0,,,,21.0,,,,Fail,,,,,
106.0,8.0,wc_8,wc_6,1.0,"[('wc_6', 0.6200000000000004), ('wc_10', 0.8000000000000006), ('wc_11', 0.8200000000000006)]",0.9863200000000001,,,36.0,0.04635999999999999,['Fail'],Fail,0.6200000000000004,0.25499999999999956,7.0,8.0,0.5
113.0,7.0,wc_7,,0.0,,,,0.0,,,,Pass,,,,,
113.0,7.0,wc_7,,0.0,,,68.0,,,,,Pass,,,,,
113.0,7.0,wc_7,,0.0,,,,0.0,,,,Pass,,,,,
113.0,7.0,wc_7,wc_7,0.0,"[('wc_7', 0.3000000000000002)]",0.30000000000000027,,,30.0,0.002098,['Pass'],Pass,0.3000000000000002,0.07499999999999979,3.0,8.0,0.2
113.0,7.0,wc_7,,0.0,,,,0.0,,,,Pass,,,,,
113.0,7.0,wc_7,wc_8,0.0,"[('wc_8', 0.8100000000000006), ('wc_7', 0.3000000000000002)]",0.8670000000000004,,,40.0,0.004894,['Pass'],Pass,0.8100000000000006,-0.6671428571428577,1.0,7.0,1.0
113.0,7.0,wc_7,,0.0,,,,0.0,,,,Pass,,,,,
113.0,7.0,wc_7,wc_9,1.0,"[('wc_9', 0.6900000000000005), ('wc_7', 0.3000000000000002), ('wc_8', 0.8100000000000006)]",0.9587700000000002,,,38.0,0.037939,['Pass'],Pass,0.6900000000000005,-0.4400000000000005,2.0,8.0,0.6
117.0,8.0,wc_8,,0.0,,,,101.0,,,,Pass,,,,,
117.0,8.0,wc_8,,0.0,,,76.0,,,,,Pass,,,,,
117.0,8.0,wc_8,,0.0,,,,0.0,,,,Pass,,,,,
117.0,8.0,wc_8,wc_8,0.0,"[('wc_8', 0.8100000000000006)]",0.8100000000000006,,,22.0,0.002072,['Pass'],Pass,0.8100000000000006,-0.5600000000000006,2.0,8.0,1.0
117.0,8.0,wc_8,,0.0,,,,0.0,,,,Pass,,,,,
117.0,8.0,wc_8,wc_9,0.0,"[('wc_9', 0.6900000000000005), ('wc_8', 0.8100000000000006)]",0.9411000000000003,,,32.0,0.0046110000000000005,['Pass'],Pass,0.6900000000000005,-0.4400000000000005,2.0,8.0,0.6
117.0,8.0,wc_8,,0.0,,,,0.0,,,,Pass,,,,,
117.0,8.0,wc_8,wc_10,1.0,"[('wc_10', 0.8000000000000006), ('wc_8', 0.8100000000000006), ('wc_9', 0.6900000000000005)]",0.9882200000000001,,,32.0,0.0411,['Pass'],Pass,0.8000000000000006,-0.24444444444444502,5.0,9.0,0.7
122.0,10.0,wc_10,,0.0,,,,0.0,,,,Pass,,,,,
122.0,10.0,wc_10,,0.0,,,60.0,,,,,Pass,,,,,
122.0,10.0,wc_10,,0.0,,,,0.0,,,,Pass,,,,,
122.0,10.0,wc_10,wc_10,0.0,"[('wc_10', 0.8000000000000006)]",0.8000000000000006,,,35.0,0.002667,['Fail'],Pass,0.8000000000000006,-0.24444444444444502,5.0,9.0,0.7
122.0,10.0,wc_10,,0.0,,,,0.0,,,,Pass,,,,,
122.0,10.0,wc_10,wc_11,0.0,"[('wc_11', 0.8200000000000006)]",0.8200000000000006,,,29.0,0.004231,['Pass'],Pass,0.8200000000000006,-0.07000000000000062,6.0,8.0,0.7
122.0,10.0,wc_10,,0.0,,,,21.0,,,,Pass,,,,,
122.0,10.0,wc_10,wc_6,0.0,"[('wc_6', 0.6200000000000004), ('wc_11', 0.8200000000000006)]",0.9316000000000003,,,35.0,0.008421000000000001,['Pass'],Pass,0.6200000000000004,0.07999999999999952,0.0,0.0,0.5
122.0,10.0,wc_10,,0.0,,,,0.0,,,,Pass,,,,,
122.0,10.0,wc_10,wc_7,0.0,"[('wc_11', 0.8200000000000006), ('wc_6', 0.6200000000000004)]",0.9316000000000003,,,23.0,0.010091,['Pass'],Pass,0.3000000000000002,0.09999999999999981,0.0,0.0,0.2
122.0,10.0,wc_10,,0.0,,,,0.0,,,,Pass,,,,,
122.0,10.0,wc_10,wc_8,1.0,"[('wc_8', 0.8100000000000006), ('wc_11', 0.8200000000000006), ('wc_6', 0.6200000000000004)]",0.9870040000000001,,,28.0,0.049936,['Pass'],Pass,0.8100000000000006,-0.4100000000000006,0.0,0.0,1.0
127.0,12.0,wc_12,,0.0,,,,122.0,,,,Fail,,,,,
127.0,12.0,wc_12,,0.0,,,69.0,,,,,Fail,,,,,
127.0,12.0,wc_12,,0.0,,,,0.0,,,,Fail,,,,,
127.0,12.0,wc_12,wc_12,0.0,"[('wc_12', 0.7200000000000005)]",0.7200000000000005,,,34.0,0.003083,['Fail'],Fail,0.7200000000000005,-0.5533333333333339,0.0,0.0,0.6
127.0,12.0,wc_12,,0.0,,,,0.0,,,,Fail,,,,,
127.0,12.0,wc_12,wc_13,0.0,"[('wc_12', 0.7200000000000005)]",0.7200000000000005,,,36.0,0.0041589999999999995,['Fail'],Fail,0.2900000000000001,-0.22333333333333344,0.0,0.0,0.1
127.0,12.0,wc_12,,0.0,,,,0.0,,,,Fail,,,,,
127.0,12.0,wc_12,wc_14,0.0,"[('wc_14', 0.9900000000000008), ('wc_12', 0.7200000000000005)]",0.9972000000000002,,,23.0,0.011519999999999999,['Fail'],Fail,0.9900000000000008,-0.8520689655172422,0.0,0.0,0.9
127.0,12.0,wc_12,,0.0,,,,0.0,,,,Fail,,,,,
127.0,12.0,wc_12,wc_15,1.0,"[('wc_15', 0.9700000000000008), ('wc_12', 0.7200000000000005), ('wc_14', 0.9900000000000008)]",0.999916,,,25.0,0.04672900000000001,['Fail'],Fail,0.9700000000000008,-0.7700000000000007,0.0,0.0,0.8
131.0,12.0,wc_12,,0.0,,,,61.0,,,,Pass,,,,,
131.0,12.0,wc_12,,0.0,,,73.0,,,,,Pass,,,,,
131.0,12.0,wc_12,,0.0,,,,0.0,,,,Pass,,,,,
131.0,12.0,wc_12,wc_12,0.0,"[('wc_12', 0.7200000000000005)]",0.7200000000000005,,,27.0,0.00216,['Fail'],Pass,0.7200000000000005,0.27999999999999947,1.0,1.0,0.6
131.0,12.0,wc_12,,0.0,,,,0.0,,,,Pass,,,,,
131.0,12.0,wc_12,wc_13,0.0,"[('wc_13', 0.2900000000000001), ('wc_12', 0.7200000000000005)]",0.8012000000000004,,,22.0,0.003962,['Fail'],Pass,0.2900000000000001,-0.2900000000000001,0.0,1.0,0.1
131.0,12.0,wc_12,,0.0,,,,0.0,,,,Pass,,,,,
131.0,12.0,wc_12,wc_14,0.0,"[('wc_14', 0.9900000000000008)]",0.9900000000000008,,,34.0,0.005925,['Pass'],Pass,0.9900000000000008,0.009999999999999232,1.0,1.0,0.9
131.0,12.0,wc_12,,0.0,,,,0.0,,,,Pass,,,,,
131.0,12.0,wc_12,wc_15,0.0,"[('wc_15', 0.9700000000000008), ('wc_14', 0.9900000000000008)]",0.9997,,,33.0,0.007615,['Pass'],Pass,0.9700000000000008,-0.9700000000000008,0.0,0.0,0.8
131.0,12.0,wc_12,,0.0,,,,0.0,,,,Pass,,,,,
131.0,12.0,wc_12,wc_16,1.0,"[('wc_16', 0.8700000000000007), ('wc_14', 0.9900000000000008), ('wc_15', 0.9700000000000008)]",0.999961,,,32.0,0.047577999999999995,['Pass'],Pass,0.8700000000000007,-0.6700000000000006,0.0,0.0,1.0
134.0,13.0,wc_13,,0.0,,,,61.0,,,,Fail,,,,,
134.0,13.0,wc_13,,0.0,,,53.0,,,,,Fail,,,,,
134.0,13.0,wc_13,,0.0,,,,0.0,,,,Fail,,,,,
134.0,13.0,wc_13,wc_13,0.0,"[('wc_13', 0.2900000000000001)]",0.29000000000000004,,,39.0,0.002319,['Pass'],Fail,0.2900000000000001,-0.2900000000000001,0.0,2.0,0.1
134.0,13.0,wc_13,,0.0,,,,0.0,,,,Fail,,,,,
134.0,13.0,wc_13,wc_14,0.0,"[('wc_14', 0.9900000000000008)]",0.9900000000000008,,,27.0,0.004273,['Fail'],Fail,0.9900000000000008,0.009999999999999232,2.0,2.0,0.9
134.0,13.0,wc_13,,0.0,,,,0.0,,,,Fail,,,,,
134.0,13.0,wc_13,wc_15,0.0,"[('wc_15', 0.9700000000000008), ('wc_14', 0.9900000000000008)]",0.9997,,,40.0,0.006025999999999999,['Fail'],Fail,0.9700000000000008,0.02999999999999925,1.0,1.0,0.8
134.0,13.0,wc_13,,0.0,,,,0.0,,,,Fail,,,,,
134.0,13.0,wc_13,wc_16,1.0,"[('wc_16', 0.8700000000000007), ('wc_14', 0.9900000000000008), ('wc_15', 0.9700000000000008)]",0.999961,,,32.0,0.062252999999999996,['Fail'],Fail,0.8700000000000007,0.12999999999999934,1.0,1.0,1.0
137.0,13.0,wc_13,,0.0,,,,61.0,,,,Pass,,,,,
137.0,13.0,wc_13,,0.0,,,55.0,,,,,Pass,,,,,
137.0,13.0,wc_13,,0.0,,,,0.0,,,,Pass,,,,,
137.0,13.0,wc_13,wc_13,0.0,"[('wc_13', 0.2900000000000001)]",0.29000000000000004,,,34.0,0.002216,['Fail'],Pass,0.2900000000000001,-0.2900000000000001,0.0,3.0,0.1
137.0,13.0,wc_13,,0.0,,,,0.0,,,,Pass,,,,,
137.0,13.0,wc_13,wc_14,0.0,"[('wc_14', 0.9900000000000008)]",0.9900000000000008,,,20.0,0.004547000000000001,['Pass'],Pass,0.9900000000000008,0.009999999999999232,3.0,3.0,0.9
137.0,13.0,wc_13,,0.0,,,,0.0,,,,Pass,,,,,
137.0,13.0,wc_13,wc_15,0.0,"[('wc_15', 0.9700000000000008), ('wc_14', 0.9900000000000008)]",0.9997,,,31.0,0.006390000000000001,['Pass'],Pass,0.9700000000000008,0.02999999999999925,2.0,2.0,0.8
137.0,13.0,wc_13,,0.0,,,,0.0,,,,Pass,,,,,
137.0,13.0,wc_13,wc_16,1.0,"[('wc_16', 0.8700000000000007), ('wc_14', 0.9900000000000008), ('wc_15', 0.9700000000000008)]",0.999961,,,32.0,0.04696299999999999,['Pass'],Pass,0.8700000000000007,0.12999999999999934,2.0,2.0,1.0
140.0,16.0,wc_16,,0.0,,,,0.0,,,,Fail,,,,,
140.0,16.0,wc_16,,0.0,,,66.0,,,,,Fail,,,,,
140.0,16.0,wc_16,,0.0,,,,0.0,,,,Fail,,,,,
140.0,16.0,wc_16,wc_16,0.0,"[('wc_16', 0.8700000000000007)]",0.8700000000000007,,,21.0,0.002119,['Fail'],Fail,0.8700000000000007,0.12999999999999934,2.0,2.0,1.0
140.0,16.0,wc_16,,0.0,,,,0.0,,,,Fail,,,,,
140.0,16.0,wc_16,wc_17,0.0,"[('wc_16', 0.8700000000000007)]",0.8700000000000007,,,28.0,0.004455,['Fail'],Fail,0.4100000000000003,-0.34548387096774225,0.0,0.0,0.1
140.0,16.0,wc_16,,0.0,,,,21.0,,,,Fail,,,,,
140.0,16.0,wc_16,wc_12,0.0,"[('wc_16', 0.8700000000000007)]",0.8700000000000007,,,32.0,0.012189,['Fail'],Fail,0.7200000000000005,-0.47000000000000053,1.0,4.0,0.6
140.0,16.0,wc_16,,0.0,,,,0.0,,,,Fail,,,,,
140.0,16.0,wc_16,wc_13,0.0,"[('wc_13', 0.2900000000000001), ('wc_17', 0.4100000000000003), ('wc_12', 0.7200000000000005)]",0.8827080000000003,,,39.0,0.01074,['Pass'],Fail,0.2900000000000001,-0.2900000000000001,0.0,4.0,0.1
140.0,16.0,wc_16,,0.0,,,,0.0,,,,Fail,,,,,
140.0,16.0,wc_16,wc_14,0.0,"[('wc_14', 0.9900000000000008), ('wc_16', 0.8700000000000007)]",0.9987000000000001,,,35.0,0.009963999999999999,['Fail'],Fail,0.9900000000000008,0.009999999999999232,4.0,4.0,0.9
140.0,16.0,wc_16,,0.0,,,,0.0,,,,Fail,,,,,
140.0,16.0,wc_16,wc_15,1.0,"[('wc_15', 0.9700000000000008), ('wc_16', 0.8700000000000007), ('wc_14', 0.9900000000000008)]",0.999961,,,40.0,0.056152,['Fail'],Fail,0.9700000000000008,0.02999999999999925,4.0,4.0,0.8
144.0,16.0,wc_16,,0.0,,,,0.0,,,,Fail,,,,,
144.0,16.0,wc_16,,0.0,,,62.0,,,,,Fail,,,,,
144.0,16.0,wc_16,,0.0,,,,0.0,,,,Fail,,,,,
144.0,16.0,wc_16,wc_16,0.0,"[('wc_16', 0.8700000000000007)]",0.8700000000000007,,,40.0,0.002554,['Fail'],Fail,0.8700000000000007,0.12999999999999934,3.0,3.0,1.0
144.0,16.0,wc_16,,0.0,,,,0.0,,,,Fail,,,,,
144.0,16.0,wc_16,wc_17,0.0,"[('wc_16', 0.8700000000000007)]",0.8700000000000007,,,31.0,0.004614,['Fail'],Fail,0.4100000000000003,-0.4100000000000003,0.0,1.0,0.1
144.0,16.0,wc_16,,0.0,,,,21.0,,,,Fail,,,,,
144.0,16.0,wc_16,wc_12,0.0,"[('wc_12', 0.7200000000000005), ('wc_16', 0.8700000000000007)]",0.9636000000000002,,,24.0,0.005783,['Fail'],Fail,0.7200000000000005,-0.5200000000000005,1.0,5.0,0.6
144.0,16.0,wc_16,,0.0,,,,0.0,,,,Fail,,,,,
144.0,16.0,wc_16,wc_13,0.0,"[('wc_16', 0.8700000000000007), ('wc_12', 0.7200000000000005)]",0.9636000000000002,,,28.0,0.007857999999999999,['Fail'],Fail,0.2900000000000001,-0.2900000000000001,0.0,5.0,0.1
144.0,16.0,wc_16,,0.0,,,,0.0,,,,Fail,,,,,
144.0,16.0,wc_16,wc_14,1.0,"[('wc_14', 0.9900000000000008), ('wc_16', 0.8700000000000007), ('wc_12', 0.7200000000000005)]",0.9996360000000001,,,31.0,0.043075999999999996,['Fail'],Fail,0.9900000000000008,0.009999999999999232,6.0,6.0,0.9
148.0,14.0,wc_14,,0.0,,,,0.0,,,,Fail,,,,,
148.0,14.0,wc_14,,0.0,,,80.0,,,,,Fail,,,,,
148.0,14.0,wc_14,,0.0,,,,0.0,,,,Fail,,,,,
148.0,14.0,wc_14,wc_14,0.0,"[('wc_14', 0.9900000000000008)]",0.9900000000000008,,,32.0,0.002037,['Fail'],Fail,0.9900000000000008,0.009999999999999232,6.0,6.0,0.9
148.0,14.0,wc_14,,0.0,,,,0.0,,,,Fail,,,,,
148.0,14.0,wc_14,wc_15,0.0,"[('wc_15', 0.9700000000000008), ('wc_14', 0.9900000000000008)]",0.9997,,,38.0,0.004035,['Fail'],Fail,0.9700000000000008,-0.1700000000000007,4.0,5.0,0.8
148.0,14.0,wc_14,,0.0,,,,0.0,,,,Fail,,,,,
148.0,14.0,wc_14,wc_16,1.0,"[('wc_16', 0.8700000000000007), ('wc_14', 0.9900000000000008), ('wc_15', 0.9700000000000008)]",0.999961,,,32.0,0.039700000000000006,['Fail'],Fail,0.8700000000000007,0.12999999999999934,5.0,5.0,1.0
152.0,16.0,wc_16,,0.0,,,,0.0,,,,Fail,,,,,
152.0,16.0,wc_16,,0.0,,,69.0,,,,,Fail,,,,,
152.0,16.0,wc_16,,0.0,,,,0.0,,,,Fail,,,,,
152.0,16.0,wc_16,wc_16,0.0,"[('wc_16', 0.8700000000000007)]",0.8700000000000007,,,40.0,0.002301,['Fail'],Fail,0.8700000000000007,0.12999999999999934,5.0,5.0,1.0
152.0,16.0,wc_16,,0.0,,,,0.0,,,,Fail,,,,,
152.0,16.0,wc_16,wc_17,0.0,"[('wc_16', 0.8700000000000007)]",0.8700000000000007,,,35.0,0.00401,['Fail'],Fail,0.4100000000000003,-0.4100000000000003,0.0,3.0,0.1
152.0,16.0,wc_16,,0.0,,,,21.0,,,,Fail,,,,,
152.0,16.0,wc_16,wc_12,0.0,"[('wc_12', 0.7200000000000005), ('wc_16', 0.8700000000000007)]",0.9636000000000002,,,28.0,0.006574,['Fail'],Fail,0.7200000000000005,-0.43428571428571483,2.0,7.0,0.6
152.0,16.0,wc_16,,0.0,,,,0.0,,,,Fail,,,,,
152.0,16.0,wc_16,wc_13,0.0,"[('wc_16', 0.8700000000000007), ('wc_12', 0.7200000000000005)]",0.9636000000000002,,,35.0,0.008502,['Fail'],Fail,0.2900000000000001,-0.2900000000000001,0.0,7.0,0.1
152.0,16.0,wc_16,,0.0,,,,0.0,,,,Fail,,,,,
152.0,16.0,wc_16,wc_14,1.0,"[('wc_14', 0.9900000000000008), ('wc_16', 0.8700000000000007), ('wc_12', 0.7200000000000005)]",0.9996360000000001,,,33.0,0.045291000000000005,['Fail'],Fail,0.9900000000000008,0.009999999999999232,8.0,8.0,0.9
155.0,15.0,wc_15,,0.0,,,,0.0,,,,Fail,,,,,
155.0,15.0,wc_15,,0.0,,,60.0,,,,,Fail,,,,,
155.0,15.0,wc_15,,0.0,,,,0.0,,,,Fail,,,,,
155.0,15.0,wc_15,wc_15,0.0,"[('wc_15', 0.9700000000000008)]",0.9700000000000008,,,28.0,0.003276,['Fail'],Fail,0.9700000000000008,-0.25571428571428645,5.0,7.0,0.8
155.0,15.0,wc_15,,0.0,,,,0.0,,,,Fail,,,,,
155.0,15.0,wc_15,wc_16,0.0,"[('wc_16', 0.8700000000000007), ('wc_15', 0.9700000000000008)]",0.9961000000000001,,,39.0,0.004702,['Fail'],Fail,0.8700000000000007,0.12999999999999934,6.0,6.0,1.0
155.0,15.0,wc_15,,0.0,,,,0.0,,,,Fail,,,,,
155.0,15.0,wc_15,wc_17,1.0,"[('wc_17', 0.4100000000000003), ('wc_15', 0.9700000000000008), ('wc_16', 0.8700000000000007)]",0.9976990000000001,,,31.0,0.043265,['Fail'],Fail,0.4100000000000003,-0.2100000000000003,1.0,5.0,0.1
157.0,15.0,wc_15,,0.0,,,,83.0,,,,Pass,,,,,
157.0,15.0,wc_15,,0.0,,,51.0,,,,,Pass,,,,,
157.0,15.0,wc_15,,0.0,,,,0.0,,,,Pass,,,,,
157.0,15.0,wc_15,wc_15,0.0,"[('wc_15', 0.9700000000000008)]",0.9700000000000008,,,27.0,0.002417,['Pass'],Pass,0.9700000000000008,-0.22000000000000075,6.0,8.0,0.8
157.0,15.0,wc_15,,0.0,,,,0.0,,,,Pass,,,,,
157.0,15.0,wc_15,wc_16,0.0,"[('wc_16', 0.8700000000000007), ('wc_15', 0.9700000000000008)]",0.9961000000000001,,,38.0,0.003849,['Pass'],Pass,0.8700000000000007,0.12999999999999934,7.0,7.0,1.0
157.0,15.0,wc_15,,0.0,,,,0.0,,,,Pass,,,,,
157.0,15.0,wc_15,wc_17,1.0,"[('wc_17', 0.4100000000000003), ('wc_15', 0.9700000000000008), ('wc_16', 0.8700000000000007)]",0.9976990000000001,,,23.0,0.043849,['Pass'],Pass,0.4100000000000003,-0.076666666666667,2.0,6.0,0.1
160.0,14.0,wc_14,,0.0,,,,61.0,,,,Pass,,,,,
160.0,14.0,wc_14,,0.0,,,76.0,,,,,Pass,,,,,
160.0,14.0,wc_14,,0.0,,,,0.0,,,,Pass,,,,,
160.0,14.0,wc_14,wc_14,0.0,"[('wc_14', 0.9900000000000008)]",0.9900000000000008,,,25.0,0.002094,['Pass'],Pass,0.9900000000000008,-0.19000000000000072,0.0,0.0,0.9
160.0,14.0,wc_14,,0.0,,,,0.0,,,,Pass,,,,,
160.0,14.0,wc_14,wc_15,0.0,"[('wc_15', 0.9700000000000008), ('wc_14', 0.9900000000000008)]",0.9997,,,25.0,0.004089,['Pass'],Pass,0.9700000000000008,-0.19222222222222296,7.0,9.0,0.8
160.0,14.0,wc_14,,0.0,,,,0.0,,,,Pass,,,,,
160.0,14.0,wc_14,wc_16,1.0,"[('wc_16', 0.8700000000000007), ('wc_14', 0.9900000000000008), ('wc_15', 0.9700000000000008)]",0.999961,,,23.0,0.039570999999999995,['Pass'],Pass,0.8700000000000007,0.12999999999999934,9.0,9.0,1.0
164.0,16.0,wc_16,,0.0,,,,0.0,,,,Fail,,,,,
164.0,16.0,wc_16,,0.0,,,74.0,,,,,Fail,,,,,
164.0,16.0,wc_16,,0.0,,,,0.0,,,,Fail,,,,,
164.0,16.0,wc_16,wc_16,0.0,"[('wc_16', 0.8700000000000007)]",0.8700000000000007,,,31.0,0.004287,['Fail'],Fail,0.8700000000000007,0.12999999999999934,9.0,9.0,1.0
164.0,16.0,wc_16,,0.0,,,,0.0,,,,Fail,,,,,
164.0,16.0,wc_16,wc_17,0.0,"[('wc_16', 0.8700000000000007)]",0.8700000000000007,,,40.0,0.004316,['Fail'],Fail,0.4100000000000003,-0.12428571428571461,2.0,7.0,0.1
164.0,16.0,wc_16,,0.0,,,,21.0,,,,Fail,,,,,
164.0,16.0,wc_16,wc_12,0.0,"[('wc_12', 0.7200000000000005), ('wc_16', 0.8700000000000007)]",0.9636000000000002,,,35.0,0.005907,['Fail'],Fail,0.7200000000000005,-0.4472727272727278,0.0,0.0,0.6
164.0,16.0,wc_16,,0.0,,,,0.0,,,,Fail,,,,,
164.0,16.0,wc_16,wc_13,1.0,"[('wc_13', 0.2900000000000001), ('wc_16', 0.8700000000000007), ('wc_12', 0.7200000000000005)]",0.9741560000000001,,,31.0,0.042029000000000004,['Fail'],Fail,0.2900000000000001,-0.20666666666666678,0.0,0.0,0.1
167.0,16.0,wc_16,,0.0,,,,0.0,,,,Pass,,,,,
167.0,16.0,wc_16,,0.0,,,54.0,,,,,Pass,,,,,
167.0,16.0,wc_16,,0.0,,,,0.0,,,,Pass,,,,,
167.0,16.0,wc_16,wc_16,0.0,"[('wc_16', 0.8700000000000007)]",0.8700000000000007,,,38.0,0.001943,['Pass'],Pass,0.8700000000000007,0.12999999999999934,0.0,0.0,1.0
167.0,16.0,wc_16,,0.0,,,,0.0,,,,Pass,,,,,
167.0,16.0,wc_16,wc_17,0.0,"[('wc_16', 0.8700000000000007)]",0.8700000000000007,,,28.0,0.003882,['Pass'],Pass,0.4100000000000003,-0.1600000000000003,2.0,8.0,0.1
167.0,16.0,wc_16,,0.0,,,,21.0,,,,Pass,,,,,
167.0,16.0,wc_16,wc_12,0.0,"[('wc_16', 0.8700000000000007)]",0.8700000000000007,,,32.0,0.007189000000000001,['Pass'],Pass,0.7200000000000005,0.27999999999999947,1.0,1.0,0.6
167.0,16.0,wc_16,,0.0,,,,0.0,,,,Pass,,,,,
167.0,16.0,wc_16,wc_13,0.0,"[('wc_13', 0.2900000000000001), ('wc_16', 0.8700000000000007)]",0.9077000000000005,,,39.0,0.008496,['Pass'],Pass,0.2900000000000001,-0.2900000000000001,0.0,0.0,0.1
167.0,16.0,wc_16,,0.0,,,,0.0,,,,Pass,,,,,
167.0,16.0,wc_16,wc_14,1.0,"[('wc_14', 0.9900000000000008), ('wc_16', 0.8700000000000007), ('wc_13', 0.2900000000000001)]",0.9990770000000001,,,36.0,0.042746,['Pass'],Pass,0.9900000000000008,-0.32333333333333414,2.0,3.0,0.9
171.0,17.0,wc_17,,0.0,,,,0.0,,,,Pass,,,,,
171.0,17.0,wc_17,,0.0,,,58.0,,,,,Pass,,,,,
171.0,17.0,wc_17,,0.0,,,,0.0,,,,Pass,,,,,
171.0,17.0,wc_17,wc_17,0.0,"[('wc_17', 0.4100000000000003)]",0.41000000000000036,,,29.0,0.002126,['Fail'],Pass,0.4100000000000003,-0.1877777777777781,2.0,9.0,0.1
171.0,17.0,wc_17,,0.0,,,,21.0,,,,Pass,,,,,
171.0,17.0,wc_17,wc_12,0.0,"[('wc_12', 0.7200000000000005)]",0.7200000000000005,,,33.0,0.00394,['Pass'],Pass,0.7200000000000005,-0.22000000000000053,1.0,2.0,0.6
171.0,17.0,wc_17,,0.0,,,,0.0,,,,Pass,,,,,
171.0,17.0,wc_17,wc_13,0.0,"[('wc_12', 0.7200000000000005)]",0.7200000000000005,,,36.0,0.005678,['Pass'],Pass,0.2900000000000001,0.71,1.0,1.0,0.1
171.0,17.0,wc_17,,0.0,,,,0.0,,,,Pass,,,,,
171.0,17.0,wc_17,wc_14,0.0,"[('wc_14', 0.9900000000000008), ('wc_12', 0.7200000000000005)]",0.9972000000000002,,,39.0,0.0077139999999999995,['Pass'],Pass,0.9900000000000008,-0.32333333333333414,2.0,3.0,0.9
171.0,17.0,wc_17,,0.0,,,,0.0,,,,Pass,,,,,
171.0,17.0,wc_17,wc_15,0.0,"[('wc_12', 0.7200000000000005), ('wc_14', 0.9900000000000008)]",0.9972000000000002,,,28.0,0.010646,['Pass'],Pass,0.9700000000000008,-0.3033333333333341,0.0,0.0,0.8
171.0,17.0,wc_17,,0.0,,,,0.0,,,,Pass,,,,,
171.0,17.0,wc_17,wc_16,1.0,"[('wc_16', 0.8700000000000007), ('wc_12', 0.7200000000000005), ('wc_14', 0.9900000000000008)]",0.9996360000000001,,,26.0,0.046834,['Pass'],Pass,0.8700000000000007,0.12999999999999934,2.0,2.0,1.0
