mpecck/BCQC/bcqc_with_qdt/results/raw/input_20/independent_qc/score/New Folder/20200429_105847/wp_3_qc_majority_0.9.csv
production_index,step_idx,production_workcell,qc,consent,winner_qc_list,score,production_time,transport_time,inspection_time,network_time,qc_results,actual_quality,qc_score,score_error,in_winner_counter,in_qc_counter,qc_capability
3.0,1.0,wc_1,,0.0,,,77.0,,,,,Fail,,,,,
3.0,1.0,wc_1,,0.0,,,,0.0,,,,Fail,,,,,
3.0,1.0,wc_1,wc_1,0.0,"[('wc_1', 0.18)]",0.17999999999999994,,,31.0,0.002091,['Fail'],Fail,0.18,-0.001428571428571418,0.0,0.0,0.1
3.0,1.0,wc_1,,0.0,,,,0.0,,,,Fail,,,,,
3.0,1.0,wc_1,wc_2,0.0,"[('wc_2', 0.8700000000000007)]",0.8700000000000007,,,35.0,0.005142,['Pass'],Fail,0.8700000000000007,-0.5485714285714292,0.0,0.0,0.9
3.0,1.0,wc_1,,0.0,,,,0.0,,,,Fail,,,,,
3.0,1.0,wc_1,wc_3,0.0,"[('wc_2', 0.8700000000000007)]",0.8700000000000007,,,26.0,0.011921,['Pass'],Fail,0.5400000000000004,-0.36142857142857177,0.0,0.0,0.6
3.0,1.0,wc_1,,0.0,,,,0.0,,,,Fail,,,,,
3.0,1.0,wc_1,wc_4,0.0,"[('wc_2', 0.8700000000000007)]",0.8700000000000007,,,38.0,0.007572,['Pass'],Fail,0.5000000000000003,-0.28571428571428603,0.0,0.0,0.4
3.0,1.0,wc_1,,0.0,,,,0.0,,,,Fail,,,,,
3.0,1.0,wc_1,wc_5,0.0,"[('wc_2', 0.8700000000000007)]",0.8700000000000007,,,26.0,0.013374999999999998,['Pass'],Fail,0.18,-0.07285714285714286,0.0,0.0,0.1
3.0,1.0,wc_1,,0.0,,,,61.0,,,,Fail,,,,,
3.0,1.0,wc_1,wc_6,0.0,"[('wc_6', 0.3900000000000001), ('wc_2', 0.8700000000000007)]",0.9207000000000004,,,21.0,0.013578,['Pass'],Fail,0.3900000000000001,-0.2650000000000001,0.0,0.0,0.3
3.0,1.0,wc_1,,0.0,,,,0.0,,,,Fail,,,,,
3.0,1.0,wc_1,wc_7,1.0,"[('wc_7', 0.9900000000000008), ('wc_1', 0.18), ('wc_3', 0.5400000000000004), ('wc_4', 0.5000000000000003), ('wc_5', 0.18)]",0.9984534800000001,,,34.0,0.050447,['Fail'],Fail,0.9900000000000008,-0.754705882352942,0.0,0.0,0.9
11.0,1.0,wc_1,,0.0,,,,182.0,,,,Fail,,,,,
11.0,1.0,wc_1,,0.0,,,53.0,,,,,Fail,,,,,
11.0,1.0,wc_1,,0.0,,,,0.0,,,,Fail,,,,,
11.0,1.0,wc_1,wc_1,0.0,"[('wc_1', 0.18)]",0.17999999999999994,,,26.0,0.00243,['Fail'],Fail,0.18,0.8200000000000001,1.0,1.0,0.1
11.0,1.0,wc_1,,0.0,,,,0.0,,,,Fail,,,,,
11.0,1.0,wc_1,wc_2,0.0,"[('wc_2', 0.8700000000000007), ('wc_1', 0.18)]",0.8934000000000005,,,20.0,0.004139,['Fail'],Fail,0.8700000000000007,-0.8700000000000007,0.0,1.0,0.9
11.0,1.0,wc_1,,0.0,,,,0.0,,,,Fail,,,,,
11.0,1.0,wc_1,wc_3,1.0,"[('wc_3', 0.5400000000000004), ('wc_1', 0.18), ('wc_2', 0.8700000000000007)]",0.9509640000000003,,,28.0,0.04958799999999999,['Fail'],Fail,0.5400000000000004,0.45999999999999963,2.0,2.0,0.6
19.0,1.0,wc_1,,0.0,,,,81.0,,,,Pass,,,,,
19.0,1.0,wc_1,,0.0,,,64.0,,,,,Pass,,,,,
19.0,1.0,wc_1,,0.0,,,,0.0,,,,Pass,,,,,
19.0,1.0,wc_1,wc_1,0.0,"[('wc_1', 0.18)]",0.17999999999999994,,,39.0,0.002351,['Pass'],Pass,0.18,0.8200000000000001,2.0,2.0,0.1
19.0,1.0,wc_1,,0.0,,,,0.0,,,,Pass,,,,,
19.0,1.0,wc_1,wc_2,0.0,"[('wc_2', 0.8700000000000007), ('wc_1', 0.18)]",0.8934000000000005,,,34.0,0.005536,['Pass'],Pass,0.8700000000000007,-0.37000000000000066,1.0,2.0,0.9
19.0,1.0,wc_1,,0.0,,,,0.0,,,,Pass,,,,,
19.0,1.0,wc_1,wc_3,1.0,"[('wc_3', 0.5400000000000004), ('wc_1', 0.18), ('wc_2', 0.8700000000000007)]",0.9509640000000003,,,26.0,0.043609,['Pass'],Pass,0.5400000000000004,0.45999999999999963,3.0,3.0,0.6
23.0,3.0,wc_3,,0.0,,,,0.0,,,,Fail,,,,,
23.0,3.0,wc_3,,0.0,,,58.0,,,,,Fail,,,,,
23.0,3.0,wc_3,,0.0,,,,0.0,,,,Fail,,,,,
23.0,3.0,wc_3,wc_3,0.0,"[('wc_3', 0.5400000000000004)]",0.5400000000000004,,,23.0,0.002424,['Fail'],Fail,0.5400000000000004,0.45999999999999963,3.0,3.0,0.6
23.0,3.0,wc_3,,0.0,,,,0.0,,,,Fail,,,,,
23.0,3.0,wc_3,wc_4,0.0,"[('wc_4', 0.5000000000000003), ('wc_3', 0.5400000000000004)]",0.7700000000000004,,,36.0,0.0044399999999999995,['Fail'],Fail,0.5000000000000003,-0.16666666666666702,1.0,3.0,0.4
23.0,3.0,wc_3,,0.0,,,,0.0,,,,Fail,,,,,
23.0,3.0,wc_3,wc_5,0.0,"[('wc_5', 0.18), ('wc_3', 0.5400000000000004), ('wc_4', 0.5000000000000003)]",0.8114000000000003,,,37.0,0.01275,['Fail'],Fail,0.18,0.15333333333333332,1.0,3.0,0.1
23.0,3.0,wc_3,,0.0,,,,41.0,,,,Fail,,,,,
23.0,3.0,wc_3,wc_1,0.0,"[('wc_3', 0.5400000000000004), ('wc_4', 0.5000000000000003), ('wc_5', 0.18)]",0.8114000000000002,,,32.0,0.007654,['Fail'],Fail,0.18,0.8200000000000001,3.0,3.0,0.1
23.0,3.0,wc_3,,0.0,,,,0.0,,,,Fail,,,,,
23.0,3.0,wc_3,wc_2,1.0,"[('wc_2', 0.8700000000000007), ('wc_3', 0.5400000000000004), ('wc_4', 0.5000000000000003), ('wc_5', 0.18)]",0.9754820000000002,,,28.0,0.040826999999999995,['Fail'],Fail,0.8700000000000007,-0.12000000000000066,3.0,4.0,0.9
28.0,3.0,wc_3,,0.0,,,,0.0,,,,Fail,,,,,
28.0,3.0,wc_3,,0.0,,,66.0,,,,,Fail,,,,,
28.0,3.0,wc_3,,0.0,,,,0.0,,,,Fail,,,,,
28.0,3.0,wc_3,wc_3,0.0,"[('wc_3', 0.5400000000000004)]",0.5400000000000004,,,30.0,0.002379,['Fail'],Fail,0.5400000000000004,0.45999999999999963,4.0,4.0,0.6
28.0,3.0,wc_3,,0.0,,,,0.0,,,,Fail,,,,,
28.0,3.0,wc_3,wc_4,0.0,"[('wc_3', 0.5400000000000004)]",0.5400000000000004,,,25.0,0.0049110000000000004,['Fail'],Fail,0.5000000000000003,-3.3306690738754696e-16,2.0,4.0,0.4
28.0,3.0,wc_3,,0.0,,,,0.0,,,,Fail,,,,,
28.0,3.0,wc_3,wc_5,0.0,"[('wc_5', 0.18), ('wc_3', 0.5400000000000004)]",0.6228000000000002,,,36.0,0.0056,['Fail'],Fail,0.18,0.32,2.0,4.0,0.1
28.0,3.0,wc_3,,0.0,,,,41.0,,,,Fail,,,,,
28.0,3.0,wc_3,wc_1,0.0,"[('wc_1', 0.18), ('wc_3', 0.5400000000000004), ('wc_5', 0.18)]",0.6906960000000002,,,27.0,0.010939999999999998,['Fail'],Fail,0.18,0.5700000000000001,3.0,4.0,0.1
28.0,3.0,wc_3,,0.0,,,,0.0,,,,Fail,,,,,
28.0,3.0,wc_3,wc_2,1.0,"[('wc_2', 0.8700000000000007), ('wc_3', 0.5400000000000004), ('wc_5', 0.18), ('wc_1', 0.18)]",0.9597904800000002,,,20.0,0.044176999999999994,['Fail'],Fail,0.8700000000000007,-0.07000000000000062,4.0,5.0,0.9
32.0,3.0,wc_3,,0.0,,,,0.0,,,,Fail,,,,,
32.0,3.0,wc_3,,0.0,,,59.0,,,,,Fail,,,,,
32.0,3.0,wc_3,,0.0,,,,0.0,,,,Fail,,,,,
32.0,3.0,wc_3,wc_3,0.0,"[('wc_3', 0.5400000000000004)]",0.5400000000000004,,,36.0,0.004475,['Fail'],Fail,0.5400000000000004,0.45999999999999963,5.0,5.0,0.6
32.0,3.0,wc_3,,0.0,,,,0.0,,,,Fail,,,,,
32.0,3.0,wc_3,wc_4,0.0,"[('wc_4', 0.5000000000000003), ('wc_3', 0.5400000000000004)]",0.7700000000000004,,,32.0,0.004087,['Fail'],Fail,0.5000000000000003,-0.10000000000000031,2.0,5.0,0.4
32.0,3.0,wc_3,,0.0,,,,0.0,,,,Fail,,,,,
32.0,3.0,wc_3,wc_5,0.0,"[('wc_3', 0.5400000000000004), ('wc_4', 0.5000000000000003)]",0.7700000000000004,,,29.0,0.006139,['Fail'],Fail,0.18,0.42,3.0,5.0,0.1
32.0,3.0,wc_3,,0.0,,,,41.0,,,,Fail,,,,,
32.0,3.0,wc_3,wc_1,0.0,"[('wc_1', 0.18), ('wc_3', 0.5400000000000004), ('wc_4', 0.5000000000000003)]",0.8114000000000003,,,24.0,0.0075250000000000004,['Fail'],Fail,0.18,0.6200000000000001,4.0,5.0,0.1
32.0,3.0,wc_3,,0.0,,,,0.0,,,,Fail,,,,,
32.0,3.0,wc_3,wc_2,1.0,"[('wc_2', 0.8700000000000007), ('wc_3', 0.5400000000000004), ('wc_4', 0.5000000000000003), ('wc_1', 0.18)]",0.9754820000000002,,,28.0,0.06139,['Fail'],Fail,0.8700000000000007,-0.03666666666666729,5.0,6.0,0.9
37.0,3.0,wc_3,,0.0,,,,0.0,,,,Fail,,,,,
37.0,3.0,wc_3,,0.0,,,72.0,,,,,Fail,,,,,
37.0,3.0,wc_3,,0.0,,,,0.0,,,,Fail,,,,,
37.0,3.0,wc_3,wc_3,0.0,"[('wc_3', 0.5400000000000004)]",0.5400000000000004,,,20.0,0.00224,['Fail'],Fail,0.5400000000000004,0.45999999999999963,6.0,6.0,0.6
37.0,3.0,wc_3,,0.0,,,,0.0,,,,Fail,,,,,
37.0,3.0,wc_3,wc_4,0.0,"[('wc_4', 0.5000000000000003), ('wc_3', 0.5400000000000004)]",0.7700000000000004,,,24.0,0.0047740000000000005,['Fail'],Fail,0.5000000000000003,-3.3306690738754696e-16,3.0,6.0,0.4
37.0,3.0,wc_3,,0.0,,,,0.0,,,,Fail,,,,,
37.0,3.0,wc_3,wc_5,0.0,"[('wc_5', 0.18), ('wc_3', 0.5400000000000004), ('wc_4', 0.5000000000000003)]",0.8114000000000003,,,27.0,0.0059689999999999995,['Fail'],Fail,0.18,0.32,3.0,6.0,0.1
37.0,3.0,wc_3,,0.0,,,,41.0,,,,Fail,,,,,
37.0,3.0,wc_3,wc_1,0.0,"[('wc_3', 0.5400000000000004), ('wc_4', 0.5000000000000003), ('wc_5', 0.18)]",0.8114000000000002,,,37.0,0.007731,['Fail'],Fail,0.18,0.6533333333333333,5.0,6.0,0.1
37.0,3.0,wc_3,,0.0,,,,0.0,,,,Fail,,,,,
37.0,3.0,wc_3,wc_2,1.0,"[('wc_2', 0.8700000000000007), ('wc_3', 0.5400000000000004), ('wc_4', 0.5000000000000003), ('wc_5', 0.18)]",0.9754820000000002,,,39.0,0.052556,['Fail'],Fail,0.8700000000000007,-0.012857142857143566,6.0,7.0,0.9
41.0,2.0,wc_2,,0.0,,,,0.0,,,,Fail,,,,,
41.0,2.0,wc_2,,0.0,,,59.0,,,,,Fail,,,,,
41.0,2.0,wc_2,,0.0,,,,0.0,,,,Fail,,,,,
41.0,2.0,wc_2,wc_2,0.0,"[('wc_2', 0.8700000000000007)]",0.8700000000000007,,,22.0,0.002206,['Pass'],Fail,0.8700000000000007,-0.012857142857143566,6.0,7.0,0.9
41.0,2.0,wc_2,,0.0,,,,0.0,,,,Fail,,,,,
41.0,2.0,wc_2,wc_3,0.0,"[('wc_3', 0.5400000000000004), ('wc_2', 0.8700000000000007)]",0.9402000000000004,,,33.0,0.006991000000000001,['Pass'],Fail,0.5400000000000004,0.45999999999999963,7.0,7.0,0.6
41.0,2.0,wc_2,,0.0,,,,0.0,,,,Fail,,,,,
41.0,2.0,wc_2,wc_4,0.0,"[('wc_2', 0.8700000000000007), ('wc_3', 0.5400000000000004)]",0.9402000000000004,,,34.0,0.006789999999999999,['Pass'],Fail,0.5000000000000003,0.07142857142857106,4.0,7.0,0.4
41.0,2.0,wc_2,,0.0,,,,0.0,,,,Fail,,,,,
41.0,2.0,wc_2,wc_5,0.0,"[('wc_2', 0.8700000000000007), ('wc_3', 0.5400000000000004)]",0.9402000000000004,,,28.0,0.009427000000000001,['Pass'],Fail,0.18,0.3914285714285714,4.0,7.0,0.1
41.0,2.0,wc_2,,0.0,,,,41.0,,,,Fail,,,,,
41.0,2.0,wc_2,wc_1,0.0,"[('wc_2', 0.8700000000000007), ('wc_3', 0.5400000000000004)]",0.9402000000000004,,,29.0,0.009196,['Pass'],Fail,0.18,0.5342857142857143,5.0,7.0,0.1
41.0,2.0,wc_2,,0.0,,,,142.0,,,,Fail,,,,,
41.0,2.0,wc_2,wc_6,1.0,"[('wc_6', 0.3900000000000001), ('wc_2', 0.8700000000000007), ('wc_3', 0.5400000000000004)]",0.9635220000000002,,,27.0,0.045471,['Pass'],Fail,0.3900000000000001,-0.2650000000000001,1.0,8.0,0.3
46.0,4.0,wc_4,,0.0,,,,341.0,,,,Pass,,,,,
46.0,4.0,wc_4,,0.0,,,67.0,,,,,Pass,,,,,
46.0,4.0,wc_4,,0.0,,,,0.0,,,,Pass,,,,,
46.0,4.0,wc_4,wc_4,0.0,"[('wc_4', 0.5000000000000003)]",0.5000000000000003,,,28.0,0.003374,['Pass'],Pass,0.5000000000000003,-3.3306690738754696e-16,4.0,8.0,0.4
46.0,4.0,wc_4,,0.0,,,,0.0,,,,Pass,,,,,
46.0,4.0,wc_4,wc_5,0.0,"[('wc_4', 0.5000000000000003)]",0.5000000000000003,,,26.0,0.0057020000000000005,['Pass'],Pass,0.18,0.32,4.0,8.0,0.1
46.0,4.0,wc_4,,0.0,,,,41.0,,,,Pass,,,,,
46.0,4.0,wc_4,wc_1,0.0,"[('wc_4', 0.5000000000000003)]",0.5000000000000003,,,31.0,0.0059499999999999996,['Pass'],Pass,0.18,0.445,5.0,8.0,0.1
46.0,4.0,wc_4,,0.0,,,,0.0,,,,Pass,,,,,
46.0,4.0,wc_4,wc_2,0.0,"[('wc_2', 0.8700000000000007), ('wc_4', 0.5000000000000003)]",0.9350000000000004,,,32.0,0.007244,['Pass'],Pass,0.8700000000000007,0.004999999999999338,7.0,8.0,0.9
46.0,4.0,wc_4,,0.0,,,,0.0,,,,Pass,,,,,
46.0,4.0,wc_4,wc_3,1.0,"[('wc_3', 0.5400000000000004), ('wc_4', 0.5000000000000003), ('wc_2', 0.8700000000000007)]",0.9701000000000002,,,32.0,0.043637999999999996,['Pass'],Pass,0.5400000000000004,0.45999999999999963,9.0,9.0,0.6
50.0,3.0,wc_3,,0.0,,,,0.0,,,,Fail,,,,,
50.0,3.0,wc_3,,0.0,,,63.0,,,,,Fail,,,,,
50.0,3.0,wc_3,,0.0,,,,0.0,,,,Fail,,,,,
50.0,3.0,wc_3,wc_3,0.0,"[('wc_3', 0.5400000000000004)]",0.5400000000000004,,,37.0,0.002796,['Fail'],Fail,0.5400000000000004,0.45999999999999963,9.0,9.0,0.6
50.0,3.0,wc_3,,0.0,,,,0.0,,,,Fail,,,,,
50.0,3.0,wc_3,wc_4,0.0,"[('wc_4', 0.5000000000000003), ('wc_3', 0.5400000000000004)]",0.7700000000000004,,,38.0,0.004818,['Fail'],Fail,0.5000000000000003,0.05555555555555525,5.0,9.0,0.4
50.0,3.0,wc_3,,0.0,,,,0.0,,,,Fail,,,,,
50.0,3.0,wc_3,wc_5,0.0,"[('wc_3', 0.5400000000000004), ('wc_4', 0.5000000000000003)]",0.7700000000000004,,,24.0,0.00588,['Fail'],Fail,0.18,0.2644444444444444,4.0,9.0,0.1
50.0,3.0,wc_3,,0.0,,,,41.0,,,,Fail,,,,,
50.0,3.0,wc_3,wc_1,0.0,"[('wc_3', 0.5400000000000004), ('wc_4', 0.5000000000000003)]",0.7700000000000004,,,32.0,0.007968,['Fail'],Fail,0.18,0.3755555555555556,5.0,9.0,0.1
50.0,3.0,wc_3,,0.0,,,,0.0,,,,Fail,,,,,
50.0,3.0,wc_3,wc_2,1.0,"[('wc_2', 0.8700000000000007), ('wc_3', 0.5400000000000004), ('wc_4', 0.5000000000000003)]",0.9701000000000002,,,31.0,0.050127000000000005,['Fail'],Fail,0.8700000000000007,0.02999999999999936,0.0,0.0,0.9
53.0,2.0,wc_2,,0.0,,,,0.0,,,,Fail,,,,,
53.0,2.0,wc_2,,0.0,,,55.0,,,,,Fail,,,,,
53.0,2.0,wc_2,,0.0,,,,0.0,,,,Fail,,,,,
53.0,2.0,wc_2,wc_2,0.0,"[('wc_2', 0.8700000000000007)]",0.8700000000000007,,,22.0,0.002075,['Fail'],Fail,0.8700000000000007,-0.8700000000000007,0.0,0.0,0.9
53.0,2.0,wc_2,,0.0,,,,0.0,,,,Fail,,,,,
53.0,2.0,wc_2,wc_3,0.0,"[('wc_3', 0.5400000000000004), ('wc_2', 0.8700000000000007)]",0.9402000000000004,,,29.0,0.005312,['Fail'],Fail,0.5400000000000004,0.45999999999999963,0.0,0.0,0.6
53.0,2.0,wc_2,,0.0,,,,0.0,,,,Fail,,,,,
53.0,2.0,wc_2,wc_4,0.0,"[('wc_2', 0.8700000000000007), ('wc_3', 0.5400000000000004)]",0.9402000000000004,,,36.0,0.006108,['Fail'],Fail,0.5000000000000003,0.09999999999999964,0.0,0.0,0.4
53.0,2.0,wc_2,,0.0,,,,0.0,,,,Fail,,,,,
53.0,2.0,wc_2,wc_5,0.0,"[('wc_2', 0.8700000000000007), ('wc_3', 0.5400000000000004)]",0.9402000000000004,,,26.0,0.011031,['Fail'],Fail,0.18,0.22000000000000003,0.0,0.0,0.1
53.0,2.0,wc_2,,0.0,,,,41.0,,,,Fail,,,,,
53.0,2.0,wc_2,wc_1,1.0,"[('wc_1', 0.18), ('wc_2', 0.8700000000000007), ('wc_3', 0.5400000000000004)]",0.9509640000000003,,,31.0,0.044108,['Fail'],Fail,0.18,0.3654545454545454,0.0,0.0,0.1
56.0,2.0,wc_2,,0.0,,,,0.0,,,,Pass,,,,,
56.0,2.0,wc_2,,0.0,,,57.0,,,,,Pass,,,,,
56.0,2.0,wc_2,,0.0,,,,0.0,,,,Pass,,,,,
56.0,2.0,wc_2,wc_2,0.0,"[('wc_2', 0.8700000000000007)]",0.8700000000000007,,,39.0,0.002167,['Pass'],Pass,0.8700000000000007,0.12999999999999934,1.0,1.0,0.9
56.0,2.0,wc_2,,0.0,,,,0.0,,,,Pass,,,,,
56.0,2.0,wc_2,wc_3,0.0,"[('wc_3', 0.5400000000000004), ('wc_2', 0.8700000000000007)]",0.9402000000000004,,,24.0,0.004051,['Pass'],Pass,0.5400000000000004,0.45999999999999963,1.0,1.0,0.6
56.0,2.0,wc_2,,0.0,,,,0.0,,,,Pass,,,,,
56.0,2.0,wc_2,wc_4,1.0,"[('wc_4', 0.5000000000000003), ('wc_2', 0.8700000000000007), ('wc_3', 0.5400000000000004)]",0.9701000000000002,,,21.0,0.040690000000000004,['Pass'],Pass,0.5000000000000003,-3.3306690738754696e-16,1.0,2.0,0.4
59.0,3.0,wc_3,,0.0,,,,103.0,,,,Pass,,,,,
59.0,3.0,wc_3,,0.0,,,55.0,,,,,Pass,,,,,
59.0,3.0,wc_3,,0.0,,,,0.0,,,,Pass,,,,,
59.0,3.0,wc_3,wc_3,0.0,"[('wc_3', 0.5400000000000004)]",0.5400000000000004,,,33.0,0.002648,['Pass'],Pass,0.5400000000000004,0.45999999999999963,2.0,2.0,0.6
59.0,3.0,wc_3,,0.0,,,,0.0,,,,Pass,,,,,
59.0,3.0,wc_3,wc_4,0.0,"[('wc_4', 0.5000000000000003), ('wc_3', 0.5400000000000004)]",0.7700000000000004,,,35.0,0.00516,['Pass'],Pass,0.5000000000000003,-3.3306690738754696e-16,1.0,2.0,0.4
59.0,3.0,wc_3,,0.0,,,,0.0,,,,Pass,,,,,
59.0,3.0,wc_3,wc_5,0.0,"[('wc_5', 0.18), ('wc_3', 0.5400000000000004), ('wc_4', 0.5000000000000003)]",0.8114000000000003,,,26.0,0.006569,['Pass'],Pass,0.18,-0.18,0.0,2.0,0.1
59.0,3.0,wc_3,,0.0,,,,41.0,,,,Pass,,,,,
59.0,3.0,wc_3,wc_1,0.0,"[('wc_1', 0.18), ('wc_3', 0.5400000000000004), ('wc_4', 0.5000000000000003), ('wc_5', 0.18)]",0.8453480000000002,,,37.0,0.010491,['Pass'],Pass,0.18,-0.18,0.0,1.0,0.1
59.0,3.0,wc_3,,0.0,,,,0.0,,,,Pass,,,,,
59.0,3.0,wc_3,wc_2,1.0,"[('wc_2', 0.8700000000000007), ('wc_3', 0.5400000000000004), ('wc_4', 0.5000000000000003), ('wc_5', 0.18), ('wc_1', 0.18)]",0.9798952400000002,,,36.0,0.04986099999999999,['Pass'],Pass,0.8700000000000007,0.12999999999999934,3.0,3.0,0.9
65.0,5.0,wc_5,,0.0,,,,0.0,,,,Pass,,,,,
65.0,5.0,wc_5,,0.0,,,79.0,,,,,Pass,,,,,
65.0,5.0,wc_5,,0.0,,,,0.0,,,,Pass,,,,,
65.0,5.0,wc_5,wc_5,0.0,"[('wc_5', 0.18)]",0.17999999999999994,,,34.0,0.002279,['Pass'],Pass,0.18,0.15333333333333332,1.0,3.0,0.1
65.0,5.0,wc_5,,0.0,,,,41.0,,,,Pass,,,,,
65.0,5.0,wc_5,wc_1,0.0,"[('wc_5', 0.18)]",0.17999999999999994,,,34.0,0.004405,['Pass'],Pass,0.18,0.32,1.0,2.0,0.1
65.0,5.0,wc_5,,0.0,,,,0.0,,,,Pass,,,,,
65.0,5.0,wc_5,wc_2,0.0,"[('wc_2', 0.8700000000000007), ('wc_5', 0.18)]",0.8934000000000005,,,34.0,0.005929,['Pass'],Pass,0.8700000000000007,0.12999999999999934,3.0,3.0,0.9
65.0,5.0,wc_5,,0.0,,,,0.0,,,,Pass,,,,,
65.0,5.0,wc_5,wc_3,1.0,"[('wc_3', 0.5400000000000004), ('wc_5', 0.18), ('wc_2', 0.8700000000000007)]",0.9509640000000003,,,35.0,0.052045999999999995,['Pass'],Pass,0.5400000000000004,0.45999999999999963,4.0,4.0,0.6
70.0,6.0,wc_6,,0.0,,,,101.0,,,,Pass,,,,,
70.0,6.0,wc_6,,0.0,,,72.0,,,,,Pass,,,,,
70.0,6.0,wc_6,,0.0,,,,0.0,,,,Pass,,,,,
70.0,6.0,wc_6,wc_6,0.0,"[('wc_6', 0.3900000000000001)]",0.3900000000000001,,,26.0,0.002166,['Fail'],Pass,0.3900000000000001,-0.3185714285714287,0.0,0.0,0.3
70.0,6.0,wc_6,,0.0,,,,0.0,,,,Pass,,,,,
70.0,6.0,wc_6,wc_7,0.0,"[('wc_7', 0.9900000000000008)]",0.9900000000000008,,,27.0,0.004957,['Pass'],Pass,0.9900000000000008,-0.9900000000000008,0.0,0.0,0.9
70.0,6.0,wc_6,,0.0,,,,0.0,,,,Pass,,,,,
70.0,6.0,wc_6,wc_8,0.0,"[('wc_7', 0.9900000000000008)]",0.9900000000000008,,,33.0,0.006368,['Pass'],Pass,0.6500000000000005,-0.5250000000000005,0.0,0.0,0.6
70.0,6.0,wc_6,,0.0,,,,0.0,,,,Pass,,,,,
70.0,6.0,wc_6,wc_9,0.0,"[('wc_9', 0.6300000000000004), ('wc_7', 0.9900000000000008)]",0.9963000000000003,,,33.0,0.009184999999999999,['Pass'],Pass,0.6300000000000004,-0.5009677419354843,0.0,0.0,0.7
70.0,6.0,wc_6,,0.0,,,,0.0,,,,Pass,,,,,
70.0,6.0,wc_6,wc_10,1.0,"[('wc_10', 0.8600000000000007), ('wc_7', 0.9900000000000008), ('wc_9', 0.6300000000000004)]",0.9994820000000001,,,32.0,0.059559999999999995,['Pass'],Pass,0.8600000000000007,-0.6664516129032265,0.0,0.0,1.0
74.0,11.0,wc_11,,0.0,,,,0.0,,,,Fail,,,,,
74.0,11.0,wc_11,,0.0,,,54.0,,,,,Fail,,,,,
74.0,11.0,wc_11,,0.0,,,,0.0,,,,Fail,,,,,
74.0,11.0,wc_11,wc_11,0.0,"[('wc_11', 0.11)]",0.10999999999999999,,,33.0,0.002251,['Fail'],Fail,0.11,-0.013225806451612906,0.0,0.0,0.1
74.0,11.0,wc_11,,0.0,,,,21.0,,,,Fail,,,,,
74.0,11.0,wc_11,wc_6,0.0,"[('wc_6', 0.3900000000000001)]",0.3900000000000001,,,38.0,0.004710000000000001,['Pass'],Fail,0.3900000000000001,-0.3900000000000001,0.0,1.0,0.3
74.0,11.0,wc_11,,0.0,,,,0.0,,,,Fail,,,,,
74.0,11.0,wc_11,wc_7,0.0,"[('wc_7', 0.9900000000000008), ('wc_11', 0.11)]",0.9911000000000006,,,24.0,0.006215,['Fail'],Fail,0.9900000000000008,0.009999999999999232,1.0,1.0,0.9
74.0,11.0,wc_11,,0.0,,,,0.0,,,,Fail,,,,,
74.0,11.0,wc_11,wc_8,1.0,"[('wc_8', 0.6500000000000005), ('wc_11', 0.11), ('wc_7', 0.9900000000000008)]",0.9968850000000002,,,27.0,0.04575800000000001,['Fail'],Fail,0.6500000000000005,-0.15000000000000047,1.0,2.0,0.6
76.0,7.0,wc_7,,0.0,,,,102.0,,,,Fail,,,,,
76.0,7.0,wc_7,,0.0,,,50.0,,,,,Fail,,,,,
76.0,7.0,wc_7,,0.0,,,,0.0,,,,Fail,,,,,
76.0,7.0,wc_7,wc_7,0.0,"[('wc_7', 0.9900000000000008)]",0.9900000000000008,,,31.0,0.002471,['Pass'],Fail,0.9900000000000008,0.009999999999999232,2.0,2.0,0.9
76.0,7.0,wc_7,,0.0,,,,0.0,,,,Fail,,,,,
76.0,7.0,wc_7,wc_8,0.0,"[('wc_7', 0.9900000000000008)]",0.9900000000000008,,,33.0,0.004713,['Pass'],Fail,0.6500000000000005,-0.15000000000000047,1.0,2.0,0.6
76.0,7.0,wc_7,,0.0,,,,0.0,,,,Fail,,,,,
76.0,7.0,wc_7,wc_9,0.0,"[('wc_9', 0.6300000000000004), ('wc_7', 0.9900000000000008)]",0.9963000000000003,,,29.0,0.006737999999999999,['Pass'],Fail,0.6300000000000004,-0.13000000000000045,1.0,2.0,0.7
76.0,7.0,wc_7,,0.0,,,,0.0,,,,Fail,,,,,
76.0,7.0,wc_7,wc_10,0.0,"[('wc_7', 0.9900000000000008), ('wc_9', 0.6300000000000004)]",0.9963000000000003,,,31.0,0.007705999999999999,['Pass'],Fail,0.8600000000000007,-0.8600000000000007,0.0,1.0,1.0
76.0,7.0,wc_7,,0.0,,,,0.0,,,,Fail,,,,,
76.0,7.0,wc_7,wc_11,0.0,"[('wc_7', 0.9900000000000008), ('wc_9', 0.6300000000000004)]",0.9963000000000003,,,28.0,0.011785,['Pass'],Fail,0.11,0.89,1.0,1.0,0.1
76.0,7.0,wc_7,,0.0,,,,21.0,,,,Fail,,,,,
76.0,7.0,wc_7,wc_6,0.0,"[('wc_7', 0.9900000000000008), ('wc_9', 0.6300000000000004)]",0.9963000000000003,,,39.0,0.021481999999999998,['Pass'],Fail,0.3900000000000001,-0.3900000000000001,0.0,2.0,0.3
76.0,7.0,wc_7,,0.0,,,,162.0,,,,Fail,,,,,
76.0,7.0,wc_7,wc_12,1.0,"[('wc_12', 0.2100000000000001), ('wc_7', 0.9900000000000008), ('wc_9', 0.6300000000000004)]",0.9970770000000002,,,26.0,0.059869,['Pass'],Fail,0.2100000000000001,-0.06185185185185196,0.0,0.0,0.1
81.0,11.0,wc_11,,0.0,,,,361.0,,,,Pass,,,,,
81.0,11.0,wc_11,,0.0,,,54.0,,,,,Pass,,,,,
81.0,11.0,wc_11,,0.0,,,,0.0,,,,Pass,,,,,
81.0,11.0,wc_11,wc_11,0.0,"[('wc_11', 0.11)]",0.10999999999999999,,,22.0,0.002237,['Pass'],Pass,0.11,0.39,1.0,2.0,0.1
81.0,11.0,wc_11,,0.0,,,,21.0,,,,Pass,,,,,
81.0,11.0,wc_11,wc_6,0.0,"[('wc_6', 0.3900000000000001)]",0.3900000000000001,,,28.0,0.0044340000000000004,['Fail'],Pass,0.3900000000000001,-0.3900000000000001,0.0,3.0,0.3
81.0,11.0,wc_11,,0.0,,,,0.0,,,,Pass,,,,,
81.0,11.0,wc_11,wc_7,0.0,"[('wc_7', 0.9900000000000008), ('wc_11', 0.11)]",0.9911000000000006,,,32.0,0.007329,['Pass'],Pass,0.9900000000000008,0.009999999999999232,3.0,3.0,0.9
81.0,11.0,wc_11,,0.0,,,,0.0,,,,Pass,,,,,
81.0,11.0,wc_11,wc_8,1.0,"[('wc_8', 0.6500000000000005), ('wc_11', 0.11), ('wc_7', 0.9900000000000008)]",0.9968850000000002,,,27.0,0.04799,['Pass'],Pass,0.6500000000000005,-0.15000000000000047,2.0,4.0,0.6
85.0,8.0,wc_8,,0.0,,,,0.0,,,,Fail,,,,,
85.0,8.0,wc_8,,0.0,,,59.0,,,,,Fail,,,,,
85.0,8.0,wc_8,,0.0,,,,0.0,,,,Fail,,,,,
85.0,8.0,wc_8,wc_8,0.0,"[('wc_8', 0.6500000000000005)]",0.6500000000000005,,,24.0,0.002291,['Fail'],Fail,0.6500000000000005,-0.15000000000000047,2.0,4.0,0.6
85.0,8.0,wc_8,,0.0,,,,0.0,,,,Fail,,,,,
85.0,8.0,wc_8,wc_9,0.0,"[('wc_9', 0.6300000000000004), ('wc_8', 0.6500000000000005)]",0.8705000000000003,,,30.0,0.009548000000000001,['Fail'],Fail,0.6300000000000004,-0.13000000000000045,2.0,4.0,0.7
85.0,8.0,wc_8,,0.0,,,,0.0,,,,Fail,,,,,
85.0,8.0,wc_8,wc_10,1.0,"[('wc_10', 0.8600000000000007), ('wc_8', 0.6500000000000005), ('wc_9', 0.6300000000000004)]",0.9818700000000001,,,31.0,0.043552,['Fail'],Fail,0.8600000000000007,-0.6100000000000007,1.0,4.0,1.0
91.0,10.0,wc_10,,0.0,,,,0.0,,,,Pass,,,,,
91.0,10.0,wc_10,,0.0,,,70.0,,,,,Pass,,,,,
91.0,10.0,wc_10,,0.0,,,,0.0,,,,Pass,,,,,
91.0,10.0,wc_10,wc_10,0.0,"[('wc_10', 0.8600000000000007)]",0.8600000000000007,,,31.0,0.002228,['Pass'],Pass,0.8600000000000007,-0.6100000000000007,1.0,4.0,1.0
91.0,10.0,wc_10,,0.0,,,,0.0,,,,Pass,,,,,
91.0,10.0,wc_10,wc_11,0.0,"[('wc_10', 0.8600000000000007)]",0.8600000000000007,,,22.0,0.004606,['Pass'],Pass,0.11,0.39,2.0,4.0,0.1
91.0,10.0,wc_10,,0.0,,,,21.0,,,,Pass,,,,,
91.0,10.0,wc_10,wc_6,0.0,"[('wc_6', 0.3900000000000001), ('wc_10', 0.8600000000000007)]",0.9146000000000004,,,20.0,0.00896,['Pass'],Pass,0.3900000000000001,-0.3900000000000001,0.0,5.0,0.3
91.0,10.0,wc_10,,0.0,,,,0.0,,,,Pass,,,,,
91.0,10.0,wc_10,wc_7,0.0,"[('wc_7', 0.9900000000000008), ('wc_11', 0.11)]",0.9911000000000006,,,23.0,0.011255,['Fail'],Pass,0.9900000000000008,-0.19000000000000072,4.0,5.0,0.9
91.0,10.0,wc_10,,0.0,,,,0.0,,,,Pass,,,,,
91.0,10.0,wc_10,wc_8,1.0,"[('wc_8', 0.6500000000000005), ('wc_11', 0.11), ('wc_7', 0.9900000000000008)]",0.9968850000000002,,,28.0,0.049202,['Fail'],Pass,0.6500000000000005,0.016666666666666163,4.0,6.0,0.6
95.0,9.0,wc_9,,0.0,,,,0.0,,,,Pass,,,,,
95.0,9.0,wc_9,,0.0,,,51.0,,,,,Pass,,,,,
95.0,9.0,wc_9,,0.0,,,,0.0,,,,Pass,,,,,
95.0,9.0,wc_9,wc_9,0.0,"[('wc_9', 0.6300000000000004)]",0.6300000000000004,,,32.0,0.002019,['Fail'],Pass,0.6300000000000004,-0.13000000000000045,3.0,6.0,0.7
95.0,9.0,wc_9,,0.0,,,,0.0,,,,Pass,,,,,
95.0,9.0,wc_9,wc_10,0.0,"[('wc_10', 0.8600000000000007)]",0.8600000000000007,,,24.0,0.005093,['Pass'],Pass,0.8600000000000007,-0.6600000000000006,1.0,5.0,1.0
95.0,9.0,wc_9,,0.0,,,,0.0,,,,Pass,,,,,
95.0,9.0,wc_9,wc_11,0.0,"[('wc_10', 0.8600000000000007)]",0.8600000000000007,,,40.0,0.006947,['Pass'],Pass,0.11,0.49,3.0,5.0,0.1
95.0,9.0,wc_9,,0.0,,,,21.0,,,,Pass,,,,,
95.0,9.0,wc_9,wc_6,0.0,"[('wc_6', 0.3900000000000001), ('wc_10', 0.8600000000000007)]",0.9146000000000004,,,23.0,0.008603,['Pass'],Pass,0.3900000000000001,-0.3900000000000001,0.0,6.0,0.3
95.0,9.0,wc_9,,0.0,,,,0.0,,,,Pass,,,,,
95.0,9.0,wc_9,wc_7,1.0,"[('wc_7', 0.9900000000000008), ('wc_10', 0.8600000000000007), ('wc_6', 0.3900000000000001)]",0.9991460000000001,,,35.0,0.049018000000000006,['Pass'],Pass,0.9900000000000008,-0.13285714285714367,6.0,7.0,0.9
100.0,7.0,wc_7,,0.0,,,,0.0,,,,Fail,,,,,
100.0,7.0,wc_7,,0.0,,,61.0,,,,,Fail,,,,,
100.0,7.0,wc_7,,0.0,,,,0.0,,,,Fail,,,,,
100.0,7.0,wc_7,wc_7,0.0,"[('wc_7', 0.9900000000000008)]",0.9900000000000008,,,33.0,0.002231,['Fail'],Fail,0.9900000000000008,-0.13285714285714367,6.0,7.0,0.9
100.0,7.0,wc_7,,0.0,,,,0.0,,,,Fail,,,,,
100.0,7.0,wc_7,wc_8,0.0,"[('wc_8', 0.6500000000000005), ('wc_7', 0.9900000000000008)]",0.9965000000000003,,,22.0,0.0051719999999999995,['Fail'],Fail,0.6500000000000005,-0.07857142857142907,4.0,7.0,0.6
100.0,7.0,wc_7,,0.0,,,,0.0,,,,Fail,,,,,
100.0,7.0,wc_7,wc_9,1.0,"[('wc_9', 0.6300000000000004), ('wc_7', 0.9900000000000008), ('wc_8', 0.6500000000000005)]",0.9987050000000001,,,35.0,0.047351,['Fail'],Fail,0.6300000000000004,-0.13000000000000045,4.0,8.0,0.7
104.0,7.0,wc_7,,0.0,,,,81.0,,,,Fail,,,,,
104.0,7.0,wc_7,,0.0,,,56.0,,,,,Fail,,,,,
104.0,7.0,wc_7,,0.0,,,,0.0,,,,Fail,,,,,
104.0,7.0,wc_7,wc_7,0.0,"[('wc_7', 0.9900000000000008)]",0.9900000000000008,,,38.0,0.002239,['Fail'],Fail,0.9900000000000008,-0.11500000000000077,7.0,8.0,0.9
104.0,7.0,wc_7,,0.0,,,,0.0,,,,Fail,,,,,
104.0,7.0,wc_7,wc_8,0.0,"[('wc_7', 0.9900000000000008)]",0.9900000000000008,,,20.0,0.004771,['Fail'],Fail,0.6500000000000005,-0.025000000000000466,5.0,8.0,0.6
104.0,7.0,wc_7,,0.0,,,,0.0,,,,Fail,,,,,
104.0,7.0,wc_7,wc_9,0.0,"[('wc_7', 0.9900000000000008)]",0.9900000000000008,,,28.0,0.007358,['Fail'],Fail,0.6300000000000004,-0.13000000000000045,4.0,8.0,0.7
104.0,7.0,wc_7,,0.0,,,,0.0,,,,Fail,,,,,
104.0,7.0,wc_7,wc_10,0.0,"[('wc_7', 0.9900000000000008)]",0.9900000000000008,,,34.0,0.011817,['Fail'],Fail,0.8600000000000007,-0.574285714285715,2.0,7.0,1.0
104.0,7.0,wc_7,,0.0,,,,0.0,,,,Fail,,,,,
104.0,7.0,wc_7,wc_11,0.0,"[('wc_7', 0.9900000000000008)]",0.9900000000000008,,,23.0,0.009796,['Fail'],Fail,0.11,0.31857142857142856,3.0,7.0,0.1
104.0,7.0,wc_7,,0.0,,,,21.0,,,,Fail,,,,,
104.0,7.0,wc_7,wc_6,1.0,"[('wc_6', 0.3900000000000001), ('wc_8', 0.6500000000000005), ('wc_9', 0.6300000000000004), ('wc_10', 0.8600000000000007), ('wc_11', 0.11)]",0.9901572230000001,,,29.0,0.048086,['Pass'],Fail,0.3900000000000001,-0.16777777777777791,2.0,9.0,0.3
111.0,8.0,wc_8,,0.0,,,,0.0,,,,Pass,,,,,
111.0,8.0,wc_8,,0.0,,,72.0,,,,,Pass,,,,,
111.0,8.0,wc_8,,0.0,,,,0.0,,,,Pass,,,,,
111.0,8.0,wc_8,wc_8,0.0,"[('wc_8', 0.6500000000000005)]",0.6500000000000005,,,40.0,0.002966,['Pass'],Pass,0.6500000000000005,0.016666666666666163,6.0,9.0,0.6
111.0,8.0,wc_8,,0.0,,,,0.0,,,,Pass,,,,,
111.0,8.0,wc_8,wc_9,0.0,"[('wc_9', 0.6300000000000004), ('wc_8', 0.6500000000000005)]",0.8705000000000003,,,31.0,0.004847,['Pass'],Pass,0.6300000000000004,-0.07444444444444487,5.0,9.0,0.7
111.0,8.0,wc_8,,0.0,,,,0.0,,,,Pass,,,,,
111.0,8.0,wc_8,wc_10,1.0,"[('wc_10', 0.8600000000000007), ('wc_8', 0.6500000000000005), ('wc_9', 0.6300000000000004)]",0.9818700000000001,,,32.0,0.047383,['Pass'],Pass,0.8600000000000007,-0.41555555555555623,4.0,9.0,1.0
115.0,7.0,wc_7,,0.0,,,,61.0,,,,Fail,,,,,
115.0,7.0,wc_7,,0.0,,,68.0,,,,,Fail,,,,,
115.0,7.0,wc_7,,0.0,,,,0.0,,,,Fail,,,,,
115.0,7.0,wc_7,wc_7,0.0,"[('wc_7', 0.9900000000000008)]",0.9900000000000008,,,37.0,0.002268,['Fail'],Fail,0.9900000000000008,-0.2900000000000008,0.0,0.0,0.9
115.0,7.0,wc_7,,0.0,,,,0.0,,,,Fail,,,,,
115.0,7.0,wc_7,wc_8,0.0,"[('wc_8', 0.6500000000000005), ('wc_7', 0.9900000000000008)]",0.9965000000000003,,,27.0,0.004572,['Fail'],Fail,0.6500000000000005,0.04999999999999949,0.0,0.0,0.6
115.0,7.0,wc_7,,0.0,,,,0.0,,,,Fail,,,,,
115.0,7.0,wc_7,wc_9,1.0,"[('wc_9', 0.6300000000000004), ('wc_7', 0.9900000000000008), ('wc_8', 0.6500000000000005)]",0.9987050000000001,,,34.0,0.057981,['Fail'],Fail,0.6300000000000004,0.006363636363635905,0.0,0.0,0.7
120.0,7.0,wc_7,,0.0,,,,81.0,,,,Fail,,,,,
120.0,7.0,wc_7,,0.0,,,72.0,,,,,Fail,,,,,
120.0,7.0,wc_7,,0.0,,,,0.0,,,,Fail,,,,,
120.0,7.0,wc_7,wc_7,0.0,"[('wc_7', 0.9900000000000008)]",0.9900000000000008,,,40.0,0.002924,['Fail'],Fail,0.9900000000000008,0.009999999999999232,1.0,1.0,0.9
120.0,7.0,wc_7,,0.0,,,,0.0,,,,Fail,,,,,
120.0,7.0,wc_7,wc_8,0.0,"[('wc_7', 0.9900000000000008)]",0.9900000000000008,,,34.0,0.004921999999999999,['Fail'],Fail,0.6500000000000005,0.34999999999999953,1.0,1.0,0.6
120.0,7.0,wc_7,,0.0,,,,0.0,,,,Fail,,,,,
120.0,7.0,wc_7,wc_9,0.0,"[('wc_9', 0.6300000000000004), ('wc_7', 0.9900000000000008)]",0.9963000000000003,,,33.0,0.005704,['Fail'],Fail,0.6300000000000004,-0.6300000000000004,0.0,0.0,0.7
120.0,7.0,wc_7,,0.0,,,,0.0,,,,Fail,,,,,
120.0,7.0,wc_7,wc_10,1.0,"[('wc_10', 0.8600000000000007), ('wc_7', 0.9900000000000008), ('wc_9', 0.6300000000000004)]",0.9994820000000001,,,36.0,0.048496000000000004,['Fail'],Fail,0.8600000000000007,-0.4054545454545461,0.0,0.0,1.0
125.0,7.0,wc_7,,0.0,,,,61.0,,,,Fail,,,,,
125.0,7.0,wc_7,,0.0,,,59.0,,,,,Fail,,,,,
125.0,7.0,wc_7,,0.0,,,,0.0,,,,Fail,,,,,
125.0,7.0,wc_7,wc_7,0.0,"[('wc_7', 0.9900000000000008)]",0.9900000000000008,,,39.0,0.002224,['Fail'],Fail,0.9900000000000008,0.009999999999999232,2.0,2.0,0.9
125.0,7.0,wc_7,,0.0,,,,0.0,,,,Fail,,,,,
125.0,7.0,wc_7,wc_8,0.0,"[('wc_7', 0.9900000000000008)]",0.9900000000000008,,,24.0,0.0044410000000000005,['Fail'],Fail,0.6500000000000005,-0.15000000000000047,1.0,2.0,0.6
125.0,7.0,wc_7,,0.0,,,,0.0,,,,Fail,,,,,
125.0,7.0,wc_7,wc_9,0.0,"[('wc_9', 0.6300000000000004), ('wc_7', 0.9900000000000008)]",0.9963000000000003,,,25.0,0.013031000000000001,['Fail'],Fail,0.6300000000000004,0.36999999999999955,1.0,1.0,0.7
125.0,7.0,wc_7,,0.0,,,,0.0,,,,Fail,,,,,
125.0,7.0,wc_7,wc_10,1.0,"[('wc_10', 0.8600000000000007), ('wc_7', 0.9900000000000008), ('wc_9', 0.6300000000000004)]",0.9994820000000001,,,37.0,0.050302,['Fail'],Fail,0.8600000000000007,0.13999999999999935,1.0,1.0,1.0
127.0,7.0,wc_7,,0.0,,,,61.0,,,,Pass,,,,,
127.0,7.0,wc_7,,0.0,,,63.0,,,,,Pass,,,,,
127.0,7.0,wc_7,,0.0,,,,0.0,,,,Pass,,,,,
127.0,7.0,wc_7,wc_7,0.0,"[('wc_7', 0.9900000000000008)]",0.9900000000000008,,,30.0,0.002326,['Pass'],Pass,0.9900000000000008,0.009999999999999232,3.0,3.0,0.9
127.0,7.0,wc_7,,0.0,,,,0.0,,,,Pass,,,,,
127.0,7.0,wc_7,wc_8,0.0,"[('wc_8', 0.6500000000000005), ('wc_7', 0.9900000000000008)]",0.9965000000000003,,,23.0,0.004569,['Pass'],Pass,0.6500000000000005,-0.31666666666666715,1.0,3.0,0.6
127.0,7.0,wc_7,,0.0,,,,0.0,,,,Pass,,,,,
127.0,7.0,wc_7,wc_9,1.0,"[('wc_9', 0.6300000000000004), ('wc_7', 0.9900000000000008), ('wc_8', 0.6500000000000005)]",0.9987050000000001,,,28.0,0.043514,['Pass'],Pass,0.6300000000000004,0.36999999999999955,3.0,3.0,0.7
131.0,12.0,wc_12,,0.0,,,,101.0,,,,Pass,,,,,
131.0,12.0,wc_12,,0.0,,,68.0,,,,,Pass,,,,,
131.0,12.0,wc_12,,0.0,,,,0.0,,,,Pass,,,,,
131.0,12.0,wc_12,wc_12,0.0,"[('wc_12', 0.2100000000000001)]",0.21000000000000008,,,21.0,0.002296,['Fail'],Pass,0.2100000000000001,-0.2100000000000001,0.0,0.0,0.1
131.0,12.0,wc_12,,0.0,,,,0.0,,,,Pass,,,,,
131.0,12.0,wc_12,wc_13,0.0,"[('wc_12', 0.2100000000000001)]",0.21000000000000008,,,30.0,0.004993,['Fail'],Pass,0.13,0.02789473684210525,0.0,0.0,0.1
131.0,12.0,wc_12,,0.0,,,,0.0,,,,Pass,,,,,
131.0,12.0,wc_12,wc_14,0.0,"[('wc_14', 0.9500000000000008), ('wc_13', 0.13)]",0.9565000000000007,,,28.0,0.008459,['Pass'],Pass,0.9500000000000008,-0.9500000000000008,0.0,0.0,1.0
131.0,12.0,wc_12,,0.0,,,,0.0,,,,Pass,,,,,
131.0,12.0,wc_12,wc_15,0.0,"[('wc_13', 0.13), ('wc_14', 0.9500000000000008)]",0.9565000000000007,,,29.0,0.008483000000000001,['Pass'],Pass,0.5000000000000003,-0.4459459459459463,0.0,0.0,0.4
131.0,12.0,wc_12,,0.0,,,,0.0,,,,Pass,,,,,
131.0,12.0,wc_12,wc_16,1.0,"[('wc_16', 0.3900000000000001), ('wc_13', 0.13), ('wc_14', 0.9500000000000008)]",0.9734650000000005,,,37.0,0.068127,['Pass'],Pass,0.3900000000000001,-0.281891891891892,0.0,0.0,0.1
134.0,13.0,wc_13,,0.0,,,,61.0,,,,Fail,,,,,
134.0,13.0,wc_13,,0.0,,,62.0,,,,,Fail,,,,,
134.0,13.0,wc_13,,0.0,,,,0.0,,,,Fail,,,,,
134.0,13.0,wc_13,wc_13,0.0,"[('wc_13', 0.13)]",0.13,,,37.0,0.002339,['Fail'],Fail,0.13,0.87,1.0,1.0,0.1
134.0,13.0,wc_13,,0.0,,,,0.0,,,,Fail,,,,,
134.0,13.0,wc_13,wc_14,0.0,"[('wc_14', 0.9500000000000008), ('wc_13', 0.13)]",0.9565000000000007,,,33.0,0.004928,['Fail'],Fail,0.9500000000000008,0.049999999999999156,1.0,1.0,1.0
134.0,13.0,wc_13,,0.0,,,,0.0,,,,Fail,,,,,
134.0,13.0,wc_13,wc_15,1.0,"[('wc_15', 0.5000000000000003), ('wc_13', 0.13), ('wc_14', 0.9500000000000008)]",0.9782500000000004,,,34.0,0.043744,['Fail'],Fail,0.5000000000000003,-3.3306690738754696e-16,1.0,2.0,0.4
138.0,13.0,wc_13,,0.0,,,,81.0,,,,Pass,,,,,
138.0,13.0,wc_13,,0.0,,,66.0,,,,,Pass,,,,,
138.0,13.0,wc_13,,0.0,,,,0.0,,,,Pass,,,,,
138.0,13.0,wc_13,wc_13,0.0,"[('wc_13', 0.13)]",0.13,,,24.0,0.00255,['Pass'],Pass,0.13,0.87,2.0,2.0,0.1
138.0,13.0,wc_13,,0.0,,,,0.0,,,,Pass,,,,,
138.0,13.0,wc_13,wc_14,0.0,"[('wc_14', 0.9500000000000008), ('wc_13', 0.13)]",0.9565000000000007,,,33.0,0.006674,['Pass'],Pass,0.9500000000000008,0.049999999999999156,2.0,2.0,1.0
138.0,13.0,wc_13,,0.0,,,,0.0,,,,Pass,,,,,
138.0,13.0,wc_13,wc_15,1.0,"[('wc_15', 0.5000000000000003), ('wc_13', 0.13), ('wc_14', 0.9500000000000008)]",0.9782500000000004,,,37.0,0.04366300000000001,['Pass'],Pass,0.5000000000000003,0.1666666666666663,2.0,3.0,0.4
141.0,16.0,wc_16,,0.0,,,,0.0,,,,Pass,,,,,
141.0,16.0,wc_16,,0.0,,,70.0,,,,,Pass,,,,,
141.0,16.0,wc_16,,0.0,,,,0.0,,,,Pass,,,,,
141.0,16.0,wc_16,wc_16,0.0,"[('wc_16', 0.3900000000000001)]",0.3900000000000001,,,38.0,0.002359,['Pass'],Pass,0.3900000000000001,-0.3900000000000001,0.0,2.0,0.1
141.0,16.0,wc_16,,0.0,,,,0.0,,,,Pass,,,,,
141.0,16.0,wc_16,wc_17,0.0,"[('wc_17', 0.8800000000000007), ('wc_16', 0.3900000000000001)]",0.9268000000000004,,,36.0,0.005286,['Pass'],Pass,0.8800000000000007,-0.6957894736842112,0.0,0.0,0.7
141.0,16.0,wc_16,,0.0,,,,21.0,,,,Pass,,,,,
141.0,16.0,wc_16,wc_12,1.0,"[('wc_12', 0.2100000000000001), ('wc_16', 0.3900000000000001), ('wc_17', 0.8800000000000007)]",0.9421720000000003,,,36.0,0.044638000000000004,['Pass'],Pass,0.2100000000000001,0.0399999999999999,1.0,4.0,0.1
144.0,14.0,wc_14,,0.0,,,,0.0,,,,Fail,,,,,
144.0,14.0,wc_14,,0.0,,,79.0,,,,,Fail,,,,,
144.0,14.0,wc_14,,0.0,,,,0.0,,,,Fail,,,,,
144.0,14.0,wc_14,wc_14,0.0,"[('wc_14', 0.9500000000000008)]",0.9500000000000008,,,30.0,0.002061,['Fail'],Fail,0.9500000000000008,-0.20000000000000084,3.0,4.0,1.0
144.0,14.0,wc_14,,0.0,,,,0.0,,,,Fail,,,,,
144.0,14.0,wc_14,wc_15,0.0,"[('wc_14', 0.9500000000000008)]",0.9500000000000008,,,26.0,0.005685,['Fail'],Fail,0.5000000000000003,-3.3306690738754696e-16,2.0,4.0,0.4
144.0,14.0,wc_14,,0.0,,,,0.0,,,,Fail,,,,,
144.0,14.0,wc_14,wc_16,0.0,"[('wc_14', 0.9500000000000008)]",0.9500000000000008,,,20.0,0.006031,['Fail'],Fail,0.3900000000000001,-0.05666666666666681,1.0,3.0,0.1
144.0,14.0,wc_14,,0.0,,,,0.0,,,,Fail,,,,,
144.0,14.0,wc_14,wc_17,0.0,"[('wc_17', 0.8800000000000007), ('wc_14', 0.9500000000000008)]",0.9940000000000001,,,39.0,0.009907000000000001,['Fail'],Fail,0.8800000000000007,0.11999999999999933,1.0,1.0,0.7
144.0,14.0,wc_14,,0.0,,,,21.0,,,,Fail,,,,,
144.0,14.0,wc_14,wc_12,1.0,"[('wc_12', 0.2100000000000001), ('wc_14', 0.9500000000000008), ('wc_17', 0.8800000000000007)]",0.9952600000000001,,,20.0,0.049325,['Fail'],Fail,0.2100000000000001,0.18999999999999992,2.0,5.0,0.1
146.0,15.0,wc_15,,0.0,,,,0.0,,,,Fail,,,,,
146.0,15.0,wc_15,,0.0,,,61.0,,,,,Fail,,,,,
146.0,15.0,wc_15,,0.0,,,,0.0,,,,Fail,,,,,
146.0,15.0,wc_15,wc_15,0.0,"[('wc_15', 0.5000000000000003)]",0.5000000000000003,,,26.0,0.002172,['Pass'],Fail,0.5000000000000003,-0.10000000000000031,2.0,5.0,0.4
146.0,15.0,wc_15,,0.0,,,,0.0,,,,Fail,,,,,
146.0,15.0,wc_15,wc_16,0.0,"[('wc_16', 0.3900000000000001), ('wc_15', 0.5000000000000003)]",0.6950000000000003,,,26.0,0.005494,['Pass'],Fail,0.3900000000000001,-0.14000000000000012,1.0,4.0,0.1
146.0,15.0,wc_15,,0.0,,,,0.0,,,,Fail,,,,,
146.0,15.0,wc_15,wc_17,0.0,"[('wc_17', 0.8800000000000007)]",0.8800000000000007,,,23.0,0.006579999999999999,['Fail'],Fail,0.8800000000000007,0.11999999999999933,2.0,2.0,0.7
146.0,15.0,wc_15,,0.0,,,,21.0,,,,Fail,,,,,
146.0,15.0,wc_15,wc_12,0.0,"[('wc_17', 0.8800000000000007)]",0.8800000000000007,,,22.0,0.007623,['Fail'],Fail,0.2100000000000001,0.18999999999999992,2.0,5.0,0.1
146.0,15.0,wc_15,,0.0,,,,0.0,,,,Fail,,,,,
146.0,15.0,wc_15,wc_13,0.0,"[('wc_17', 0.8800000000000007)]",0.8800000000000007,,,29.0,0.009411,['Fail'],Fail,0.13,0.47,3.0,5.0,0.1
146.0,15.0,wc_15,,0.0,,,,0.0,,,,Fail,,,,,
146.0,15.0,wc_15,wc_14,0.0,"[('wc_14', 0.9500000000000008), ('wc_17', 0.8800000000000007)]",0.9940000000000001,,,30.0,0.0171,['Fail'],Fail,0.9500000000000008,-0.1500000000000008,4.0,5.0,1.0
146.0,15.0,wc_15,,0.0,,,,142.0,,,,Fail,,,,,
146.0,15.0,wc_15,wc_6,1.0,"[('wc_6', 0.3900000000000001), ('wc_17', 0.8800000000000007), ('wc_14', 0.9500000000000008)]",0.9963400000000001,,,34.0,0.05481900000000001,['Fail'],Fail,0.3900000000000001,-0.24000000000000013,0.0,0.0,0.3
148.0,15.0,wc_15,,0.0,,,,223.0,,,,Pass,,,,,
148.0,15.0,wc_15,,0.0,,,52.0,,,,,Pass,,,,,
148.0,15.0,wc_15,,0.0,,,,0.0,,,,Pass,,,,,
148.0,15.0,wc_15,wc_15,0.0,"[('wc_15', 0.5000000000000003)]",0.5000000000000003,,,24.0,0.002653,['Fail'],Pass,0.5000000000000003,-0.16666666666666702,2.0,6.0,0.4
148.0,15.0,wc_15,,0.0,,,,0.0,,,,Pass,,,,,
148.0,15.0,wc_15,wc_16,0.0,"[('wc_16', 0.3900000000000001), ('wc_15', 0.5000000000000003)]",0.6950000000000003,,,35.0,0.005005,['Fail'],Pass,0.3900000000000001,-0.1900000000000001,1.0,5.0,0.1
148.0,15.0,wc_15,,0.0,,,,0.0,,,,Pass,,,,,
148.0,15.0,wc_15,wc_17,0.0,"[('wc_17', 0.8800000000000007)]",0.8800000000000007,,,38.0,0.006273999999999999,['Pass'],Pass,0.8800000000000007,0.11999999999999933,3.0,3.0,0.7
148.0,15.0,wc_15,,0.0,,,,21.0,,,,Pass,,,,,
148.0,15.0,wc_15,wc_12,0.0,"[('wc_12', 0.2100000000000001), ('wc_17', 0.8800000000000007)]",0.9052000000000006,,,38.0,0.010190999999999999,['Pass'],Pass,0.2100000000000001,0.12333333333333321,2.0,6.0,0.1
148.0,15.0,wc_15,,0.0,,,,0.0,,,,Pass,,,,,
148.0,15.0,wc_15,wc_13,1.0,"[('wc_13', 0.13), ('wc_17', 0.8800000000000007), ('wc_12', 0.2100000000000001)]",0.9175240000000005,,,21.0,0.054062,['Pass'],Pass,0.13,0.4414285714285714,4.0,7.0,0.1
150.0,14.0,wc_14,,0.0,,,,0.0,,,,Fail,,,,,
150.0,14.0,wc_14,,0.0,,,56.0,,,,,Fail,,,,,
150.0,14.0,wc_14,,0.0,,,,0.0,,,,Fail,,,,,
150.0,14.0,wc_14,wc_14,0.0,"[('wc_14', 0.9500000000000008)]",0.9500000000000008,,,29.0,0.002236,['Fail'],Fail,0.9500000000000008,-0.23571428571428654,5.0,7.0,1.0
150.0,14.0,wc_14,,0.0,,,,0.0,,,,Fail,,,,,
150.0,14.0,wc_14,wc_15,0.0,"[('wc_15', 0.5000000000000003), ('wc_14', 0.9500000000000008)]",0.9750000000000004,,,24.0,0.004334,['Fail'],Fail,0.5000000000000003,-0.21428571428571463,2.0,7.0,0.4
150.0,14.0,wc_14,,0.0,,,,0.0,,,,Fail,,,,,
150.0,14.0,wc_14,wc_16,0.0,"[('wc_14', 0.9500000000000008), ('wc_15', 0.5000000000000003)]",0.9750000000000004,,,29.0,0.006475,['Fail'],Fail,0.3900000000000001,-0.22333333333333347,1.0,6.0,0.1
150.0,14.0,wc_14,,0.0,,,,0.0,,,,Fail,,,,,
150.0,14.0,wc_14,wc_17,1.0,"[('wc_17', 0.8800000000000007), ('wc_14', 0.9500000000000008), ('wc_15', 0.5000000000000003)]",0.9970000000000001,,,36.0,0.050727999999999995,['Fail'],Fail,0.8800000000000007,0.11999999999999933,5.0,5.0,0.7
151.0,14.0,wc_14,,0.0,,,,61.0,,,,Fail,,,,,
151.0,14.0,wc_14,,0.0,,,59.0,,,,,Fail,,,,,
151.0,14.0,wc_14,,0.0,,,,0.0,,,,Fail,,,,,
151.0,14.0,wc_14,wc_14,0.0,"[('wc_14', 0.9500000000000008)]",0.9500000000000008,,,29.0,0.002999,['Fail'],Fail,0.9500000000000008,-0.20000000000000084,6.0,8.0,1.0
151.0,14.0,wc_14,,0.0,,,,0.0,,,,Fail,,,,,
151.0,14.0,wc_14,wc_15,0.0,"[('wc_14', 0.9500000000000008)]",0.9500000000000008,,,35.0,0.004378,['Fail'],Fail,0.5000000000000003,-0.12500000000000033,3.0,8.0,0.4
151.0,14.0,wc_14,,0.0,,,,0.0,,,,Fail,,,,,
151.0,14.0,wc_14,wc_16,0.0,"[('wc_14', 0.9500000000000008)]",0.9500000000000008,,,22.0,0.007042,['Fail'],Fail,0.3900000000000001,-0.24714285714285728,1.0,7.0,0.1
151.0,14.0,wc_14,,0.0,,,,0.0,,,,Fail,,,,,
151.0,14.0,wc_14,wc_17,0.0,"[('wc_17', 0.8800000000000007), ('wc_14', 0.9500000000000008)]",0.9940000000000001,,,36.0,0.007765,['Fail'],Fail,0.8800000000000007,0.11999999999999933,5.0,5.0,0.7
151.0,14.0,wc_14,,0.0,,,,21.0,,,,Fail,,,,,
151.0,14.0,wc_14,wc_12,1.0,"[('wc_12', 0.2100000000000001), ('wc_14', 0.9500000000000008), ('wc_17', 0.8800000000000007)]",0.9952600000000001,,,29.0,0.045242000000000004,['Fail'],Fail,0.2100000000000001,0.23444444444444432,4.0,9.0,0.1
152.0,14.0,wc_14,,0.0,,,,0.0,,,,Pass,,,,,
152.0,14.0,wc_14,,0.0,,,57.0,,,,,Pass,,,,,
152.0,14.0,wc_14,,0.0,,,,0.0,,,,Pass,,,,,
152.0,14.0,wc_14,wc_14,0.0,"[('wc_14', 0.9500000000000008)]",0.9500000000000008,,,29.0,0.002156,['Pass'],Pass,0.9500000000000008,-0.17222222222222305,7.0,9.0,1.0
152.0,14.0,wc_14,,0.0,,,,0.0,,,,Pass,,,,,
152.0,14.0,wc_14,wc_15,0.0,"[('wc_15', 0.5000000000000003), ('wc_14', 0.9500000000000008)]",0.9750000000000004,,,35.0,0.003888,['Pass'],Pass,0.5000000000000003,-0.16666666666666702,3.0,9.0,0.4
152.0,14.0,wc_14,,0.0,,,,0.0,,,,Pass,,,,,
152.0,14.0,wc_14,wc_16,0.0,"[('wc_14', 0.9500000000000008), ('wc_15', 0.5000000000000003)]",0.9750000000000004,,,30.0,0.005699,['Pass'],Pass,0.3900000000000001,-0.2650000000000001,1.0,8.0,0.1
152.0,14.0,wc_14,,0.0,,,,0.0,,,,Pass,,,,,
152.0,14.0,wc_14,wc_17,0.0,"[('wc_14', 0.9500000000000008), ('wc_15', 0.5000000000000003)]",0.9750000000000004,,,26.0,0.008021,['Pass'],Pass,0.8800000000000007,0.11999999999999933,6.0,6.0,0.7
152.0,14.0,wc_14,,0.0,,,,21.0,,,,Pass,,,,,
152.0,14.0,wc_14,wc_12,0.0,"[('wc_14', 0.9500000000000008), ('wc_15', 0.5000000000000003)]",0.9750000000000004,,,25.0,0.009356,['Pass'],Pass,0.2100000000000001,0.23444444444444432,4.0,9.0,0.1
152.0,14.0,wc_14,,0.0,,,,0.0,,,,Pass,,,,,
152.0,14.0,wc_14,wc_13,1.0,"[('wc_13', 0.13), ('wc_14', 0.9500000000000008), ('wc_15', 0.5000000000000003)]",0.9782500000000004,,,33.0,0.055263,['Pass'],Pass,0.13,0.37,0.0,0.0,0.1
153.0,17.0,wc_17,,0.0,,,,0.0,,,,Fail,,,,,
153.0,17.0,wc_17,,0.0,,,60.0,,,,,Fail,,,,,
153.0,17.0,wc_17,,0.0,,,,0.0,,,,Fail,,,,,
153.0,17.0,wc_17,wc_17,0.0,"[('wc_17', 0.8800000000000007)]",0.8800000000000007,,,35.0,0.001913,['Fail'],Fail,0.8800000000000007,-0.022857142857143575,6.0,7.0,0.7
153.0,17.0,wc_17,,0.0,,,,21.0,,,,Fail,,,,,
153.0,17.0,wc_17,wc_12,0.0,"[('wc_12', 0.2100000000000001), ('wc_17', 0.8800000000000007)]",0.9052000000000006,,,27.0,0.004881,['Fail'],Fail,0.2100000000000001,0.18999999999999992,0.0,0.0,0.1
153.0,17.0,wc_17,,0.0,,,,0.0,,,,Fail,,,,,
153.0,17.0,wc_17,wc_13,1.0,"[('wc_13', 0.13), ('wc_17', 0.8800000000000007), ('wc_12', 0.2100000000000001)]",0.9175240000000005,,,24.0,0.045341,['Fail'],Fail,0.13,0.87,1.0,1.0,0.1
154.0,17.0,wc_17,,0.0,,,,0.0,,,,Fail,,,,,
154.0,17.0,wc_17,,0.0,,,52.0,,,,,Fail,,,,,
154.0,17.0,wc_17,,0.0,,,,0.0,,,,Fail,,,,,
154.0,17.0,wc_17,wc_17,0.0,"[('wc_17', 0.8800000000000007)]",0.8800000000000007,,,23.0,0.002391,['Pass'],Fail,0.8800000000000007,-0.005000000000000671,7.0,8.0,0.7
154.0,17.0,wc_17,,0.0,,,,21.0,,,,Fail,,,,,
154.0,17.0,wc_17,wc_12,0.0,"[('wc_12', 0.2100000000000001), ('wc_17', 0.8800000000000007)]",0.9052000000000006,,,22.0,0.004221,['Pass'],Fail,0.2100000000000001,0.7899999999999999,1.0,1.0,0.1
154.0,17.0,wc_17,,0.0,,,,0.0,,,,Fail,,,,,
154.0,17.0,wc_17,wc_13,0.0,"[('wc_17', 0.8800000000000007), ('wc_12', 0.2100000000000001)]",0.9052000000000006,,,21.0,0.006011000000000001,['Pass'],Fail,0.13,0.87,1.0,1.0,0.1
154.0,17.0,wc_17,,0.0,,,,0.0,,,,Fail,,,,,
154.0,17.0,wc_17,wc_14,0.0,"[('wc_14', 0.9500000000000008), ('wc_13', 0.13)]",0.9565000000000007,,,28.0,0.008253,['Fail'],Fail,0.9500000000000008,-0.22272727272727355,0.0,0.0,1.0
154.0,17.0,wc_17,,0.0,,,,0.0,,,,Fail,,,,,
154.0,17.0,wc_17,wc_15,1.0,"[('wc_15', 0.5000000000000003), ('wc_13', 0.13), ('wc_14', 0.9500000000000008)]",0.9782500000000004,,,23.0,0.05567899999999999,['Fail'],Fail,0.5000000000000003,-0.08333333333333365,0.0,0.0,0.4
155.0,17.0,wc_17,,0.0,,,,0.0,,,,Pass,,,,,
155.0,17.0,wc_17,,0.0,,,77.0,,,,,Pass,,,,,
155.0,17.0,wc_17,,0.0,,,,0.0,,,,Pass,,,,,
155.0,17.0,wc_17,wc_17,0.0,"[('wc_17', 0.8800000000000007)]",0.8800000000000007,,,39.0,0.002138,['Pass'],Pass,0.8800000000000007,-0.10222222222222288,7.0,9.0,0.7
155.0,17.0,wc_17,,0.0,,,,21.0,,,,Pass,,,,,
155.0,17.0,wc_17,wc_12,0.0,"[('wc_12', 0.2100000000000001), ('wc_17', 0.8800000000000007)]",0.9052000000000006,,,22.0,0.004909,['Pass'],Pass,0.2100000000000001,0.2899999999999999,1.0,2.0,0.1
155.0,17.0,wc_17,,0.0,,,,0.0,,,,Pass,,,,,
155.0,17.0,wc_17,wc_13,0.0,"[('wc_17', 0.8800000000000007), ('wc_12', 0.2100000000000001)]",0.9052000000000006,,,27.0,0.007083,['Pass'],Pass,0.13,0.87,2.0,2.0,0.1
155.0,17.0,wc_17,,0.0,,,,0.0,,,,Pass,,,,,
155.0,17.0,wc_17,wc_14,1.0,"[('wc_14', 0.9500000000000008), ('wc_17', 0.8800000000000007), ('wc_12', 0.2100000000000001)]",0.9952600000000001,,,33.0,0.04598,['Pass'],Pass,0.9500000000000008,0.049999999999999156,2.0,2.0,1.0
