mpecck/BCQC/bcqc_with_qdt/results/raw/input_20/independent_qc/score/New Folder/20200429_105847/wp_4_qc_majority_0.9.csv
production_index,step_idx,production_workcell,qc,consent,winner_qc_list,score,production_time,transport_time,inspection_time,network_time,qc_results,actual_quality,qc_score,score_error,in_winner_counter,in_qc_counter,qc_capability
5.0,1.0,wc_1,,0.0,,,73.0,,,,,Fail,,,,,
5.0,1.0,wc_1,,0.0,,,,0.0,,,,Fail,,,,,
5.0,1.0,wc_1,wc_1,0.0,"[('wc_1', 0.18)]",0.17999999999999994,,,30.0,0.002331,['Pass'],Fail,0.18,-0.14666666666666667,0.0,0.0,0.1
5.0,1.0,wc_1,,0.0,,,,0.0,,,,Fail,,,,,
5.0,1.0,wc_1,wc_2,0.0,"[('wc_2', 0.8700000000000007)]",0.8700000000000007,,,28.0,0.005327,['Fail'],Fail,0.8700000000000007,-0.7409677419354845,0.0,0.0,0.9
5.0,1.0,wc_1,,0.0,,,,0.0,,,,Fail,,,,,
5.0,1.0,wc_1,wc_3,0.0,"[('wc_2', 0.8700000000000007)]",0.8700000000000007,,,36.0,0.00842,['Fail'],Fail,0.5400000000000004,-0.41096774193548424,0.0,0.0,0.6
5.0,1.0,wc_1,,0.0,,,,0.0,,,,Fail,,,,,
5.0,1.0,wc_1,wc_4,0.0,"[('wc_4', 0.5000000000000003), ('wc_2', 0.8700000000000007)]",0.9350000000000004,,,25.0,0.007684,['Fail'],Fail,0.5000000000000003,-0.43548387096774227,0.0,0.0,0.4
5.0,1.0,wc_1,,0.0,,,,0.0,,,,Fail,,,,,
5.0,1.0,wc_1,wc_5,0.0,"[('wc_2', 0.8700000000000007), ('wc_4', 0.5000000000000003)]",0.9350000000000004,,,24.0,0.012757,['Fail'],Fail,0.18,-0.11548387096774193,0.0,0.0,0.1
5.0,1.0,wc_1,,0.0,,,,61.0,,,,Fail,,,,,
5.0,1.0,wc_1,wc_6,0.0,"[('wc_2', 0.8700000000000007), ('wc_4', 0.5000000000000003)]",0.9350000000000004,,,35.0,0.011404000000000001,['Fail'],Fail,0.3900000000000001,-0.3900000000000001,0.0,7.0,0.3
5.0,1.0,wc_1,,0.0,,,,0.0,,,,Fail,,,,,
5.0,1.0,wc_1,wc_7,1.0,"[('wc_7', 0.9900000000000008), ('wc_1', 0.18), ('wc_3', 0.5400000000000004), ('wc_5', 0.18), ('wc_6', 0.3900000000000001)]",0.9981132456000001,,,25.0,0.045455,['Pass'],Fail,0.9900000000000008,-0.712222222222223,0.0,0.0,0.9
15.0,1.0,wc_1,,0.0,,,,182.0,,,,Pass,,,,,
15.0,1.0,wc_1,,0.0,,,74.0,,,,,Pass,,,,,
15.0,1.0,wc_1,,0.0,,,,0.0,,,,Pass,,,,,
15.0,1.0,wc_1,wc_1,0.0,"[('wc_1', 0.18)]",0.17999999999999994,,,40.0,0.002227,['Pass'],Pass,0.18,0.8200000000000001,1.0,1.0,0.1
15.0,1.0,wc_1,,0.0,,,,0.0,,,,Pass,,,,,
15.0,1.0,wc_1,wc_2,0.0,"[('wc_2', 0.8700000000000007), ('wc_1', 0.18)]",0.8934000000000005,,,28.0,0.004062,['Pass'],Pass,0.8700000000000007,-0.8700000000000007,0.0,1.0,0.9
15.0,1.0,wc_1,,0.0,,,,0.0,,,,Pass,,,,,
15.0,1.0,wc_1,wc_3,1.0,"[('wc_3', 0.5400000000000004), ('wc_1', 0.18), ('wc_2', 0.8700000000000007)]",0.9509640000000003,,,30.0,0.047682999999999996,['Pass'],Pass,0.5400000000000004,0.45999999999999963,2.0,2.0,0.6
18.0,3.0,wc_3,,0.0,,,,0.0,,,,Pass,,,,,
18.0,3.0,wc_3,,0.0,,,61.0,,,,,Pass,,,,,
18.0,3.0,wc_3,,0.0,,,,0.0,,,,Pass,,,,,
18.0,3.0,wc_3,wc_3,0.0,"[('wc_3', 0.5400000000000004)]",0.5400000000000004,,,35.0,0.002246,['Pass'],Pass,0.5400000000000004,0.45999999999999963,2.0,2.0,0.6
18.0,3.0,wc_3,,0.0,,,,0.0,,,,Pass,,,,,
18.0,3.0,wc_3,wc_4,0.0,"[('wc_4', 0.5000000000000003), ('wc_3', 0.5400000000000004)]",0.7700000000000004,,,22.0,0.004011,['Pass'],Pass,0.5000000000000003,-0.5000000000000003,0.0,2.0,0.4
18.0,3.0,wc_3,,0.0,,,,0.0,,,,Pass,,,,,
18.0,3.0,wc_3,wc_5,0.0,"[('wc_3', 0.5400000000000004), ('wc_4', 0.5000000000000003)]",0.7700000000000004,,,40.0,0.005675,['Pass'],Pass,0.18,0.32,1.0,2.0,0.1
18.0,3.0,wc_3,,0.0,,,,41.0,,,,Pass,,,,,
18.0,3.0,wc_3,wc_1,0.0,"[('wc_1', 0.18), ('wc_3', 0.5400000000000004), ('wc_4', 0.5000000000000003)]",0.8114000000000003,,,22.0,0.011337,['Pass'],Pass,0.18,0.8200000000000001,2.0,2.0,0.1
18.0,3.0,wc_3,,0.0,,,,0.0,,,,Pass,,,,,
18.0,3.0,wc_3,wc_2,1.0,"[('wc_2', 0.8700000000000007), ('wc_3', 0.5400000000000004), ('wc_4', 0.5000000000000003), ('wc_1', 0.18)]",0.9754820000000002,,,35.0,0.042204,['Pass'],Pass,0.8700000000000007,-0.20333333333333403,2.0,3.0,0.9
26.0,2.0,wc_2,,0.0,,,,0.0,,,,Pass,,,,,
26.0,2.0,wc_2,,0.0,,,80.0,,,,,Pass,,,,,
26.0,2.0,wc_2,,0.0,,,,0.0,,,,Pass,,,,,
26.0,2.0,wc_2,wc_2,0.0,"[('wc_2', 0.8700000000000007)]",0.8700000000000007,,,40.0,0.002051,['Pass'],Pass,0.8700000000000007,-0.20333333333333403,2.0,3.0,0.9
26.0,2.0,wc_2,,0.0,,,,0.0,,,,Pass,,,,,
26.0,2.0,wc_2,wc_3,0.0,"[('wc_3', 0.5400000000000004), ('wc_2', 0.8700000000000007)]",0.9402000000000004,,,25.0,0.008214,['Pass'],Pass,0.5400000000000004,0.45999999999999963,3.0,3.0,0.6
26.0,2.0,wc_2,,0.0,,,,0.0,,,,Pass,,,,,
26.0,2.0,wc_2,wc_4,1.0,"[('wc_4', 0.5000000000000003), ('wc_2', 0.8700000000000007), ('wc_3', 0.5400000000000004)]",0.9701000000000002,,,35.0,0.05187,['Pass'],Pass,0.5000000000000003,-3.3306690738754696e-16,2.0,4.0,0.4
35.0,4.0,wc_4,,0.0,,,,0.0,,,,Pass,,,,,
35.0,4.0,wc_4,,0.0,,,75.0,,,,,Pass,,,,,
35.0,4.0,wc_4,,0.0,,,,0.0,,,,Pass,,,,,
35.0,4.0,wc_4,wc_4,0.0,"[('wc_4', 0.5000000000000003)]",0.5000000000000003,,,24.0,0.003101,['Fail'],Pass,0.5000000000000003,-3.3306690738754696e-16,2.0,4.0,0.4
35.0,4.0,wc_4,,0.0,,,,0.0,,,,Pass,,,,,
35.0,4.0,wc_4,wc_5,0.0,"[('wc_5', 0.18), ('wc_4', 0.5000000000000003)]",0.5900000000000003,,,20.0,0.004085999999999999,['Fail'],Pass,0.18,0.07,1.0,4.0,0.1
35.0,4.0,wc_4,,0.0,,,,41.0,,,,Pass,,,,,
35.0,4.0,wc_4,wc_1,0.0,"[('wc_4', 0.5000000000000003), ('wc_5', 0.18)]",0.5900000000000003,,,33.0,0.006350000000000001,['Fail'],Pass,0.18,0.5700000000000001,3.0,4.0,0.1
35.0,4.0,wc_4,,0.0,,,,0.0,,,,Pass,,,,,
35.0,4.0,wc_4,wc_2,0.0,"[('wc_2', 0.8700000000000007), ('wc_1', 0.18)]",0.8934000000000005,,,38.0,0.013005,['Pass'],Pass,0.8700000000000007,-0.12000000000000066,3.0,4.0,0.9
35.0,4.0,wc_4,,0.0,,,,0.0,,,,Pass,,,,,
35.0,4.0,wc_4,wc_3,1.0,"[('wc_3', 0.5400000000000004), ('wc_1', 0.18), ('wc_2', 0.8700000000000007)]",0.9509640000000003,,,20.0,0.045826,['Pass'],Pass,0.5400000000000004,0.45999999999999963,5.0,5.0,0.6
44.0,5.0,wc_5,,0.0,,,,0.0,,,,Fail,,,,,
44.0,5.0,wc_5,,0.0,,,80.0,,,,,Fail,,,,,
44.0,5.0,wc_5,,0.0,,,,0.0,,,,Fail,,,,,
44.0,5.0,wc_5,wc_5,0.0,"[('wc_5', 0.18)]",0.17999999999999994,,,32.0,0.002199,['Pass'],Fail,0.18,0.020000000000000018,1.0,5.0,0.1
44.0,5.0,wc_5,,0.0,,,,41.0,,,,Fail,,,,,
44.0,5.0,wc_5,wc_1,0.0,"[('wc_1', 0.18), ('wc_5', 0.18)]",0.3275999999999999,,,25.0,0.004536,['Pass'],Fail,0.18,0.6200000000000001,4.0,5.0,0.1
44.0,5.0,wc_5,,0.0,,,,0.0,,,,Fail,,,,,
44.0,5.0,wc_5,wc_2,0.0,"[('wc_2', 0.8700000000000007)]",0.8700000000000007,,,32.0,0.007255000000000001,['Fail'],Fail,0.8700000000000007,-0.07000000000000062,4.0,5.0,0.9
44.0,5.0,wc_5,,0.0,,,,0.0,,,,Fail,,,,,
44.0,5.0,wc_5,wc_3,0.0,"[('wc_2', 0.8700000000000007)]",0.8700000000000007,,,40.0,0.008906,['Fail'],Fail,0.5400000000000004,0.45999999999999963,5.0,5.0,0.6
44.0,5.0,wc_5,,0.0,,,,0.0,,,,Fail,,,,,
44.0,5.0,wc_5,wc_4,0.0,"[('wc_4', 0.5000000000000003), ('wc_2', 0.8700000000000007)]",0.9350000000000004,,,33.0,0.011156,['Fail'],Fail,0.5000000000000003,-0.10000000000000031,2.0,5.0,0.4
44.0,5.0,wc_5,,0.0,,,,81.0,,,,Fail,,,,,
44.0,5.0,wc_5,wc_6,1.0,"[('wc_6', 0.3900000000000001), ('wc_2', 0.8700000000000007), ('wc_4', 0.5000000000000003)]",0.9603500000000003,,,28.0,0.051741999999999996,['Fail'],Fail,0.3900000000000001,-0.23615384615384627,0.0,0.0,0.3
52.0,5.0,wc_5,,0.0,,,,361.0,,,,Fail,,,,,
52.0,5.0,wc_5,,0.0,,,63.0,,,,,Fail,,,,,
52.0,5.0,wc_5,,0.0,,,,0.0,,,,Fail,,,,,
52.0,5.0,wc_5,wc_5,0.0,"[('wc_5', 0.18)]",0.17999999999999994,,,23.0,0.002501,['Fail'],Fail,0.18,-0.013333333333333336,1.0,6.0,0.1
52.0,5.0,wc_5,,0.0,,,,41.0,,,,Fail,,,,,
52.0,5.0,wc_5,wc_1,0.0,"[('wc_1', 0.18)]",0.17999999999999994,,,36.0,0.0042369999999999994,['Pass'],Fail,0.18,0.48666666666666664,4.0,6.0,0.1
52.0,5.0,wc_5,,0.0,,,,0.0,,,,Fail,,,,,
52.0,5.0,wc_5,wc_2,0.0,"[('wc_2', 0.8700000000000007), ('wc_5', 0.18)]",0.8934000000000005,,,40.0,0.008437,['Fail'],Fail,0.8700000000000007,-0.03666666666666729,5.0,6.0,0.9
52.0,5.0,wc_5,,0.0,,,,0.0,,,,Fail,,,,,
52.0,5.0,wc_5,wc_3,1.0,"[('wc_3', 0.5400000000000004), ('wc_5', 0.18), ('wc_2', 0.8700000000000007)]",0.9509640000000003,,,21.0,0.052001,['Fail'],Fail,0.5400000000000004,0.3171428571428567,6.0,7.0,0.6
60.0,5.0,wc_5,,0.0,,,,0.0,,,,Fail,,,,,
60.0,5.0,wc_5,,0.0,,,62.0,,,,,Fail,,,,,
60.0,5.0,wc_5,,0.0,,,,0.0,,,,Fail,,,,,
60.0,5.0,wc_5,wc_5,0.0,"[('wc_5', 0.18)]",0.17999999999999994,,,27.0,0.005657,['Pass'],Fail,0.18,0.1057142857142857,2.0,7.0,0.1
60.0,5.0,wc_5,,0.0,,,,41.0,,,,Fail,,,,,
60.0,5.0,wc_5,wc_1,0.0,"[('wc_5', 0.18)]",0.17999999999999994,,,30.0,0.004474,['Pass'],Fail,0.18,0.3914285714285714,4.0,7.0,0.1
60.0,5.0,wc_5,,0.0,,,,0.0,,,,Fail,,,,,
60.0,5.0,wc_5,wc_2,0.0,"[('wc_2', 0.8700000000000007), ('wc_1', 0.18)]",0.8934000000000005,,,37.0,0.006182999999999999,['Fail'],Fail,0.8700000000000007,-0.012857142857143566,6.0,7.0,0.9
60.0,5.0,wc_5,,0.0,,,,0.0,,,,Fail,,,,,
60.0,5.0,wc_5,wc_3,1.0,"[('wc_3', 0.5400000000000004), ('wc_1', 0.18), ('wc_2', 0.8700000000000007)]",0.9509640000000003,,,32.0,0.04713099999999999,['Fail'],Fail,0.5400000000000004,0.33499999999999963,7.0,8.0,0.6
68.0,5.0,wc_5,,0.0,,,,0.0,,,,Fail,,,,,
68.0,5.0,wc_5,,0.0,,,68.0,,,,,Fail,,,,,
68.0,5.0,wc_5,,0.0,,,,0.0,,,,Fail,,,,,
68.0,5.0,wc_5,wc_5,0.0,"[('wc_5', 0.18)]",0.17999999999999994,,,35.0,0.00249,['Pass'],Fail,0.18,0.07,2.0,8.0,0.1
68.0,5.0,wc_5,,0.0,,,,41.0,,,,Fail,,,,,
68.0,5.0,wc_5,wc_1,0.0,"[('wc_1', 0.18), ('wc_5', 0.18)]",0.3275999999999999,,,33.0,0.005237,['Pass'],Fail,0.18,0.445,5.0,8.0,0.1
68.0,5.0,wc_5,,0.0,,,,0.0,,,,Fail,,,,,
68.0,5.0,wc_5,wc_2,0.0,"[('wc_2', 0.8700000000000007)]",0.8700000000000007,,,22.0,0.006403,['Fail'],Fail,0.8700000000000007,0.004999999999999338,7.0,8.0,0.9
68.0,5.0,wc_5,,0.0,,,,0.0,,,,Fail,,,,,
68.0,5.0,wc_5,wc_3,0.0,"[('wc_3', 0.5400000000000004), ('wc_2', 0.8700000000000007)]",0.9402000000000004,,,23.0,0.008381,['Fail'],Fail,0.5400000000000004,0.33499999999999963,7.0,8.0,0.6
68.0,5.0,wc_5,,0.0,,,,0.0,,,,Fail,,,,,
68.0,5.0,wc_5,wc_4,1.0,"[('wc_4', 0.5000000000000003), ('wc_2', 0.8700000000000007), ('wc_3', 0.5400000000000004)]",0.9701000000000002,,,22.0,0.048887,['Fail'],Fail,0.5000000000000003,-0.05555555555555591,4.0,9.0,0.4
77.0,5.0,wc_5,,0.0,,,,0.0,,,,Fail,,,,,
77.0,5.0,wc_5,,0.0,,,51.0,,,,,Fail,,,,,
77.0,5.0,wc_5,,0.0,,,,0.0,,,,Fail,,,,,
77.0,5.0,wc_5,wc_5,0.0,"[('wc_5', 0.18)]",0.17999999999999994,,,31.0,0.002335,['Fail'],Fail,0.18,0.04222222222222222,2.0,9.0,0.1
77.0,5.0,wc_5,,0.0,,,,41.0,,,,Fail,,,,,
77.0,5.0,wc_5,wc_1,0.0,"[('wc_1', 0.18), ('wc_5', 0.18)]",0.3275999999999999,,,33.0,0.005074,['Fail'],Fail,0.18,0.3755555555555556,5.0,9.0,0.1
77.0,5.0,wc_5,,0.0,,,,0.0,,,,Fail,,,,,
77.0,5.0,wc_5,wc_2,1.0,"[('wc_2', 0.8700000000000007), ('wc_5', 0.18), ('wc_1', 0.18)]",0.9125880000000004,,,37.0,0.04347999999999999,['Fail'],Fail,0.8700000000000007,0.02999999999999936,0.0,0.0,0.9
83.0,5.0,wc_5,,0.0,,,,0.0,,,,Fail,,,,,
83.0,5.0,wc_5,,0.0,,,74.0,,,,,Fail,,,,,
83.0,5.0,wc_5,,0.0,,,,0.0,,,,Fail,,,,,
83.0,5.0,wc_5,wc_5,0.0,"[('wc_5', 0.18)]",0.17999999999999994,,,33.0,0.003386,['Pass'],Fail,0.18,0.12,0.0,0.0,0.1
83.0,5.0,wc_5,,0.0,,,,41.0,,,,Fail,,,,,
83.0,5.0,wc_5,wc_1,0.0,"[('wc_5', 0.18)]",0.17999999999999994,,,37.0,0.007260000000000001,['Pass'],Fail,0.18,0.42,0.0,0.0,0.1
83.0,5.0,wc_5,,0.0,,,,0.0,,,,Fail,,,,,
83.0,5.0,wc_5,wc_2,0.0,"[('wc_2', 0.8700000000000007), ('wc_1', 0.18)]",0.8934000000000005,,,34.0,0.006147,['Fail'],Fail,0.8700000000000007,-0.8700000000000007,0.0,0.0,0.9
83.0,5.0,wc_5,,0.0,,,,0.0,,,,Fail,,,,,
83.0,5.0,wc_5,wc_3,1.0,"[('wc_3', 0.5400000000000004), ('wc_1', 0.18), ('wc_2', 0.8700000000000007)]",0.9509640000000003,,,20.0,0.046071,['Fail'],Fail,0.5400000000000004,0.27818181818181786,0.0,0.0,0.6
88.0,5.0,wc_5,,0.0,,,,0.0,,,,Fail,,,,,
88.0,5.0,wc_5,,0.0,,,67.0,,,,,Fail,,,,,
88.0,5.0,wc_5,,0.0,,,,0.0,,,,Fail,,,,,
88.0,5.0,wc_5,wc_5,0.0,"[('wc_5', 0.18)]",0.17999999999999994,,,27.0,0.002328,['Pass'],Fail,0.18,-0.18,0.0,1.0,0.1
88.0,5.0,wc_5,,0.0,,,,41.0,,,,Fail,,,,,
88.0,5.0,wc_5,wc_1,0.0,"[('wc_5', 0.18)]",0.17999999999999994,,,23.0,0.004258,['Pass'],Fail,0.18,0.8200000000000001,1.0,1.0,0.1
88.0,5.0,wc_5,,0.0,,,,0.0,,,,Fail,,,,,
88.0,5.0,wc_5,wc_2,0.0,"[('wc_2', 0.8700000000000007), ('wc_1', 0.18)]",0.8934000000000005,,,34.0,0.007924,['Fail'],Fail,0.8700000000000007,0.12999999999999934,1.0,1.0,0.9
88.0,5.0,wc_5,,0.0,,,,0.0,,,,Fail,,,,,
88.0,5.0,wc_5,wc_3,1.0,"[('wc_3', 0.5400000000000004), ('wc_1', 0.18), ('wc_2', 0.8700000000000007)]",0.9509640000000003,,,33.0,0.04199100000000001,['Fail'],Fail,0.5400000000000004,0.45999999999999963,1.0,1.0,0.6
93.0,5.0,wc_5,,0.0,,,,0.0,,,,Pass,,,,,
93.0,5.0,wc_5,,0.0,,,57.0,,,,,Pass,,,,,
93.0,5.0,wc_5,,0.0,,,,0.0,,,,Pass,,,,,
93.0,5.0,wc_5,wc_5,0.0,"[('wc_5', 0.18)]",0.17999999999999994,,,32.0,0.002811,['Fail'],Pass,0.18,-0.18,0.0,2.0,0.1
93.0,5.0,wc_5,,0.0,,,,41.0,,,,Pass,,,,,
93.0,5.0,wc_5,wc_1,0.0,"[('wc_1', 0.18), ('wc_5', 0.18)]",0.3275999999999999,,,39.0,0.008258999999999999,['Fail'],Pass,0.18,0.8200000000000001,2.0,2.0,0.1
93.0,5.0,wc_5,,0.0,,,,0.0,,,,Pass,,,,,
93.0,5.0,wc_5,wc_2,0.0,"[('wc_2', 0.8700000000000007)]",0.8700000000000007,,,24.0,0.007686999999999999,['Pass'],Pass,0.8700000000000007,0.12999999999999934,2.0,2.0,0.9
93.0,5.0,wc_5,,0.0,,,,0.0,,,,Pass,,,,,
93.0,5.0,wc_5,wc_3,0.0,"[('wc_3', 0.5400000000000004), ('wc_2', 0.8700000000000007)]",0.9402000000000004,,,39.0,0.008464,['Pass'],Pass,0.5400000000000004,0.45999999999999963,1.0,1.0,0.6
93.0,5.0,wc_5,,0.0,,,,0.0,,,,Pass,,,,,
93.0,5.0,wc_5,wc_4,1.0,"[('wc_4', 0.5000000000000003), ('wc_2', 0.8700000000000007), ('wc_3', 0.5400000000000004)]",0.9701000000000002,,,29.0,0.05373,['Pass'],Pass,0.5000000000000003,-0.1153846153846157,0.0,0.0,0.4
98.0,6.0,wc_6,,0.0,,,,81.0,,,,Pass,,,,,
98.0,6.0,wc_6,,0.0,,,74.0,,,,,Pass,,,,,
98.0,6.0,wc_6,,0.0,,,,0.0,,,,Pass,,,,,
98.0,6.0,wc_6,wc_6,0.0,"[('wc_6', 0.3900000000000001)]",0.3900000000000001,,,28.0,0.004154,['Pass'],Pass,0.3900000000000001,-0.3900000000000001,0.0,7.0,0.3
98.0,6.0,wc_6,,0.0,,,,0.0,,,,Pass,,,,,
98.0,6.0,wc_6,wc_7,0.0,"[('wc_7', 0.9900000000000008), ('wc_6', 0.3900000000000001)]",0.9939000000000004,,,25.0,0.004483,['Pass'],Pass,0.9900000000000008,-0.9900000000000008,0.0,0.0,0.9
98.0,6.0,wc_6,,0.0,,,,0.0,,,,Pass,,,,,
98.0,6.0,wc_6,wc_8,1.0,"[('wc_8', 0.6500000000000005), ('wc_6', 0.3900000000000001), ('wc_7', 0.9900000000000008)]",0.9978650000000001,,,24.0,0.041224000000000004,['Pass'],Pass,0.6500000000000005,-0.5532258064516133,0.0,0.0,0.6
103.0,8.0,wc_8,,0.0,,,,0.0,,,,Pass,,,,,
103.0,8.0,wc_8,,0.0,,,53.0,,,,,Pass,,,,,
103.0,8.0,wc_8,,0.0,,,,0.0,,,,Pass,,,,,
103.0,8.0,wc_8,wc_8,0.0,"[('wc_8', 0.6500000000000005)]",0.6500000000000005,,,34.0,0.002088,['Pass'],Pass,0.6500000000000005,-0.6500000000000005,0.0,0.0,0.6
103.0,8.0,wc_8,,0.0,,,,0.0,,,,Pass,,,,,
103.0,8.0,wc_8,wc_9,0.0,"[('wc_8', 0.6500000000000005)]",0.6500000000000005,,,39.0,0.004423,['Pass'],Pass,0.6300000000000004,-0.5300000000000005,0.0,0.0,0.7
103.0,8.0,wc_8,,0.0,,,,0.0,,,,Pass,,,,,
103.0,8.0,wc_8,wc_10,0.0,"[('wc_10', 0.8600000000000007), ('wc_8', 0.6500000000000005)]",0.9510000000000003,,,34.0,0.007581999999999999,['Pass'],Pass,0.8600000000000007,-0.825517241379311,0.0,0.0,1.0
103.0,8.0,wc_8,,0.0,,,,0.0,,,,Pass,,,,,
103.0,8.0,wc_8,wc_11,0.0,"[('wc_8', 0.6500000000000005), ('wc_10', 0.8600000000000007)]",0.9510000000000003,,,39.0,0.010756,['Pass'],Pass,0.11,-0.009999999999999995,0.0,0.0,0.1
103.0,8.0,wc_8,,0.0,,,,21.0,,,,Pass,,,,,
103.0,8.0,wc_8,wc_6,1.0,"[('wc_6', 0.3900000000000001), ('wc_8', 0.6500000000000005), ('wc_10', 0.8600000000000007)]",0.9701100000000001,,,30.0,0.05304299999999999,['Pass'],Pass,0.3900000000000001,-0.16777777777777791,2.0,9.0,0.3
107.0,11.0,wc_11,,0.0,,,,0.0,,,,Pass,,,,,
107.0,11.0,wc_11,,0.0,,,67.0,,,,,Pass,,,,,
107.0,11.0,wc_11,,0.0,,,,0.0,,,,Pass,,,,,
107.0,11.0,wc_11,wc_11,0.0,"[('wc_11', 0.11)]",0.10999999999999999,,,26.0,0.002826,['Pass'],Pass,0.11,-0.11,0.0,1.0,0.1
107.0,11.0,wc_11,,0.0,,,,21.0,,,,Pass,,,,,
107.0,11.0,wc_11,wc_6,0.0,"[('wc_6', 0.3900000000000001), ('wc_11', 0.11)]",0.45710000000000006,,,24.0,0.004836,['Pass'],Pass,0.3900000000000001,-0.16777777777777791,2.0,9.0,0.3
107.0,11.0,wc_11,,0.0,,,,0.0,,,,Pass,,,,,
107.0,11.0,wc_11,wc_7,1.0,"[('wc_7', 0.9900000000000008), ('wc_11', 0.11), ('wc_6', 0.3900000000000001)]",0.9945710000000004,,,33.0,0.043504,['Pass'],Pass,0.9900000000000008,-0.32333333333333414,2.0,3.0,0.9
112.0,7.0,wc_7,,0.0,,,,0.0,,,,Pass,,,,,
112.0,7.0,wc_7,,0.0,,,57.0,,,,,Pass,,,,,
112.0,7.0,wc_7,,0.0,,,,0.0,,,,Pass,,,,,
112.0,7.0,wc_7,wc_7,0.0,"[('wc_7', 0.9900000000000008)]",0.9900000000000008,,,36.0,0.004766,['Pass'],Pass,0.9900000000000008,-0.32333333333333414,2.0,3.0,0.9
112.0,7.0,wc_7,,0.0,,,,0.0,,,,Pass,,,,,
112.0,7.0,wc_7,wc_8,0.0,"[('wc_8', 0.6500000000000005), ('wc_7', 0.9900000000000008)]",0.9965000000000003,,,30.0,0.004717000000000001,['Pass'],Pass,0.6500000000000005,-0.15000000000000047,1.0,2.0,0.6
112.0,7.0,wc_7,,0.0,,,,0.0,,,,Pass,,,,,
112.0,7.0,wc_7,wc_9,0.0,"[('wc_7', 0.9900000000000008), ('wc_8', 0.6500000000000005)]",0.9965000000000003,,,27.0,0.006921,['Pass'],Pass,0.6300000000000004,-0.6300000000000004,0.0,2.0,0.7
112.0,7.0,wc_7,,0.0,,,,0.0,,,,Pass,,,,,
112.0,7.0,wc_7,wc_10,1.0,"[('wc_10', 0.8600000000000007), ('wc_7', 0.9900000000000008), ('wc_8', 0.6500000000000005)]",0.99951,,,21.0,0.045935000000000004,['Pass'],Pass,0.8600000000000007,-0.19333333333333402,2.0,3.0,1.0
116.0,10.0,wc_10,,0.0,,,,0.0,,,,Fail,,,,,
116.0,10.0,wc_10,,0.0,,,69.0,,,,,Fail,,,,,
116.0,10.0,wc_10,,0.0,,,,0.0,,,,Fail,,,,,
116.0,10.0,wc_10,wc_10,0.0,"[('wc_10', 0.8600000000000007)]",0.8600000000000007,,,39.0,0.002408,['Pass'],Fail,0.8600000000000007,-0.19333333333333402,2.0,3.0,1.0
116.0,10.0,wc_10,,0.0,,,,0.0,,,,Fail,,,,,
116.0,10.0,wc_10,wc_11,0.0,"[('wc_11', 0.11), ('wc_10', 0.8600000000000007)]",0.8754000000000006,,,32.0,0.004149,['Pass'],Fail,0.11,0.22333333333333333,1.0,3.0,0.1
116.0,10.0,wc_10,,0.0,,,,21.0,,,,Fail,,,,,
116.0,10.0,wc_10,wc_6,1.0,"[('wc_6', 0.3900000000000001), ('wc_10', 0.8600000000000007), ('wc_11', 0.11)]",0.9239940000000004,,,35.0,0.04654699999999999,['Pass'],Fail,0.3900000000000001,-0.05666666666666681,0.0,0.0,0.3
119.0,10.0,wc_10,,0.0,,,,0.0,,,,Pass,,,,,
119.0,10.0,wc_10,,0.0,,,69.0,,,,,Pass,,,,,
119.0,10.0,wc_10,,0.0,,,,0.0,,,,Pass,,,,,
119.0,10.0,wc_10,wc_10,0.0,"[('wc_10', 0.8600000000000007)]",0.8600000000000007,,,20.0,0.002292,['Pass'],Pass,0.8600000000000007,-0.11000000000000065,3.0,4.0,1.0
119.0,10.0,wc_10,,0.0,,,,0.0,,,,Pass,,,,,
119.0,10.0,wc_10,wc_11,0.0,"[('wc_11', 0.11), ('wc_10', 0.8600000000000007)]",0.8754000000000006,,,31.0,0.004213,['Pass'],Pass,0.11,0.39,2.0,4.0,0.1
119.0,10.0,wc_10,,0.0,,,,21.0,,,,Pass,,,,,
119.0,10.0,wc_10,wc_6,1.0,"[('wc_6', 0.3900000000000001), ('wc_10', 0.8600000000000007), ('wc_11', 0.11)]",0.9239940000000004,,,39.0,0.044009,['Pass'],Pass,0.3900000000000001,0.6099999999999999,1.0,1.0,0.3
122.0,9.0,wc_9,,0.0,,,,0.0,,,,Pass,,,,,
122.0,9.0,wc_9,,0.0,,,61.0,,,,,Pass,,,,,
122.0,9.0,wc_9,,0.0,,,,0.0,,,,Pass,,,,,
122.0,9.0,wc_9,wc_9,0.0,"[('wc_9', 0.6300000000000004)]",0.6300000000000004,,,39.0,0.002224,['Fail'],Pass,0.6300000000000004,-0.6300000000000004,0.0,5.0,0.7
122.0,9.0,wc_9,,0.0,,,,0.0,,,,Pass,,,,,
122.0,9.0,wc_9,wc_10,0.0,"[('wc_10', 0.8600000000000007)]",0.8600000000000007,,,29.0,0.004887,['Pass'],Pass,0.8600000000000007,-0.06000000000000061,4.0,5.0,1.0
122.0,9.0,wc_9,,0.0,,,,0.0,,,,Pass,,,,,
122.0,9.0,wc_9,wc_11,0.0,"[('wc_10', 0.8600000000000007)]",0.8600000000000007,,,24.0,0.005863,['Pass'],Pass,0.11,0.49,3.0,5.0,0.1
122.0,9.0,wc_9,,0.0,,,,21.0,,,,Pass,,,,,
122.0,9.0,wc_9,wc_6,0.0,"[('wc_6', 0.3900000000000001), ('wc_10', 0.8600000000000007)]",0.9146000000000004,,,27.0,0.010364,['Pass'],Pass,0.3900000000000001,0.6099999999999999,1.0,1.0,0.3
122.0,9.0,wc_9,,0.0,,,,0.0,,,,Pass,,,,,
122.0,9.0,wc_9,wc_7,1.0,"[('wc_7', 0.9900000000000008), ('wc_10', 0.8600000000000007), ('wc_6', 0.3900000000000001)]",0.9991460000000001,,,40.0,0.048889999999999996,['Pass'],Pass,0.9900000000000008,-0.41857142857142937,4.0,7.0,0.9
124.0,12.0,wc_12,,0.0,,,,142.0,,,,Fail,,,,,
124.0,12.0,wc_12,,0.0,,,52.0,,,,,Fail,,,,,
124.0,12.0,wc_12,,0.0,,,,0.0,,,,Fail,,,,,
124.0,12.0,wc_12,wc_12,0.0,"[('wc_12', 0.2100000000000001)]",0.21000000000000008,,,31.0,0.002174,['Fail'],Fail,0.2100000000000001,-0.12304347826086967,0.0,0.0,0.1
124.0,12.0,wc_12,,0.0,,,,0.0,,,,Fail,,,,,
124.0,12.0,wc_12,wc_13,0.0,"[('wc_13', 0.13), ('wc_12', 0.2100000000000001)]",0.3127000000000001,,,26.0,0.00489,['Fail'],Fail,0.13,-0.04304347826086957,0.0,0.0,0.1
124.0,12.0,wc_12,,0.0,,,,0.0,,,,Fail,,,,,
124.0,12.0,wc_12,wc_14,1.0,"[('wc_14', 0.9500000000000008), ('wc_12', 0.2100000000000001), ('wc_13', 0.13)]",0.9656350000000006,,,27.0,0.046513000000000006,['Fail'],Fail,0.9500000000000008,-0.8195652173913052,0.0,0.0,1.0
129.0,12.0,wc_12,,0.0,,,,82.0,,,,Fail,,,,,
129.0,12.0,wc_12,,0.0,,,79.0,,,,,Fail,,,,,
129.0,12.0,wc_12,,0.0,,,,0.0,,,,Fail,,,,,
129.0,12.0,wc_12,wc_12,0.0,"[('wc_12', 0.2100000000000001)]",0.21000000000000008,,,20.0,0.002149,['Pass'],Fail,0.2100000000000001,0.7899999999999999,1.0,1.0,0.1
129.0,12.0,wc_12,,0.0,,,,0.0,,,,Fail,,,,,
129.0,12.0,wc_12,wc_13,0.0,"[('wc_12', 0.2100000000000001)]",0.21000000000000008,,,31.0,0.004194,['Pass'],Fail,0.13,0.87,1.0,1.0,0.1
129.0,12.0,wc_12,,0.0,,,,0.0,,,,Fail,,,,,
129.0,12.0,wc_12,wc_14,0.0,"[('wc_14', 0.9500000000000008), ('wc_13', 0.13)]",0.9565000000000007,,,40.0,0.007496,['Fail'],Fail,0.9500000000000008,-0.9500000000000008,0.0,0.0,1.0
129.0,12.0,wc_12,,0.0,,,,0.0,,,,Fail,,,,,
129.0,12.0,wc_12,wc_15,1.0,"[('wc_15', 0.5000000000000003), ('wc_13', 0.13), ('wc_14', 0.9500000000000008)]",0.9782500000000004,,,32.0,0.04445,['Fail'],Fail,0.5000000000000003,-0.45652173913043514,0.0,0.0,0.4
133.0,12.0,wc_12,,0.0,,,,61.0,,,,Pass,,,,,
133.0,12.0,wc_12,,0.0,,,60.0,,,,,Pass,,,,,
133.0,12.0,wc_12,,0.0,,,,0.0,,,,Pass,,,,,
133.0,12.0,wc_12,wc_12,0.0,"[('wc_12', 0.2100000000000001)]",0.21000000000000008,,,36.0,0.002242,['Pass'],Pass,0.2100000000000001,0.2899999999999999,1.0,2.0,0.1
133.0,12.0,wc_12,,0.0,,,,0.0,,,,Pass,,,,,
133.0,12.0,wc_12,wc_13,0.0,"[('wc_13', 0.13), ('wc_12', 0.2100000000000001)]",0.3127000000000001,,,29.0,0.004649,['Pass'],Pass,0.13,0.87,2.0,2.0,0.1
133.0,12.0,wc_12,,0.0,,,,0.0,,,,Pass,,,,,
133.0,12.0,wc_12,wc_14,1.0,"[('wc_14', 0.9500000000000008), ('wc_12', 0.2100000000000001), ('wc_13', 0.13)]",0.9656350000000006,,,29.0,0.04325799999999999,['Pass'],Pass,0.9500000000000008,0.049999999999999156,2.0,2.0,1.0
136.0,13.0,wc_13,,0.0,,,,102.0,,,,Pass,,,,,
136.0,13.0,wc_13,,0.0,,,63.0,,,,,Pass,,,,,
136.0,13.0,wc_13,,0.0,,,,0.0,,,,Pass,,,,,
136.0,13.0,wc_13,wc_13,0.0,"[('wc_13', 0.13)]",0.13,,,27.0,0.002178,['Pass'],Pass,0.13,0.87,3.0,3.0,0.1
136.0,13.0,wc_13,,0.0,,,,0.0,,,,Pass,,,,,
136.0,13.0,wc_13,wc_14,0.0,"[('wc_14', 0.9500000000000008), ('wc_13', 0.13)]",0.9565000000000007,,,38.0,0.005101,['Pass'],Pass,0.9500000000000008,0.049999999999999156,2.0,2.0,1.0
136.0,13.0,wc_13,,0.0,,,,0.0,,,,Pass,,,,,
136.0,13.0,wc_13,wc_15,1.0,"[('wc_15', 0.5000000000000003), ('wc_13', 0.13), ('wc_14', 0.9500000000000008)]",0.9782500000000004,,,24.0,0.044148,['Pass'],Pass,0.5000000000000003,-3.3306690738754696e-16,1.0,2.0,0.4
137.0,16.0,wc_16,,0.0,,,,0.0,,,,Fail,,,,,
137.0,16.0,wc_16,,0.0,,,59.0,,,,,Fail,,,,,
137.0,16.0,wc_16,,0.0,,,,0.0,,,,Fail,,,,,
137.0,16.0,wc_16,wc_16,0.0,"[('wc_16', 0.3900000000000001)]",0.3900000000000001,,,32.0,0.002449,['Pass'],Fail,0.3900000000000001,-0.36222222222222233,0.0,0.0,0.1
137.0,16.0,wc_16,,0.0,,,,0.0,,,,Fail,,,,,
137.0,16.0,wc_16,wc_17,0.0,"[('wc_17', 0.8800000000000007)]",0.8800000000000007,,,30.0,0.004077,['Fail'],Fail,0.8800000000000007,-0.6447058823529419,0.0,0.0,0.7
137.0,16.0,wc_16,,0.0,,,,21.0,,,,Fail,,,,,
137.0,16.0,wc_16,wc_12,0.0,"[('wc_12', 0.2100000000000001), ('wc_17', 0.8800000000000007)]",0.9052000000000006,,,28.0,0.00604,['Fail'],Fail,0.2100000000000001,0.2899999999999999,2.0,4.0,0.1
137.0,16.0,wc_16,,0.0,,,,0.0,,,,Fail,,,,,
137.0,16.0,wc_16,wc_13,0.0,"[('wc_17', 0.8800000000000007), ('wc_12', 0.2100000000000001)]",0.9052000000000006,,,24.0,0.008339,['Fail'],Fail,0.13,0.87,4.0,4.0,0.1
137.0,16.0,wc_16,,0.0,,,,0.0,,,,Fail,,,,,
137.0,16.0,wc_16,wc_14,1.0,"[('wc_14', 0.9500000000000008), ('wc_17', 0.8800000000000007), ('wc_12', 0.2100000000000001)]",0.9952600000000001,,,36.0,0.05535200000000001,['Fail'],Fail,0.9500000000000008,0.049999999999999156,4.0,4.0,1.0
142.0,15.0,wc_15,,0.0,,,,0.0,,,,Pass,,,,,
142.0,15.0,wc_15,,0.0,,,80.0,,,,,Pass,,,,,
142.0,15.0,wc_15,,0.0,,,,0.0,,,,Pass,,,,,
142.0,15.0,wc_15,wc_15,0.0,"[('wc_15', 0.5000000000000003)]",0.5000000000000003,,,31.0,0.00201,['Fail'],Pass,0.5000000000000003,-0.16666666666666702,1.0,3.0,0.4
142.0,15.0,wc_15,,0.0,,,,0.0,,,,Pass,,,,,
142.0,15.0,wc_15,wc_16,0.0,"[('wc_16', 0.3900000000000001), ('wc_15', 0.5000000000000003)]",0.6950000000000003,,,34.0,0.004170999999999999,['Fail'],Pass,0.3900000000000001,-0.3900000000000001,0.0,1.0,0.1
142.0,15.0,wc_15,,0.0,,,,0.0,,,,Pass,,,,,
142.0,15.0,wc_15,wc_17,0.0,"[('wc_17', 0.8800000000000007)]",0.8800000000000007,,,31.0,0.006196,['Pass'],Pass,0.8800000000000007,0.11999999999999933,1.0,1.0,0.7
142.0,15.0,wc_15,,0.0,,,,21.0,,,,Pass,,,,,
142.0,15.0,wc_15,wc_12,0.0,"[('wc_17', 0.8800000000000007)]",0.8800000000000007,,,32.0,0.008282999999999999,['Pass'],Pass,0.2100000000000001,0.3899999999999999,3.0,5.0,0.1
142.0,15.0,wc_15,,0.0,,,,0.0,,,,Pass,,,,,
142.0,15.0,wc_15,wc_13,0.0,"[('wc_17', 0.8800000000000007)]",0.8800000000000007,,,30.0,0.0104,['Pass'],Pass,0.13,0.67,4.0,5.0,0.1
142.0,15.0,wc_15,,0.0,,,,0.0,,,,Pass,,,,,
142.0,15.0,wc_15,wc_14,0.0,"[('wc_14', 0.9500000000000008), ('wc_17', 0.8800000000000007)]",0.9940000000000001,,,20.0,0.012120999999999998,['Pass'],Pass,0.9500000000000008,0.049999999999999156,4.0,4.0,1.0
142.0,15.0,wc_15,,0.0,,,,142.0,,,,Pass,,,,,
142.0,15.0,wc_15,wc_6,1.0,"[('wc_6', 0.3900000000000001), ('wc_17', 0.8800000000000007), ('wc_14', 0.9500000000000008)]",0.9963400000000001,,,30.0,0.05637400000000001,['Pass'],Pass,0.3900000000000001,-0.015000000000000124,3.0,8.0,0.3
145.0,16.0,wc_16,,0.0,,,,243.0,,,,Pass,,,,,
145.0,16.0,wc_16,,0.0,,,80.0,,,,,Pass,,,,,
145.0,16.0,wc_16,,0.0,,,,0.0,,,,Pass,,,,,
145.0,16.0,wc_16,wc_16,0.0,"[('wc_16', 0.3900000000000001)]",0.3900000000000001,,,21.0,0.002194,['Pass'],Pass,0.3900000000000001,-0.3900000000000001,0.0,2.0,0.1
145.0,16.0,wc_16,,0.0,,,,0.0,,,,Pass,,,,,
145.0,16.0,wc_16,wc_17,0.0,"[('wc_17', 0.8800000000000007), ('wc_16', 0.3900000000000001)]",0.9268000000000004,,,27.0,0.003976,['Pass'],Pass,0.8800000000000007,0.11999999999999933,2.0,2.0,0.7
145.0,16.0,wc_16,,0.0,,,,21.0,,,,Pass,,,,,
145.0,16.0,wc_16,wc_12,1.0,"[('wc_12', 0.2100000000000001), ('wc_16', 0.3900000000000001), ('wc_17', 0.8800000000000007)]",0.9421720000000003,,,39.0,0.049306,['Pass'],Pass,0.2100000000000001,0.3614285714285713,4.0,7.0,0.1
147.0,14.0,wc_14,,0.0,,,,0.0,,,,Pass,,,,,
147.0,14.0,wc_14,,0.0,,,58.0,,,,,Pass,,,,,
147.0,14.0,wc_14,,0.0,,,,0.0,,,,Pass,,,,,
147.0,14.0,wc_14,wc_14,0.0,"[('wc_14', 0.9500000000000008)]",0.9500000000000008,,,21.0,0.002114,['Pass'],Pass,0.9500000000000008,-0.11666666666666747,5.0,6.0,1.0
147.0,14.0,wc_14,,0.0,,,,0.0,,,,Pass,,,,,
147.0,14.0,wc_14,wc_15,0.0,"[('wc_15', 0.5000000000000003), ('wc_14', 0.9500000000000008)]",0.9750000000000004,,,28.0,0.004109,['Pass'],Pass,0.5000000000000003,-0.3000000000000003,1.0,5.0,0.4
147.0,14.0,wc_14,,0.0,,,,0.0,,,,Pass,,,,,
147.0,14.0,wc_14,wc_16,0.0,"[('wc_14', 0.9500000000000008), ('wc_15', 0.5000000000000003)]",0.9750000000000004,,,20.0,0.006285,['Pass'],Pass,0.3900000000000001,-0.05666666666666681,1.0,3.0,0.1
147.0,14.0,wc_14,,0.0,,,,0.0,,,,Pass,,,,,
147.0,14.0,wc_14,wc_17,1.0,"[('wc_17', 0.8800000000000007), ('wc_14', 0.9500000000000008), ('wc_15', 0.5000000000000003)]",0.9970000000000001,,,27.0,0.052227,['Pass'],Pass,0.8800000000000007,0.11999999999999933,4.0,4.0,0.7
149.0,17.0,wc_17,,0.0,,,,0.0,,,,Pass,,,,,
149.0,17.0,wc_17,,0.0,,,77.0,,,,,Pass,,,,,
149.0,17.0,wc_17,,0.0,,,,0.0,,,,Pass,,,,,
149.0,17.0,wc_17,wc_17,0.0,"[('wc_17', 0.8800000000000007)]",0.8800000000000007,,,27.0,0.002296,['Pass'],Pass,0.8800000000000007,0.11999999999999933,4.0,4.0,0.7
149.0,17.0,wc_17,,0.0,,,,21.0,,,,Pass,,,,,
149.0,17.0,wc_17,wc_12,0.0,"[('wc_12', 0.2100000000000001), ('wc_17', 0.8800000000000007)]",0.9052000000000006,,,35.0,0.004454,['Pass'],Pass,0.2100000000000001,0.2899999999999999,4.0,8.0,0.1
149.0,17.0,wc_17,,0.0,,,,0.0,,,,Pass,,,,,
149.0,17.0,wc_17,wc_13,0.0,"[('wc_17', 0.8800000000000007), ('wc_12', 0.2100000000000001)]",0.9052000000000006,,,35.0,0.0073479999999999995,['Pass'],Pass,0.13,0.37,4.0,8.0,0.1
149.0,17.0,wc_17,,0.0,,,,0.0,,,,Pass,,,,,
149.0,17.0,wc_17,wc_14,1.0,"[('wc_14', 0.9500000000000008), ('wc_17', 0.8800000000000007), ('wc_12', 0.2100000000000001)]",0.9952600000000001,,,28.0,0.05472499999999999,['Pass'],Pass,0.9500000000000008,-0.07500000000000084,7.0,8.0,1.0
