mpecck/BCQC/bcqc_with_qdt/results/raw/input_2/independent_qc/training/20_workpiece/20200429_084350/wp_11_qc_majority_0.9.csv
production_index,step_idx,production_workcell,qc,consent,winner_qc_list,score,production_time,transport_time,inspection_time,network_time,qc_results,actual_quality,qc_score,score_error,in_winner_counter,in_qc_counter,qc_capability
34.0,1.0,wc_1,,0.0,,,56.0,,,,,Fail,,,,,
34.0,1.0,wc_1,,0.0,,,,0.0,,,,Fail,,,,,
34.0,1.0,wc_1,wc_1,0.0,"[('wc_1', 0.7000000000000005)]",0.7000000000000005,,,37.0,0.00233,['Fail'],Fail,0.7000000000000005,-0.4777777777777783,2.0,9.0,0.8
34.0,1.0,wc_1,,0.0,,,,182.0,,,,Fail,,,,,
34.0,1.0,wc_1,wc_12,0.0,"[('wc_12', 0.5900000000000004), ('wc_1', 0.7000000000000005)]",0.8770000000000003,,,31.0,0.00445,['Fail'],Fail,0.5900000000000004,-0.518571428571429,0.0,0.0,1.0
34.0,1.0,wc_1,,0.0,,,,202.0,,,,Fail,,,,,
34.0,1.0,wc_1,wc_7,1.0,"[('wc_7', 0.6000000000000004), ('wc_1', 0.7000000000000005), ('wc_12', 0.5900000000000004)]",0.9508000000000002,,,20.0,0.040485999999999994,['Fail'],Fail,0.6000000000000004,-0.6000000000000004,0.0,0.0,0.5
142.0,1.0,wc_1,,0.0,,,,182.0,,,,Pass,,,,,
142.0,1.0,wc_1,,0.0,,,55.0,,,,,Pass,,,,,
142.0,1.0,wc_1,,0.0,,,,0.0,,,,Pass,,,,,
142.0,1.0,wc_1,wc_1,0.0,"[('wc_1', 0.7000000000000005)]",0.7000000000000005,,,33.0,0.002433,['Pass'],Pass,0.7000000000000005,-0.7000000000000005,0.0,0.0,0.8
142.0,1.0,wc_1,,0.0,,,,243.0,,,,Pass,,,,,
142.0,1.0,wc_1,wc_11,0.0,"[('wc_11', 0.5800000000000004), ('wc_1', 0.7000000000000005)]",0.8740000000000003,,,26.0,0.004503,['Pass'],Pass,0.5800000000000004,-0.5175000000000004,0.0,0.0,1.0
142.0,1.0,wc_1,,0.0,,,,61.0,,,,Pass,,,,,
142.0,1.0,wc_1,wc_8,1.0,"[('wc_8', 0.5500000000000004), ('wc_1', 0.7000000000000005), ('wc_11', 0.5800000000000004)]",0.9433000000000002,,,23.0,0.043447,['Pass'],Pass,0.5500000000000004,-0.40714285714285753,1.0,7.0,0.9
146.0,2.0,wc_2,,0.0,,,,182.0,,,,Fail,,,,,
146.0,2.0,wc_2,,0.0,,,50.0,,,,,Fail,,,,,
146.0,2.0,wc_2,,0.0,,,,0.0,,,,Fail,,,,,
146.0,2.0,wc_2,wc_2,0.0,"[('wc_2', 0.6500000000000005)]",0.6500000000000005,,,27.0,0.002125,['Fail'],Fail,0.6500000000000005,-0.6500000000000005,0.0,0.0,0.7
146.0,2.0,wc_2,,0.0,,,,182.0,,,,Fail,,,,,
146.0,2.0,wc_2,wc_13,0.0,"[('wc_13', 0.6500000000000005), ('wc_2', 0.6500000000000005)]",0.8775000000000003,,,39.0,0.004231,['Fail'],Fail,0.6500000000000005,-0.40000000000000047,1.0,4.0,0.7
146.0,2.0,wc_2,,0.0,,,,321.0,,,,Fail,,,,,
146.0,2.0,wc_2,wc_10,1.0,"[('wc_10', 0.5500000000000004), ('wc_2', 0.6500000000000005), ('wc_13', 0.6500000000000005)]",0.9448750000000001,,,31.0,0.042176,['Fail'],Fail,0.5500000000000004,-0.5500000000000004,0.0,0.0,0.8
157.0,4.0,wc_4,,0.0,,,,362.0,,,,Pass,,,,,
157.0,4.0,wc_4,,0.0,,,56.0,,,,,Pass,,,,,
157.0,4.0,wc_4,,0.0,,,,0.0,,,,Pass,,,,,
157.0,4.0,wc_4,wc_4,0.0,"[('wc_4', 0.7700000000000006)]",0.7700000000000006,,,38.0,0.002253,['Pass'],Pass,0.7700000000000006,-0.6790909090909096,0.0,0.0,0.9
157.0,4.0,wc_4,,0.0,,,,81.0,,,,Pass,,,,,
157.0,4.0,wc_4,wc_6,0.0,"[('wc_6', 0.4900000000000003), ('wc_4', 0.7700000000000006)]",0.8827000000000004,,,25.0,0.013266,['Pass'],Pass,0.4900000000000003,-0.4900000000000003,0.0,9.0,0.5
157.0,4.0,wc_4,,0.0,,,,182.0,,,,Pass,,,,,
157.0,4.0,wc_4,wc_13,1.0,"[('wc_13', 0.6500000000000005), ('wc_4', 0.7700000000000006), ('wc_6', 0.4900000000000003)]",0.9589450000000002,,,38.0,0.045841999999999994,['Pass'],Pass,0.6500000000000005,-0.15000000000000047,3.0,6.0,0.7
171.0,2.0,wc_2,,0.0,,,,242.0,,,,Fail,,,,,
171.0,2.0,wc_2,,0.0,,,59.0,,,,,Fail,,,,,
171.0,2.0,wc_2,,0.0,,,,0.0,,,,Fail,,,,,
171.0,2.0,wc_2,wc_2,0.0,"[('wc_2', 0.6600000000000005)]",0.6600000000000005,,,36.0,0.002337,['Fail'],Fail,0.6600000000000005,-0.16000000000000048,1.0,2.0,0.7
171.0,2.0,wc_2,,0.0,,,,0.0,,,,Fail,,,,,
171.0,2.0,wc_2,wc_4,0.0,"[('wc_4', 0.7800000000000006)]",0.7800000000000006,,,33.0,0.006294,['Pass'],Fail,0.7800000000000006,0.21999999999999942,1.0,1.0,0.9
171.0,2.0,wc_2,,0.0,,,,202.0,,,,Fail,,,,,
171.0,2.0,wc_2,wc_16,0.0,"[('wc_16', 0.5400000000000004), ('wc_4', 0.7800000000000006)]",0.8988000000000004,,,38.0,0.007672,['Pass'],Fail,0.5400000000000004,-0.17636363636363672,0.0,0.0,0.5
171.0,2.0,wc_2,,0.0,,,,263.0,,,,Fail,,,,,
171.0,2.0,wc_2,wc_1,0.0,"[('wc_1', 0.7100000000000005), ('wc_2', 0.6600000000000005)]",0.9014000000000003,,,31.0,0.009656,['Fail'],Fail,0.7100000000000005,-0.3766666666666672,1.0,3.0,0.8
171.0,2.0,wc_2,,0.0,,,,243.0,,,,Fail,,,,,
171.0,2.0,wc_2,wc_15,1.0,"[('wc_15', 0.6200000000000004), ('wc_2', 0.6600000000000005), ('wc_1', 0.7100000000000005)]",0.9625320000000002,,,23.0,0.04735699999999999,['Fail'],Fail,0.6200000000000004,-0.6200000000000004,0.0,0.0,0.7
182.0,2.0,wc_2,,0.0,,,,303.0,,,,Pass,,,,,
182.0,2.0,wc_2,,0.0,,,74.0,,,,,Pass,,,,,
182.0,2.0,wc_2,,0.0,,,,0.0,,,,Pass,,,,,
182.0,2.0,wc_2,wc_2,0.0,"[('wc_2', 0.6600000000000005)]",0.6600000000000005,,,34.0,0.002255,['Pass'],Pass,0.6600000000000005,0.0066666666666661545,2.0,3.0,0.7
182.0,2.0,wc_2,,0.0,,,,162.0,,,,Pass,,,,,
182.0,2.0,wc_2,wc_12,0.0,"[('wc_12', 0.6000000000000004), ('wc_2', 0.6600000000000005)]",0.8640000000000003,,,35.0,0.0042780000000000006,['Pass'],Pass,0.6000000000000004,-0.4000000000000004,1.0,5.0,1.0
182.0,2.0,wc_2,,0.0,,,,401.0,,,,Pass,,,,,
182.0,2.0,wc_2,wc_5,1.0,"[('wc_5', 0.5600000000000004), ('wc_2', 0.6600000000000005), ('wc_12', 0.6000000000000004)]",0.9401600000000002,,,22.0,0.03565600000000001,['Pass'],Pass,0.5600000000000004,-0.5600000000000004,0.0,0.0,0.8
200.0,3.0,wc_3,,0.0,,,,83.0,,,,Fail,,,,,
200.0,3.0,wc_3,,0.0,,,64.0,,,,,Fail,,,,,
200.0,3.0,wc_3,,0.0,,,,0.0,,,,Fail,,,,,
200.0,3.0,wc_3,wc_3,0.0,"[('wc_3', 0.7800000000000006)]",0.7800000000000006,,,35.0,0.002172,['Fail'],Fail,0.7800000000000006,-0.6747368421052637,0.0,0.0,0.9
200.0,3.0,wc_3,,0.0,,,,222.0,,,,Fail,,,,,
200.0,3.0,wc_3,wc_16,0.0,"[('wc_16', 0.5300000000000004), ('wc_3', 0.7800000000000006)]",0.8966000000000004,,,29.0,0.005056,['Fail'],Fail,0.5300000000000004,-0.5300000000000004,0.0,2.0,0.5
200.0,3.0,wc_3,,0.0,,,,61.0,,,,Fail,,,,,
200.0,3.0,wc_3,wc_13,1.0,"[('wc_13', 0.6500000000000005), ('wc_3', 0.7800000000000006), ('wc_16', 0.5300000000000004)]",0.9638100000000002,,,37.0,0.03627600000000001,['Fail'],Fail,0.6500000000000005,-0.20555555555555605,4.0,9.0,0.7
219.0,3.0,wc_3,,0.0,,,,341.0,,,,Pass,,,,,
219.0,3.0,wc_3,,0.0,,,52.0,,,,,Pass,,,,,
219.0,3.0,wc_3,,0.0,,,,0.0,,,,Pass,,,,,
219.0,3.0,wc_3,wc_3,0.0,"[('wc_3', 0.7900000000000006)]",0.7900000000000006,,,34.0,0.002102,['Pass'],Pass,0.7900000000000006,0.2099999999999994,1.0,1.0,0.9
219.0,3.0,wc_3,,0.0,,,,81.0,,,,Pass,,,,,
219.0,3.0,wc_3,wc_1,0.0,"[('wc_1', 0.7100000000000005), ('wc_3', 0.7900000000000006)]",0.9391000000000003,,,21.0,0.004307,['Pass'],Pass,0.7100000000000005,-0.3766666666666672,2.0,6.0,0.8
219.0,3.0,wc_3,,0.0,,,,222.0,,,,Pass,,,,,
219.0,3.0,wc_3,wc_14,1.0,"[('wc_14', 0.7400000000000005), ('wc_3', 0.7900000000000006), ('wc_1', 0.7100000000000005)]",0.9841660000000001,,,26.0,0.038899,['Pass'],Pass,0.7400000000000005,-0.7400000000000005,0.0,0.0,1.0
231.0,5.0,wc_5,,0.0,,,,361.0,,,,Fail,,,,,
231.0,5.0,wc_5,,0.0,,,68.0,,,,,Fail,,,,,
231.0,5.0,wc_5,,0.0,,,,0.0,,,,Fail,,,,,
231.0,5.0,wc_5,wc_5,0.0,"[('wc_5', 0.5600000000000004)]",0.5600000000000004,,,34.0,0.002129,['Fail'],Fail,0.5600000000000004,-0.5600000000000004,0.0,2.0,0.8
231.0,5.0,wc_5,,0.0,,,,182.0,,,,Fail,,,,,
231.0,5.0,wc_5,wc_16,0.0,"[('wc_16', 0.5300000000000004), ('wc_5', 0.5600000000000004)]",0.7932000000000003,,,33.0,0.004038,['Fail'],Fail,0.5300000000000004,-0.28000000000000036,1.0,4.0,0.5
231.0,5.0,wc_5,,0.0,,,,81.0,,,,Fail,,,,,
231.0,5.0,wc_5,wc_14,1.0,"[('wc_14', 0.7400000000000005), ('wc_5', 0.5600000000000004), ('wc_16', 0.5300000000000004)]",0.9462320000000002,,,28.0,0.046785,['Fail'],Fail,0.7500000000000006,0.24999999999999944,1.0,1.0,1.0
252.0,5.0,wc_5,,0.0,,,,361.0,,,,Fail,,,,,
252.0,5.0,wc_5,,0.0,,,70.0,,,,,Fail,,,,,
252.0,5.0,wc_5,,0.0,,,,0.0,,,,Fail,,,,,
252.0,5.0,wc_5,wc_5,0.0,"[('wc_5', 0.5600000000000004)]",0.5600000000000004,,,29.0,0.00216,['Fail'],Fail,0.5600000000000004,-0.22666666666666707,1.0,3.0,0.8
252.0,5.0,wc_5,,0.0,,,,182.0,,,,Fail,,,,,
252.0,5.0,wc_5,wc_16,0.0,"[('wc_16', 0.5300000000000004), ('wc_5', 0.5600000000000004)]",0.7932000000000003,,,26.0,0.003969,['Fail'],Fail,0.5300000000000004,-0.13000000000000034,2.0,5.0,0.5
252.0,5.0,wc_5,,0.0,,,,263.0,,,,Fail,,,,,
252.0,5.0,wc_5,wc_1,1.0,"[('wc_1', 0.7100000000000005), ('wc_5', 0.5600000000000004), ('wc_16', 0.5300000000000004)]",0.9400280000000002,,,32.0,0.037771,['Fail'],Fail,0.7100000000000005,-0.2655555555555561,4.0,9.0,0.8
291.0,5.0,wc_5,,0.0,,,,0.0,,,,Pass,,,,,
291.0,5.0,wc_5,,0.0,,,69.0,,,,,Pass,,,,,
291.0,5.0,wc_5,,0.0,,,,0.0,,,,Pass,,,,,
291.0,5.0,wc_5,wc_5,0.0,"[('wc_5', 0.5600000000000004)]",0.5600000000000004,,,24.0,0.002143,['Pass'],Pass,0.5600000000000004,-0.060000000000000386,2.0,4.0,0.8
291.0,5.0,wc_5,,0.0,,,,141.0,,,,Pass,,,,,
291.0,5.0,wc_5,wc_14,0.0,"[('wc_14', 0.7500000000000006), ('wc_5', 0.5600000000000004)]",0.8900000000000003,,,22.0,0.004151,['Pass'],Pass,0.7500000000000006,-0.25000000000000056,1.0,2.0,1.0
291.0,5.0,wc_5,,0.0,,,,182.0,,,,Pass,,,,,
291.0,5.0,wc_5,wc_8,1.0,"[('wc_8', 0.5500000000000004), ('wc_5', 0.5600000000000004), ('wc_14', 0.7500000000000006)]",0.9505000000000002,,,21.0,0.038565,['Pass'],Pass,0.5500000000000004,-0.5500000000000004,0.0,0.0,0.9
305.0,6.0,wc_6,,0.0,,,,82.0,,,,Pass,,,,,
305.0,6.0,wc_6,,0.0,,,53.0,,,,,Pass,,,,,
305.0,6.0,wc_6,,0.0,,,,0.0,,,,Pass,,,,,
305.0,6.0,wc_6,wc_6,0.0,"[('wc_6', 0.4900000000000003)]",0.4900000000000003,,,34.0,0.002126,['Fail'],Pass,0.4900000000000003,-0.4900000000000003,0.0,7.0,0.5
305.0,6.0,wc_6,,0.0,,,,321.0,,,,Pass,,,,,
305.0,6.0,wc_6,wc_3,0.0,"[('wc_3', 0.8000000000000006)]",0.8000000000000006,,,37.0,0.004059999999999999,['Pass'],Pass,0.8000000000000006,-0.4000000000000006,2.0,5.0,0.9
305.0,6.0,wc_6,,0.0,,,,202.0,,,,Pass,,,,,
305.0,6.0,wc_6,wc_15,0.0,"[('wc_15', 0.6200000000000004), ('wc_3', 0.8000000000000006)]",0.9240000000000004,,,36.0,0.006788000000000001,['Pass'],Pass,0.6200000000000004,-0.6200000000000004,0.0,6.0,0.7
305.0,6.0,wc_6,,0.0,,,,0.0,,,,Pass,,,,,
305.0,6.0,wc_6,wc_16,0.0,"[('wc_3', 0.8000000000000006), ('wc_15', 0.6200000000000004)]",0.9240000000000004,,,28.0,0.008716,['Pass'],Pass,0.5300000000000004,-0.10142857142857181,3.0,7.0,0.5
305.0,6.0,wc_6,,0.0,,,,243.0,,,,Pass,,,,,
305.0,6.0,wc_6,wc_8,1.0,"[('wc_8', 0.5500000000000004), ('wc_3', 0.8000000000000006), ('wc_15', 0.6200000000000004)]",0.9658000000000002,,,24.0,0.042536000000000004,['Pass'],Pass,0.5600000000000004,0.4399999999999996,1.0,1.0,0.9
316.0,9.0,wc_9,,0.0,,,,0.0,,,,Fail,,,,,
316.0,9.0,wc_9,,0.0,,,54.0,,,,,Fail,,,,,
316.0,9.0,wc_9,,0.0,,,,0.0,,,,Fail,,,,,
316.0,9.0,wc_9,wc_9,0.0,"[('wc_9', 0.5600000000000004)]",0.5600000000000004,,,30.0,0.002179,['Fail'],Fail,0.5600000000000004,-0.42363636363636403,0.0,0.0,0.7
316.0,9.0,wc_9,,0.0,,,,101.0,,,,Fail,,,,,
316.0,9.0,wc_9,wc_8,0.0,"[('wc_8', 0.5600000000000004), ('wc_9', 0.5600000000000004)]",0.8064000000000003,,,28.0,0.0040809999999999996,['Fail'],Fail,0.5600000000000004,0.4399999999999996,1.0,1.0,0.9
316.0,9.0,wc_9,,0.0,,,,301.0,,,,Fail,,,,,
316.0,9.0,wc_9,wc_4,1.0,"[('wc_4', 0.7700000000000006), ('wc_9', 0.5600000000000004), ('wc_8', 0.5600000000000004)]",0.9554720000000002,,,36.0,0.038167999999999994,['Fail'],Fail,0.7700000000000006,-0.7700000000000006,0.0,0.0,0.9
329.0,11.0,wc_11,,0.0,,,,182.0,,,,Pass,,,,,
329.0,11.0,wc_11,,0.0,,,61.0,,,,,Pass,,,,,
329.0,11.0,wc_11,,0.0,,,,0.0,,,,Pass,,,,,
329.0,11.0,wc_11,wc_11,0.0,"[('wc_11', 0.5900000000000004)]",0.5900000000000004,,,38.0,0.0021,['Pass'],Pass,0.5900000000000004,-0.506666666666667,0.0,0.0,1.0
329.0,11.0,wc_11,,0.0,,,,223.0,,,,Pass,,,,,
329.0,11.0,wc_11,wc_2,0.0,"[('wc_2', 0.6700000000000005), ('wc_11', 0.5900000000000004)]",0.8647000000000004,,,32.0,0.004709,['Pass'],Pass,0.6700000000000005,-0.3972727272727278,0.0,0.0,0.7
329.0,11.0,wc_11,,0.0,,,,162.0,,,,Pass,,,,,
329.0,11.0,wc_11,wc_8,1.0,"[('wc_8', 0.5700000000000004), ('wc_11', 0.5900000000000004), ('wc_2', 0.6700000000000005)]",0.9418210000000002,,,27.0,0.042363,['Pass'],Pass,0.5800000000000004,0.4199999999999996,3.0,3.0,0.9
343.0,9.0,wc_9,,0.0,,,,0.0,,,,Pass,,,,,
343.0,9.0,wc_9,,0.0,,,74.0,,,,,Pass,,,,,
343.0,9.0,wc_9,,0.0,,,,0.0,,,,Pass,,,,,
343.0,9.0,wc_9,wc_9,0.0,"[('wc_9', 0.5700000000000004)]",0.5700000000000004,,,36.0,0.002242,['Pass'],Pass,0.5700000000000004,-0.0700000000000004,1.0,2.0,0.7
343.0,9.0,wc_9,,0.0,,,,362.0,,,,Pass,,,,,
343.0,9.0,wc_9,wc_3,0.0,"[('wc_3', 0.8000000000000006), ('wc_9', 0.5700000000000004)]",0.9140000000000004,,,26.0,0.00409,['Pass'],Pass,0.8000000000000006,-0.4250000000000006,3.0,8.0,0.9
343.0,9.0,wc_9,,0.0,,,,161.0,,,,Pass,,,,,
343.0,9.0,wc_9,wc_13,1.0,"[('wc_13', 0.6500000000000005), ('wc_9', 0.5700000000000004), ('wc_3', 0.8000000000000006)]",0.9699000000000002,,,28.0,0.04290999999999999,['Pass'],Pass,0.6500000000000005,-0.6500000000000005,0.0,0.0,0.7
362.0,10.0,wc_10,,0.0,,,,321.0,,,,Fail,,,,,
362.0,10.0,wc_10,,0.0,,,56.0,,,,,Fail,,,,,
362.0,10.0,wc_10,,0.0,,,,0.0,,,,Fail,,,,,
362.0,10.0,wc_10,wc_10,0.0,"[('wc_10', 0.5500000000000004)]",0.5500000000000004,,,31.0,0.002152,['Fail'],Fail,0.5500000000000004,-0.5500000000000004,0.0,0.0,0.8
362.0,10.0,wc_10,,0.0,,,,121.0,,,,Fail,,,,,
362.0,10.0,wc_10,wc_14,0.0,"[('wc_14', 0.7500000000000006)]",0.7500000000000006,,,34.0,0.004055,['Pass'],Fail,0.7500000000000006,-0.46428571428571486,2.0,7.0,1.0
362.0,10.0,wc_10,,0.0,,,,142.0,,,,Fail,,,,,
362.0,10.0,wc_10,wc_6,0.0,"[('wc_6', 0.4800000000000003), ('wc_10', 0.5500000000000004)]",0.7660000000000003,,,24.0,0.005776,['Fail'],Fail,0.4800000000000003,-0.4800000000000003,0.0,0.0,0.5
362.0,10.0,wc_10,,0.0,,,,223.0,,,,Fail,,,,,
362.0,10.0,wc_10,wc_15,1.0,"[('wc_15', 0.6200000000000004), ('wc_10', 0.5500000000000004), ('wc_6', 0.4800000000000003)]",0.9110800000000002,,,27.0,0.043727999999999996,['Fail'],Fail,0.6200000000000004,-0.6200000000000004,0.0,0.0,0.7
377.0,8.0,wc_8,,0.0,,,,263.0,,,,Fail,,,,,
377.0,8.0,wc_8,,0.0,,,55.0,,,,,Fail,,,,,
377.0,8.0,wc_8,,0.0,,,,0.0,,,,Fail,,,,,
377.0,8.0,wc_8,wc_8,0.0,"[('wc_8', 0.5800000000000004)]",0.5800000000000004,,,30.0,0.002143,['Fail'],Fail,0.5800000000000004,0.019999999999999574,3.0,5.0,0.9
377.0,8.0,wc_8,,0.0,,,,203.0,,,,Fail,,,,,
377.0,8.0,wc_8,wc_16,0.0,"[('wc_8', 0.5800000000000004)]",0.5800000000000004,,,21.0,0.004163,['Fail'],Fail,0.5200000000000004,-0.27000000000000035,0.0,0.0,0.5
377.0,8.0,wc_8,,0.0,,,,61.0,,,,Fail,,,,,
377.0,8.0,wc_8,wc_13,0.0,"[('wc_13', 0.6500000000000005), ('wc_16', 0.5200000000000004)]",0.8320000000000003,,,27.0,0.005966,['Pass'],Fail,0.6500000000000005,-0.6500000000000005,0.0,1.0,0.7
377.0,8.0,wc_8,,0.0,,,,341.0,,,,Fail,,,,,
377.0,8.0,wc_8,wc_11,0.0,"[('wc_11', 0.6000000000000004), ('wc_8', 0.5800000000000004)]",0.8320000000000003,,,28.0,0.008152,['Fail'],Fail,0.6000000000000004,-0.2666666666666671,1.0,3.0,1.0
377.0,8.0,wc_8,,0.0,,,,162.0,,,,Fail,,,,,
377.0,8.0,wc_8,wc_17,1.0,"[('wc_17', 0.7600000000000006), ('wc_8', 0.5800000000000004), ('wc_11', 0.6000000000000004)]",0.9596800000000002,,,28.0,0.044863,['Fail'],Fail,0.7600000000000006,-0.7600000000000006,0.0,0.0,0.8
394.0,10.0,wc_10,,0.0,,,,342.0,,,,Fail,,,,,
394.0,10.0,wc_10,,0.0,,,76.0,,,,,Fail,,,,,
394.0,10.0,wc_10,,0.0,,,,0.0,,,,Fail,,,,,
394.0,10.0,wc_10,wc_10,0.0,"[('wc_10', 0.5600000000000004)]",0.5600000000000004,,,20.0,0.002268,['Pass'],Fail,0.5600000000000004,-0.060000000000000386,1.0,2.0,0.8
394.0,10.0,wc_10,,0.0,,,,61.0,,,,Fail,,,,,
394.0,10.0,wc_10,wc_7,0.0,"[('wc_7', 0.6000000000000004), ('wc_10', 0.5600000000000004)]",0.8240000000000003,,,20.0,0.003985000000000001,['Pass'],Fail,0.6000000000000004,-0.6000000000000004,0.0,0.0,0.5
394.0,10.0,wc_10,,0.0,,,,102.0,,,,Fail,,,,,
394.0,10.0,wc_10,wc_6,0.0,"[('wc_10', 0.5600000000000004), ('wc_7', 0.6000000000000004)]",0.8240000000000003,,,22.0,0.006542,['Pass'],Fail,0.4900000000000003,0.009999999999999676,1.0,2.0,0.5
394.0,10.0,wc_10,,0.0,,,,0.0,,,,Fail,,,,,
394.0,10.0,wc_10,wc_8,0.0,"[('wc_10', 0.5600000000000004), ('wc_7', 0.6000000000000004)]",0.8240000000000003,,,37.0,0.0076950000000000005,['Pass'],Fail,0.5900000000000004,0.07666666666666622,4.0,6.0,0.9
394.0,10.0,wc_10,,0.0,,,,122.0,,,,Fail,,,,,
394.0,10.0,wc_10,wc_12,1.0,"[('wc_12', 0.6000000000000004), ('wc_6', 0.4900000000000003), ('wc_8', 0.5900000000000004)]",0.9163600000000003,,,40.0,0.042987,['Fail'],Fail,0.6000000000000004,-0.6000000000000004,0.0,0.0,1.0
405.0,8.0,wc_8,,0.0,,,,222.0,,,,Pass,,,,,
405.0,8.0,wc_8,,0.0,,,58.0,,,,,Pass,,,,,
405.0,8.0,wc_8,,0.0,,,,0.0,,,,Pass,,,,,
405.0,8.0,wc_8,wc_8,0.0,"[('wc_8', 0.6000000000000004)]",0.6000000000000004,,,36.0,0.002577,['Fail'],Pass,0.6000000000000004,0.11428571428571388,5.0,7.0,0.9
405.0,8.0,wc_8,,0.0,,,,162.0,,,,Pass,,,,,
405.0,8.0,wc_8,wc_14,0.0,"[('wc_14', 0.7400000000000005), ('wc_8', 0.6000000000000004)]",0.8960000000000004,,,24.0,0.004225,['Fail'],Pass,0.7400000000000005,-0.5400000000000005,0.0,0.0,1.0
405.0,8.0,wc_8,,0.0,,,,0.0,,,,Pass,,,,,
405.0,8.0,wc_8,wc_16,0.0,"[('wc_8', 0.6000000000000004), ('wc_14', 0.7400000000000005)]",0.8960000000000004,,,38.0,0.00592,['Fail'],Pass,0.5100000000000003,-0.5100000000000003,0.0,2.0,0.5
405.0,8.0,wc_8,,0.0,,,,382.0,,,,Pass,,,,,
405.0,8.0,wc_8,wc_3,1.0,"[('wc_3', 0.8000000000000006), ('wc_8', 0.6000000000000004), ('wc_14', 0.7400000000000005)]",0.9792000000000001,,,20.0,0.059455999999999995,['Fail'],Pass,0.8000000000000006,-0.8000000000000006,0.0,0.0,0.9
420.0,7.0,wc_7,,0.0,,,,121.0,,,,Fail,,,,,
420.0,7.0,wc_7,,0.0,,,65.0,,,,,Fail,,,,,
420.0,7.0,wc_7,,0.0,,,,0.0,,,,Fail,,,,,
420.0,7.0,wc_7,wc_7,0.0,"[('wc_7', 0.5900000000000004)]",0.5900000000000004,,,32.0,0.002277,['Fail'],Fail,0.5900000000000004,-0.5900000000000004,0.0,2.0,0.5
420.0,7.0,wc_7,,0.0,,,,0.0,,,,Fail,,,,,
420.0,7.0,wc_7,wc_10,0.0,"[('wc_10', 0.5500000000000004), ('wc_7', 0.5900000000000004)]",0.8155000000000003,,,24.0,0.004293,['Fail'],Fail,0.5500000000000004,-0.3000000000000004,1.0,4.0,0.8
420.0,7.0,wc_7,,0.0,,,,342.0,,,,Fail,,,,,
420.0,7.0,wc_7,wc_3,1.0,"[('wc_3', 0.8000000000000006), ('wc_7', 0.5900000000000004), ('wc_10', 0.5500000000000004)]",0.9631000000000002,,,26.0,0.048715,['Fail'],Fail,0.8100000000000006,0.1899999999999994,1.0,1.0,0.9
441.0,7.0,wc_7,,0.0,,,,121.0,,,,Fail,,,,,
441.0,7.0,wc_7,,0.0,,,72.0,,,,,Fail,,,,,
441.0,7.0,wc_7,,0.0,,,,0.0,,,,Fail,,,,,
441.0,7.0,wc_7,wc_7,0.0,"[('wc_7', 0.5900000000000004)]",0.5900000000000004,,,37.0,0.002296,['Fail'],Fail,0.5900000000000004,-0.2566666666666671,1.0,3.0,0.5
441.0,7.0,wc_7,,0.0,,,,0.0,,,,Fail,,,,,
441.0,7.0,wc_7,wc_8,0.0,"[('wc_8', 0.6100000000000004), ('wc_7', 0.5900000000000004)]",0.8401000000000003,,,20.0,0.004971,['Fail'],Fail,0.6100000000000004,0.0566666666666662,6.0,9.0,0.9
441.0,7.0,wc_7,,0.0,,,,321.0,,,,Fail,,,,,
441.0,7.0,wc_7,wc_5,1.0,"[('wc_5', 0.5700000000000004), ('wc_7', 0.5900000000000004), ('wc_8', 0.6100000000000004)]",0.9312430000000003,,,39.0,0.049169,['Fail'],Fail,0.5700000000000004,-0.5700000000000004,0.0,0.0,0.8
453.0,7.0,wc_7,,0.0,,,,81.0,,,,Pass,,,,,
453.0,7.0,wc_7,,0.0,,,61.0,,,,,Pass,,,,,
453.0,7.0,wc_7,,0.0,,,,0.0,,,,Pass,,,,,
453.0,7.0,wc_7,wc_7,0.0,"[('wc_7', 0.5900000000000004)]",0.5900000000000004,,,33.0,0.002463,['Pass'],Pass,0.5900000000000004,-0.09000000000000041,2.0,4.0,0.5
453.0,7.0,wc_7,,0.0,,,,0.0,,,,Pass,,,,,
453.0,7.0,wc_7,wc_11,0.0,"[('wc_11', 0.6000000000000004), ('wc_7', 0.5900000000000004)]",0.8360000000000003,,,28.0,0.003925,['Pass'],Pass,0.6000000000000004,-0.3500000000000004,2.0,8.0,1.0
453.0,7.0,wc_7,,0.0,,,,122.0,,,,Pass,,,,,
453.0,7.0,wc_7,wc_15,1.0,"[('wc_15', 0.6200000000000004), ('wc_7', 0.5900000000000004), ('wc_11', 0.6000000000000004)]",0.9376800000000002,,,32.0,0.044158,['Pass'],Pass,0.6200000000000004,-0.4533333333333338,1.0,6.0,0.7
465.0,10.0,wc_10,,0.0,,,,382.0,,,,Pass,,,,,
465.0,10.0,wc_10,,0.0,,,77.0,,,,,Pass,,,,,
465.0,10.0,wc_10,,0.0,,,,0.0,,,,Pass,,,,,
465.0,10.0,wc_10,wc_10,0.0,"[('wc_10', 0.5500000000000004)]",0.5500000000000004,,,22.0,0.002183,['Pass'],Pass,0.5500000000000004,-0.2642857142857147,2.0,7.0,0.8
465.0,10.0,wc_10,,0.0,,,,342.0,,,,Pass,,,,,
465.0,10.0,wc_10,wc_3,0.0,"[('wc_3', 0.8100000000000006), ('wc_10', 0.5500000000000004)]",0.9145000000000003,,,36.0,0.003949,['Pass'],Pass,0.8100000000000006,-0.4766666666666673,1.0,3.0,0.9
465.0,10.0,wc_10,,0.0,,,,101.0,,,,Pass,,,,,
465.0,10.0,wc_10,wc_6,1.0,"[('wc_6', 0.5000000000000003), ('wc_10', 0.5500000000000004), ('wc_3', 0.8100000000000006)]",0.9572500000000002,,,32.0,0.041518000000000006,['Pass'],Pass,0.5000000000000003,-0.12500000000000033,3.0,8.0,0.5
475.0,12.0,wc_12,,0.0,,,,162.0,,,,Pass,,,,,
475.0,12.0,wc_12,,0.0,,,69.0,,,,,Pass,,,,,
475.0,12.0,wc_12,,0.0,,,,0.0,,,,Pass,,,,,
475.0,12.0,wc_12,wc_12,0.0,"[('wc_12', 0.6000000000000004)]",0.6000000000000004,,,32.0,0.002414,['Pass'],Pass,0.6000000000000004,-0.6000000000000004,0.0,5.0,1.0
475.0,12.0,wc_12,,0.0,,,,0.0,,,,Pass,,,,,
475.0,12.0,wc_12,wc_14,0.0,"[('wc_14', 0.7500000000000006), ('wc_12', 0.6000000000000004)]",0.9000000000000004,,,28.0,0.004163999999999999,['Pass'],Pass,0.7500000000000006,-0.5500000000000005,1.0,5.0,1.0
475.0,12.0,wc_12,,0.0,,,,301.0,,,,Pass,,,,,
475.0,12.0,wc_12,wc_10,1.0,"[('wc_10', 0.5500000000000004), ('wc_12', 0.6000000000000004), ('wc_14', 0.7500000000000006)]",0.9550000000000002,,,27.0,0.055515999999999996,['Pass'],Pass,0.5500000000000004,-0.10555555555555596,4.0,9.0,0.8
490.0,13.0,wc_13,,0.0,,,,101.0,,,,Pass,,,,,
490.0,13.0,wc_13,,0.0,,,67.0,,,,,Pass,,,,,
490.0,13.0,wc_13,,0.0,,,,0.0,,,,Pass,,,,,
490.0,13.0,wc_13,wc_13,0.0,"[('wc_13', 0.6400000000000005)]",0.6400000000000005,,,34.0,0.002305,['Pass'],Pass,0.6400000000000005,-0.6400000000000005,0.0,9.0,0.7
490.0,13.0,wc_13,,0.0,,,,162.0,,,,Pass,,,,,
490.0,13.0,wc_13,wc_6,0.0,"[('wc_6', 0.5000000000000003), ('wc_13', 0.6400000000000005)]",0.8200000000000003,,,23.0,0.0049770000000000005,['Pass'],Pass,0.5000000000000003,-0.16666666666666702,3.0,9.0,0.5
490.0,13.0,wc_13,,0.0,,,,162.0,,,,Pass,,,,,
490.0,13.0,wc_13,wc_12,1.0,"[('wc_12', 0.6000000000000004), ('wc_13', 0.6400000000000005), ('wc_6', 0.5000000000000003)]",0.9280000000000002,,,22.0,0.04245,['Pass'],Pass,0.6000000000000004,-0.3142857142857147,2.0,7.0,1.0
500.0,15.0,wc_15,,0.0,,,,0.0,,,,Pass,,,,,
500.0,15.0,wc_15,,0.0,,,56.0,,,,,Pass,,,,,
500.0,15.0,wc_15,,0.0,,,,0.0,,,,Pass,,,,,
500.0,15.0,wc_15,wc_15,0.0,"[('wc_15', 0.6200000000000004)]",0.6200000000000004,,,29.0,0.002252,['Pass'],Pass,0.6200000000000004,-0.5088888888888894,1.0,9.0,0.7
500.0,15.0,wc_15,,0.0,,,,303.0,,,,Pass,,,,,
500.0,15.0,wc_15,wc_2,0.0,"[('wc_2', 0.6800000000000005), ('wc_15', 0.6200000000000004)]",0.8784000000000003,,,30.0,0.004082,['Pass'],Pass,0.6800000000000005,-0.5966666666666671,0.0,0.0,0.7
500.0,15.0,wc_15,,0.0,,,,0.0,,,,Pass,,,,,
500.0,15.0,wc_15,wc_3,1.0,"[('wc_3', 0.8100000000000006), ('wc_15', 0.6200000000000004), ('wc_2', 0.6800000000000005)]",0.9768960000000001,,,40.0,0.039384999999999996,['Pass'],Pass,0.8100000000000006,-0.38142857142857206,3.0,7.0,0.9
520.0,16.0,wc_16,,0.0,,,,222.0,,,,Pass,,,,,
520.0,16.0,wc_16,,0.0,,,56.0,,,,,Pass,,,,,
520.0,16.0,wc_16,,0.0,,,,0.0,,,,Pass,,,,,
520.0,16.0,wc_16,wc_16,0.0,"[('wc_16', 0.5000000000000003)]",0.5000000000000003,,,28.0,0.00218,['Pass'],Pass,0.5000000000000003,-0.5000000000000003,0.0,0.0,0.5
520.0,16.0,wc_16,,0.0,,,,402.0,,,,Pass,,,,,
520.0,16.0,wc_16,wc_4,0.0,"[('wc_4', 0.7700000000000006), ('wc_16', 0.5000000000000003)]",0.8850000000000003,,,32.0,0.004275,['Pass'],Pass,0.7700000000000006,-0.7700000000000006,0.0,0.0,0.9
520.0,16.0,wc_16,,0.0,,,,0.0,,,,Pass,,,,,
520.0,16.0,wc_16,wc_5,1.0,"[('wc_5', 0.5700000000000004), ('wc_16', 0.5000000000000003), ('wc_4', 0.7700000000000006)]",0.9505500000000002,,,38.0,0.043174,['Pass'],Pass,0.5700000000000004,-0.40333333333333377,1.0,6.0,0.8
534.0,14.0,wc_14,,0.0,,,,141.0,,,,Pass,,,,,
534.0,14.0,wc_14,,0.0,,,70.0,,,,,Pass,,,,,
534.0,14.0,wc_14,,0.0,,,,0.0,,,,Pass,,,,,
534.0,14.0,wc_14,wc_14,0.0,"[('wc_14', 0.7500000000000006)]",0.7500000000000006,,,24.0,0.002233,['Pass'],Pass,0.7500000000000006,-0.5277777777777783,2.0,9.0,1.0
534.0,14.0,wc_14,,0.0,,,,341.0,,,,Pass,,,,,
534.0,14.0,wc_14,wc_4,0.0,"[('wc_4', 0.7800000000000006), ('wc_14', 0.7500000000000006)]",0.9450000000000003,,,21.0,0.0039559999999999994,['Pass'],Pass,0.7800000000000006,0.21999999999999942,1.0,1.0,0.9
534.0,14.0,wc_14,,0.0,,,,121.0,,,,Pass,,,,,
534.0,14.0,wc_14,wc_12,1.0,"[('wc_12', 0.6000000000000004), ('wc_14', 0.7500000000000006), ('wc_4', 0.7800000000000006)]",0.9780000000000001,,,20.0,0.044929,['Pass'],Pass,0.6000000000000004,-0.6000000000000004,0.0,0.0,1.0
545.0,17.0,wc_17,,0.0,,,,0.0,,,,Fail,,,,,
545.0,17.0,wc_17,,0.0,,,76.0,,,,,Fail,,,,,
545.0,17.0,wc_17,,0.0,,,,0.0,,,,Fail,,,,,
545.0,17.0,wc_17,wc_17,0.0,"[('wc_17', 0.7600000000000006)]",0.7600000000000006,,,39.0,0.002591,['Fail'],Fail,0.7600000000000006,-0.7600000000000006,0.0,0.0,0.8
545.0,17.0,wc_17,,0.0,,,,83.0,,,,Fail,,,,,
545.0,17.0,wc_17,wc_15,0.0,"[('wc_15', 0.6200000000000004), ('wc_17', 0.7600000000000006)]",0.9088000000000003,,,30.0,0.004202,['Fail'],Fail,0.6200000000000004,-0.6200000000000004,0.0,2.0,0.7
545.0,17.0,wc_17,,0.0,,,,422.0,,,,Fail,,,,,
545.0,17.0,wc_17,wc_4,1.0,"[('wc_4', 0.7900000000000006), ('wc_17', 0.7600000000000006), ('wc_15', 0.6200000000000004)]",0.9808480000000002,,,37.0,0.041627000000000004,['Fail'],Fail,0.8000000000000006,0.1999999999999994,3.0,3.0,0.9
564.0,17.0,wc_17,,0.0,,,,222.0,,,,Pass,,,,,
564.0,17.0,wc_17,,0.0,,,55.0,,,,,Pass,,,,,
564.0,17.0,wc_17,,0.0,,,,0.0,,,,Pass,,,,,
564.0,17.0,wc_17,wc_17,0.0,"[('wc_17', 0.7700000000000006)]",0.7700000000000006,,,40.0,0.002316,['Pass'],Pass,0.7700000000000006,0.22999999999999943,1.0,1.0,0.8
564.0,17.0,wc_17,,0.0,,,,362.0,,,,Pass,,,,,
564.0,17.0,wc_17,wc_3,0.0,"[('wc_3', 0.8100000000000006), ('wc_17', 0.7700000000000006)]",0.9563000000000003,,,38.0,0.0040219999999999995,['Pass'],Pass,0.8100000000000006,-0.5100000000000007,0.0,0.0,0.9
564.0,17.0,wc_17,,0.0,,,,0.0,,,,Pass,,,,,
564.0,17.0,wc_17,wc_5,1.0,"[('wc_5', 0.5700000000000004), ('wc_17', 0.7700000000000006), ('wc_3', 0.8100000000000006)]",0.9812090000000001,,,20.0,0.043052999999999994,['Pass'],Pass,0.5700000000000004,-0.3477777777777782,2.0,9.0,0.8
