mpecck/BCQC/bcqc_with_qdt/results/raw/input_2/independent_qc/training/20_workpiece/20200429_084350/wp_4_qc_majority_0.9.csv
production_index,step_idx,production_workcell,qc,consent,winner_qc_list,score,production_time,transport_time,inspection_time,network_time,qc_results,actual_quality,qc_score,score_error,in_winner_counter,in_qc_counter,qc_capability
5.0,1.0,wc_1,,0.0,,,73.0,,,,,Pass,,,,,
5.0,1.0,wc_1,,0.0,,,,0.0,,,,Pass,,,,,
5.0,1.0,wc_1,wc_1,0.0,"[('wc_1', 0.4800000000000003)]",0.4800000000000003,,,37.0,0.002155,['Pass'],Pass,0.4800000000000003,-0.1723076923076926,0.0,0.0,0.8
5.0,1.0,wc_1,,0.0,,,,0.0,,,,Pass,,,,,
5.0,1.0,wc_1,wc_4,0.0,"[('wc_4', 0.4800000000000003), ('wc_1', 0.4800000000000003)]",0.7296000000000002,,,33.0,0.003898,['Pass'],Pass,0.4800000000000003,-0.2577777777777781,0.0,0.0,0.9
5.0,1.0,wc_1,,0.0,,,,103.0,,,,Pass,,,,,
5.0,1.0,wc_1,wc_3,0.0,"[('wc_3', 0.4600000000000003), ('wc_1', 0.4800000000000003), ('wc_4', 0.4800000000000003)]",0.8539840000000003,,,33.0,0.006145,['Pass'],Pass,0.4600000000000003,-0.326666666666667,0.0,0.0,0.9
5.0,1.0,wc_1,,0.0,,,,121.0,,,,Pass,,,,,
5.0,1.0,wc_1,wc_7,0.0,"[('wc_1', 0.4800000000000003), ('wc_4', 0.4800000000000003), ('wc_3', 0.4600000000000003)]",0.8539840000000003,,,32.0,0.008161,['Pass'],Pass,0.42000000000000026,-0.42000000000000026,0.0,1.0,0.5
5.0,1.0,wc_1,,0.0,,,,0.0,,,,Pass,,,,,
5.0,1.0,wc_1,wc_9,1.0,"[('wc_9', 0.3700000000000002), ('wc_1', 0.4800000000000003), ('wc_4', 0.4800000000000003), ('wc_3', 0.4600000000000003)]",0.9080099200000002,,,23.0,0.042132,['Pass'],Pass,0.3700000000000002,-0.3700000000000002,0.0,0.0,0.7
10.0,2.0,wc_2,,0.0,,,,263.0,,,,Pass,,,,,
10.0,2.0,wc_2,,0.0,,,74.0,,,,,Pass,,,,,
10.0,2.0,wc_2,,0.0,,,,0.0,,,,Pass,,,,,
10.0,2.0,wc_2,wc_2,0.0,"[('wc_2', 0.4700000000000003)]",0.4700000000000003,,,22.0,0.002276,['Pass'],Pass,0.4700000000000003,-0.2700000000000003,1.0,5.0,0.7
10.0,2.0,wc_2,,0.0,,,,223.0,,,,Pass,,,,,
10.0,2.0,wc_2,wc_11,0.0,"[('wc_11', 0.4900000000000003), ('wc_2', 0.4700000000000003)]",0.7297000000000003,,,39.0,0.0063230000000000005,['Pass'],Pass,0.4900000000000003,-0.24000000000000032,2.0,8.0,1.0
10.0,2.0,wc_2,,0.0,,,,61.0,,,,Pass,,,,,
10.0,2.0,wc_2,wc_12,0.0,"[('wc_12', 0.4400000000000003), ('wc_2', 0.4700000000000003), ('wc_11', 0.4900000000000003)]",0.8486320000000003,,,40.0,0.006232,['Pass'],Pass,0.4400000000000003,0.05999999999999972,1.0,2.0,1.0
10.0,2.0,wc_2,,0.0,,,,0.0,,,,Pass,,,,,
10.0,2.0,wc_2,wc_17,1.0,"[('wc_17', 0.40000000000000024), ('wc_2', 0.4700000000000003), ('wc_11', 0.4900000000000003), ('wc_12', 0.4400000000000003)]",0.9091792000000002,,,31.0,0.038603,['Pass'],Pass,0.41000000000000025,0.08999999999999975,1.0,2.0,0.8
17.0,4.0,wc_4,,0.0,,,,382.0,,,,Fail,,,,,
17.0,4.0,wc_4,,0.0,,,69.0,,,,,Fail,,,,,
17.0,4.0,wc_4,,0.0,,,,0.0,,,,Fail,,,,,
17.0,4.0,wc_4,wc_4,0.0,"[('wc_4', 0.4900000000000003)]",0.4900000000000003,,,30.0,0.002819,['Fail'],Fail,0.4900000000000003,0.009999999999999676,1.0,2.0,0.9
17.0,4.0,wc_4,,0.0,,,,0.0,,,,Fail,,,,,
17.0,4.0,wc_4,wc_5,0.0,"[('wc_5', 0.40000000000000024), ('wc_4', 0.4900000000000003)]",0.6940000000000004,,,33.0,0.004427,['Fail'],Fail,0.40000000000000024,-0.15000000000000024,1.0,4.0,0.8
17.0,4.0,wc_4,,0.0,,,,162.0,,,,Fail,,,,,
17.0,4.0,wc_4,wc_11,0.0,"[('wc_11', 0.4900000000000003), ('wc_4', 0.4900000000000003), ('wc_5', 0.40000000000000024)]",0.8439400000000002,,,29.0,0.006697,['Fail'],Fail,0.4900000000000003,-0.156666666666667,3.0,9.0,1.0
17.0,4.0,wc_4,,0.0,,,,223.0,,,,Fail,,,,,
17.0,4.0,wc_4,wc_2,1.0,"[('wc_2', 0.4700000000000003), ('wc_4', 0.4900000000000003), ('wc_5', 0.40000000000000024), ('wc_11', 0.4900000000000003)]",0.9172882000000002,,,36.0,0.039179000000000005,['Fail'],Fail,0.4700000000000003,-0.04142857142857176,3.0,7.0,0.7
26.0,3.0,wc_3,,0.0,,,,0.0,,,,Fail,,,,,
26.0,3.0,wc_3,,0.0,,,76.0,,,,,Fail,,,,,
26.0,3.0,wc_3,,0.0,,,,0.0,,,,Fail,,,,,
26.0,3.0,wc_3,wc_3,0.0,"[('wc_3', 0.4700000000000003)]",0.4700000000000003,,,27.0,0.002077,['Fail'],Fail,0.4700000000000003,-0.136666666666667,1.0,3.0,0.9
26.0,3.0,wc_3,,0.0,,,,121.0,,,,Fail,,,,,
26.0,3.0,wc_3,wc_7,0.0,"[('wc_7', 0.41000000000000025), ('wc_3', 0.4700000000000003)]",0.6873000000000002,,,38.0,0.004573,['Fail'],Fail,0.41000000000000025,-0.41000000000000025,0.0,4.0,0.5
26.0,3.0,wc_3,,0.0,,,,203.0,,,,Fail,,,,,
26.0,3.0,wc_3,wc_15,0.0,"[('wc_15', 0.39000000000000024), ('wc_3', 0.4700000000000003), ('wc_7', 0.41000000000000025)]",0.8092530000000002,,,39.0,0.0062250000000000005,['Fail'],Fail,0.39000000000000024,-0.19000000000000022,1.0,5.0,0.7
26.0,3.0,wc_3,,0.0,,,,303.0,,,,Fail,,,,,
26.0,3.0,wc_3,wc_2,0.0,"[('wc_2', 0.4700000000000003), ('wc_3', 0.4700000000000003), ('wc_7', 0.41000000000000025), ('wc_15', 0.39000000000000024)]",0.8989040900000003,,,28.0,0.00794,['Fail'],Fail,0.4700000000000003,-0.04142857142857176,3.0,7.0,0.7
26.0,3.0,wc_3,,0.0,,,,162.0,,,,Fail,,,,,
26.0,3.0,wc_3,wc_12,1.0,"[('wc_12', 0.4500000000000003), ('wc_3', 0.4700000000000003), ('wc_7', 0.41000000000000025), ('wc_15', 0.39000000000000024), ('wc_2', 0.4700000000000003)]",0.9443972495000001,,,24.0,0.03802,['Fail'],Fail,0.4600000000000003,0.13999999999999968,3.0,5.0,1.0
32.0,3.0,wc_3,,0.0,,,,361.0,,,,Pass,,,,,
32.0,3.0,wc_3,,0.0,,,73.0,,,,,Pass,,,,,
32.0,3.0,wc_3,,0.0,,,,0.0,,,,Pass,,,,,
32.0,3.0,wc_3,wc_3,0.0,"[('wc_3', 0.4800000000000003)]",0.4800000000000003,,,38.0,0.00228,['Pass'],Pass,0.4800000000000003,0.019999999999999685,2.0,4.0,0.9
32.0,3.0,wc_3,,0.0,,,,242.0,,,,Pass,,,,,
32.0,3.0,wc_3,wc_17,0.0,"[('wc_17', 0.41000000000000025), ('wc_3', 0.4800000000000003)]",0.6932000000000003,,,29.0,0.004137,['Pass'],Pass,0.41000000000000025,-0.16000000000000025,1.0,4.0,0.8
32.0,3.0,wc_3,,0.0,,,,382.0,,,,Pass,,,,,
32.0,3.0,wc_3,wc_4,0.0,"[('wc_4', 0.5000000000000003), ('wc_3', 0.4800000000000003), ('wc_17', 0.41000000000000025)]",0.8466000000000002,,,26.0,0.005875,['Pass'],Pass,0.5000000000000003,-3.3306690738754696e-16,2.0,4.0,0.9
32.0,3.0,wc_3,,0.0,,,,162.0,,,,Pass,,,,,
32.0,3.0,wc_3,wc_10,1.0,"[('wc_10', 0.4400000000000003), ('wc_3', 0.4800000000000003), ('wc_17', 0.41000000000000025), ('wc_4', 0.5000000000000003)]",0.9140960000000002,,,37.0,0.038772,['Pass'],Pass,0.4400000000000003,-0.4400000000000003,0.0,0.0,0.8
47.0,4.0,wc_4,,0.0,,,,362.0,,,,Pass,,,,,
47.0,4.0,wc_4,,0.0,,,72.0,,,,,Pass,,,,,
47.0,4.0,wc_4,,0.0,,,,0.0,,,,Pass,,,,,
47.0,4.0,wc_4,wc_4,0.0,"[('wc_4', 0.5100000000000003)]",0.5100000000000003,,,32.0,0.00209,['Pass'],Pass,0.5100000000000003,0.08999999999999964,3.0,5.0,0.9
47.0,4.0,wc_4,,0.0,,,,103.0,,,,Pass,,,,,
47.0,4.0,wc_4,wc_3,0.0,"[('wc_3', 0.4900000000000003), ('wc_4', 0.5100000000000003)]",0.7501000000000003,,,31.0,0.004648,['Pass'],Pass,0.4900000000000003,0.10999999999999965,3.0,5.0,0.9
47.0,4.0,wc_4,,0.0,,,,81.0,,,,Pass,,,,,
47.0,4.0,wc_4,wc_1,0.0,"[('wc_1', 0.4900000000000003), ('wc_4', 0.5100000000000003), ('wc_3', 0.4900000000000003)]",0.8725510000000003,,,32.0,0.00656,['Pass'],Pass,0.4900000000000003,-0.2900000000000003,1.0,5.0,0.8
47.0,4.0,wc_4,,0.0,,,,182.0,,,,Pass,,,,,
47.0,4.0,wc_4,wc_12,1.0,"[('wc_12', 0.4600000000000003), ('wc_4', 0.5100000000000003), ('wc_3', 0.4900000000000003), ('wc_1', 0.4900000000000003)]",0.9311775400000002,,,35.0,0.038076,['Pass'],Pass,0.4700000000000003,0.10142857142857109,4.0,7.0,1.0
57.0,5.0,wc_5,,0.0,,,,401.0,,,,Pass,,,,,
57.0,5.0,wc_5,,0.0,,,65.0,,,,,Pass,,,,,
57.0,5.0,wc_5,,0.0,,,,0.0,,,,Pass,,,,,
57.0,5.0,wc_5,wc_5,0.0,"[('wc_5', 0.40000000000000024)]",0.40000000000000024,,,26.0,0.002508,['Pass'],Pass,0.40000000000000024,-0.15000000000000024,2.0,8.0,0.8
57.0,5.0,wc_5,,0.0,,,,162.0,,,,Pass,,,,,
57.0,5.0,wc_5,wc_11,0.0,"[('wc_11', 0.4900000000000003), ('wc_5', 0.40000000000000024)]",0.6940000000000004,,,22.0,0.004299,['Pass'],Pass,0.4900000000000003,-0.4900000000000003,0.0,3.0,1.0
57.0,5.0,wc_5,,0.0,,,,61.0,,,,Pass,,,,,
57.0,5.0,wc_5,wc_8,0.0,"[('wc_5', 0.40000000000000024), ('wc_11', 0.4900000000000003)]",0.6940000000000004,,,25.0,0.006534,['Pass'],Pass,0.4500000000000003,-0.3388888888888892,1.0,9.0,0.9
57.0,5.0,wc_5,,0.0,,,,162.0,,,,Pass,,,,,
57.0,5.0,wc_5,wc_1,0.0,"[('wc_1', 0.4900000000000003), ('wc_5', 0.40000000000000024), ('wc_11', 0.4900000000000003)]",0.8439400000000002,,,34.0,0.008279,['Pass'],Pass,0.4900000000000003,-0.156666666666667,2.0,6.0,0.8
57.0,5.0,wc_5,,0.0,,,,222.0,,,,Pass,,,,,
57.0,5.0,wc_5,wc_14,0.0,"[('wc_5', 0.40000000000000024), ('wc_11', 0.4900000000000003), ('wc_1', 0.4900000000000003)]",0.8439400000000002,,,36.0,0.009119,['Pass'],Pass,0.5000000000000003,-0.36666666666666703,0.0,0.0,1.0
57.0,5.0,wc_5,,0.0,,,,0.0,,,,Pass,,,,,
57.0,5.0,wc_5,wc_17,1.0,"[('wc_17', 0.41000000000000025), ('wc_5', 0.40000000000000024), ('wc_11', 0.4900000000000003), ('wc_1', 0.4900000000000003)]",0.9079246000000002,,,31.0,0.043146000000000004,['Pass'],Pass,0.42000000000000026,0.008571428571428286,3.0,7.0,0.8
64.0,6.0,wc_6,,0.0,,,,183.0,,,,Pass,,,,,
64.0,6.0,wc_6,,0.0,,,64.0,,,,,Pass,,,,,
64.0,6.0,wc_6,,0.0,,,,0.0,,,,Pass,,,,,
64.0,6.0,wc_6,wc_6,0.0,"[('wc_6', 0.3400000000000002)]",0.3400000000000002,,,36.0,0.002127,['Pass'],Pass,0.3400000000000002,-0.24000000000000019,0.0,0.0,0.5
64.0,6.0,wc_6,,0.0,,,,243.0,,,,Pass,,,,,
64.0,6.0,wc_6,wc_16,0.0,"[('wc_16', 0.4500000000000003), ('wc_6', 0.3400000000000002)]",0.6370000000000002,,,37.0,0.004358,['Pass'],Pass,0.4500000000000003,-0.09285714285714314,0.0,0.0,0.5
64.0,6.0,wc_6,,0.0,,,,422.0,,,,Pass,,,,,
64.0,6.0,wc_6,wc_5,0.0,"[('wc_5', 0.40000000000000024), ('wc_6', 0.3400000000000002), ('wc_16', 0.4500000000000003)]",0.7822000000000002,,,21.0,0.0057079999999999995,['Pass'],Pass,0.40000000000000024,-0.06666666666666693,3.0,9.0,0.8
64.0,6.0,wc_6,,0.0,,,,162.0,,,,Pass,,,,,
64.0,6.0,wc_6,wc_11,0.0,"[('wc_11', 0.4900000000000003), ('wc_6', 0.3400000000000002), ('wc_16', 0.4500000000000003), ('wc_5', 0.40000000000000024)]",0.8889220000000002,,,31.0,0.008132,['Pass'],Pass,0.4900000000000003,-0.24000000000000032,1.0,4.0,1.0
64.0,6.0,wc_6,,0.0,,,,162.0,,,,Pass,,,,,
64.0,6.0,wc_6,wc_17,1.0,"[('wc_17', 0.42000000000000026), ('wc_6', 0.3400000000000002), ('wc_16', 0.4500000000000003), ('wc_5', 0.40000000000000024), ('wc_11', 0.4900000000000003)]",0.9355747600000002,,,29.0,0.041472999999999996,['Pass'],Pass,0.43000000000000027,0.06999999999999973,4.0,8.0,0.8
71.0,10.0,wc_10,,0.0,,,,342.0,,,,Fail,,,,,
71.0,10.0,wc_10,,0.0,,,72.0,,,,,Fail,,,,,
71.0,10.0,wc_10,,0.0,,,,0.0,,,,Fail,,,,,
71.0,10.0,wc_10,wc_10,0.0,"[('wc_10', 0.4400000000000003)]",0.4400000000000003,,,20.0,0.002354,['Fail'],Fail,0.4400000000000003,-0.4400000000000003,0.0,3.0,0.8
71.0,10.0,wc_10,,0.0,,,,0.0,,,,Fail,,,,,
71.0,10.0,wc_10,wc_11,0.0,"[('wc_11', 0.4900000000000003), ('wc_10', 0.4400000000000003)]",0.7144000000000004,,,36.0,0.004446,['Fail'],Fail,0.4900000000000003,-0.0900000000000003,2.0,5.0,1.0
71.0,10.0,wc_10,,0.0,,,,61.0,,,,Fail,,,,,
71.0,10.0,wc_10,wc_12,0.0,"[('wc_12', 0.4700000000000003), ('wc_10', 0.4400000000000003), ('wc_11', 0.4900000000000003)]",0.8486320000000003,,,30.0,0.005538,['Fail'],Fail,0.4700000000000003,-0.025555555555555887,4.0,9.0,1.0
71.0,10.0,wc_10,,0.0,,,,202.0,,,,Fail,,,,,
71.0,10.0,wc_10,wc_7,1.0,"[('wc_7', 0.41000000000000025), ('wc_10', 0.4400000000000003), ('wc_11', 0.4900000000000003), ('wc_12', 0.4700000000000003)]",0.9106928800000001,,,27.0,0.038804000000000005,['Fail'],Fail,0.41000000000000025,-0.41000000000000025,0.0,0.0,0.5
80.0,7.0,wc_7,,0.0,,,,0.0,,,,Fail,,,,,
80.0,7.0,wc_7,,0.0,,,64.0,,,,,Fail,,,,,
80.0,7.0,wc_7,,0.0,,,,0.0,,,,Fail,,,,,
80.0,7.0,wc_7,wc_7,0.0,"[('wc_7', 0.41000000000000025)]",0.41000000000000025,,,31.0,0.00218,['Fail'],Fail,0.41000000000000025,-0.41000000000000025,0.0,0.0,0.5
80.0,7.0,wc_7,,0.0,,,,0.0,,,,Fail,,,,,
80.0,7.0,wc_7,wc_10,0.0,"[('wc_10', 0.4400000000000003), ('wc_7', 0.41000000000000025)]",0.6696000000000003,,,34.0,0.004727,['Fail'],Fail,0.4400000000000003,-0.19000000000000028,1.0,4.0,0.8
80.0,7.0,wc_7,,0.0,,,,41.0,,,,Fail,,,,,
80.0,7.0,wc_7,wc_6,0.0,"[('wc_6', 0.3500000000000002), ('wc_7', 0.41000000000000025), ('wc_10', 0.4400000000000003)]",0.7852400000000003,,,39.0,0.005993999999999999,['Fail'],Fail,0.3500000000000002,0.1499999999999998,1.0,2.0,0.5
80.0,7.0,wc_7,,0.0,,,,341.0,,,,Fail,,,,,
80.0,7.0,wc_7,wc_4,0.0,"[('wc_4', 0.5200000000000004), ('wc_7', 0.41000000000000025), ('wc_10', 0.4400000000000003), ('wc_6', 0.3500000000000002)]",0.8969152000000002,,,20.0,0.008213,['Fail'],Fail,0.5200000000000004,-0.07555555555555593,4.0,9.0,0.9
80.0,7.0,wc_7,,0.0,,,,121.0,,,,Fail,,,,,
80.0,7.0,wc_7,wc_12,1.0,"[('wc_12', 0.4800000000000003), ('wc_7', 0.41000000000000025), ('wc_10', 0.4400000000000003), ('wc_6', 0.3500000000000002), ('wc_4', 0.5200000000000004)]",0.9463959040000002,,,38.0,0.041783,['Fail'],Fail,0.4900000000000003,0.5099999999999997,1.0,1.0,1.0
87.0,9.0,wc_9,,0.0,,,,321.0,,,,Pass,,,,,
87.0,9.0,wc_9,,0.0,,,52.0,,,,,Pass,,,,,
87.0,9.0,wc_9,,0.0,,,,0.0,,,,Pass,,,,,
87.0,9.0,wc_9,wc_9,0.0,"[('wc_9', 0.3700000000000002)]",0.3700000000000002,,,30.0,0.002421,['Pass'],Pass,0.3700000000000002,-0.3700000000000002,0.0,9.0,0.7
87.0,9.0,wc_9,,0.0,,,,0.0,,,,Pass,,,,,
87.0,9.0,wc_9,wc_11,0.0,"[('wc_11', 0.4900000000000003), ('wc_9', 0.3700000000000002)]",0.6787000000000003,,,22.0,0.004313,['Pass'],Pass,0.4900000000000003,-0.06142857142857178,3.0,7.0,1.0
87.0,9.0,wc_9,,0.0,,,,342.0,,,,Pass,,,,,
87.0,9.0,wc_9,wc_4,0.0,"[('wc_4', 0.5200000000000004), ('wc_9', 0.3700000000000002), ('wc_11', 0.4900000000000003)]",0.8457760000000003,,,34.0,0.006194000000000001,['Pass'],Pass,0.5200000000000004,-0.5200000000000004,0.0,0.0,0.9
87.0,9.0,wc_9,,0.0,,,,103.0,,,,Pass,,,,,
87.0,9.0,wc_9,wc_3,1.0,"[('wc_3', 0.5000000000000003), ('wc_9', 0.3700000000000002), ('wc_11', 0.4900000000000003), ('wc_4', 0.5200000000000004)]",0.9228880000000002,,,22.0,0.040684000000000005,['Pass'],Pass,0.5000000000000003,-0.5000000000000003,0.0,0.0,0.9
96.0,11.0,wc_11,,0.0,,,,202.0,,,,Pass,,,,,
96.0,11.0,wc_11,,0.0,,,67.0,,,,,Pass,,,,,
96.0,11.0,wc_11,,0.0,,,,0.0,,,,Pass,,,,,
96.0,11.0,wc_11,wc_11,0.0,"[('wc_11', 0.4900000000000003)]",0.4900000000000003,,,37.0,0.002612,['Fail'],Pass,0.4900000000000003,0.009999999999999676,4.0,8.0,1.0
96.0,11.0,wc_11,,0.0,,,,223.0,,,,Pass,,,,,
96.0,11.0,wc_11,wc_2,0.0,"[('wc_11', 0.4900000000000003)]",0.4900000000000003,,,31.0,0.004874,['Fail'],Pass,0.4800000000000003,-0.21333333333333365,0.0,0.0,0.7
96.0,11.0,wc_11,,0.0,,,,0.0,,,,Pass,,,,,
96.0,11.0,wc_11,wc_3,0.0,"[('wc_3', 0.5000000000000003), ('wc_2', 0.4800000000000003)]",0.7400000000000003,,,35.0,0.0064139999999999996,['Pass'],Pass,0.5000000000000003,-0.5000000000000003,0.0,0.0,0.9
96.0,11.0,wc_11,,0.0,,,,161.0,,,,Pass,,,,,
96.0,11.0,wc_11,wc_13,0.0,"[('wc_13', 0.4900000000000003), ('wc_2', 0.4800000000000003), ('wc_3', 0.5000000000000003)]",0.8674000000000003,,,25.0,0.008672,['Pass'],Pass,0.4900000000000003,-0.24000000000000032,0.0,0.0,0.7
96.0,11.0,wc_11,,0.0,,,,0.0,,,,Pass,,,,,
96.0,11.0,wc_11,wc_15,1.0,"[('wc_15', 0.39000000000000024), ('wc_2', 0.4800000000000003), ('wc_3', 0.5000000000000003), ('wc_13', 0.4900000000000003)]",0.9191140000000002,,,29.0,0.042779000000000005,['Pass'],Pass,0.39000000000000024,-0.39000000000000024,0.0,0.0,0.7
105.0,10.0,wc_10,,0.0,,,,382.0,,,,Pass,,,,,
105.0,10.0,wc_10,,0.0,,,75.0,,,,,Pass,,,,,
105.0,10.0,wc_10,,0.0,,,,0.0,,,,Pass,,,,,
105.0,10.0,wc_10,wc_10,0.0,"[('wc_10', 0.4400000000000003)]",0.4400000000000003,,,40.0,0.002397,['Pass'],Pass,0.4400000000000003,-0.15428571428571458,2.0,7.0,0.8
105.0,10.0,wc_10,,0.0,,,,182.0,,,,Pass,,,,,
105.0,10.0,wc_10,wc_17,0.0,"[('wc_17', 0.43000000000000027), ('wc_10', 0.4400000000000003)]",0.6808000000000003,,,31.0,0.004094,['Pass'],Pass,0.43000000000000027,-0.09666666666666696,0.0,0.0,0.8
105.0,10.0,wc_10,,0.0,,,,362.0,,,,Pass,,,,,
105.0,10.0,wc_10,wc_3,0.0,"[('wc_3', 0.5100000000000003), ('wc_10', 0.4400000000000003), ('wc_17', 0.43000000000000027)]",0.8435920000000003,,,21.0,0.005787,['Pass'],Pass,0.5100000000000003,0.48999999999999966,1.0,1.0,0.9
105.0,10.0,wc_10,,0.0,,,,81.0,,,,Pass,,,,,
105.0,10.0,wc_10,wc_1,1.0,"[('wc_1', 0.4900000000000003), ('wc_10', 0.4400000000000003), ('wc_17', 0.43000000000000027), ('wc_3', 0.5100000000000003)]",0.9202319200000002,,,26.0,0.042457999999999996,['Pass'],Pass,0.4900000000000003,-0.4900000000000003,0.0,0.0,0.8
112.0,8.0,wc_8,,0.0,,,,182.0,,,,Fail,,,,,
112.0,8.0,wc_8,,0.0,,,51.0,,,,,Fail,,,,,
112.0,8.0,wc_8,,0.0,,,,0.0,,,,Fail,,,,,
112.0,8.0,wc_8,wc_8,0.0,"[('wc_8', 0.4400000000000003)]",0.4400000000000003,,,38.0,0.002084,['Fail'],Fail,0.4400000000000003,-0.4400000000000003,0.0,6.0,0.9
112.0,8.0,wc_8,,0.0,,,,162.0,,,,Fail,,,,,
112.0,8.0,wc_8,wc_14,0.0,"[('wc_14', 0.4900000000000003), ('wc_8', 0.4400000000000003)]",0.7144000000000004,,,39.0,0.0066099999999999996,['Fail'],Fail,0.4900000000000003,-0.4900000000000003,0.0,7.0,1.0
112.0,8.0,wc_8,,0.0,,,,0.0,,,,Fail,,,,,
112.0,8.0,wc_8,wc_15,0.0,"[('wc_15', 0.39000000000000024), ('wc_8', 0.4400000000000003), ('wc_14', 0.4900000000000003)]",0.8257840000000003,,,36.0,0.006904,['Fail'],Fail,0.39000000000000024,-0.39000000000000024,0.0,1.0,0.7
112.0,8.0,wc_8,,0.0,,,,81.0,,,,Fail,,,,,
112.0,8.0,wc_8,wc_13,1.0,"[('wc_13', 0.5000000000000003), ('wc_8', 0.4400000000000003), ('wc_14', 0.4900000000000003), ('wc_15', 0.39000000000000024)]",0.9128920000000001,,,29.0,0.040789,['Fail'],Fail,0.5100000000000003,0.1566666666666663,2.0,3.0,0.7
124.0,8.0,wc_8,,0.0,,,,202.0,,,,Fail,,,,,
124.0,8.0,wc_8,,0.0,,,79.0,,,,,Fail,,,,,
124.0,8.0,wc_8,,0.0,,,,0.0,,,,Fail,,,,,
124.0,8.0,wc_8,wc_8,0.0,"[('wc_8', 0.4400000000000003)]",0.4400000000000003,,,20.0,0.002265,['Fail'],Fail,0.4400000000000003,-0.29714285714285743,1.0,7.0,0.9
124.0,8.0,wc_8,,0.0,,,,162.0,,,,Fail,,,,,
124.0,8.0,wc_8,wc_14,0.0,"[('wc_14', 0.4900000000000003), ('wc_8', 0.4400000000000003)]",0.7144000000000004,,,32.0,0.004063000000000001,['Fail'],Fail,0.4900000000000003,-0.3650000000000003,1.0,8.0,1.0
124.0,8.0,wc_8,,0.0,,,,0.0,,,,Fail,,,,,
124.0,8.0,wc_8,wc_17,0.0,"[('wc_17', 0.4400000000000003), ('wc_8', 0.4400000000000003), ('wc_14', 0.4900000000000003)]",0.8400640000000003,,,37.0,0.005738,['Fail'],Fail,0.4400000000000003,0.05999999999999972,1.0,2.0,0.8
124.0,8.0,wc_8,,0.0,,,,103.0,,,,Fail,,,,,
124.0,8.0,wc_8,wc_16,1.0,"[('wc_16', 0.4600000000000003), ('wc_8', 0.4400000000000003), ('wc_14', 0.4900000000000003), ('wc_17', 0.4400000000000003)]",0.9136345600000002,,,38.0,0.041836000000000005,['Fail'],Fail,0.4600000000000003,-0.2100000000000003,2.0,8.0,0.5
130.0,8.0,wc_8,,0.0,,,,243.0,,,,Pass,,,,,
130.0,8.0,wc_8,,0.0,,,50.0,,,,,Pass,,,,,
130.0,8.0,wc_8,,0.0,,,,0.0,,,,Pass,,,,,
130.0,8.0,wc_8,wc_8,0.0,"[('wc_8', 0.4400000000000003)]",0.4400000000000003,,,26.0,0.002201,['Pass'],Pass,0.4400000000000003,-0.19000000000000028,2.0,8.0,0.9
130.0,8.0,wc_8,,0.0,,,,183.0,,,,Pass,,,,,
130.0,8.0,wc_8,wc_15,0.0,"[('wc_15', 0.40000000000000024), ('wc_8', 0.4400000000000003)]",0.6640000000000004,,,32.0,0.003843,['Pass'],Pass,0.40000000000000024,-0.06666666666666693,1.0,3.0,0.7
130.0,8.0,wc_8,,0.0,,,,0.0,,,,Pass,,,,,
130.0,8.0,wc_8,wc_17,0.0,"[('wc_8', 0.4400000000000003), ('wc_15', 0.40000000000000024)]",0.6640000000000004,,,33.0,0.00584,['Pass'],Pass,0.4500000000000003,0.21666666666666634,2.0,3.0,0.8
130.0,8.0,wc_8,,0.0,,,,41.0,,,,Pass,,,,,
130.0,8.0,wc_8,wc_13,0.0,"[('wc_13', 0.5100000000000003), ('wc_8', 0.4400000000000003), ('wc_15', 0.40000000000000024)]",0.8353600000000003,,,20.0,0.007838999999999999,['Pass'],Pass,0.5100000000000003,-0.010000000000000342,2.0,4.0,0.7
130.0,8.0,wc_8,,0.0,,,,242.0,,,,Pass,,,,,
130.0,8.0,wc_8,wc_2,0.0,"[('wc_8', 0.4400000000000003), ('wc_15', 0.40000000000000024), ('wc_13', 0.5100000000000003)]",0.8353600000000003,,,28.0,0.009608,['Pass'],Pass,0.4900000000000003,-0.24000000000000032,1.0,4.0,0.7
130.0,8.0,wc_8,,0.0,,,,183.0,,,,Pass,,,,,
130.0,8.0,wc_8,wc_9,0.0,"[('wc_9', 0.3700000000000002), ('wc_8', 0.4400000000000003), ('wc_15', 0.40000000000000024), ('wc_13', 0.5100000000000003)]",0.8962768000000002,,,32.0,0.012084000000000001,['Pass'],Pass,0.3700000000000002,-0.3700000000000002,0.0,4.0,0.7
130.0,8.0,wc_8,,0.0,,,,362.0,,,,Pass,,,,,
130.0,8.0,wc_8,wc_3,0.0,"[('wc_8', 0.4400000000000003), ('wc_15', 0.40000000000000024), ('wc_13', 0.5100000000000003), ('wc_9', 0.3700000000000002)]",0.8962768000000002,,,21.0,0.012317000000000002,['Pass'],Pass,0.5200000000000004,-0.02000000000000035,2.0,4.0,0.9
130.0,8.0,wc_8,,0.0,,,,0.0,,,,Pass,,,,,
130.0,8.0,wc_8,wc_4,1.0,"[('wc_4', 0.5300000000000004), ('wc_8', 0.4400000000000003), ('wc_15', 0.40000000000000024), ('wc_13', 0.5100000000000003), ('wc_9', 0.3700000000000002)]",0.9512500960000001,,,38.0,0.047956,['Pass'],Pass,0.5300000000000004,-0.19666666666666704,2.0,6.0,0.9
140.0,7.0,wc_7,,0.0,,,,101.0,,,,Fail,,,,,
140.0,7.0,wc_7,,0.0,,,62.0,,,,,Fail,,,,,
140.0,7.0,wc_7,,0.0,,,,0.0,,,,Fail,,,,,
140.0,7.0,wc_7,wc_7,0.0,"[('wc_7', 0.42000000000000026)]",0.42000000000000026,,,40.0,0.001886,['Fail'],Fail,0.42000000000000026,-0.2771428571428574,1.0,7.0,0.5
140.0,7.0,wc_7,,0.0,,,,182.0,,,,Fail,,,,,
140.0,7.0,wc_7,wc_14,0.0,"[('wc_14', 0.4900000000000003), ('wc_7', 0.42000000000000026)]",0.7042000000000004,,,38.0,0.004084,['Fail'],Fail,0.4900000000000003,-0.2900000000000003,0.0,0.0,1.0
140.0,7.0,wc_7,,0.0,,,,0.0,,,,Fail,,,,,
140.0,7.0,wc_7,wc_17,0.0,"[('wc_17', 0.4500000000000003), ('wc_7', 0.42000000000000026), ('wc_14', 0.4900000000000003)]",0.8373100000000002,,,26.0,0.006222,['Fail'],Fail,0.4500000000000003,0.04999999999999971,2.0,4.0,0.8
140.0,7.0,wc_7,,0.0,,,,183.0,,,,Fail,,,,,
140.0,7.0,wc_7,wc_6,0.0,"[('wc_6', 0.3600000000000002), ('wc_7', 0.42000000000000026), ('wc_14', 0.4900000000000003), ('wc_17', 0.4500000000000003)]",0.8958784000000002,,,25.0,0.00842,['Fail'],Fail,0.3600000000000002,-0.137777777777778,2.0,9.0,0.5
140.0,7.0,wc_7,,0.0,,,,202.0,,,,Fail,,,,,
140.0,7.0,wc_7,wc_1,1.0,"[('wc_1', 0.4900000000000003), ('wc_7', 0.42000000000000026), ('wc_14', 0.4900000000000003), ('wc_17', 0.4500000000000003), ('wc_6', 0.3600000000000002)]",0.9468979840000001,,,40.0,0.042205000000000006,['Fail'],Fail,0.4900000000000003,-0.24000000000000032,1.0,4.0,0.8
147.0,7.0,wc_7,,0.0,,,,162.0,,,,Pass,,,,,
147.0,7.0,wc_7,,0.0,,,58.0,,,,,Pass,,,,,
147.0,7.0,wc_7,,0.0,,,,0.0,,,,Pass,,,,,
147.0,7.0,wc_7,wc_7,0.0,"[('wc_7', 0.42000000000000026)]",0.42000000000000026,,,34.0,0.002142,['Pass'],Pass,0.42000000000000026,-0.17000000000000026,2.0,8.0,0.5
147.0,7.0,wc_7,,0.0,,,,243.0,,,,Pass,,,,,
147.0,7.0,wc_7,wc_17,0.0,"[('wc_17', 0.4600000000000003), ('wc_7', 0.42000000000000026)]",0.6868000000000003,,,20.0,0.0042369999999999994,['Pass'],Pass,0.4600000000000003,0.13999999999999968,3.0,5.0,0.8
147.0,7.0,wc_7,,0.0,,,,61.0,,,,Pass,,,,,
147.0,7.0,wc_7,wc_14,0.0,"[('wc_14', 0.5000000000000003), ('wc_7', 0.42000000000000026), ('wc_17', 0.4600000000000003)]",0.8434000000000003,,,34.0,0.0057940000000000005,['Pass'],Pass,0.5000000000000003,0.49999999999999967,1.0,1.0,1.0
147.0,7.0,wc_7,,0.0,,,,82.0,,,,Pass,,,,,
147.0,7.0,wc_7,wc_12,1.0,"[('wc_12', 0.4900000000000003), ('wc_7', 0.42000000000000026), ('wc_17', 0.4600000000000003), ('wc_14', 0.5000000000000003)]",0.9201340000000002,,,26.0,0.05089000000000001,['Pass'],Pass,0.4900000000000003,-0.2677777777777781,2.0,9.0,1.0
154.0,8.0,wc_8,,0.0,,,,222.0,,,,Pass,,,,,
154.0,8.0,wc_8,,0.0,,,54.0,,,,,Pass,,,,,
154.0,8.0,wc_8,,0.0,,,,0.0,,,,Pass,,,,,
154.0,8.0,wc_8,wc_8,0.0,"[('wc_8', 0.4400000000000003)]",0.4400000000000003,,,34.0,0.002181,['Pass'],Pass,0.4400000000000003,-0.16727272727272757,0.0,0.0,0.9
154.0,8.0,wc_8,,0.0,,,,183.0,,,,Pass,,,,,
154.0,8.0,wc_8,wc_15,0.0,"[('wc_15', 0.41000000000000025), ('wc_8', 0.4400000000000003)]",0.6696000000000003,,,28.0,0.0041930000000000005,['Pass'],Pass,0.41000000000000025,-0.07666666666666694,2.0,6.0,0.7
154.0,8.0,wc_8,,0.0,,,,243.0,,,,Pass,,,,,
154.0,8.0,wc_8,wc_7,0.0,"[('wc_7', 0.42000000000000026), ('wc_8', 0.4400000000000003), ('wc_15', 0.41000000000000025)]",0.8083680000000002,,,29.0,0.005967,['Pass'],Pass,0.42000000000000026,-0.08666666666666695,3.0,9.0,0.5
154.0,8.0,wc_8,,0.0,,,,341.0,,,,Pass,,,,,
154.0,8.0,wc_8,wc_5,0.0,"[('wc_5', 0.40000000000000024), ('wc_8', 0.4400000000000003), ('wc_15', 0.41000000000000025), ('wc_7', 0.42000000000000026)]",0.8850208000000002,,,21.0,0.007897999999999999,['Pass'],Pass,0.40000000000000024,-0.40000000000000024,0.0,0.0,0.8
154.0,8.0,wc_8,,0.0,,,,122.0,,,,Pass,,,,,
154.0,8.0,wc_8,wc_9,1.0,"[('wc_9', 0.3700000000000002), ('wc_8', 0.4400000000000003), ('wc_15', 0.41000000000000025), ('wc_7', 0.42000000000000026), ('wc_5', 0.40000000000000024)]",0.9275631040000002,,,20.0,0.04537700000000001,['Pass'],Pass,0.3700000000000002,-0.12000000000000022,2.0,8.0,0.7
176.0,12.0,wc_12,,0.0,,,,101.0,,,,Pass,,,,,
176.0,12.0,wc_12,,0.0,,,75.0,,,,,Pass,,,,,
176.0,12.0,wc_12,,0.0,,,,0.0,,,,Pass,,,,,
176.0,12.0,wc_12,wc_12,0.0,"[('wc_12', 0.4900000000000003)]",0.4900000000000003,,,38.0,0.002228,['Pass'],Pass,0.4900000000000003,-0.2900000000000003,0.0,0.0,1.0
176.0,12.0,wc_12,,0.0,,,,361.0,,,,Pass,,,,,
176.0,12.0,wc_12,wc_11,0.0,"[('wc_11', 0.4800000000000003), ('wc_12', 0.4900000000000003)]",0.7348000000000003,,,28.0,0.004098,['Pass'],Pass,0.4800000000000003,-0.23000000000000032,0.0,0.0,1.0
176.0,12.0,wc_12,,0.0,,,,362.0,,,,Pass,,,,,
176.0,12.0,wc_12,wc_5,0.0,"[('wc_5', 0.41000000000000025), ('wc_12', 0.4900000000000003), ('wc_11', 0.4800000000000003)]",0.8435320000000003,,,20.0,0.007169,['Pass'],Pass,0.41000000000000025,0.5899999999999997,1.0,1.0,0.8
176.0,12.0,wc_12,,0.0,,,,202.0,,,,Pass,,,,,
176.0,12.0,wc_12,wc_17,1.0,"[('wc_17', 0.4700000000000003), ('wc_12', 0.4900000000000003), ('wc_11', 0.4800000000000003), ('wc_5', 0.41000000000000025)]",0.9170719600000001,,,28.0,0.040249,['Pass'],Pass,0.4800000000000003,0.14499999999999968,5.0,8.0,0.8
184.0,13.0,wc_13,,0.0,,,,41.0,,,,Fail,,,,,
184.0,13.0,wc_13,,0.0,,,60.0,,,,,Fail,,,,,
184.0,13.0,wc_13,,0.0,,,,0.0,,,,Fail,,,,,
184.0,13.0,wc_13,wc_13,0.0,"[('wc_13', 0.5200000000000004)]",0.5200000000000004,,,32.0,0.002042,['Pass'],Fail,0.5200000000000004,-0.18666666666666704,3.0,9.0,0.7
184.0,13.0,wc_13,,0.0,,,,301.0,,,,Fail,,,,,
184.0,13.0,wc_13,wc_9,0.0,"[('wc_13', 0.5200000000000004)]",0.5200000000000004,,,37.0,0.004611,['Pass'],Fail,0.3700000000000002,-0.147777777777778,2.0,9.0,0.7
184.0,13.0,wc_13,,0.0,,,,61.0,,,,Fail,,,,,
184.0,13.0,wc_13,wc_6,0.0,"[('wc_6', 0.3600000000000002), ('wc_13', 0.5200000000000004)]",0.6928000000000003,,,26.0,0.006294,['Pass'],Fail,0.3600000000000002,-0.3600000000000002,0.0,3.0,0.5
184.0,13.0,wc_13,,0.0,,,,202.0,,,,Fail,,,,,
184.0,13.0,wc_13,wc_1,0.0,"[('wc_1', 0.4900000000000003), ('wc_13', 0.5200000000000004), ('wc_6', 0.3600000000000002)]",0.8433280000000003,,,26.0,0.008288,['Pass'],Fail,0.4900000000000003,-0.3471428571428575,1.0,7.0,0.8
184.0,13.0,wc_13,,0.0,,,,0.0,,,,Fail,,,,,
184.0,13.0,wc_13,wc_5,0.0,"[('wc_13', 0.5200000000000004), ('wc_6', 0.3600000000000002), ('wc_1', 0.4900000000000003)]",0.8433280000000003,,,24.0,0.010811,['Pass'],Fail,0.42000000000000026,0.5799999999999997,2.0,2.0,0.8
184.0,13.0,wc_13,,0.0,,,,202.0,,,,Fail,,,,,
184.0,13.0,wc_13,wc_17,0.0,"[('wc_13', 0.5200000000000004), ('wc_6', 0.3600000000000002), ('wc_1', 0.4900000000000003)]",0.8433280000000003,,,37.0,0.012972000000000001,['Pass'],Fail,0.4800000000000003,0.14499999999999968,5.0,8.0,0.8
184.0,13.0,wc_13,,0.0,,,,21.0,,,,Fail,,,,,
184.0,13.0,wc_13,wc_12,1.0,"[('wc_12', 0.5000000000000003), ('wc_9', 0.3700000000000002), ('wc_5', 0.42000000000000026), ('wc_17', 0.4800000000000003)]",0.9049960000000002,,,36.0,0.050766,['Fail'],Fail,0.5100000000000003,0.48999999999999966,2.0,2.0,1.0
193.0,13.0,wc_13,,0.0,,,,0.0,,,,Pass,,,,,
193.0,13.0,wc_13,,0.0,,,62.0,,,,,Pass,,,,,
193.0,13.0,wc_13,,0.0,,,,0.0,,,,Pass,,,,,
193.0,13.0,wc_13,wc_13,0.0,"[('wc_13', 0.5100000000000003)]",0.5100000000000003,,,24.0,0.002402,['Pass'],Pass,0.5100000000000003,-0.5100000000000003,0.0,0.0,0.7
193.0,13.0,wc_13,,0.0,,,,341.0,,,,Pass,,,,,
193.0,13.0,wc_13,wc_3,0.0,"[('wc_3', 0.5100000000000003), ('wc_13', 0.5100000000000003)]",0.7599000000000004,,,23.0,0.004088,['Pass'],Pass,0.5100000000000003,-0.31000000000000033,0.0,0.0,0.9
193.0,13.0,wc_13,,0.0,,,,222.0,,,,Pass,,,,,
193.0,13.0,wc_13,wc_16,0.0,"[('wc_16', 0.4600000000000003), ('wc_13', 0.5100000000000003), ('wc_3', 0.5100000000000003)]",0.8703460000000003,,,33.0,0.006594,['Pass'],Pass,0.4600000000000003,-0.31714285714285745,0.0,0.0,0.5
193.0,13.0,wc_13,,0.0,,,,382.0,,,,Pass,,,,,
193.0,13.0,wc_13,wc_11,1.0,"[('wc_11', 0.4900000000000003), ('wc_13', 0.5100000000000003), ('wc_3', 0.5100000000000003), ('wc_16', 0.4600000000000003)]",0.9338764600000001,,,22.0,0.053882,['Pass'],Pass,0.5000000000000003,0.1666666666666663,2.0,3.0,1.0
202.0,14.0,wc_14,,0.0,,,,101.0,,,,Pass,,,,,
202.0,14.0,wc_14,,0.0,,,52.0,,,,,Pass,,,,,
202.0,14.0,wc_14,,0.0,,,,0.0,,,,Pass,,,,,
202.0,14.0,wc_14,wc_14,0.0,"[('wc_14', 0.5100000000000003)]",0.5100000000000003,,,30.0,0.002187,['Pass'],Pass,0.5100000000000003,-0.17666666666666703,2.0,6.0,1.0
202.0,14.0,wc_14,,0.0,,,,182.0,,,,Pass,,,,,
202.0,14.0,wc_14,wc_8,0.0,"[('wc_8', 0.4500000000000003), ('wc_14', 0.5100000000000003)]",0.7305000000000004,,,38.0,0.004517,['Pass'],Pass,0.4500000000000003,-0.2000000000000003,1.0,4.0,0.9
202.0,14.0,wc_14,,0.0,,,,0.0,,,,Pass,,,,,
202.0,14.0,wc_14,wc_10,0.0,"[('wc_10', 0.4400000000000003), ('wc_14', 0.5100000000000003), ('wc_8', 0.4500000000000003)]",0.8490800000000003,,,22.0,0.006341,['Pass'],Pass,0.4400000000000003,-0.2635294117647061,0.0,0.0,0.8
202.0,14.0,wc_14,,0.0,,,,61.0,,,,Pass,,,,,
202.0,14.0,wc_14,wc_7,1.0,"[('wc_7', 0.42000000000000026), ('wc_14', 0.5100000000000003), ('wc_8', 0.4500000000000003), ('wc_10', 0.4400000000000003)]",0.9124664000000002,,,20.0,0.050233,['Pass'],Pass,0.42000000000000026,-0.17000000000000026,1.0,4.0,0.5
210.0,15.0,wc_15,,0.0,,,,203.0,,,,Fail,,,,,
210.0,15.0,wc_15,,0.0,,,55.0,,,,,Fail,,,,,
210.0,15.0,wc_15,,0.0,,,,0.0,,,,Fail,,,,,
210.0,15.0,wc_15,wc_15,0.0,"[('wc_15', 0.42000000000000026)]",0.42000000000000026,,,36.0,0.002485,['Fail'],Fail,0.42000000000000026,-0.14727272727272755,0.0,0.0,0.7
210.0,15.0,wc_15,,0.0,,,,283.0,,,,Fail,,,,,
210.0,15.0,wc_15,wc_1,0.0,"[('wc_1', 0.4800000000000003), ('wc_15', 0.42000000000000026)]",0.6984000000000004,,,34.0,0.004011,['Fail'],Fail,0.4800000000000003,-0.38000000000000034,0.0,0.0,0.8
210.0,15.0,wc_15,,0.0,,,,0.0,,,,Fail,,,,,
210.0,15.0,wc_15,wc_4,0.0,"[('wc_4', 0.5300000000000004), ('wc_15', 0.42000000000000026), ('wc_1', 0.4800000000000003)]",0.8582480000000002,,,37.0,0.006627,['Fail'],Fail,0.5300000000000004,-0.3761538461538465,0.0,0.0,0.9
210.0,15.0,wc_15,,0.0,,,,0.0,,,,Fail,,,,,
210.0,15.0,wc_15,wc_5,1.0,"[('wc_5', 0.43000000000000027), ('wc_15', 0.42000000000000026), ('wc_1', 0.4800000000000003), ('wc_4', 0.5300000000000004)]",0.9192013600000002,,,20.0,0.044474,['Fail'],Fail,0.4400000000000003,0.22666666666666635,4.0,6.0,0.8
221.0,15.0,wc_15,,0.0,,,,162.0,,,,Fail,,,,,
221.0,15.0,wc_15,,0.0,,,59.0,,,,,Fail,,,,,
221.0,15.0,wc_15,,0.0,,,,0.0,,,,Fail,,,,,
221.0,15.0,wc_15,wc_15,0.0,"[('wc_15', 0.43000000000000027)]",0.43000000000000027,,,39.0,0.00219,['Fail'],Fail,0.43000000000000027,0.5699999999999997,1.0,1.0,0.7
221.0,15.0,wc_15,,0.0,,,,243.0,,,,Fail,,,,,
221.0,15.0,wc_15,wc_7,0.0,"[('wc_7', 0.42000000000000026), ('wc_15', 0.43000000000000027)]",0.6694000000000003,,,30.0,0.0038669999999999998,['Fail'],Fail,0.42000000000000026,-0.22000000000000025,1.0,5.0,0.5
221.0,15.0,wc_15,,0.0,,,,223.0,,,,Fail,,,,,
221.0,15.0,wc_15,wc_16,0.0,"[('wc_15', 0.43000000000000027), ('wc_7', 0.42000000000000026)]",0.6694000000000003,,,34.0,0.006286,['Fail'],Fail,0.4700000000000003,-0.136666666666667,1.0,3.0,0.5
221.0,15.0,wc_15,,0.0,,,,382.0,,,,Fail,,,,,
221.0,15.0,wc_15,wc_11,0.0,"[('wc_11', 0.5000000000000003), ('wc_15', 0.43000000000000027), ('wc_7', 0.42000000000000026)]",0.8347000000000002,,,23.0,0.009427000000000001,['Fail'],Fail,0.5000000000000003,-0.10000000000000031,2.0,5.0,1.0
221.0,15.0,wc_15,,0.0,,,,223.0,,,,Fail,,,,,
221.0,15.0,wc_15,wc_2,1.0,"[('wc_2', 0.4800000000000003), ('wc_15', 0.43000000000000027), ('wc_7', 0.42000000000000026), ('wc_11', 0.5000000000000003)]",0.9140440000000002,,,35.0,0.045101,['Fail'],Fail,0.4800000000000003,-0.4800000000000003,0.0,0.0,0.7
229.0,16.0,wc_16,,0.0,,,,243.0,,,,Fail,,,,,
229.0,16.0,wc_16,,0.0,,,50.0,,,,,Fail,,,,,
229.0,16.0,wc_16,,0.0,,,,0.0,,,,Fail,,,,,
229.0,16.0,wc_16,wc_16,0.0,"[('wc_16', 0.4600000000000003)]",0.4600000000000003,,,35.0,0.002159,['Fail'],Fail,0.4600000000000003,-0.2100000000000003,1.0,4.0,0.5
229.0,16.0,wc_16,,0.0,,,,382.0,,,,Fail,,,,,
229.0,16.0,wc_16,wc_3,0.0,"[('wc_3', 0.5200000000000004), ('wc_16', 0.4600000000000003)]",0.7408000000000003,,,27.0,0.004147,['Fail'],Fail,0.5200000000000004,-0.27000000000000035,1.0,4.0,0.9
229.0,16.0,wc_16,,0.0,,,,101.0,,,,Fail,,,,,
229.0,16.0,wc_16,wc_2,0.0,"[('wc_2', 0.4800000000000003), ('wc_16', 0.4600000000000003), ('wc_3', 0.5200000000000004)]",0.8652160000000002,,,34.0,0.005963,['Fail'],Fail,0.4800000000000003,-0.4800000000000003,0.0,0.0,0.7
229.0,16.0,wc_16,,0.0,,,,122.0,,,,Fail,,,,,
229.0,16.0,wc_16,wc_6,1.0,"[('wc_6', 0.3500000000000002), ('wc_16', 0.4600000000000003), ('wc_3', 0.5200000000000004), ('wc_2', 0.4800000000000003)]",0.9123904000000002,,,35.0,0.042074999999999994,['Fail'],Fail,0.3500000000000002,-0.2388888888888891,1.0,9.0,0.5
244.0,16.0,wc_16,,0.0,,,,243.0,,,,Fail,,,,,
244.0,16.0,wc_16,,0.0,,,77.0,,,,,Fail,,,,,
244.0,16.0,wc_16,,0.0,,,,0.0,,,,Fail,,,,,
244.0,16.0,wc_16,wc_16,0.0,"[('wc_16', 0.4600000000000003)]",0.4600000000000003,,,36.0,0.002446,['Fail'],Fail,0.4600000000000003,-0.060000000000000275,2.0,5.0,0.5
244.0,16.0,wc_16,,0.0,,,,103.0,,,,Fail,,,,,
244.0,16.0,wc_16,wc_15,0.0,"[('wc_15', 0.4400000000000003), ('wc_16', 0.4600000000000003)]",0.6976000000000003,,,36.0,0.003999,['Fail'],Fail,0.4400000000000003,0.22666666666666635,2.0,3.0,0.7
244.0,16.0,wc_16,,0.0,,,,81.0,,,,Fail,,,,,
244.0,16.0,wc_16,wc_13,0.0,"[('wc_13', 0.5200000000000004), ('wc_16', 0.4600000000000003), ('wc_15', 0.4400000000000003)]",0.8548480000000003,,,33.0,0.005912000000000001,['Fail'],Fail,0.5200000000000004,-0.32000000000000034,1.0,5.0,0.7
244.0,16.0,wc_16,,0.0,,,,182.0,,,,Fail,,,,,
244.0,16.0,wc_16,wc_7,1.0,"[('wc_7', 0.42000000000000026), ('wc_16', 0.4600000000000003), ('wc_15', 0.4400000000000003), ('wc_13', 0.5200000000000004)]",0.9158118400000002,,,23.0,0.042922,['Fail'],Fail,0.42000000000000026,-0.04500000000000026,3.0,8.0,0.5
257.0,15.0,wc_15,,0.0,,,,203.0,,,,Fail,,,,,
257.0,15.0,wc_15,,0.0,,,70.0,,,,,Fail,,,,,
257.0,15.0,wc_15,,0.0,,,,0.0,,,,Fail,,,,,
257.0,15.0,wc_15,wc_15,0.0,"[('wc_15', 0.4500000000000003)]",0.4500000000000003,,,37.0,0.002334,['Fail'],Fail,0.4500000000000003,0.2999999999999997,3.0,4.0,0.7
257.0,15.0,wc_15,,0.0,,,,382.0,,,,Fail,,,,,
257.0,15.0,wc_15,wc_10,0.0,"[('wc_10', 0.4500000000000003), ('wc_15', 0.4500000000000003)]",0.6975000000000003,,,31.0,0.004215,['Fail'],Fail,0.4500000000000003,-0.2500000000000003,1.0,5.0,0.8
257.0,15.0,wc_15,,0.0,,,,223.0,,,,Fail,,,,,
257.0,15.0,wc_15,wc_1,0.0,"[('wc_1', 0.4900000000000003), ('wc_15', 0.4500000000000003), ('wc_10', 0.4500000000000003)]",0.8457250000000003,,,34.0,0.006357,['Fail'],Fail,0.4900000000000003,-0.24000000000000032,1.0,4.0,0.8
257.0,15.0,wc_15,,0.0,,,,0.0,,,,Fail,,,,,
257.0,15.0,wc_15,wc_4,1.0,"[('wc_4', 0.5400000000000004), ('wc_15', 0.4500000000000003), ('wc_10', 0.4500000000000003), ('wc_1', 0.4900000000000003)]",0.9290335000000002,,,32.0,0.045326000000000005,['Fail'],Fail,0.5400000000000004,-0.14000000000000035,2.0,5.0,0.9
269.0,15.0,wc_15,,0.0,,,,182.0,,,,Fail,,,,,
269.0,15.0,wc_15,,0.0,,,64.0,,,,,Fail,,,,,
269.0,15.0,wc_15,,0.0,,,,0.0,,,,Fail,,,,,
269.0,15.0,wc_15,wc_15,0.0,"[('wc_15', 0.4600000000000003)]",0.4600000000000003,,,29.0,0.002167,['Fail'],Fail,0.4600000000000003,0.33999999999999975,4.0,5.0,0.7
269.0,15.0,wc_15,,0.0,,,,0.0,,,,Fail,,,,,
269.0,15.0,wc_15,wc_16,0.0,"[('wc_16', 0.4700000000000003), ('wc_15', 0.4600000000000003)]",0.7138000000000003,,,28.0,0.005077,['Fail'],Fail,0.4700000000000003,-0.04142857142857176,3.0,7.0,0.5
269.0,15.0,wc_15,,0.0,,,,382.0,,,,Fail,,,,,
269.0,15.0,wc_15,wc_11,0.0,"[('wc_11', 0.5000000000000003), ('wc_15', 0.4600000000000003), ('wc_16', 0.4700000000000003)]",0.8569000000000002,,,30.0,0.006392,['Fail'],Fail,0.5000000000000003,-0.16666666666666702,3.0,9.0,1.0
269.0,15.0,wc_15,,0.0,,,,103.0,,,,Fail,,,,,
269.0,15.0,wc_15,wc_10,1.0,"[('wc_10', 0.4500000000000003), ('wc_15', 0.4600000000000003), ('wc_16', 0.4700000000000003), ('wc_11', 0.5000000000000003)]",0.9212950000000002,,,27.0,0.04454999999999999,['Fail'],Fail,0.4500000000000003,-0.02142857142857174,3.0,7.0,0.8
279.0,15.0,wc_15,,0.0,,,,142.0,,,,Pass,,,,,
279.0,15.0,wc_15,,0.0,,,54.0,,,,,Pass,,,,,
279.0,15.0,wc_15,,0.0,,,,0.0,,,,Pass,,,,,
279.0,15.0,wc_15,wc_15,0.0,"[('wc_15', 0.4700000000000003)]",0.4700000000000003,,,30.0,0.002352,['Pass'],Pass,0.4700000000000003,0.36333333333333306,5.0,6.0,0.7
279.0,15.0,wc_15,,0.0,,,,243.0,,,,Pass,,,,,
279.0,15.0,wc_15,wc_7,0.0,"[('wc_7', 0.42000000000000026), ('wc_15', 0.4700000000000003)]",0.6926000000000003,,,40.0,0.00393,['Pass'],Pass,0.42000000000000026,-0.12000000000000027,0.0,0.0,0.5
279.0,15.0,wc_15,,0.0,,,,0.0,,,,Pass,,,,,
279.0,15.0,wc_15,wc_10,0.0,"[('wc_10', 0.4500000000000003), ('wc_15', 0.4700000000000003), ('wc_7', 0.42000000000000026)]",0.8309300000000003,,,37.0,0.006366,['Pass'],Pass,0.4500000000000003,-0.02142857142857174,3.0,7.0,0.8
279.0,15.0,wc_15,,0.0,,,,103.0,,,,Pass,,,,,
279.0,15.0,wc_15,wc_9,0.0,"[('wc_9', 0.3700000000000002), ('wc_15', 0.4700000000000003), ('wc_7', 0.42000000000000026), ('wc_10', 0.4500000000000003)]",0.8934859000000002,,,38.0,0.0077,['Pass'],Pass,0.3700000000000002,-0.3700000000000002,0.0,8.0,0.7
279.0,15.0,wc_15,,0.0,,,,0.0,,,,Pass,,,,,
279.0,15.0,wc_15,wc_11,1.0,"[('wc_11', 0.5000000000000003), ('wc_15', 0.4700000000000003), ('wc_7', 0.42000000000000026), ('wc_10', 0.4500000000000003), ('wc_9', 0.3700000000000002)]",0.9467429500000001,,,28.0,0.04645599999999999,['Pass'],Pass,0.5100000000000003,0.48999999999999966,1.0,1.0,1.0
293.0,16.0,wc_16,,0.0,,,,142.0,,,,Fail,,,,,
293.0,16.0,wc_16,,0.0,,,71.0,,,,,Fail,,,,,
293.0,16.0,wc_16,,0.0,,,,0.0,,,,Fail,,,,,
293.0,16.0,wc_16,wc_16,0.0,"[('wc_16', 0.4800000000000003)]",0.4800000000000003,,,23.0,0.002143,['Pass'],Fail,0.4800000000000003,-0.035555555555555896,4.0,9.0,0.5
293.0,16.0,wc_16,,0.0,,,,103.0,,,,Fail,,,,,
293.0,16.0,wc_16,wc_15,0.0,"[('wc_15', 0.4800000000000003), ('wc_16', 0.4800000000000003)]",0.7296000000000002,,,39.0,0.003987,['Pass'],Fail,0.4800000000000003,0.3771428571428568,6.0,7.0,0.7
293.0,16.0,wc_16,,0.0,,,,243.0,,,,Fail,,,,,
293.0,16.0,wc_16,wc_7,0.0,"[('wc_16', 0.4800000000000003), ('wc_15', 0.4800000000000003)]",0.7296000000000002,,,34.0,0.007954,['Pass'],Fail,0.43000000000000027,0.5699999999999997,1.0,1.0,0.5
293.0,16.0,wc_16,,0.0,,,,102.0,,,,Fail,,,,,
293.0,16.0,wc_16,wc_6,0.0,"[('wc_16', 0.4800000000000003), ('wc_15', 0.4800000000000003)]",0.7296000000000002,,,26.0,0.0077800000000000005,['Pass'],Fail,0.3500000000000002,-0.2730769230769233,0.0,0.0,0.5
293.0,16.0,wc_16,,0.0,,,,202.0,,,,Fail,,,,,
293.0,16.0,wc_16,wc_14,0.0,"[('wc_14', 0.5100000000000003), ('wc_7', 0.43000000000000027), ('wc_6', 0.3500000000000002)]",0.8184550000000003,,,26.0,0.010036,['Fail'],Fail,0.5100000000000003,-0.29571428571428604,0.0,0.0,1.0
293.0,16.0,wc_16,,0.0,,,,222.0,,,,Fail,,,,,
293.0,16.0,wc_16,wc_2,1.0,"[('wc_2', 0.4900000000000003), ('wc_7', 0.43000000000000027), ('wc_6', 0.3500000000000002), ('wc_14', 0.5100000000000003)]",0.9074120500000002,,,27.0,0.059736,['Fail'],Fail,0.4900000000000003,-0.156666666666667,2.0,6.0,0.7
307.0,16.0,wc_16,,0.0,,,,243.0,,,,Fail,,,,,
307.0,16.0,wc_16,,0.0,,,76.0,,,,,Fail,,,,,
307.0,16.0,wc_16,,0.0,,,,0.0,,,,Fail,,,,,
307.0,16.0,wc_16,wc_16,0.0,"[('wc_16', 0.4700000000000003)]",0.4700000000000003,,,23.0,0.002076,['Fail'],Fail,0.4700000000000003,-0.4700000000000003,0.0,0.0,0.5
307.0,16.0,wc_16,,0.0,,,,103.0,,,,Fail,,,,,
307.0,16.0,wc_16,wc_15,0.0,"[('wc_15', 0.4800000000000003), ('wc_16', 0.4700000000000003)]",0.7244000000000004,,,37.0,0.004438,['Fail'],Fail,0.4800000000000003,0.2699999999999997,6.0,8.0,0.7
307.0,16.0,wc_16,,0.0,,,,0.0,,,,Fail,,,,,
307.0,16.0,wc_16,wc_17,0.0,"[('wc_17', 0.4900000000000003), ('wc_16', 0.4700000000000003), ('wc_15', 0.4800000000000003)]",0.8594440000000003,,,24.0,0.0059830000000000005,['Fail'],Fail,0.4900000000000003,-0.17421052631578982,0.0,0.0,0.8
307.0,16.0,wc_16,,0.0,,,,21.0,,,,Fail,,,,,
307.0,16.0,wc_16,wc_12,1.0,"[('wc_12', 0.5100000000000003), ('wc_16', 0.4700000000000003), ('wc_15', 0.4800000000000003), ('wc_17', 0.4900000000000003)]",0.9311275600000002,,,40.0,0.045147,['Fail'],Fail,0.5100000000000003,-0.5100000000000003,0.0,0.0,1.0
332.0,16.0,wc_16,,0.0,,,,0.0,,,,Fail,,,,,
332.0,16.0,wc_16,,0.0,,,77.0,,,,,Fail,,,,,
332.0,16.0,wc_16,,0.0,,,,0.0,,,,Fail,,,,,
332.0,16.0,wc_16,wc_16,0.0,"[('wc_16', 0.4800000000000003)]",0.4800000000000003,,,26.0,0.002151,['Fail'],Fail,0.4800000000000003,0.5199999999999997,1.0,1.0,0.5
332.0,16.0,wc_16,,0.0,,,,402.0,,,,Fail,,,,,
332.0,16.0,wc_16,wc_4,0.0,"[('wc_4', 0.5400000000000004), ('wc_16', 0.4800000000000003)]",0.7608000000000004,,,25.0,0.0039970000000000006,['Fail'],Fail,0.5400000000000004,-0.31777777777777816,2.0,9.0,0.9
332.0,16.0,wc_16,,0.0,,,,162.0,,,,Fail,,,,,
332.0,16.0,wc_16,wc_10,0.0,"[('wc_10', 0.4600000000000003), ('wc_16', 0.4800000000000003), ('wc_4', 0.5400000000000004)]",0.8708320000000003,,,35.0,0.006194,['Fail'],Fail,0.4600000000000003,-0.060000000000000275,0.0,0.0,0.8
332.0,16.0,wc_16,,0.0,,,,121.0,,,,Fail,,,,,
332.0,16.0,wc_16,wc_14,1.0,"[('wc_14', 0.5200000000000004), ('wc_16', 0.4800000000000003), ('wc_4', 0.5400000000000004), ('wc_10', 0.4600000000000003)]",0.9379993600000002,,,24.0,0.04778,['Fail'],Fail,0.5300000000000004,0.13666666666666627,2.0,3.0,1.0
345.0,16.0,wc_16,,0.0,,,,0.0,,,,Fail,,,,,
345.0,16.0,wc_16,,0.0,,,75.0,,,,,Fail,,,,,
345.0,16.0,wc_16,,0.0,,,,0.0,,,,Fail,,,,,
345.0,16.0,wc_16,wc_16,0.0,"[('wc_16', 0.4900000000000003)]",0.4900000000000003,,,40.0,0.002066,['Fail'],Fail,0.4900000000000003,0.5099999999999997,2.0,2.0,0.5
345.0,16.0,wc_16,,0.0,,,,422.0,,,,Fail,,,,,
345.0,16.0,wc_16,wc_5,0.0,"[('wc_5', 0.4400000000000003), ('wc_16', 0.4900000000000003)]",0.7144000000000004,,,23.0,0.0040219999999999995,['Fail'],Fail,0.4400000000000003,-0.17333333333333362,0.0,0.0,0.8
345.0,16.0,wc_16,,0.0,,,,103.0,,,,Fail,,,,,
345.0,16.0,wc_16,wc_4,0.0,"[('wc_4', 0.5400000000000004), ('wc_16', 0.4900000000000003), ('wc_5', 0.4400000000000003)]",0.8686240000000003,,,28.0,0.0073279999999999994,['Fail'],Fail,0.5400000000000004,-0.5400000000000004,0.0,0.0,0.9
345.0,16.0,wc_16,,0.0,,,,121.0,,,,Fail,,,,,
345.0,16.0,wc_16,wc_8,1.0,"[('wc_8', 0.4500000000000003), ('wc_16', 0.4900000000000003), ('wc_5', 0.4400000000000003), ('wc_4', 0.5400000000000004)]",0.9277432000000002,,,34.0,0.045876999999999994,['Fail'],Fail,0.4500000000000003,-0.4500000000000003,0.0,0.0,0.9
357.0,16.0,wc_16,,0.0,,,,203.0,,,,Fail,,,,,
357.0,16.0,wc_16,,0.0,,,69.0,,,,,Fail,,,,,
357.0,16.0,wc_16,,0.0,,,,0.0,,,,Fail,,,,,
357.0,16.0,wc_16,wc_16,0.0,"[('wc_16', 0.5000000000000003)]",0.5000000000000003,,,40.0,0.002337,['Fail'],Fail,0.5000000000000003,0.49999999999999967,3.0,3.0,0.5
357.0,16.0,wc_16,,0.0,,,,61.0,,,,Fail,,,,,
357.0,16.0,wc_16,wc_13,0.0,"[('wc_13', 0.5200000000000004), ('wc_16', 0.5000000000000003)]",0.7600000000000003,,,26.0,0.004592,['Fail'],Fail,0.5200000000000004,-0.3661538461538465,0.0,0.0,0.7
357.0,16.0,wc_16,,0.0,,,,361.0,,,,Fail,,,,,
357.0,16.0,wc_16,wc_4,0.0,"[('wc_4', 0.5500000000000004), ('wc_16', 0.5000000000000003), ('wc_13', 0.5200000000000004)]",0.8920000000000002,,,27.0,0.005775,['Fail'],Fail,0.5500000000000004,0.4499999999999996,1.0,1.0,0.9
357.0,16.0,wc_16,,0.0,,,,121.0,,,,Fail,,,,,
357.0,16.0,wc_16,wc_8,1.0,"[('wc_8', 0.4500000000000003), ('wc_16', 0.5000000000000003), ('wc_13', 0.5200000000000004), ('wc_4', 0.5500000000000004)]",0.9406000000000001,,,40.0,0.045464,['Fail'],Fail,0.4600000000000003,0.5399999999999997,1.0,1.0,0.9
366.0,16.0,wc_16,,0.0,,,,203.0,,,,Pass,,,,,
366.0,16.0,wc_16,,0.0,,,60.0,,,,,Pass,,,,,
366.0,16.0,wc_16,,0.0,,,,0.0,,,,Pass,,,,,
366.0,16.0,wc_16,wc_16,0.0,"[('wc_16', 0.5100000000000003)]",0.5100000000000003,,,27.0,0.001878,['Fail'],Pass,0.5100000000000003,0.48999999999999966,4.0,4.0,0.5
366.0,16.0,wc_16,,0.0,,,,0.0,,,,Pass,,,,,
366.0,16.0,wc_16,wc_17,0.0,"[('wc_17', 0.5000000000000003), ('wc_16', 0.5100000000000003)]",0.7550000000000003,,,26.0,0.004309,['Fail'],Pass,0.5000000000000003,-0.25000000000000033,1.0,4.0,0.8
366.0,16.0,wc_16,,0.0,,,,203.0,,,,Pass,,,,,
366.0,16.0,wc_16,wc_7,0.0,"[('wc_7', 0.4400000000000003), ('wc_16', 0.5100000000000003), ('wc_17', 0.5000000000000003)]",0.8628000000000002,,,35.0,0.008422,['Fail'],Pass,0.4400000000000003,-0.10666666666666696,2.0,6.0,0.5
366.0,16.0,wc_16,,0.0,,,,202.0,,,,Pass,,,,,
366.0,16.0,wc_16,wc_2,0.0,"[('wc_16', 0.5100000000000003), ('wc_17', 0.5000000000000003), ('wc_7', 0.4400000000000003)]",0.8628000000000002,,,39.0,0.007938,['Fail'],Pass,0.4900000000000003,-0.2900000000000003,0.0,0.0,0.7
366.0,16.0,wc_16,,0.0,,,,223.0,,,,Pass,,,,,
366.0,16.0,wc_16,wc_11,0.0,"[('wc_16', 0.5100000000000003), ('wc_17', 0.5000000000000003), ('wc_7', 0.4400000000000003)]",0.8628000000000002,,,25.0,0.012265999999999999,['Fail'],Pass,0.5100000000000003,-0.3433333333333337,1.0,6.0,1.0
366.0,16.0,wc_16,,0.0,,,,81.0,,,,Pass,,,,,
366.0,16.0,wc_16,wc_13,1.0,"[('wc_13', 0.5300000000000004), ('wc_16', 0.5100000000000003), ('wc_17', 0.5000000000000003), ('wc_7', 0.4400000000000003)]",0.9355160000000001,,,36.0,0.05010899999999999,['Fail'],Pass,0.5400000000000004,0.45999999999999963,2.0,2.0,0.7
375.0,17.0,wc_17,,0.0,,,,0.0,,,,Pass,,,,,
375.0,17.0,wc_17,,0.0,,,67.0,,,,,Pass,,,,,
375.0,17.0,wc_17,,0.0,,,,0.0,,,,Pass,,,,,
375.0,17.0,wc_17,wc_17,0.0,"[('wc_17', 0.5000000000000003)]",0.5000000000000003,,,20.0,0.002211,['Pass'],Pass,0.5000000000000003,-0.10000000000000031,2.0,5.0,0.8
375.0,17.0,wc_17,,0.0,,,,243.0,,,,Pass,,,,,
375.0,17.0,wc_17,wc_1,0.0,"[('wc_1', 0.4900000000000003), ('wc_17', 0.5000000000000003)]",0.7450000000000003,,,24.0,0.004104,['Pass'],Pass,0.4900000000000003,-0.33615384615384647,0.0,0.0,0.8
375.0,17.0,wc_17,,0.0,,,,142.0,,,,Pass,,,,,
375.0,17.0,wc_17,wc_6,0.0,"[('wc_17', 0.5000000000000003), ('wc_1', 0.4900000000000003)]",0.7450000000000003,,,22.0,0.006316,['Pass'],Pass,0.3600000000000002,-0.19333333333333355,1.0,6.0,0.5
375.0,17.0,wc_17,,0.0,,,,0.0,,,,Pass,,,,,
375.0,17.0,wc_17,wc_9,0.0,"[('wc_9', 0.3700000000000002), ('wc_17', 0.5000000000000003), ('wc_1', 0.4900000000000003)]",0.8393500000000003,,,39.0,0.0076690000000000005,['Pass'],Pass,0.3700000000000002,-0.30333333333333357,0.0,0.0,0.7
375.0,17.0,wc_17,,0.0,,,,382.0,,,,Pass,,,,,
375.0,17.0,wc_17,wc_4,1.0,"[('wc_4', 0.5600000000000004), ('wc_17', 0.5000000000000003), ('wc_1', 0.4900000000000003), ('wc_9', 0.3700000000000002)]",0.9293140000000002,,,27.0,0.05303100000000001,['Pass'],Pass,0.5700000000000004,0.1799999999999996,3.0,4.0,0.9
