mpecck/BCQC/bcqc_with_qdt/results/raw/input_11/independent_qc/training/20_workpiece/20200429_084445/wp_13_qc_majority_0.9.csv
production_index,step_idx,production_workcell,qc,consent,winner_qc_list,score,production_time,transport_time,inspection_time,network_time,qc_results,actual_quality,qc_score,score_error,in_winner_counter,in_qc_counter,qc_capability
41.0,1.0,wc_1,,0.0,,,73.0,,,,,Pass,,,,,
41.0,1.0,wc_1,,0.0,,,,0.0,,,,Pass,,,,,
41.0,1.0,wc_1,wc_1,0.0,"[('wc_1', 0.7200000000000005)]",0.7200000000000005,,,33.0,0.00216,['Fail'],Pass,0.7200000000000005,-0.5200000000000005,0.0,0.0,0.4
41.0,1.0,wc_1,,0.0,,,,222.0,,,,Pass,,,,,
41.0,1.0,wc_1,wc_14,0.0,"[('wc_1', 0.7200000000000005)]",0.7200000000000005,,,40.0,0.004383,['Fail'],Pass,0.4900000000000003,-0.4900000000000003,0.0,7.0,0.4
41.0,1.0,wc_1,,0.0,,,,281.0,,,,Pass,,,,,
41.0,1.0,wc_1,wc_9,0.0,"[('wc_1', 0.7200000000000005)]",0.7200000000000005,,,39.0,0.005437,['Fail'],Pass,0.29000000000000015,-0.29000000000000015,0.0,2.0,0.1
41.0,1.0,wc_1,,0.0,,,,0.0,,,,Pass,,,,,
41.0,1.0,wc_1,wc_10,0.0,"[('wc_10', 0.31000000000000016), ('wc_1', 0.7200000000000005)]",0.8068000000000004,,,23.0,0.007213999999999999,['Fail'],Pass,0.31000000000000016,-0.25117647058823545,0.0,0.0,0.1
41.0,1.0,wc_1,,0.0,,,,142.0,,,,Pass,,,,,
41.0,1.0,wc_1,wc_15,0.0,"[('wc_1', 0.7200000000000005), ('wc_10', 0.31000000000000016)]",0.8068000000000004,,,29.0,0.010245,['Fail'],Pass,0.30000000000000016,-0.30000000000000016,0.0,2.0,0.1
41.0,1.0,wc_1,,0.0,,,,0.0,,,,Pass,,,,,
41.0,1.0,wc_1,wc_16,0.0,"[('wc_16', 0.3600000000000002), ('wc_1', 0.7200000000000005), ('wc_10', 0.31000000000000016)]",0.8763520000000002,,,24.0,0.011113,['Fail'],Pass,0.3600000000000002,0.1399999999999998,3.0,6.0,0.3
41.0,1.0,wc_1,,0.0,,,,41.0,,,,Pass,,,,,
41.0,1.0,wc_1,wc_12,1.0,"[('wc_12', 0.7000000000000005), ('wc_14', 0.4900000000000003), ('wc_9', 0.29000000000000015), ('wc_15', 0.30000000000000016)]",0.9239590000000002,,,20.0,0.044479,['Pass'],Pass,0.7100000000000005,0.2899999999999995,1.0,1.0,0.6
44.0,2.0,wc_2,,0.0,,,,262.0,,,,Fail,,,,,
44.0,2.0,wc_2,,0.0,,,60.0,,,,,Fail,,,,,
44.0,2.0,wc_2,,0.0,,,,0.0,,,,Fail,,,,,
44.0,2.0,wc_2,wc_2,0.0,"[('wc_2', 0.7400000000000005)]",0.7400000000000005,,,33.0,0.002362,['Fail'],Fail,0.7400000000000005,-0.7400000000000005,0.0,2.0,0.9
44.0,2.0,wc_2,,0.0,,,,0.0,,,,Fail,,,,,
44.0,2.0,wc_2,wc_4,0.0,"[('wc_2', 0.7400000000000005)]",0.7400000000000005,,,33.0,0.004272,['Fail'],Fail,0.7300000000000005,-0.7300000000000005,0.0,2.0,0.8
44.0,2.0,wc_2,,0.0,,,,0.0,,,,Fail,,,,,
44.0,2.0,wc_2,wc_5,0.0,"[('wc_5', 0.5800000000000004), ('wc_2', 0.7400000000000005)]",0.8908000000000004,,,35.0,0.006024000000000001,['Fail'],Fail,0.5800000000000004,-0.3577777777777782,2.0,9.0,0.7
44.0,2.0,wc_2,,0.0,,,,202.0,,,,Fail,,,,,
44.0,2.0,wc_2,wc_17,1.0,"[('wc_17', 0.7600000000000006), ('wc_2', 0.7400000000000005), ('wc_5', 0.5800000000000004)]",0.9737920000000001,,,27.0,0.040515,['Fail'],Fail,0.7600000000000006,-0.18857142857142917,4.0,7.0,0.8
52.0,3.0,wc_3,,0.0,,,,362.0,,,,Fail,,,,,
52.0,3.0,wc_3,,0.0,,,75.0,,,,,Fail,,,,,
52.0,3.0,wc_3,,0.0,,,,0.0,,,,Fail,,,,,
52.0,3.0,wc_3,wc_3,0.0,"[('wc_3', 0.6200000000000004)]",0.6200000000000004,,,24.0,0.001961,['Fail'],Fail,0.6200000000000004,-0.5088888888888894,1.0,9.0,0.7
52.0,3.0,wc_3,,0.0,,,,222.0,,,,Fail,,,,,
52.0,3.0,wc_3,wc_16,0.0,"[('wc_16', 0.3600000000000002), ('wc_3', 0.6200000000000004)]",0.7568000000000004,,,25.0,0.004262,['Fail'],Fail,0.3600000000000002,0.014999999999999791,3.0,8.0,0.3
52.0,3.0,wc_3,,0.0,,,,0.0,,,,Fail,,,,,
52.0,3.0,wc_3,wc_17,1.0,"[('wc_17', 0.7600000000000006), ('wc_3', 0.6200000000000004), ('wc_16', 0.3600000000000002)]",0.9416320000000002,,,31.0,0.035203,['Fail'],Fail,0.7600000000000006,-0.13500000000000056,5.0,8.0,0.8
60.0,3.0,wc_3,,0.0,,,,362.0,,,,Fail,,,,,
60.0,3.0,wc_3,,0.0,,,65.0,,,,,Fail,,,,,
60.0,3.0,wc_3,,0.0,,,,0.0,,,,Fail,,,,,
60.0,3.0,wc_3,wc_3,0.0,"[('wc_3', 0.6200000000000004)]",0.6200000000000004,,,32.0,0.002181,['Fail'],Fail,0.6200000000000004,-0.6200000000000004,0.0,0.0,0.7
60.0,3.0,wc_3,,0.0,,,,81.0,,,,Fail,,,,,
60.0,3.0,wc_3,wc_1,0.0,"[('wc_1', 0.7100000000000005), ('wc_3', 0.6200000000000004)]",0.8898000000000004,,,31.0,0.0038770000000000002,['Fail'],Fail,0.7100000000000005,-0.7100000000000005,0.0,3.0,0.4
60.0,3.0,wc_3,,0.0,,,,243.0,,,,Fail,,,,,
60.0,3.0,wc_3,wc_11,0.0,"[('wc_3', 0.6200000000000004), ('wc_1', 0.7100000000000005)]",0.8898000000000004,,,34.0,0.006345,['Fail'],Fail,0.3700000000000002,-0.21210526315789496,0.0,0.0,0.1
60.0,3.0,wc_3,,0.0,,,,122.0,,,,Fail,,,,,
60.0,3.0,wc_3,wc_15,1.0,"[('wc_15', 0.31000000000000016), ('wc_3', 0.6200000000000004), ('wc_1', 0.7100000000000005)]",0.9239620000000003,,,39.0,0.039542,['Fail'],Fail,0.3200000000000002,0.013333333333333142,2.0,6.0,0.1
65.0,3.0,wc_3,,0.0,,,,402.0,,,,Fail,,,,,
65.0,3.0,wc_3,,0.0,,,62.0,,,,,Fail,,,,,
65.0,3.0,wc_3,,0.0,,,,0.0,,,,Fail,,,,,
65.0,3.0,wc_3,wc_3,0.0,"[('wc_3', 0.6300000000000004)]",0.6300000000000004,,,34.0,0.002378,['Fail'],Fail,0.6300000000000004,0.36999999999999955,1.0,1.0,0.7
65.0,3.0,wc_3,,0.0,,,,0.0,,,,Fail,,,,,
65.0,3.0,wc_3,wc_5,0.0,"[('wc_5', 0.5800000000000004), ('wc_3', 0.6300000000000004)]",0.8446000000000004,,,35.0,0.004334,['Fail'],Fail,0.5800000000000004,-0.5800000000000004,0.0,2.0,0.7
65.0,3.0,wc_3,,0.0,,,,142.0,,,,Fail,,,,,
65.0,3.0,wc_3,wc_10,0.0,"[('wc_10', 0.30000000000000016), ('wc_3', 0.6300000000000004), ('wc_5', 0.5800000000000004)]",0.8912200000000002,,,40.0,0.005686,['Fail'],Fail,0.30000000000000016,-0.30000000000000016,0.0,4.0,0.1
65.0,3.0,wc_3,,0.0,,,,162.0,,,,Fail,,,,,
65.0,3.0,wc_3,wc_16,0.0,"[('wc_3', 0.6300000000000004), ('wc_5', 0.5800000000000004), ('wc_10', 0.30000000000000016)]",0.8912200000000002,,,32.0,0.00786,['Fail'],Fail,0.3700000000000002,0.029999999999999805,0.0,0.0,0.3
65.0,3.0,wc_3,,0.0,,,,61.0,,,,Fail,,,,,
65.0,3.0,wc_3,wc_13,1.0,"[('wc_13', 0.5900000000000004), ('wc_3', 0.6300000000000004), ('wc_5', 0.5800000000000004), ('wc_10', 0.30000000000000016)]",0.9554002000000001,,,37.0,0.04214899999999999,['Fail'],Fail,0.5900000000000004,-0.5900000000000004,0.0,0.0,0.6
73.0,4.0,wc_4,,0.0,,,,361.0,,,,Fail,,,,,
73.0,4.0,wc_4,,0.0,,,60.0,,,,,Fail,,,,,
73.0,4.0,wc_4,,0.0,,,,0.0,,,,Fail,,,,,
73.0,4.0,wc_4,wc_4,0.0,"[('wc_4', 0.7200000000000005)]",0.7200000000000005,,,37.0,0.002325,['Fail'],Fail,0.7200000000000005,-0.7200000000000005,0.0,6.0,0.8
73.0,4.0,wc_4,,0.0,,,,103.0,,,,Fail,,,,,
73.0,4.0,wc_4,wc_3,0.0,"[('wc_3', 0.6400000000000005), ('wc_4', 0.7200000000000005)]",0.8992000000000003,,,40.0,0.003802,['Fail'],Fail,0.6400000000000005,0.35999999999999954,2.0,2.0,0.7
73.0,4.0,wc_4,,0.0,,,,81.0,,,,Fail,,,,,
73.0,4.0,wc_4,wc_1,1.0,"[('wc_1', 0.7100000000000005), ('wc_4', 0.7200000000000005), ('wc_3', 0.6400000000000005)]",0.9707680000000002,,,38.0,0.044429,['Fail'],Fail,0.7100000000000005,-0.3766666666666672,2.0,6.0,0.4
86.0,2.0,wc_2,,0.0,,,,0.0,,,,Pass,,,,,
86.0,2.0,wc_2,,0.0,,,75.0,,,,,Pass,,,,,
86.0,2.0,wc_2,,0.0,,,,0.0,,,,Pass,,,,,
86.0,2.0,wc_2,wc_2,0.0,"[('wc_2', 0.7400000000000005)]",0.7400000000000005,,,20.0,0.002206,['Pass'],Pass,0.7400000000000005,-0.5971428571428576,1.0,7.0,0.9
86.0,2.0,wc_2,,0.0,,,,223.0,,,,Pass,,,,,
86.0,2.0,wc_2,wc_11,0.0,"[('wc_2', 0.7400000000000005)]",0.7400000000000005,,,35.0,0.003975,['Pass'],Pass,0.3600000000000002,-0.3600000000000002,0.0,3.0,0.1
86.0,2.0,wc_2,,0.0,,,,322.0,,,,Pass,,,,,
86.0,2.0,wc_2,wc_3,0.0,"[('wc_3', 0.6500000000000005), ('wc_11', 0.3600000000000002)]",0.7760000000000004,,,28.0,0.005524,['Fail'],Pass,0.6500000000000005,0.34999999999999953,3.0,3.0,0.7
86.0,2.0,wc_2,,0.0,,,,162.0,,,,Pass,,,,,
86.0,2.0,wc_2,wc_9,0.0,"[('wc_9', 0.30000000000000016), ('wc_11', 0.3600000000000002), ('wc_3', 0.6500000000000005)]",0.8432000000000003,,,28.0,0.007921,['Fail'],Pass,0.30000000000000016,-0.17500000000000016,1.0,8.0,0.1
86.0,2.0,wc_2,,0.0,,,,402.0,,,,Pass,,,,,
86.0,2.0,wc_2,wc_5,0.0,"[('wc_5', 0.5800000000000004), ('wc_2', 0.7400000000000005)]",0.8908000000000004,,,23.0,0.010010999999999999,['Pass'],Pass,0.5800000000000004,-0.3300000000000004,1.0,4.0,0.7
86.0,2.0,wc_2,,0.0,,,,142.0,,,,Pass,,,,,
86.0,2.0,wc_2,wc_10,0.0,"[('wc_2', 0.7400000000000005), ('wc_5', 0.5800000000000004)]",0.8908000000000004,,,35.0,0.011042999999999999,['Pass'],Pass,0.30000000000000016,-0.1333333333333335,1.0,6.0,0.1
86.0,2.0,wc_2,,0.0,,,,362.0,,,,Pass,,,,,
86.0,2.0,wc_2,wc_4,1.0,"[('wc_4', 0.7200000000000005), ('wc_2', 0.7400000000000005), ('wc_5', 0.5800000000000004)]",0.9694240000000002,,,30.0,0.045467999999999995,['Pass'],Pass,0.7200000000000005,-0.47000000000000053,2.0,8.0,0.8
105.0,4.0,wc_4,,0.0,,,,0.0,,,,Fail,,,,,
105.0,4.0,wc_4,,0.0,,,72.0,,,,,Fail,,,,,
105.0,4.0,wc_4,,0.0,,,,0.0,,,,Fail,,,,,
105.0,4.0,wc_4,wc_4,0.0,"[('wc_4', 0.7200000000000005)]",0.7200000000000005,,,34.0,0.002457,['Fail'],Fail,0.7200000000000005,-0.47000000000000053,2.0,8.0,0.8
105.0,4.0,wc_4,,0.0,,,,222.0,,,,Fail,,,,,
105.0,4.0,wc_4,wc_17,0.0,"[('wc_17', 0.7600000000000006)]",0.7600000000000006,,,25.0,0.00415,['Pass'],Fail,0.7600000000000006,-0.3433333333333339,0.0,0.0,0.8
105.0,4.0,wc_4,,0.0,,,,362.0,,,,Fail,,,,,
105.0,4.0,wc_4,wc_11,0.0,"[('wc_11', 0.3500000000000002), ('wc_17', 0.7600000000000006)]",0.8440000000000004,,,22.0,0.00675,['Pass'],Fail,0.3500000000000002,-0.3500000000000002,0.0,4.0,0.1
105.0,4.0,wc_4,,0.0,,,,61.0,,,,Fail,,,,,
105.0,4.0,wc_4,wc_12,1.0,"[('wc_12', 0.7100000000000005), ('wc_17', 0.7600000000000006), ('wc_11', 0.3500000000000002)]",0.9547600000000002,,,31.0,0.036948999999999996,['Pass'],Fail,0.7100000000000005,-0.4600000000000005,2.0,8.0,0.6
115.0,4.0,wc_4,,0.0,,,,381.0,,,,Pass,,,,,
115.0,4.0,wc_4,,0.0,,,79.0,,,,,Pass,,,,,
115.0,4.0,wc_4,,0.0,,,,0.0,,,,Pass,,,,,
115.0,4.0,wc_4,wc_4,0.0,"[('wc_4', 0.7100000000000005)]",0.7100000000000005,,,29.0,0.002229,['Pass'],Pass,0.7100000000000005,-0.4877777777777783,2.0,9.0,0.8
115.0,4.0,wc_4,,0.0,,,,0.0,,,,Pass,,,,,
115.0,4.0,wc_4,wc_5,0.0,"[('wc_5', 0.5800000000000004), ('wc_4', 0.7100000000000005)]",0.8782000000000003,,,35.0,0.004374,['Pass'],Pass,0.5800000000000004,-0.2466666666666671,2.0,6.0,0.7
115.0,4.0,wc_4,,0.0,,,,142.0,,,,Pass,,,,,
115.0,4.0,wc_4,wc_10,1.0,"[('wc_10', 0.29000000000000015), ('wc_4', 0.7100000000000005), ('wc_5', 0.5800000000000004)]",0.9135220000000003,,,22.0,0.038906,['Pass'],Pass,0.29000000000000015,-0.06777777777777794,2.0,9.0,0.1
157.0,3.0,wc_3,,0.0,,,,342.0,,,,Fail,,,,,
157.0,3.0,wc_3,,0.0,,,75.0,,,,,Fail,,,,,
157.0,3.0,wc_3,,0.0,,,,0.0,,,,Fail,,,,,
157.0,3.0,wc_3,wc_3,0.0,"[('wc_3', 0.6500000000000005)]",0.6500000000000005,,,29.0,0.002283,['Fail'],Fail,0.6500000000000005,-0.15000000000000047,3.0,6.0,0.7
157.0,3.0,wc_3,,0.0,,,,81.0,,,,Fail,,,,,
157.0,3.0,wc_3,wc_1,0.0,"[('wc_1', 0.7100000000000005), ('wc_3', 0.6500000000000005)]",0.8985000000000003,,,29.0,0.004395,['Fail'],Fail,0.7100000000000005,-0.4877777777777783,2.0,9.0,0.4
157.0,3.0,wc_3,,0.0,,,,243.0,,,,Fail,,,,,
157.0,3.0,wc_3,wc_11,0.0,"[('wc_3', 0.6500000000000005), ('wc_1', 0.7100000000000005)]",0.8985000000000003,,,24.0,0.005796000000000001,['Fail'],Fail,0.3500000000000002,-0.18333333333333354,1.0,6.0,0.1
157.0,3.0,wc_3,,0.0,,,,41.0,,,,Fail,,,,,
157.0,3.0,wc_3,wc_7,0.0,"[('wc_3', 0.6500000000000005), ('wc_1', 0.7100000000000005)]",0.8985000000000003,,,39.0,0.008525,['Fail'],Fail,0.3500000000000002,-0.2388888888888891,0.0,0.0,0.2
157.0,3.0,wc_3,,0.0,,,,341.0,,,,Fail,,,,,
157.0,3.0,wc_3,wc_5,1.0,"[('wc_5', 0.5800000000000004), ('wc_3', 0.6500000000000005), ('wc_1', 0.7100000000000005)]",0.9573700000000002,,,30.0,0.04069700000000001,['Fail'],Fail,0.5800000000000004,-0.0800000000000004,4.0,8.0,0.7
206.0,3.0,wc_3,,0.0,,,,83.0,,,,Fail,,,,,
206.0,3.0,wc_3,,0.0,,,72.0,,,,,Fail,,,,,
206.0,3.0,wc_3,,0.0,,,,0.0,,,,Fail,,,,,
206.0,3.0,wc_3,wc_3,0.0,"[('wc_3', 0.6500000000000005)]",0.6500000000000005,,,32.0,0.002027,['Fail'],Fail,0.6500000000000005,-0.07857142857142907,4.0,7.0,0.7
206.0,3.0,wc_3,,0.0,,,,202.0,,,,Fail,,,,,
206.0,3.0,wc_3,wc_11,0.0,"[('wc_3', 0.6500000000000005)]",0.6500000000000005,,,36.0,0.004432,['Fail'],Fail,0.3400000000000002,-0.19714285714285734,1.0,7.0,0.1
206.0,3.0,wc_3,,0.0,,,,41.0,,,,Fail,,,,,
206.0,3.0,wc_3,wc_7,0.0,"[('wc_7', 0.3400000000000002), ('wc_3', 0.6500000000000005)]",0.7690000000000003,,,20.0,0.006209000000000001,['Fail'],Fail,0.3400000000000002,-0.3400000000000002,0.0,1.0,0.2
206.0,3.0,wc_3,,0.0,,,,0.0,,,,Fail,,,,,
206.0,3.0,wc_3,wc_9,0.0,"[('wc_3', 0.6500000000000005), ('wc_7', 0.3400000000000002)]",0.7690000000000003,,,22.0,0.008910999999999999,['Fail'],Fail,0.29000000000000015,-0.20666666666666683,0.0,0.0,0.1
206.0,3.0,wc_3,,0.0,,,,121.0,,,,Fail,,,,,
206.0,3.0,wc_3,wc_13,1.0,"[('wc_13', 0.5900000000000004), ('wc_3', 0.6500000000000005), ('wc_7', 0.3400000000000002)]",0.9052900000000003,,,36.0,0.043122999999999995,['Fail'],Fail,0.5900000000000004,-0.4233333333333338,1.0,6.0,0.6
245.0,3.0,wc_3,,0.0,,,,341.0,,,,Pass,,,,,
245.0,3.0,wc_3,,0.0,,,50.0,,,,,Pass,,,,,
245.0,3.0,wc_3,,0.0,,,,0.0,,,,Pass,,,,,
245.0,3.0,wc_3,wc_3,0.0,"[('wc_3', 0.6500000000000005)]",0.6500000000000005,,,32.0,0.002122,['Pass'],Pass,0.6500000000000005,-0.025000000000000466,5.0,8.0,0.7
245.0,3.0,wc_3,,0.0,,,,141.0,,,,Pass,,,,,
245.0,3.0,wc_3,wc_8,0.0,"[('wc_8', 0.7400000000000005), ('wc_3', 0.6500000000000005)]",0.9090000000000003,,,33.0,0.003952000000000001,['Pass'],Pass,0.7400000000000005,-0.6347368421052637,0.0,0.0,0.7
245.0,3.0,wc_3,,0.0,,,,162.0,,,,Pass,,,,,
245.0,3.0,wc_3,wc_14,0.0,"[('wc_3', 0.6500000000000005), ('wc_8', 0.7400000000000005)]",0.9090000000000003,,,39.0,0.00851,['Pass'],Pass,0.4900000000000003,-0.43444444444444474,0.0,0.0,0.4
245.0,3.0,wc_3,,0.0,,,,361.0,,,,Pass,,,,,
245.0,3.0,wc_3,wc_5,1.0,"[('wc_5', 0.5800000000000004), ('wc_3', 0.6500000000000005), ('wc_8', 0.7400000000000005)]",0.9617800000000002,,,37.0,0.04326599999999999,['Pass'],Pass,0.5800000000000004,-0.5800000000000004,0.0,0.0,0.7
259.0,5.0,wc_5,,0.0,,,,0.0,,,,Fail,,,,,
259.0,5.0,wc_5,,0.0,,,51.0,,,,,Fail,,,,,
259.0,5.0,wc_5,,0.0,,,,0.0,,,,Fail,,,,,
259.0,5.0,wc_5,wc_5,0.0,"[('wc_5', 0.5800000000000004)]",0.5800000000000004,,,27.0,0.002318,['Fail'],Fail,0.5800000000000004,-0.5800000000000004,0.0,0.0,0.7
259.0,5.0,wc_5,,0.0,,,,101.0,,,,Fail,,,,,
259.0,5.0,wc_5,wc_8,0.0,"[('wc_8', 0.7500000000000006), ('wc_5', 0.5800000000000004)]",0.8950000000000004,,,21.0,0.004498,['Fail'],Fail,0.7500000000000006,0.24999999999999944,1.0,1.0,0.7
259.0,5.0,wc_5,,0.0,,,,82.0,,,,Fail,,,,,
259.0,5.0,wc_5,wc_6,1.0,"[('wc_6', 0.4900000000000003), ('wc_5', 0.5800000000000004), ('wc_8', 0.7500000000000006)]",0.9464500000000002,,,33.0,0.044936,['Fail'],Fail,0.4900000000000003,-0.4900000000000003,0.0,0.0,0.3
279.0,5.0,wc_5,,0.0,,,,361.0,,,,Pass,,,,,
279.0,5.0,wc_5,,0.0,,,57.0,,,,,Pass,,,,,
279.0,5.0,wc_5,,0.0,,,,0.0,,,,Pass,,,,,
279.0,5.0,wc_5,wc_5,0.0,"[('wc_5', 0.5900000000000004)]",0.5900000000000004,,,38.0,0.002261,['Fail'],Pass,0.5900000000000004,0.4099999999999996,1.0,1.0,0.7
279.0,5.0,wc_5,,0.0,,,,101.0,,,,Pass,,,,,
279.0,5.0,wc_5,wc_12,0.0,"[('wc_12', 0.7100000000000005), ('wc_5', 0.5900000000000004)]",0.8811000000000003,,,23.0,0.005729,['Fail'],Pass,0.7100000000000005,-0.5561538461538467,0.0,0.0,0.6
279.0,5.0,wc_5,,0.0,,,,0.0,,,,Pass,,,,,
279.0,5.0,wc_5,wc_15,1.0,"[('wc_15', 0.3200000000000002), ('wc_5', 0.5900000000000004), ('wc_12', 0.7100000000000005)]",0.9191480000000003,,,39.0,0.045876999999999994,['Fail'],Pass,0.3200000000000002,-0.3200000000000002,0.0,0.0,0.1
322.0,6.0,wc_6,,0.0,,,,223.0,,,,Fail,,,,,
322.0,6.0,wc_6,,0.0,,,53.0,,,,,Fail,,,,,
322.0,6.0,wc_6,,0.0,,,,0.0,,,,Fail,,,,,
322.0,6.0,wc_6,wc_6,0.0,"[('wc_6', 0.4900000000000003)]",0.4900000000000003,,,30.0,0.002265,['Fail'],Fail,0.4900000000000003,-0.4900000000000003,0.0,1.0,0.3
322.0,6.0,wc_6,,0.0,,,,223.0,,,,Fail,,,,,
322.0,6.0,wc_6,wc_15,0.0,"[('wc_6', 0.4900000000000003)]",0.4900000000000003,,,31.0,0.005861,['Fail'],Fail,0.3200000000000002,-0.3200000000000002,0.0,0.0,0.1
322.0,6.0,wc_6,,0.0,,,,243.0,,,,Fail,,,,,
322.0,6.0,wc_6,wc_7,0.0,"[('wc_7', 0.3500000000000002), ('wc_6', 0.4900000000000003)]",0.6685000000000003,,,23.0,0.005926,['Fail'],Fail,0.3500000000000002,-0.1500000000000002,1.0,5.0,0.2
322.0,6.0,wc_6,,0.0,,,,0.0,,,,Fail,,,,,
322.0,6.0,wc_6,wc_10,0.0,"[('wc_6', 0.4900000000000003), ('wc_7', 0.3500000000000002)]",0.6685000000000003,,,30.0,0.007989,['Fail'],Fail,0.29000000000000015,-0.1471428571428573,0.0,0.0,0.1
322.0,6.0,wc_6,,0.0,,,,223.0,,,,Fail,,,,,
322.0,6.0,wc_6,wc_1,1.0,"[('wc_1', 0.7100000000000005), ('wc_6', 0.4900000000000003), ('wc_7', 0.3500000000000002)]",0.9038650000000003,,,30.0,0.048519,['Fail'],Fail,0.7100000000000005,-0.5100000000000005,1.0,5.0,0.4
347.0,6.0,wc_6,,0.0,,,,142.0,,,,Pass,,,,,
347.0,6.0,wc_6,,0.0,,,72.0,,,,,Pass,,,,,
347.0,6.0,wc_6,,0.0,,,,0.0,,,,Pass,,,,,
347.0,6.0,wc_6,wc_6,0.0,"[('wc_6', 0.4900000000000003)]",0.4900000000000003,,,34.0,0.004223,['Pass'],Pass,0.4900000000000003,0.009999999999999676,1.0,2.0,0.3
347.0,6.0,wc_6,,0.0,,,,222.0,,,,Pass,,,,,
347.0,6.0,wc_6,wc_2,0.0,"[('wc_2', 0.7400000000000005), ('wc_6', 0.4900000000000003)]",0.8674000000000004,,,31.0,0.006170999999999999,['Pass'],Pass,0.7400000000000005,-0.6150000000000005,0.0,0.0,0.9
347.0,6.0,wc_6,,0.0,,,,102.0,,,,Pass,,,,,
347.0,6.0,wc_6,wc_1,1.0,"[('wc_1', 0.7100000000000005), ('wc_6', 0.4900000000000003), ('wc_2', 0.7400000000000005)]",0.9615460000000001,,,40.0,0.043075,['Pass'],Pass,0.7100000000000005,-0.3766666666666672,2.0,6.0,0.4
355.0,9.0,wc_9,,0.0,,,,203.0,,,,Pass,,,,,
355.0,9.0,wc_9,,0.0,,,54.0,,,,,Pass,,,,,
355.0,9.0,wc_9,,0.0,,,,0.0,,,,Pass,,,,,
355.0,9.0,wc_9,wc_9,0.0,"[('wc_9', 0.28000000000000014)]",0.28000000000000014,,,29.0,0.003086,['Pass'],Pass,0.28000000000000014,-0.28000000000000014,0.0,6.0,0.1
355.0,9.0,wc_9,,0.0,,,,162.0,,,,Pass,,,,,
355.0,9.0,wc_9,wc_15,0.0,"[('wc_15', 0.31000000000000016), ('wc_9', 0.28000000000000014)]",0.5032000000000002,,,39.0,0.004875,['Pass'],Pass,0.31000000000000016,-0.31000000000000016,0.0,2.0,0.1
355.0,9.0,wc_9,,0.0,,,,442.0,,,,Pass,,,,,
355.0,9.0,wc_9,wc_5,0.0,"[('wc_5', 0.6000000000000004), ('wc_9', 0.28000000000000014), ('wc_15', 0.31000000000000016)]",0.8012800000000003,,,30.0,0.006203000000000001,['Pass'],Pass,0.6000000000000004,-0.10000000000000042,2.0,4.0,0.7
355.0,9.0,wc_9,,0.0,,,,142.0,,,,Pass,,,,,
355.0,9.0,wc_9,wc_10,0.0,"[('wc_9', 0.28000000000000014), ('wc_15', 0.31000000000000016), ('wc_5', 0.6000000000000004)]",0.8012800000000003,,,25.0,0.008303,['Pass'],Pass,0.28000000000000014,-0.28000000000000014,0.0,2.0,0.1
355.0,9.0,wc_9,,0.0,,,,0.0,,,,Pass,,,,,
355.0,9.0,wc_9,wc_11,0.0,"[('wc_9', 0.28000000000000014), ('wc_15', 0.31000000000000016), ('wc_5', 0.6000000000000004)]",0.8012800000000003,,,20.0,0.010065,['Pass'],Pass,0.3300000000000002,-0.25307692307692325,0.0,0.0,0.1
355.0,9.0,wc_9,,0.0,,,,81.0,,,,Pass,,,,,
355.0,9.0,wc_9,wc_13,0.0,"[('wc_13', 0.5900000000000004), ('wc_10', 0.28000000000000014), ('wc_11', 0.3300000000000002)]",0.8022160000000003,,,20.0,0.010938999999999999,['Fail'],Pass,0.5900000000000004,-0.4990909090909095,0.0,0.0,0.6
355.0,9.0,wc_9,,0.0,,,,0.0,,,,Pass,,,,,
355.0,9.0,wc_9,wc_17,1.0,"[('wc_17', 0.7700000000000006), ('wc_9', 0.28000000000000014), ('wc_15', 0.31000000000000016), ('wc_5', 0.6000000000000004)]",0.9542944000000002,,,29.0,0.045381,['Pass'],Pass,0.7700000000000006,-0.7700000000000006,0.0,0.0,0.8
364.0,8.0,wc_8,,0.0,,,,223.0,,,,Pass,,,,,
364.0,8.0,wc_8,,0.0,,,60.0,,,,,Pass,,,,,
364.0,8.0,wc_8,,0.0,,,,0.0,,,,Pass,,,,,
364.0,8.0,wc_8,wc_8,0.0,"[('wc_8', 0.7600000000000006)]",0.7600000000000006,,,28.0,0.002209,['Pass'],Pass,0.7600000000000006,-0.42666666666666725,2.0,6.0,0.7
364.0,8.0,wc_8,,0.0,,,,102.0,,,,Pass,,,,,
364.0,8.0,wc_8,wc_7,0.0,"[('wc_7', 0.3500000000000002), ('wc_8', 0.7600000000000006)]",0.8440000000000004,,,31.0,0.004031,['Pass'],Pass,0.3500000000000002,-0.1000000000000002,2.0,8.0,0.2
364.0,8.0,wc_8,,0.0,,,,0.0,,,,Pass,,,,,
364.0,8.0,wc_8,wc_9,0.0,"[('wc_9', 0.28000000000000014), ('wc_8', 0.7600000000000006), ('wc_7', 0.3500000000000002)]",0.8876800000000004,,,20.0,0.006327,['Pass'],Pass,0.28000000000000014,-0.1371428571428573,1.0,7.0,0.1
364.0,8.0,wc_8,,0.0,,,,162.0,,,,Pass,,,,,
364.0,8.0,wc_8,wc_15,0.0,"[('wc_8', 0.7600000000000006), ('wc_7', 0.3500000000000002), ('wc_9', 0.28000000000000014)]",0.8876800000000004,,,28.0,0.010488,['Pass'],Pass,0.3200000000000002,0.013333333333333142,1.0,3.0,0.1
364.0,8.0,wc_8,,0.0,,,,61.0,,,,Pass,,,,,
364.0,8.0,wc_8,wc_12,1.0,"[('wc_12', 0.7200000000000005), ('wc_8', 0.7600000000000006), ('wc_7', 0.3500000000000002), ('wc_9', 0.28000000000000014)]",0.9685504000000001,,,21.0,0.04947800000000001,['Pass'],Pass,0.7200000000000005,-0.3200000000000005,2.0,5.0,0.6
377.0,11.0,wc_11,,0.0,,,,361.0,,,,Fail,,,,,
377.0,11.0,wc_11,,0.0,,,69.0,,,,,Fail,,,,,
377.0,11.0,wc_11,,0.0,,,,0.0,,,,Fail,,,,,
377.0,11.0,wc_11,wc_11,0.0,"[('wc_11', 0.3200000000000002)]",0.3200000000000002,,,21.0,0.002369,['Fail'],Fail,0.3200000000000002,-0.3200000000000002,0.0,2.0,0.1
377.0,11.0,wc_11,,0.0,,,,362.0,,,,Fail,,,,,
377.0,11.0,wc_11,wc_5,0.0,"[('wc_5', 0.6000000000000004)]",0.6000000000000004,,,20.0,0.004428,['Pass'],Fail,0.6000000000000004,-0.10000000000000042,3.0,6.0,0.7
377.0,11.0,wc_11,,0.0,,,,141.0,,,,Fail,,,,,
377.0,11.0,wc_11,wc_14,0.0,"[('wc_14', 0.4800000000000003), ('wc_11', 0.3200000000000002)]",0.6464000000000003,,,32.0,0.008637,['Fail'],Fail,0.4800000000000003,-0.4800000000000003,0.0,7.0,0.4
377.0,11.0,wc_11,,0.0,,,,162.0,,,,Fail,,,,,
377.0,11.0,wc_11,wc_7,0.0,"[('wc_7', 0.3500000000000002), ('wc_11', 0.3200000000000002), ('wc_14', 0.4800000000000003)]",0.7701600000000003,,,24.0,0.008141,['Fail'],Fail,0.3500000000000002,-0.016666666666666885,3.0,9.0,0.2
377.0,11.0,wc_11,,0.0,,,,162.0,,,,Fail,,,,,
377.0,11.0,wc_11,wc_13,0.0,"[('wc_13', 0.5800000000000004), ('wc_5', 0.6000000000000004)]",0.8320000000000003,,,22.0,0.009510999999999999,['Pass'],Fail,0.5800000000000004,-0.5800000000000004,0.0,2.0,0.6
377.0,11.0,wc_11,,0.0,,,,301.0,,,,Fail,,,,,
377.0,11.0,wc_11,wc_9,0.0,"[('wc_9', 0.28000000000000014), ('wc_11', 0.3200000000000002), ('wc_14', 0.4800000000000003), ('wc_7', 0.3500000000000002)]",0.8345152000000002,,,35.0,0.010995000000000001,['Fail'],Fail,0.28000000000000014,-0.030000000000000138,2.0,8.0,0.1
377.0,11.0,wc_11,,0.0,,,,362.0,,,,Fail,,,,,
377.0,11.0,wc_11,wc_3,1.0,"[('wc_3', 0.6600000000000005), ('wc_11', 0.3200000000000002), ('wc_14', 0.4800000000000003), ('wc_7', 0.3500000000000002), ('wc_9', 0.28000000000000014)]",0.9437351680000001,,,33.0,0.046224,['Fail'],Fail,0.6600000000000005,-0.6600000000000005,0.0,0.0,0.7
388.0,7.0,wc_7,,0.0,,,,121.0,,,,Fail,,,,,
388.0,7.0,wc_7,,0.0,,,63.0,,,,,Fail,,,,,
388.0,7.0,wc_7,,0.0,,,,0.0,,,,Fail,,,,,
388.0,7.0,wc_7,wc_7,0.0,"[('wc_7', 0.3600000000000002)]",0.3600000000000002,,,33.0,0.003069,['Pass'],Fail,0.3600000000000002,-0.3600000000000002,0.0,0.0,0.2
388.0,7.0,wc_7,,0.0,,,,182.0,,,,Fail,,,,,
388.0,7.0,wc_7,wc_14,0.0,"[('wc_14', 0.4800000000000003), ('wc_7', 0.3600000000000002)]",0.6672000000000002,,,40.0,0.004676,['Pass'],Fail,0.4800000000000003,-0.3550000000000003,1.0,8.0,0.4
388.0,7.0,wc_7,,0.0,,,,321.0,,,,Fail,,,,,
388.0,7.0,wc_7,wc_3,0.0,"[('wc_7', 0.3600000000000002), ('wc_14', 0.4800000000000003)]",0.6672000000000002,,,40.0,0.005808000000000001,['Pass'],Fail,0.6600000000000005,-0.6600000000000005,0.0,0.0,0.7
388.0,7.0,wc_7,,0.0,,,,162.0,,,,Fail,,,,,
388.0,7.0,wc_7,wc_9,0.0,"[('wc_9', 0.29000000000000015), ('wc_7', 0.3600000000000002), ('wc_14', 0.4800000000000003)]",0.7637120000000003,,,27.0,0.007477,['Pass'],Fail,0.29000000000000015,0.04333333333333317,3.0,9.0,0.1
388.0,7.0,wc_7,,0.0,,,,402.0,,,,Fail,,,,,
388.0,7.0,wc_7,wc_5,0.0,"[('wc_5', 0.5900000000000004), ('wc_3', 0.6600000000000005)]",0.8606000000000004,,,26.0,0.010377,['Fail'],Fail,0.5900000000000004,-0.16142857142857187,3.0,7.0,0.7
388.0,7.0,wc_7,,0.0,,,,182.0,,,,Fail,,,,,
388.0,7.0,wc_7,wc_16,0.0,"[('wc_3', 0.6600000000000005), ('wc_5', 0.5900000000000004)]",0.8606000000000004,,,33.0,0.011106000000000001,['Fail'],Fail,0.3600000000000002,-0.3600000000000002,0.0,0.0,0.3
388.0,7.0,wc_7,,0.0,,,,103.0,,,,Fail,,,,,
388.0,7.0,wc_7,wc_15,0.0,"[('wc_15', 0.31000000000000016), ('wc_7', 0.3600000000000002), ('wc_14', 0.4800000000000003), ('wc_9', 0.29000000000000015), ('wc_16', 0.3600000000000002)]",0.8956552192000001,,,32.0,0.013260999999999998,['Pass'],Fail,0.31000000000000016,-0.11000000000000015,1.0,5.0,0.1
388.0,7.0,wc_7,,0.0,,,,61.0,,,,Fail,,,,,
388.0,7.0,wc_7,wc_12,1.0,"[('wc_12', 0.7200000000000005), ('wc_3', 0.6600000000000005), ('wc_5', 0.5900000000000004)]",0.9609680000000002,,,23.0,0.046507999999999994,['Fail'],Fail,0.7200000000000005,-0.291428571428572,3.0,7.0,0.6
399.0,10.0,wc_10,,0.0,,,,341.0,,,,Pass,,,,,
399.0,10.0,wc_10,,0.0,,,66.0,,,,,Pass,,,,,
399.0,10.0,wc_10,,0.0,,,,0.0,,,,Pass,,,,,
399.0,10.0,wc_10,wc_10,0.0,"[('wc_10', 0.27000000000000013)]",0.27000000000000013,,,22.0,0.002328,['Pass'],Pass,0.27000000000000013,-0.27000000000000013,0.0,6.0,0.1
399.0,10.0,wc_10,,0.0,,,,223.0,,,,Pass,,,,,
399.0,10.0,wc_10,wc_1,0.0,"[('wc_1', 0.7100000000000005), ('wc_10', 0.27000000000000013)]",0.7883000000000004,,,29.0,0.004592000000000001,['Pass'],Pass,0.7100000000000005,-0.5100000000000005,0.0,0.0,0.4
399.0,10.0,wc_10,,0.0,,,,182.0,,,,Pass,,,,,
399.0,10.0,wc_10,wc_8,1.0,"[('wc_8', 0.7600000000000006), ('wc_10', 0.27000000000000013), ('wc_1', 0.7100000000000005)]",0.9491920000000003,,,36.0,0.042573,['Pass'],Pass,0.7600000000000006,-0.7600000000000006,0.0,0.0,0.7
410.0,7.0,wc_7,,0.0,,,,102.0,,,,Fail,,,,,
410.0,7.0,wc_7,,0.0,,,74.0,,,,,Fail,,,,,
410.0,7.0,wc_7,,0.0,,,,0.0,,,,Fail,,,,,
410.0,7.0,wc_7,wc_7,0.0,"[('wc_7', 0.3500000000000002)]",0.3500000000000002,,,33.0,0.002471,['Pass'],Fail,0.3500000000000002,-0.3500000000000002,0.0,2.0,0.2
410.0,7.0,wc_7,,0.0,,,,182.0,,,,Fail,,,,,
410.0,7.0,wc_7,wc_1,0.0,"[('wc_1', 0.7200000000000005)]",0.7200000000000005,,,28.0,0.004326,['Fail'],Fail,0.7200000000000005,0.27999999999999947,1.0,1.0,0.4
410.0,7.0,wc_7,,0.0,,,,0.0,,,,Fail,,,,,
410.0,7.0,wc_7,wc_3,0.0,"[('wc_3', 0.6700000000000005), ('wc_1', 0.7200000000000005)]",0.9076000000000003,,,21.0,0.005653999999999999,['Fail'],Fail,0.6700000000000005,-0.17000000000000048,1.0,2.0,0.7
410.0,7.0,wc_7,,0.0,,,,202.0,,,,Fail,,,,,
410.0,7.0,wc_7,wc_15,1.0,"[('wc_15', 0.30000000000000016), ('wc_1', 0.7200000000000005), ('wc_3', 0.6700000000000005)]",0.9353200000000003,,,31.0,0.042118,['Fail'],Fail,0.30000000000000016,-0.050000000000000155,2.0,8.0,0.1
415.0,7.0,wc_7,,0.0,,,,243.0,,,,Fail,,,,,
415.0,7.0,wc_7,,0.0,,,50.0,,,,,Fail,,,,,
415.0,7.0,wc_7,,0.0,,,,0.0,,,,Fail,,,,,
415.0,7.0,wc_7,wc_7,0.0,"[('wc_7', 0.3400000000000002)]",0.3400000000000002,,,33.0,0.002069,['Pass'],Fail,0.3400000000000002,-0.3400000000000002,0.0,3.0,0.2
415.0,7.0,wc_7,,0.0,,,,182.0,,,,Fail,,,,,
415.0,7.0,wc_7,wc_14,0.0,"[('wc_14', 0.4700000000000003)]",0.4700000000000003,,,33.0,0.003935,['Fail'],Fail,0.4700000000000003,-0.37909090909090937,0.0,0.0,0.4
415.0,7.0,wc_7,,0.0,,,,202.0,,,,Fail,,,,,
415.0,7.0,wc_7,wc_1,0.0,"[('wc_1', 0.7300000000000005), ('wc_14', 0.4700000000000003)]",0.8569000000000003,,,24.0,0.006084000000000001,['Fail'],Fail,0.7300000000000005,0.26999999999999946,2.0,2.0,0.4
415.0,7.0,wc_7,,0.0,,,,0.0,,,,Fail,,,,,
415.0,7.0,wc_7,wc_3,1.0,"[('wc_3', 0.6700000000000005), ('wc_14', 0.4700000000000003), ('wc_1', 0.7300000000000005)]",0.9527770000000002,,,26.0,0.043902000000000004,['Fail'],Fail,0.6800000000000005,0.06999999999999951,3.0,4.0,0.7
428.0,7.0,wc_7,,0.0,,,,121.0,,,,Fail,,,,,
428.0,7.0,wc_7,,0.0,,,75.0,,,,,Fail,,,,,
428.0,7.0,wc_7,,0.0,,,,0.0,,,,Fail,,,,,
428.0,7.0,wc_7,wc_7,0.0,"[('wc_7', 0.3300000000000002)]",0.3300000000000002,,,27.0,0.002128,['Pass'],Fail,0.3300000000000002,-0.3300000000000002,0.0,4.0,0.2
428.0,7.0,wc_7,,0.0,,,,182.0,,,,Fail,,,,,
428.0,7.0,wc_7,wc_1,0.0,"[('wc_1', 0.7400000000000005)]",0.7400000000000005,,,38.0,0.0038910000000000004,['Fail'],Fail,0.7400000000000005,0.25999999999999945,3.0,3.0,0.4
428.0,7.0,wc_7,,0.0,,,,0.0,,,,Fail,,,,,
428.0,7.0,wc_7,wc_3,0.0,"[('wc_3', 0.6800000000000005), ('wc_1', 0.7400000000000005)]",0.9168000000000003,,,22.0,0.0056749999999999995,['Fail'],Fail,0.6800000000000005,0.06999999999999951,3.0,4.0,0.7
428.0,7.0,wc_7,,0.0,,,,242.0,,,,Fail,,,,,
428.0,7.0,wc_7,wc_17,1.0,"[('wc_17', 0.7700000000000006), ('wc_1', 0.7400000000000005), ('wc_3', 0.6800000000000005)]",0.9808640000000001,,,32.0,0.04346200000000001,['Fail'],Fail,0.7700000000000006,-0.6271428571428577,1.0,7.0,0.8
438.0,7.0,wc_7,,0.0,,,,203.0,,,,Fail,,,,,
438.0,7.0,wc_7,,0.0,,,77.0,,,,,Fail,,,,,
438.0,7.0,wc_7,,0.0,,,,0.0,,,,Fail,,,,,
438.0,7.0,wc_7,wc_7,0.0,"[('wc_7', 0.3200000000000002)]",0.3200000000000002,,,25.0,0.002059,['Fail'],Fail,0.3200000000000002,-0.3200000000000002,0.0,5.0,0.2
438.0,7.0,wc_7,,0.0,,,,203.0,,,,Fail,,,,,
438.0,7.0,wc_7,wc_15,0.0,"[('wc_7', 0.3200000000000002)]",0.3200000000000002,,,29.0,0.004085999999999999,['Fail'],Fail,0.30000000000000016,-0.10000000000000014,0.0,0.0,0.1
438.0,7.0,wc_7,,0.0,,,,382.0,,,,Fail,,,,,
438.0,7.0,wc_7,wc_10,0.0,"[('wc_10', 0.27000000000000013), ('wc_15', 0.30000000000000016)]",0.4890000000000002,,,32.0,0.005686,['Pass'],Fail,0.27000000000000013,-0.17000000000000012,0.0,0.0,0.1
438.0,7.0,wc_7,,0.0,,,,342.0,,,,Fail,,,,,
438.0,7.0,wc_7,wc_3,0.0,"[('wc_3', 0.6900000000000005), ('wc_15', 0.30000000000000016), ('wc_10', 0.27000000000000013)]",0.8415900000000003,,,25.0,0.009575,['Pass'],Fail,0.6900000000000005,0.10999999999999954,4.0,5.0,0.7
438.0,7.0,wc_7,,0.0,,,,162.0,,,,Fail,,,,,
438.0,7.0,wc_7,wc_9,0.0,"[('wc_9', 0.29000000000000015), ('wc_15', 0.30000000000000016), ('wc_10', 0.27000000000000013), ('wc_3', 0.6900000000000005)]",0.8875289000000003,,,28.0,0.011072,['Pass'],Fail,0.29000000000000015,-0.29000000000000015,0.0,4.0,0.1
438.0,7.0,wc_7,,0.0,,,,121.0,,,,Fail,,,,,
438.0,7.0,wc_7,wc_13,1.0,"[('wc_13', 0.5700000000000004), ('wc_15', 0.30000000000000016), ('wc_10', 0.27000000000000013), ('wc_3', 0.6900000000000005), ('wc_9', 0.29000000000000015)]",0.9516374270000002,,,26.0,0.048295,['Pass'],Fail,0.5700000000000004,-0.4588888888888893,1.0,9.0,0.6
449.0,11.0,wc_11,,0.0,,,,341.0,,,,Fail,,,,,
449.0,11.0,wc_11,,0.0,,,66.0,,,,,Fail,,,,,
449.0,11.0,wc_11,,0.0,,,,0.0,,,,Fail,,,,,
449.0,11.0,wc_11,wc_11,0.0,"[('wc_11', 0.3300000000000002)]",0.3300000000000002,,,33.0,0.003229,['Fail'],Fail,0.3300000000000002,-0.21888888888888908,1.0,9.0,0.1
449.0,11.0,wc_11,,0.0,,,,203.0,,,,Fail,,,,,
449.0,11.0,wc_11,wc_1,0.0,"[('wc_1', 0.7500000000000006)]",0.7500000000000006,,,40.0,0.004579,['Pass'],Fail,0.7500000000000006,0.04999999999999949,4.0,5.0,0.4
449.0,11.0,wc_11,,0.0,,,,182.0,,,,Fail,,,,,
449.0,11.0,wc_11,wc_12,0.0,"[('wc_12', 0.7200000000000005), ('wc_11', 0.3300000000000002)]",0.8124000000000005,,,26.0,0.005698,['Fail'],Fail,0.7200000000000005,-0.47000000000000053,0.0,0.0,0.6
449.0,11.0,wc_11,,0.0,,,,182.0,,,,Fail,,,,,
449.0,11.0,wc_11,wc_6,1.0,"[('wc_6', 0.5000000000000003), ('wc_11', 0.3300000000000002), ('wc_12', 0.7200000000000005)]",0.9062000000000002,,,36.0,0.04053199999999999,['Fail'],Fail,0.5000000000000003,-0.5000000000000003,0.0,0.0,0.3
458.0,11.0,wc_11,,0.0,,,,0.0,,,,Pass,,,,,
458.0,11.0,wc_11,,0.0,,,66.0,,,,,Pass,,,,,
458.0,11.0,wc_11,,0.0,,,,0.0,,,,Pass,,,,,
458.0,11.0,wc_11,wc_11,0.0,"[('wc_11', 0.3300000000000002)]",0.3300000000000002,,,20.0,0.003213,['Fail'],Pass,0.3300000000000002,-0.3300000000000002,0.0,0.0,0.1
458.0,11.0,wc_11,,0.0,,,,41.0,,,,Pass,,,,,
458.0,11.0,wc_11,wc_7,0.0,"[('wc_11', 0.3300000000000002)]",0.3300000000000002,,,40.0,0.003839,['Fail'],Pass,0.31000000000000016,-0.31000000000000016,0.0,7.0,0.2
458.0,11.0,wc_11,,0.0,,,,0.0,,,,Pass,,,,,
458.0,11.0,wc_11,wc_8,0.0,"[('wc_8', 0.7600000000000006), ('wc_7', 0.31000000000000016)]",0.8344000000000005,,,28.0,0.005974,['Pass'],Pass,0.7600000000000006,-0.7600000000000006,0.0,5.0,0.7
458.0,11.0,wc_11,,0.0,,,,162.0,,,,Pass,,,,,
458.0,11.0,wc_11,wc_14,1.0,"[('wc_14', 0.4800000000000003), ('wc_7', 0.31000000000000016), ('wc_8', 0.7600000000000006)]",0.9138880000000003,,,35.0,0.040782000000000006,['Pass'],Pass,0.4800000000000003,-0.0800000000000003,2.0,5.0,0.4
473.0,7.0,wc_7,,0.0,,,,162.0,,,,Pass,,,,,
473.0,7.0,wc_7,,0.0,,,77.0,,,,,Pass,,,,,
473.0,7.0,wc_7,,0.0,,,,0.0,,,,Pass,,,,,
473.0,7.0,wc_7,wc_7,0.0,"[('wc_7', 0.31000000000000016)]",0.31000000000000016,,,34.0,0.002523,['Fail'],Pass,0.31000000000000016,-0.18500000000000016,1.0,8.0,0.2
473.0,7.0,wc_7,,0.0,,,,162.0,,,,Pass,,,,,
473.0,7.0,wc_7,wc_13,0.0,"[('wc_13', 0.5700000000000004)]",0.5700000000000004,,,38.0,0.003971000000000001,['Pass'],Pass,0.5700000000000004,-0.47909090909090946,0.0,0.0,0.6
473.0,7.0,wc_7,,0.0,,,,321.0,,,,Pass,,,,,
473.0,7.0,wc_7,wc_10,0.0,"[('wc_13', 0.5700000000000004)]",0.5700000000000004,,,28.0,0.006557,['Pass'],Pass,0.28000000000000014,0.05333333333333318,1.0,3.0,0.1
473.0,7.0,wc_7,,0.0,,,,362.0,,,,Pass,,,,,
473.0,7.0,wc_7,wc_4,0.0,"[('wc_4', 0.7100000000000005), ('wc_13', 0.5700000000000004)]",0.8753000000000003,,,29.0,0.008208,['Pass'],Pass,0.7100000000000005,-0.7100000000000005,0.0,0.0,0.8
473.0,7.0,wc_7,,0.0,,,,103.0,,,,Pass,,,,,
473.0,7.0,wc_7,wc_3,1.0,"[('wc_3', 0.7000000000000005), ('wc_13', 0.5700000000000004), ('wc_4', 0.7100000000000005)]",0.9625900000000002,,,37.0,0.047970000000000006,['Pass'],Pass,0.7000000000000005,-0.03333333333333388,6.0,9.0,0.7
479.0,12.0,wc_12,,0.0,,,,141.0,,,,Fail,,,,,
479.0,12.0,wc_12,,0.0,,,70.0,,,,,Fail,,,,,
479.0,12.0,wc_12,,0.0,,,,0.0,,,,Fail,,,,,
479.0,12.0,wc_12,wc_12,0.0,"[('wc_12', 0.7300000000000005)]",0.7300000000000005,,,22.0,0.002066,['Fail'],Fail,0.7300000000000005,-0.3966666666666672,1.0,3.0,0.6
479.0,12.0,wc_12,,0.0,,,,361.0,,,,Fail,,,,,
479.0,12.0,wc_12,wc_11,0.0,"[('wc_11', 0.3200000000000002), ('wc_12', 0.7300000000000005)]",0.8164000000000005,,,35.0,0.0039059999999999997,['Fail'],Fail,0.3200000000000002,-0.3200000000000002,0.0,2.0,0.1
479.0,12.0,wc_12,,0.0,,,,81.0,,,,Fail,,,,,
479.0,12.0,wc_12,wc_13,1.0,"[('wc_13', 0.5800000000000004), ('wc_12', 0.7300000000000005), ('wc_11', 0.3200000000000002)]",0.9228880000000003,,,35.0,0.038683,['Fail'],Fail,0.5900000000000004,0.4099999999999996,2.0,2.0,0.6
488.0,12.0,wc_12,,0.0,,,,102.0,,,,Pass,,,,,
488.0,12.0,wc_12,,0.0,,,78.0,,,,,Pass,,,,,
488.0,12.0,wc_12,,0.0,,,,0.0,,,,Pass,,,,,
488.0,12.0,wc_12,wc_12,0.0,"[('wc_12', 0.7300000000000005)]",0.7300000000000005,,,22.0,0.002111,['Pass'],Pass,0.7300000000000005,-0.23000000000000054,2.0,4.0,0.6
488.0,12.0,wc_12,,0.0,,,,0.0,,,,Pass,,,,,
488.0,12.0,wc_12,wc_16,0.0,"[('wc_16', 0.3500000000000002), ('wc_12', 0.7300000000000005)]",0.8245000000000005,,,31.0,0.004425999999999999,['Pass'],Pass,0.3500000000000002,-0.3500000000000002,0.0,0.0,0.3
488.0,12.0,wc_12,,0.0,,,,223.0,,,,Pass,,,,,
488.0,12.0,wc_12,wc_7,0.0,"[('wc_12', 0.7300000000000005), ('wc_16', 0.3500000000000002)]",0.8245000000000005,,,23.0,0.005923,['Pass'],Pass,0.30000000000000016,-0.20000000000000015,0.0,0.0,0.2
488.0,12.0,wc_12,,0.0,,,,0.0,,,,Pass,,,,,
488.0,12.0,wc_12,wc_8,1.0,"[('wc_8', 0.7600000000000006), ('wc_12', 0.7300000000000005), ('wc_16', 0.3500000000000002)]",0.9578800000000002,,,36.0,0.041365,['Pass'],Pass,0.7600000000000006,-0.5377777777777784,2.0,9.0,0.7
495.0,13.0,wc_13,,0.0,,,,142.0,,,,Fail,,,,,
495.0,13.0,wc_13,,0.0,,,70.0,,,,,Fail,,,,,
495.0,13.0,wc_13,,0.0,,,,0.0,,,,Fail,,,,,
495.0,13.0,wc_13,wc_13,0.0,"[('wc_13', 0.5900000000000004)]",0.5900000000000004,,,26.0,0.002157,['Fail'],Fail,0.5900000000000004,0.07666666666666622,2.0,3.0,0.6
495.0,13.0,wc_13,,0.0,,,,0.0,,,,Fail,,,,,
495.0,13.0,wc_13,wc_17,0.0,"[('wc_17', 0.7700000000000006), ('wc_13', 0.5900000000000004)]",0.9057000000000003,,,40.0,0.004144,['Fail'],Fail,0.7700000000000006,-0.6930769230769236,0.0,0.0,0.8
495.0,13.0,wc_13,,0.0,,,,103.0,,,,Fail,,,,,
495.0,13.0,wc_13,wc_16,0.0,"[('wc_13', 0.5900000000000004), ('wc_17', 0.7700000000000006)]",0.9057000000000003,,,37.0,0.006402,['Fail'],Fail,0.3600000000000002,0.6399999999999998,1.0,1.0,0.3
495.0,13.0,wc_13,,0.0,,,,223.0,,,,Fail,,,,,
495.0,13.0,wc_13,wc_7,0.0,"[('wc_13', 0.5900000000000004), ('wc_17', 0.7700000000000006)]",0.9057000000000003,,,24.0,0.008207,['Fail'],Fail,0.29000000000000015,-0.29000000000000015,0.0,1.0,0.2
495.0,13.0,wc_13,,0.0,,,,102.0,,,,Fail,,,,,
495.0,13.0,wc_13,wc_6,1.0,"[('wc_6', 0.5000000000000003), ('wc_13', 0.5900000000000004), ('wc_17', 0.7700000000000006)]",0.9528500000000002,,,22.0,0.045753,['Fail'],Fail,0.5000000000000003,-0.3000000000000003,1.0,5.0,0.3
504.0,13.0,wc_13,,0.0,,,,182.0,,,,Pass,,,,,
504.0,13.0,wc_13,,0.0,,,66.0,,,,,Pass,,,,,
504.0,13.0,wc_13,,0.0,,,,0.0,,,,Pass,,,,,
504.0,13.0,wc_13,wc_13,0.0,"[('wc_13', 0.6000000000000004)]",0.6000000000000004,,,38.0,0.002219,['Pass'],Pass,0.6000000000000004,0.14999999999999958,3.0,4.0,0.6
504.0,13.0,wc_13,,0.0,,,,202.0,,,,Pass,,,,,
504.0,13.0,wc_13,wc_8,0.0,"[('wc_8', 0.7600000000000006), ('wc_13', 0.6000000000000004)]",0.9040000000000004,,,21.0,0.004156,['Pass'],Pass,0.7600000000000006,-0.5600000000000005,0.0,0.0,0.7
504.0,13.0,wc_13,,0.0,,,,122.0,,,,Pass,,,,,
504.0,13.0,wc_13,wc_12,1.0,"[('wc_12', 0.7300000000000005), ('wc_13', 0.6000000000000004), ('wc_8', 0.7600000000000006)]",0.9740800000000002,,,23.0,0.068077,['Pass'],Pass,0.7300000000000005,-0.15857142857142914,4.0,7.0,0.6
511.0,16.0,wc_16,,0.0,,,,0.0,,,,Fail,,,,,
511.0,16.0,wc_16,,0.0,,,72.0,,,,,Fail,,,,,
511.0,16.0,wc_16,,0.0,,,,0.0,,,,Fail,,,,,
511.0,16.0,wc_16,wc_16,0.0,"[('wc_16', 0.3600000000000002)]",0.3600000000000002,,,35.0,0.002101,['Fail'],Fail,0.3600000000000002,-0.026666666666666894,1.0,3.0,0.3
511.0,16.0,wc_16,,0.0,,,,103.0,,,,Fail,,,,,
511.0,16.0,wc_16,wc_15,0.0,"[('wc_16', 0.3600000000000002)]",0.3600000000000002,,,29.0,0.004033,['Fail'],Fail,0.31000000000000016,-0.18500000000000016,1.0,8.0,0.1
511.0,16.0,wc_16,,0.0,,,,382.0,,,,Fail,,,,,
511.0,16.0,wc_16,wc_10,0.0,"[('wc_10', 0.27000000000000013), ('wc_15', 0.31000000000000016)]",0.4963000000000002,,,23.0,0.005507,['Pass'],Fail,0.27000000000000013,-0.14500000000000013,1.0,8.0,0.1
511.0,16.0,wc_16,,0.0,,,,182.0,,,,Fail,,,,,
511.0,16.0,wc_16,wc_17,0.0,"[('wc_17', 0.7800000000000006), ('wc_16', 0.3600000000000002)]",0.8592000000000004,,,27.0,0.007377999999999999,['Fail'],Fail,0.7800000000000006,-0.2800000000000006,1.0,2.0,0.8
511.0,16.0,wc_16,,0.0,,,,223.0,,,,Fail,,,,,
511.0,16.0,wc_16,wc_8,1.0,"[('wc_8', 0.7700000000000006), ('wc_16', 0.3600000000000002), ('wc_17', 0.7800000000000006)]",0.9676160000000001,,,34.0,0.043077000000000004,['Fail'],Fail,0.7800000000000006,0.21999999999999942,2.0,2.0,0.7
518.0,15.0,wc_15,,0.0,,,,183.0,,,,Fail,,,,,
518.0,15.0,wc_15,,0.0,,,52.0,,,,,Fail,,,,,
518.0,15.0,wc_15,,0.0,,,,0.0,,,,Fail,,,,,
518.0,15.0,wc_15,wc_15,0.0,"[('wc_15', 0.30000000000000016)]",0.30000000000000016,,,37.0,0.002057,['Fail'],Fail,0.30000000000000016,-0.18888888888888905,1.0,9.0,0.1
518.0,15.0,wc_15,,0.0,,,,0.0,,,,Fail,,,,,
518.0,15.0,wc_15,wc_17,0.0,"[('wc_17', 0.7800000000000006), ('wc_15', 0.30000000000000016)]",0.8460000000000004,,,25.0,0.004228,['Fail'],Fail,0.7800000000000006,-0.11333333333333395,2.0,3.0,0.8
518.0,15.0,wc_15,,0.0,,,,263.0,,,,Fail,,,,,
518.0,15.0,wc_15,wc_2,1.0,"[('wc_2', 0.7500000000000006), ('wc_15', 0.30000000000000016), ('wc_17', 0.7800000000000006)]",0.9615000000000002,,,37.0,0.040094000000000005,['Fail'],Fail,0.7500000000000006,-0.7500000000000006,0.0,0.0,0.9
525.0,16.0,wc_16,,0.0,,,,243.0,,,,Pass,,,,,
525.0,16.0,wc_16,,0.0,,,61.0,,,,,Pass,,,,,
525.0,16.0,wc_16,,0.0,,,,0.0,,,,Pass,,,,,
525.0,16.0,wc_16,wc_16,0.0,"[('wc_16', 0.3700000000000002)]",0.3700000000000002,,,38.0,0.002311,['Pass'],Pass,0.3700000000000002,0.029999999999999805,2.0,5.0,0.3
525.0,16.0,wc_16,,0.0,,,,103.0,,,,Pass,,,,,
525.0,16.0,wc_16,wc_15,0.0,"[('wc_16', 0.3700000000000002)]",0.3700000000000002,,,31.0,0.004136,['Pass'],Pass,0.30000000000000016,-0.30000000000000016,0.0,0.0,0.1
525.0,16.0,wc_16,,0.0,,,,303.0,,,,Pass,,,,,
525.0,16.0,wc_16,wc_2,0.0,"[('wc_2', 0.7500000000000006), ('wc_15', 0.30000000000000016)]",0.8250000000000004,,,35.0,0.005905,['Fail'],Pass,0.7500000000000006,-0.7500000000000006,0.0,0.0,0.9
525.0,16.0,wc_16,,0.0,,,,0.0,,,,Pass,,,,,
525.0,16.0,wc_16,wc_4,0.0,"[('wc_15', 0.30000000000000016), ('wc_2', 0.7500000000000006)]",0.8250000000000004,,,20.0,0.007724,['Fail'],Pass,0.7200000000000005,-0.5771428571428576,1.0,7.0,0.8
525.0,16.0,wc_16,,0.0,,,,81.0,,,,Pass,,,,,
525.0,16.0,wc_16,wc_6,1.0,"[('wc_6', 0.5000000000000003), ('wc_16', 0.3700000000000002), ('wc_4', 0.7200000000000005)]",0.9118000000000003,,,22.0,0.043617,['Pass'],Pass,0.5000000000000003,-0.2777777777777781,2.0,9.0,0.3
532.0,15.0,wc_15,,0.0,,,,223.0,,,,Pass,,,,,
532.0,15.0,wc_15,,0.0,,,64.0,,,,,Pass,,,,,
532.0,15.0,wc_15,,0.0,,,,0.0,,,,Pass,,,,,
532.0,15.0,wc_15,wc_15,0.0,"[('wc_15', 0.29000000000000015)]",0.29000000000000015,,,24.0,0.002321,['Fail'],Pass,0.29000000000000015,-0.29000000000000015,0.0,1.0,0.1
532.0,15.0,wc_15,,0.0,,,,283.0,,,,Pass,,,,,
532.0,15.0,wc_15,wc_1,0.0,"[('wc_1', 0.7400000000000005)]",0.7400000000000005,,,36.0,0.004144,['Pass'],Pass,0.7400000000000005,-0.4733333333333339,0.0,0.0,0.4
532.0,15.0,wc_15,,0.0,,,,0.0,,,,Pass,,,,,
532.0,15.0,wc_15,wc_5,0.0,"[('wc_5', 0.5900000000000004), ('wc_1', 0.7400000000000005)]",0.8934000000000003,,,26.0,0.005818,['Pass'],Pass,0.5900000000000004,-0.41608695652173955,0.0,0.0,0.7
532.0,15.0,wc_15,,0.0,,,,162.0,,,,Pass,,,,,
532.0,15.0,wc_15,wc_11,0.0,"[('wc_1', 0.7400000000000005), ('wc_5', 0.5900000000000004)]",0.8934000000000003,,,33.0,0.007211,['Pass'],Pass,0.3300000000000002,-0.21888888888888908,1.0,9.0,0.1
532.0,15.0,wc_15,,0.0,,,,61.0,,,,Pass,,,,,
532.0,15.0,wc_15,wc_12,1.0,"[('wc_12', 0.7300000000000005), ('wc_1', 0.7400000000000005), ('wc_5', 0.5900000000000004)]",0.9712180000000001,,,21.0,0.04647899999999999,['Pass'],Pass,0.7300000000000005,-0.7300000000000005,0.0,0.0,0.6
539.0,14.0,wc_14,,0.0,,,,0.0,,,,Pass,,,,,
539.0,14.0,wc_14,,0.0,,,54.0,,,,,Pass,,,,,
539.0,14.0,wc_14,,0.0,,,,0.0,,,,Pass,,,,,
539.0,14.0,wc_14,wc_14,0.0,"[('wc_14', 0.4800000000000003)]",0.4800000000000003,,,30.0,0.002151,['Pass'],Pass,0.4800000000000003,-0.33714285714285747,0.0,0.0,0.4
539.0,14.0,wc_14,,0.0,,,,82.0,,,,Pass,,,,,
539.0,14.0,wc_14,wc_12,0.0,"[('wc_12', 0.7300000000000005), ('wc_14', 0.4800000000000003)]",0.8596000000000004,,,26.0,0.0040230000000000005,['Pass'],Pass,0.7300000000000005,-0.7300000000000005,0.0,0.0,0.6
539.0,14.0,wc_14,,0.0,,,,222.0,,,,Pass,,,,,
539.0,14.0,wc_14,wc_8,0.0,"[('wc_14', 0.4800000000000003), ('wc_12', 0.7300000000000005)]",0.8596000000000004,,,27.0,0.005899,['Pass'],Pass,0.7800000000000006,-0.38000000000000056,2.0,5.0,0.7
539.0,14.0,wc_14,,0.0,,,,301.0,,,,Pass,,,,,
539.0,14.0,wc_14,wc_4,1.0,"[('wc_4', 0.7200000000000005), ('wc_14', 0.4800000000000003), ('wc_12', 0.7300000000000005)]",0.9606880000000002,,,24.0,0.04505000000000001,['Pass'],Pass,0.7200000000000005,-0.7200000000000005,0.0,0.0,0.8
543.0,17.0,wc_17,,0.0,,,,222.0,,,,Fail,,,,,
543.0,17.0,wc_17,,0.0,,,60.0,,,,,Fail,,,,,
543.0,17.0,wc_17,,0.0,,,,0.0,,,,Fail,,,,,
543.0,17.0,wc_17,wc_17,0.0,"[('wc_17', 0.7800000000000006)]",0.7800000000000006,,,21.0,0.00197,['Fail'],Fail,0.7800000000000006,-0.35142857142857203,3.0,7.0,0.8
543.0,17.0,wc_17,,0.0,,,,203.0,,,,Fail,,,,,
543.0,17.0,wc_17,wc_7,0.0,"[('wc_7', 0.28000000000000014), ('wc_17', 0.7800000000000006)]",0.8416000000000005,,,31.0,0.003921,['Fail'],Fail,0.28000000000000014,-0.28000000000000014,0.0,8.0,0.2
543.0,17.0,wc_17,,0.0,,,,162.0,,,,Fail,,,,,
543.0,17.0,wc_17,wc_13,1.0,"[('wc_13', 0.6100000000000004), ('wc_17', 0.7800000000000006), ('wc_7', 0.28000000000000014)]",0.9382240000000003,,,36.0,0.043723000000000005,['Fail'],Fail,0.6100000000000004,-0.6100000000000004,0.0,0.0,0.6
550.0,17.0,wc_17,,0.0,,,,0.0,,,,Fail,,,,,
550.0,17.0,wc_17,,0.0,,,65.0,,,,,Fail,,,,,
550.0,17.0,wc_17,,0.0,,,,0.0,,,,Fail,,,,,
550.0,17.0,wc_17,wc_17,0.0,"[('wc_17', 0.7800000000000006)]",0.7800000000000006,,,26.0,0.00215,['Fail'],Fail,0.7800000000000006,-0.2800000000000006,4.0,8.0,0.8
550.0,17.0,wc_17,,0.0,,,,243.0,,,,Fail,,,,,
550.0,17.0,wc_17,wc_1,0.0,"[('wc_17', 0.7800000000000006)]",0.7800000000000006,,,30.0,0.004259,['Fail'],Fail,0.7500000000000006,-0.41666666666666724,1.0,3.0,0.4
550.0,17.0,wc_17,,0.0,,,,222.0,,,,Fail,,,,,
550.0,17.0,wc_17,wc_14,0.0,"[('wc_14', 0.4900000000000003), ('wc_17', 0.7800000000000006)]",0.8878000000000004,,,35.0,0.005967,['Fail'],Fail,0.4900000000000003,0.009999999999999676,1.0,2.0,0.4
550.0,17.0,wc_17,,0.0,,,,142.0,,,,Fail,,,,,
550.0,17.0,wc_17,wc_6,1.0,"[('wc_6', 0.5000000000000003), ('wc_17', 0.7800000000000006), ('wc_14', 0.4900000000000003)]",0.9439000000000002,,,24.0,0.056167999999999996,['Fail'],Fail,0.5000000000000003,-0.5000000000000003,0.0,0.0,0.3
559.0,17.0,wc_17,,0.0,,,,263.0,,,,Fail,,,,,
559.0,17.0,wc_17,,0.0,,,60.0,,,,,Fail,,,,,
559.0,17.0,wc_17,,0.0,,,,0.0,,,,Fail,,,,,
559.0,17.0,wc_17,wc_17,0.0,"[('wc_17', 0.7800000000000006)]",0.7800000000000006,,,40.0,0.002279,['Fail'],Fail,0.7800000000000006,-0.224444444444445,5.0,9.0,0.8
559.0,17.0,wc_17,,0.0,,,,342.0,,,,Fail,,,,,
559.0,17.0,wc_17,wc_10,0.0,"[('wc_10', 0.2600000000000001), ('wc_17', 0.7800000000000006)]",0.8372000000000004,,,39.0,0.00409,['Fail'],Fail,0.2600000000000001,-0.19333333333333347,0.0,0.0,0.1
559.0,17.0,wc_17,,0.0,,,,223.0,,,,Fail,,,,,
559.0,17.0,wc_17,wc_1,0.0,"[('wc_17', 0.7800000000000006), ('wc_10', 0.2600000000000001)]",0.8372000000000004,,,38.0,0.005934,['Fail'],Fail,0.7400000000000005,-0.49000000000000055,1.0,4.0,0.4
559.0,17.0,wc_17,,0.0,,,,182.0,,,,Fail,,,,,
559.0,17.0,wc_17,wc_12,1.0,"[('wc_12', 0.7400000000000005), ('wc_17', 0.7800000000000006), ('wc_10', 0.2600000000000001)]",0.9576720000000002,,,34.0,0.043741999999999996,['Fail'],Fail,0.7400000000000005,-0.24000000000000055,2.0,4.0,0.6
565.0,17.0,wc_17,,0.0,,,,0.0,,,,Pass,,,,,
565.0,17.0,wc_17,,0.0,,,62.0,,,,,Pass,,,,,
565.0,17.0,wc_17,,0.0,,,,0.0,,,,Pass,,,,,
565.0,17.0,wc_17,wc_17,0.0,"[('wc_17', 0.7800000000000006)]",0.7800000000000006,,,23.0,0.002275,['Pass'],Pass,0.7800000000000006,-0.7800000000000006,0.0,0.0,0.8
565.0,17.0,wc_17,,0.0,,,,21.0,,,,Pass,,,,,
565.0,17.0,wc_17,wc_12,0.0,"[('wc_12', 0.7400000000000005), ('wc_17', 0.7800000000000006)]",0.9428000000000003,,,40.0,0.004444,['Pass'],Pass,0.7400000000000005,-0.24000000000000055,2.0,4.0,0.6
565.0,17.0,wc_17,,0.0,,,,341.0,,,,Pass,,,,,
565.0,17.0,wc_17,wc_10,0.0,"[('wc_17', 0.7800000000000006), ('wc_12', 0.7400000000000005)]",0.9428000000000003,,,37.0,0.005986,['Pass'],Pass,0.27000000000000013,0.7299999999999999,1.0,1.0,0.1
565.0,17.0,wc_17,,0.0,,,,142.0,,,,Pass,,,,,
565.0,17.0,wc_17,wc_15,0.0,"[('wc_17', 0.7800000000000006), ('wc_12', 0.7400000000000005)]",0.9428000000000003,,,35.0,0.007770000000000001,['Pass'],Pass,0.28000000000000014,-0.28000000000000014,0.0,6.0,0.1
565.0,17.0,wc_17,,0.0,,,,402.0,,,,Pass,,,,,
565.0,17.0,wc_17,wc_11,1.0,"[('wc_11', 0.3200000000000002), ('wc_17', 0.7800000000000006), ('wc_12', 0.7400000000000005)]",0.9611040000000002,,,31.0,0.050020999999999996,['Pass'],Pass,0.3200000000000002,-0.12000000000000016,1.0,5.0,0.1
