mpecck/BCQC/bcqc_with_qdt/results/raw/input_11/independent_qc/training/20_workpiece/20200429_084445/wp_17_qc_majority_0.9.csv
production_index,step_idx,production_workcell,qc,consent,winner_qc_list,score,production_time,transport_time,inspection_time,network_time,qc_results,actual_quality,qc_score,score_error,in_winner_counter,in_qc_counter,qc_capability
64.0,1.0,wc_1,,0.0,,,55.0,,,,,Pass,,,,,
64.0,1.0,wc_1,,0.0,,,,0.0,,,,Pass,,,,,
64.0,1.0,wc_1,wc_1,0.0,"[('wc_1', 0.6800000000000005)]",0.6800000000000005,,,28.0,0.00255,['Pass'],Pass,0.6800000000000005,-0.6800000000000005,0.0,0.0,0.4
64.0,1.0,wc_1,,0.0,,,,182.0,,,,Pass,,,,,
64.0,1.0,wc_1,wc_12,0.0,"[('wc_12', 0.7700000000000006), ('wc_1', 0.6800000000000005)]",0.9264000000000003,,,24.0,0.00408,['Pass'],Pass,0.7700000000000006,-0.7700000000000006,0.0,8.0,0.6
64.0,1.0,wc_1,,0.0,,,,0.0,,,,Pass,,,,,
64.0,1.0,wc_1,wc_13,1.0,"[('wc_13', 0.5900000000000004), ('wc_1', 0.6800000000000005), ('wc_12', 0.7700000000000006)]",0.9698240000000001,,,29.0,0.042613,['Pass'],Pass,0.5900000000000004,-0.5900000000000004,0.0,0.0,0.6
72.0,3.0,wc_3,,0.0,,,,341.0,,,,Fail,,,,,
72.0,3.0,wc_3,,0.0,,,61.0,,,,,Fail,,,,,
72.0,3.0,wc_3,,0.0,,,,0.0,,,,Fail,,,,,
72.0,3.0,wc_3,wc_3,0.0,"[('wc_3', 0.8200000000000006)]",0.8200000000000006,,,23.0,0.002663,['Fail'],Fail,0.8200000000000006,-0.8200000000000006,0.0,1.0,0.7
72.0,3.0,wc_3,,0.0,,,,81.0,,,,Fail,,,,,
72.0,3.0,wc_3,wc_1,0.0,"[('wc_3', 0.8200000000000006)]",0.8200000000000006,,,28.0,0.004014,['Fail'],Fail,0.6900000000000005,0.3099999999999995,1.0,1.0,0.4
72.0,3.0,wc_3,,0.0,,,,0.0,,,,Fail,,,,,
72.0,3.0,wc_3,wc_2,0.0,"[('wc_2', 0.7900000000000006), ('wc_3', 0.8200000000000006)]",0.9622000000000003,,,36.0,0.005652,['Fail'],Fail,0.7900000000000006,-0.7900000000000006,0.0,3.0,0.9
72.0,3.0,wc_3,,0.0,,,,203.0,,,,Fail,,,,,
72.0,3.0,wc_3,wc_10,0.0,"[('wc_3', 0.8200000000000006), ('wc_2', 0.7900000000000006)]",0.9622000000000003,,,25.0,0.00885,['Fail'],Fail,0.28000000000000014,-0.28000000000000014,0.0,2.0,0.1
72.0,3.0,wc_3,,0.0,,,,362.0,,,,Fail,,,,,
72.0,3.0,wc_3,wc_4,1.0,"[('wc_4', 0.7700000000000006), ('wc_3', 0.8200000000000006), ('wc_2', 0.7900000000000006)]",0.991306,,,25.0,0.04368899999999999,['Fail'],Fail,0.7700000000000006,-0.43666666666666726,2.0,6.0,0.8
85.0,4.0,wc_4,,0.0,,,,0.0,,,,Pass,,,,,
85.0,4.0,wc_4,,0.0,,,60.0,,,,,Pass,,,,,
85.0,4.0,wc_4,,0.0,,,,0.0,,,,Pass,,,,,
85.0,4.0,wc_4,wc_4,0.0,"[('wc_4', 0.7700000000000006)]",0.7700000000000006,,,36.0,0.002234,['Fail'],Pass,0.7700000000000006,-0.43666666666666726,2.0,6.0,0.8
85.0,4.0,wc_4,,0.0,,,,222.0,,,,Pass,,,,,
85.0,4.0,wc_4,wc_17,0.0,"[('wc_17', 0.8700000000000007), ('wc_4', 0.7700000000000006)]",0.9701000000000002,,,22.0,0.004876,['Fail'],Pass,0.8700000000000007,-0.12000000000000066,6.0,8.0,0.8
85.0,4.0,wc_4,,0.0,,,,402.0,,,,Pass,,,,,
85.0,4.0,wc_4,wc_5,0.0,"[('wc_4', 0.7700000000000006), ('wc_17', 0.8700000000000007)]",0.9701000000000002,,,34.0,0.007254,['Fail'],Pass,0.6400000000000005,-0.5400000000000005,0.0,0.0,0.7
85.0,4.0,wc_4,,0.0,,,,101.0,,,,Pass,,,,,
85.0,4.0,wc_4,wc_12,0.0,"[('wc_4', 0.7700000000000006), ('wc_17', 0.8700000000000007)]",0.9701000000000002,,,38.0,0.0086,['Fail'],Pass,0.7700000000000006,-0.6700000000000006,0.0,0.0,0.6
85.0,4.0,wc_4,,0.0,,,,242.0,,,,Pass,,,,,
85.0,4.0,wc_4,wc_1,1.0,"[('wc_1', 0.6800000000000005), ('wc_5', 0.6400000000000005), ('wc_12', 0.7700000000000006)]",0.9735040000000001,,,24.0,0.04005000000000001,['Pass'],Pass,0.6800000000000005,-0.013333333333333863,2.0,3.0,0.4
98.0,2.0,wc_2,,0.0,,,,0.0,,,,Pass,,,,,
98.0,2.0,wc_2,,0.0,,,78.0,,,,,Pass,,,,,
98.0,2.0,wc_2,,0.0,,,,0.0,,,,Pass,,,,,
98.0,2.0,wc_2,wc_2,0.0,"[('wc_2', 0.7900000000000006)]",0.7900000000000006,,,26.0,0.002098,['Pass'],Pass,0.7900000000000006,-0.5900000000000005,1.0,5.0,0.9
98.0,2.0,wc_2,,0.0,,,,223.0,,,,Pass,,,,,
98.0,2.0,wc_2,wc_15,0.0,"[('wc_15', 0.3500000000000002), ('wc_2', 0.7900000000000006)]",0.8635000000000004,,,38.0,0.004307999999999999,['Pass'],Pass,0.3500000000000002,-0.19615384615384635,0.0,0.0,0.1
98.0,2.0,wc_2,,0.0,,,,81.0,,,,Pass,,,,,
98.0,2.0,wc_2,wc_13,1.0,"[('wc_13', 0.5900000000000004), ('wc_2', 0.7900000000000006), ('wc_15', 0.3500000000000002)]",0.9440350000000002,,,26.0,0.042249999999999996,['Pass'],Pass,0.5900000000000004,-0.2566666666666671,1.0,3.0,0.6
123.0,3.0,wc_3,,0.0,,,,341.0,,,,Fail,,,,,
123.0,3.0,wc_3,,0.0,,,74.0,,,,,Fail,,,,,
123.0,3.0,wc_3,,0.0,,,,0.0,,,,Fail,,,,,
123.0,3.0,wc_3,wc_3,0.0,"[('wc_3', 0.8200000000000006)]",0.8200000000000006,,,30.0,0.002201,['Pass'],Fail,0.8200000000000006,-0.5700000000000006,1.0,4.0,0.7
123.0,3.0,wc_3,,0.0,,,,0.0,,,,Fail,,,,,
123.0,3.0,wc_3,wc_5,0.0,"[('wc_3', 0.8200000000000006)]",0.8200000000000006,,,26.0,0.004221,['Pass'],Fail,0.6500000000000005,-0.15000000000000047,1.0,2.0,0.7
123.0,3.0,wc_3,,0.0,,,,81.0,,,,Fail,,,,,
123.0,3.0,wc_3,wc_7,0.0,"[('wc_3', 0.8200000000000006)]",0.8200000000000006,,,37.0,0.010042,['Pass'],Fail,0.3400000000000002,-0.2775000000000002,0.0,0.0,0.2
123.0,3.0,wc_3,,0.0,,,,0.0,,,,Fail,,,,,
123.0,3.0,wc_3,wc_11,0.0,"[('wc_11', 0.27000000000000013), ('wc_5', 0.6500000000000005), ('wc_7', 0.3400000000000002)]",0.8313700000000003,,,22.0,0.008841,['Fail'],Fail,0.27000000000000013,-0.27000000000000013,0.0,5.0,0.1
123.0,3.0,wc_3,,0.0,,,,342.0,,,,Fail,,,,,
123.0,3.0,wc_3,wc_4,1.0,"[('wc_4', 0.7600000000000006), ('wc_5', 0.6500000000000005), ('wc_7', 0.3400000000000002), ('wc_11', 0.27000000000000013)]",0.9595288000000002,,,26.0,0.047569,['Fail'],Fail,0.7600000000000006,-0.42666666666666725,3.0,9.0,0.8
178.0,3.0,wc_3,,0.0,,,,103.0,,,,Fail,,,,,
178.0,3.0,wc_3,,0.0,,,80.0,,,,,Fail,,,,,
178.0,3.0,wc_3,,0.0,,,,0.0,,,,Fail,,,,,
178.0,3.0,wc_3,wc_3,0.0,"[('wc_3', 0.8100000000000006)]",0.8100000000000006,,,23.0,0.002352,['Pass'],Fail,0.8100000000000006,-0.6100000000000005,1.0,5.0,0.7
178.0,3.0,wc_3,,0.0,,,,121.0,,,,Fail,,,,,
178.0,3.0,wc_3,wc_7,0.0,"[('wc_7', 0.3500000000000002), ('wc_3', 0.8100000000000006)]",0.8765000000000004,,,26.0,0.004971,['Pass'],Fail,0.3500000000000002,0.6499999999999998,1.0,1.0,0.2
178.0,3.0,wc_3,,0.0,,,,0.0,,,,Fail,,,,,
178.0,3.0,wc_3,wc_8,0.0,"[('wc_3', 0.8100000000000006), ('wc_7', 0.3500000000000002)]",0.8765000000000004,,,40.0,0.006755,['Pass'],Fail,0.8400000000000006,-0.6581818181818189,0.0,0.0,0.7
178.0,3.0,wc_3,,0.0,,,,0.0,,,,Fail,,,,,
178.0,3.0,wc_3,wc_10,1.0,"[('wc_10', 0.27000000000000013), ('wc_3', 0.8100000000000006), ('wc_7', 0.3500000000000002)]",0.9098450000000003,,,40.0,0.048676000000000004,['Pass'],Fail,0.27000000000000013,-0.12714285714285728,1.0,7.0,0.1
226.0,3.0,wc_3,,0.0,,,,342.0,,,,Fail,,,,,
226.0,3.0,wc_3,,0.0,,,51.0,,,,,Fail,,,,,
226.0,3.0,wc_3,,0.0,,,,0.0,,,,Fail,,,,,
226.0,3.0,wc_3,wc_3,0.0,"[('wc_3', 0.8100000000000006)]",0.8100000000000006,,,21.0,0.002427,['Fail'],Fail,0.8100000000000006,-0.4766666666666673,2.0,6.0,0.7
226.0,3.0,wc_3,,0.0,,,,101.0,,,,Fail,,,,,
226.0,3.0,wc_3,wc_2,0.0,"[('wc_2', 0.7900000000000006), ('wc_3', 0.8100000000000006)]",0.9601000000000003,,,22.0,0.004997,['Fail'],Fail,0.7900000000000006,-0.5400000000000006,2.0,8.0,0.9
226.0,3.0,wc_3,,0.0,,,,102.0,,,,Fail,,,,,
226.0,3.0,wc_3,wc_1,0.0,"[('wc_3', 0.8100000000000006), ('wc_2', 0.7900000000000006)]",0.9601000000000003,,,34.0,0.005594,['Fail'],Fail,0.6800000000000005,-0.3466666666666672,2.0,6.0,0.4
226.0,3.0,wc_3,,0.0,,,,142.0,,,,Fail,,,,,
226.0,3.0,wc_3,wc_6,0.0,"[('wc_3', 0.8100000000000006), ('wc_2', 0.7900000000000006)]",0.9601000000000003,,,27.0,0.007207,['Fail'],Fail,0.4900000000000003,-0.4900000000000003,0.0,0.0,0.3
226.0,3.0,wc_3,,0.0,,,,162.0,,,,Fail,,,,,
226.0,3.0,wc_3,wc_12,1.0,"[('wc_12', 0.7800000000000006), ('wc_3', 0.8100000000000006), ('wc_2', 0.7900000000000006)]",0.991222,,,36.0,0.041809,['Fail'],Fail,0.7800000000000006,-0.38000000000000056,2.0,5.0,0.6
267.0,3.0,wc_3,,0.0,,,,361.0,,,,Fail,,,,,
267.0,3.0,wc_3,,0.0,,,75.0,,,,,Fail,,,,,
267.0,3.0,wc_3,,0.0,,,,0.0,,,,Fail,,,,,
267.0,3.0,wc_3,wc_3,0.0,"[('wc_3', 0.8100000000000006)]",0.8100000000000006,,,21.0,0.003057,['Fail'],Fail,0.8100000000000006,-0.38142857142857206,3.0,7.0,0.7
267.0,3.0,wc_3,,0.0,,,,161.0,,,,Fail,,,,,
267.0,3.0,wc_3,wc_13,0.0,"[('wc_13', 0.5900000000000004), ('wc_3', 0.8100000000000006)]",0.9221000000000004,,,34.0,0.004046,['Fail'],Fail,0.5900000000000004,-0.4233333333333338,1.0,6.0,0.6
267.0,3.0,wc_3,,0.0,,,,222.0,,,,Fail,,,,,
267.0,3.0,wc_3,wc_1,1.0,"[('wc_1', 0.6700000000000005), ('wc_3', 0.8100000000000006), ('wc_13', 0.5900000000000004)]",0.9742930000000002,,,22.0,0.050936999999999996,['Fail'],Fail,0.6700000000000005,-0.2950000000000005,3.0,8.0,0.4
324.0,3.0,wc_3,,0.0,,,,0.0,,,,Pass,,,,,
324.0,3.0,wc_3,,0.0,,,74.0,,,,,Pass,,,,,
324.0,3.0,wc_3,,0.0,,,,0.0,,,,Pass,,,,,
324.0,3.0,wc_3,wc_3,0.0,"[('wc_3', 0.8100000000000006)]",0.8100000000000006,,,40.0,0.002037,['Pass'],Pass,0.8100000000000006,-0.3100000000000006,4.0,8.0,0.7
324.0,3.0,wc_3,,0.0,,,,181.0,,,,Pass,,,,,
324.0,3.0,wc_3,wc_14,0.0,"[('wc_3', 0.8100000000000006)]",0.8100000000000006,,,36.0,0.003957,['Pass'],Pass,0.42000000000000026,-0.42000000000000026,0.0,0.0,0.4
324.0,3.0,wc_3,,0.0,,,,0.0,,,,Pass,,,,,
324.0,3.0,wc_3,wc_15,0.0,"[('wc_15', 0.3600000000000002), ('wc_3', 0.8100000000000006)]",0.8784000000000004,,,30.0,0.007691999999999999,['Pass'],Pass,0.3600000000000002,-0.1600000000000002,1.0,5.0,0.1
324.0,3.0,wc_3,,0.0,,,,303.0,,,,Pass,,,,,
324.0,3.0,wc_3,wc_2,1.0,"[('wc_2', 0.7900000000000006), ('wc_3', 0.8100000000000006), ('wc_15', 0.3600000000000002)]",0.9744640000000001,,,23.0,0.038495,['Pass'],Pass,0.7900000000000006,-0.7900000000000006,0.0,0.0,0.9
333.0,5.0,wc_5,,0.0,,,,0.0,,,,Pass,,,,,
333.0,5.0,wc_5,,0.0,,,51.0,,,,,Pass,,,,,
333.0,5.0,wc_5,,0.0,,,,0.0,,,,Pass,,,,,
333.0,5.0,wc_5,wc_5,0.0,"[('wc_5', 0.6600000000000005)]",0.6600000000000005,,,28.0,0.00239,['Pass'],Pass,0.6600000000000005,-0.3742857142857148,2.0,7.0,0.7
333.0,5.0,wc_5,,0.0,,,,41.0,,,,Pass,,,,,
333.0,5.0,wc_5,wc_1,0.0,"[('wc_1', 0.6700000000000005)]",0.6700000000000005,,,37.0,0.005208,['Fail'],Pass,0.6700000000000005,-0.33666666666666717,3.0,9.0,0.4
333.0,5.0,wc_5,,0.0,,,,182.0,,,,Pass,,,,,
333.0,5.0,wc_5,wc_8,0.0,"[('wc_8', 0.8300000000000006), ('wc_5', 0.6600000000000005)]",0.9422000000000003,,,32.0,0.0077020000000000005,['Pass'],Pass,0.8300000000000006,-0.8300000000000006,0.0,4.0,0.7
333.0,5.0,wc_5,,0.0,,,,82.0,,,,Pass,,,,,
333.0,5.0,wc_5,wc_6,0.0,"[('wc_5', 0.6600000000000005), ('wc_8', 0.8300000000000006)]",0.9422000000000003,,,39.0,0.008315,['Pass'],Pass,0.4800000000000003,-0.4800000000000003,0.0,3.0,0.3
333.0,5.0,wc_5,,0.0,,,,321.0,,,,Pass,,,,,
333.0,5.0,wc_5,wc_3,1.0,"[('wc_3', 0.8100000000000006), ('wc_1', 0.6700000000000005), ('wc_6', 0.4800000000000003)]",0.9673960000000001,,,22.0,0.04403,['Fail'],Pass,0.8100000000000006,-0.8100000000000006,0.0,0.0,0.7
373.0,6.0,wc_6,,0.0,,,,101.0,,,,Fail,,,,,
373.0,6.0,wc_6,,0.0,,,59.0,,,,,Fail,,,,,
373.0,6.0,wc_6,,0.0,,,,0.0,,,,Fail,,,,,
373.0,6.0,wc_6,wc_6,0.0,"[('wc_6', 0.4800000000000003)]",0.4800000000000003,,,23.0,0.00199,['Fail'],Fail,0.4800000000000003,-0.23000000000000032,1.0,4.0,0.3
373.0,6.0,wc_6,,0.0,,,,202.0,,,,Fail,,,,,
373.0,6.0,wc_6,wc_14,0.0,"[('wc_14', 0.41000000000000025), ('wc_6', 0.4800000000000003)]",0.6932000000000003,,,26.0,0.006108,['Fail'],Fail,0.41000000000000025,-0.41000000000000025,0.0,2.0,0.4
373.0,6.0,wc_6,,0.0,,,,202.0,,,,Fail,,,,,
373.0,6.0,wc_6,wc_1,0.0,"[('wc_6', 0.4800000000000003), ('wc_14', 0.41000000000000025)]",0.6932000000000003,,,31.0,0.007025999999999999,['Fail'],Fail,0.6700000000000005,-0.6700000000000005,0.0,0.0,0.4
373.0,6.0,wc_6,,0.0,,,,263.0,,,,Fail,,,,,
373.0,6.0,wc_6,wc_16,0.0,"[('wc_16', 0.42000000000000026), ('wc_1', 0.6700000000000005)]",0.8086000000000004,,,35.0,0.014395000000000002,['Pass'],Fail,0.42000000000000026,-0.192727272727273,0.0,0.0,0.3
373.0,6.0,wc_6,,0.0,,,,382.0,,,,Fail,,,,,
373.0,6.0,wc_6,wc_3,1.0,"[('wc_3', 0.8100000000000006), ('wc_6', 0.4800000000000003), ('wc_14', 0.41000000000000025)]",0.9417080000000002,,,24.0,0.041258,['Fail'],Fail,0.8200000000000006,0.17999999999999938,1.0,1.0,0.7
406.0,6.0,wc_6,,0.0,,,,101.0,,,,Fail,,,,,
406.0,6.0,wc_6,,0.0,,,69.0,,,,,Fail,,,,,
406.0,6.0,wc_6,,0.0,,,,0.0,,,,Fail,,,,,
406.0,6.0,wc_6,wc_6,0.0,"[('wc_6', 0.4800000000000003)]",0.4800000000000003,,,21.0,0.002111,['Pass'],Fail,0.4800000000000003,-0.0800000000000003,2.0,5.0,0.3
406.0,6.0,wc_6,,0.0,,,,223.0,,,,Fail,,,,,
406.0,6.0,wc_6,wc_15,0.0,"[('wc_6', 0.4800000000000003)]",0.4800000000000003,,,33.0,0.004082,['Pass'],Fail,0.3600000000000002,-0.11000000000000021,2.0,8.0,0.1
406.0,6.0,wc_6,,0.0,,,,0.0,,,,Fail,,,,,
406.0,6.0,wc_6,wc_16,0.0,"[('wc_16', 0.41000000000000025), ('wc_6', 0.4800000000000003)]",0.6932000000000003,,,40.0,0.009407,['Pass'],Fail,0.41000000000000025,-0.41000000000000025,0.0,1.0,0.3
406.0,6.0,wc_6,,0.0,,,,362.0,,,,Fail,,,,,
406.0,6.0,wc_6,wc_10,0.0,"[('wc_10', 0.27000000000000013), ('wc_6', 0.4800000000000003), ('wc_16', 0.41000000000000025)]",0.7760360000000003,,,40.0,0.010354,['Pass'],Fail,0.27000000000000013,-0.18666666666666681,0.0,0.0,0.1
406.0,6.0,wc_6,,0.0,,,,243.0,,,,Fail,,,,,
406.0,6.0,wc_6,wc_2,0.0,"[('wc_2', 0.7900000000000006), ('wc_15', 0.3600000000000002)]",0.8656000000000004,,,38.0,0.013309000000000001,['Fail'],Fail,0.7900000000000006,-0.7900000000000006,0.0,2.0,0.9
406.0,6.0,wc_6,,0.0,,,,183.0,,,,Fail,,,,,
406.0,6.0,wc_6,wc_9,1.0,"[('wc_9', 0.2600000000000001), ('wc_15', 0.3600000000000002), ('wc_2', 0.7900000000000006)]",0.9005440000000003,,,40.0,0.04730000000000001,['Fail'],Fail,0.2600000000000001,-0.2600000000000001,0.0,0.0,0.1
440.0,6.0,wc_6,,0.0,,,,61.0,,,,Fail,,,,,
440.0,6.0,wc_6,,0.0,,,77.0,,,,,Fail,,,,,
440.0,6.0,wc_6,,0.0,,,,0.0,,,,Fail,,,,,
440.0,6.0,wc_6,wc_6,0.0,"[('wc_6', 0.4700000000000003)]",0.4700000000000003,,,29.0,0.002039,['Fail'],Fail,0.4700000000000003,-0.136666666666667,2.0,6.0,0.3
440.0,6.0,wc_6,,0.0,,,,361.0,,,,Fail,,,,,
440.0,6.0,wc_6,wc_5,0.0,"[('wc_5', 0.6500000000000005), ('wc_6', 0.4700000000000003)]",0.8145000000000003,,,27.0,0.0037739999999999996,['Fail'],Fail,0.6500000000000005,-0.45000000000000046,0.0,0.0,0.7
440.0,6.0,wc_6,,0.0,,,,141.0,,,,Fail,,,,,
440.0,6.0,wc_6,wc_14,0.0,"[('wc_14', 0.41000000000000025), ('wc_6', 0.4700000000000003), ('wc_5', 0.6500000000000005)]",0.8905550000000002,,,21.0,0.006156,['Fail'],Fail,0.41000000000000025,-0.16000000000000025,1.0,4.0,0.4
440.0,6.0,wc_6,,0.0,,,,0.0,,,,Fail,,,,,
440.0,6.0,wc_6,wc_16,0.0,"[('wc_6', 0.4700000000000003), ('wc_5', 0.6500000000000005), ('wc_14', 0.41000000000000025)]",0.8905550000000002,,,30.0,0.014169999999999999,['Fail'],Fail,0.40000000000000024,-0.40000000000000024,0.0,2.0,0.3
440.0,6.0,wc_6,,0.0,,,,283.0,,,,Fail,,,,,
440.0,6.0,wc_6,wc_2,1.0,"[('wc_2', 0.7900000000000006), ('wc_6', 0.4700000000000003), ('wc_5', 0.6500000000000005), ('wc_14', 0.41000000000000025)]",0.9770165500000001,,,25.0,0.042806,['Fail'],Fail,0.7900000000000006,-0.2900000000000006,2.0,4.0,0.9
466.0,6.0,wc_6,,0.0,,,,122.0,,,,Fail,,,,,
466.0,6.0,wc_6,,0.0,,,54.0,,,,,Fail,,,,,
466.0,6.0,wc_6,,0.0,,,,0.0,,,,Fail,,,,,
466.0,6.0,wc_6,wc_6,0.0,"[('wc_6', 0.4700000000000003)]",0.4700000000000003,,,33.0,0.002368,['Pass'],Fail,0.4700000000000003,-0.04142857142857176,3.0,7.0,0.3
466.0,6.0,wc_6,,0.0,,,,0.0,,,,Fail,,,,,
466.0,6.0,wc_6,wc_7,0.0,"[('wc_7', 0.3600000000000002), ('wc_6', 0.4700000000000003)]",0.6608000000000003,,,37.0,0.004056,['Pass'],Fail,0.3600000000000002,-0.137777777777778,2.0,9.0,0.2
466.0,6.0,wc_6,,0.0,,,,243.0,,,,Fail,,,,,
466.0,6.0,wc_6,wc_17,0.0,"[('wc_17', 0.8600000000000007)]",0.8600000000000007,,,25.0,0.01698,['Fail'],Fail,0.8600000000000007,-0.5442105263157901,0.0,0.0,0.8
466.0,6.0,wc_6,,0.0,,,,41.0,,,,Fail,,,,,
466.0,6.0,wc_6,wc_13,0.0,"[('wc_13', 0.5900000000000004), ('wc_6', 0.4700000000000003), ('wc_7', 0.3600000000000002)]",0.8609280000000002,,,29.0,0.008463,['Pass'],Fail,0.5900000000000004,-0.4233333333333338,0.0,0.0,0.6
466.0,6.0,wc_6,,0.0,,,,0.0,,,,Fail,,,,,
466.0,6.0,wc_6,wc_15,0.0,"[('wc_15', 0.3600000000000002), ('wc_17', 0.8600000000000007)]",0.9104000000000004,,,38.0,0.019163,['Fail'],Fail,0.3600000000000002,-0.06000000000000022,0.0,0.0,0.1
466.0,6.0,wc_6,,0.0,,,,382.0,,,,Fail,,,,,
466.0,6.0,wc_6,wc_10,0.0,"[('wc_17', 0.8600000000000007), ('wc_15', 0.3600000000000002)]",0.9104000000000004,,,25.0,0.011817,['Fail'],Fail,0.2600000000000001,-0.2600000000000001,0.0,2.0,0.1
466.0,6.0,wc_6,,0.0,,,,103.0,,,,Fail,,,,,
466.0,6.0,wc_6,wc_9,1.0,"[('wc_9', 0.2600000000000001), ('wc_6', 0.4700000000000003), ('wc_7', 0.3600000000000002), ('wc_13', 0.5900000000000004), ('wc_10', 0.2600000000000001)]",0.9238441728000002,,,27.0,0.049516000000000004,['Pass'],Fail,0.27000000000000013,0.22999999999999987,1.0,2.0,0.1
490.0,6.0,wc_6,,0.0,,,,61.0,,,,Pass,,,,,
490.0,6.0,wc_6,,0.0,,,76.0,,,,,Pass,,,,,
490.0,6.0,wc_6,,0.0,,,,0.0,,,,Pass,,,,,
490.0,6.0,wc_6,wc_6,0.0,"[('wc_6', 0.4800000000000003)]",0.4800000000000003,,,39.0,0.002239,['Pass'],Pass,0.4800000000000003,0.019999999999999685,4.0,8.0,0.3
490.0,6.0,wc_6,,0.0,,,,0.0,,,,Pass,,,,,
490.0,6.0,wc_6,wc_11,0.0,"[('wc_11', 0.27000000000000013), ('wc_6', 0.4800000000000003)]",0.6204000000000003,,,23.0,0.004066,['Pass'],Pass,0.27000000000000013,-0.20333333333333348,0.0,0.0,0.1
490.0,6.0,wc_6,,0.0,,,,122.0,,,,Pass,,,,,
490.0,6.0,wc_6,wc_15,0.0,"[('wc_6', 0.4800000000000003), ('wc_11', 0.27000000000000013)]",0.6204000000000003,,,30.0,0.006442999999999999,['Pass'],Pass,0.3500000000000002,-0.3500000000000002,0.0,1.0,0.1
490.0,6.0,wc_6,,0.0,,,,81.0,,,,Pass,,,,,
490.0,6.0,wc_6,wc_13,0.0,"[('wc_13', 0.6000000000000004), ('wc_6', 0.4800000000000003), ('wc_11', 0.27000000000000013)]",0.8481600000000002,,,34.0,0.007539,['Pass'],Pass,0.6000000000000004,0.3999999999999996,1.0,1.0,0.6
490.0,6.0,wc_6,,0.0,,,,202.0,,,,Pass,,,,,
490.0,6.0,wc_6,wc_8,1.0,"[('wc_8', 0.8200000000000006), ('wc_6', 0.4800000000000003), ('wc_11', 0.27000000000000013), ('wc_13', 0.6000000000000004)]",0.9726688000000001,,,33.0,0.043512,['Pass'],Pass,0.8200000000000006,-0.8200000000000006,0.0,0.0,0.7
498.0,9.0,wc_9,,0.0,,,,0.0,,,,Fail,,,,,
498.0,9.0,wc_9,,0.0,,,58.0,,,,,Fail,,,,,
498.0,9.0,wc_9,,0.0,,,,0.0,,,,Fail,,,,,
498.0,9.0,wc_9,wc_9,0.0,"[('wc_9', 0.27000000000000013)]",0.27000000000000013,,,26.0,0.001993,['Pass'],Fail,0.27000000000000013,0.06333333333333319,1.0,3.0,0.1
498.0,9.0,wc_9,,0.0,,,,101.0,,,,Fail,,,,,
498.0,9.0,wc_9,wc_12,0.0,"[('wc_12', 0.7800000000000006)]",0.7800000000000006,,,28.0,0.004137,['Fail'],Fail,0.7800000000000006,-0.6261538461538467,0.0,0.0,0.6
498.0,9.0,wc_9,,0.0,,,,202.0,,,,Fail,,,,,
498.0,9.0,wc_9,wc_7,0.0,"[('wc_12', 0.7800000000000006)]",0.7800000000000006,,,21.0,0.005808000000000001,['Fail'],Fail,0.3600000000000002,-0.3600000000000002,0.0,1.0,0.2
498.0,9.0,wc_9,,0.0,,,,203.0,,,,Fail,,,,,
498.0,9.0,wc_9,wc_15,0.0,"[('wc_15', 0.3400000000000002), ('wc_12', 0.7800000000000006)]",0.8548000000000004,,,20.0,0.011434999999999999,['Fail'],Fail,0.3400000000000002,-0.3400000000000002,0.0,2.0,0.1
498.0,9.0,wc_9,,0.0,,,,0.0,,,,Fail,,,,,
498.0,9.0,wc_9,wc_17,1.0,"[('wc_17', 0.8500000000000006), ('wc_12', 0.7800000000000006), ('wc_15', 0.3400000000000002)]",0.9782200000000002,,,37.0,0.051472000000000004,['Fail'],Fail,0.8500000000000006,-0.5166666666666673,1.0,3.0,0.8
508.0,7.0,wc_7,,0.0,,,,203.0,,,,Pass,,,,,
508.0,7.0,wc_7,,0.0,,,77.0,,,,,Pass,,,,,
508.0,7.0,wc_7,,0.0,,,,0.0,,,,Pass,,,,,
508.0,7.0,wc_7,wc_7,0.0,"[('wc_7', 0.3500000000000002)]",0.3500000000000002,,,23.0,0.002015,['Pass'],Pass,0.3500000000000002,-0.3500000000000002,0.0,2.0,0.2
508.0,7.0,wc_7,,0.0,,,,0.0,,,,Pass,,,,,
508.0,7.0,wc_7,wc_8,0.0,"[('wc_8', 0.8200000000000006)]",0.8200000000000006,,,26.0,0.00581,['Fail'],Pass,0.8200000000000006,-0.8200000000000006,0.0,1.0,0.7
508.0,7.0,wc_7,,0.0,,,,182.0,,,,Pass,,,,,
508.0,7.0,wc_7,wc_2,0.0,"[('wc_2', 0.7900000000000006), ('wc_7', 0.3500000000000002)]",0.8635000000000004,,,21.0,0.005854,['Pass'],Pass,0.7900000000000006,-0.5042857142857149,2.0,7.0,0.9
508.0,7.0,wc_7,,0.0,,,,0.0,,,,Pass,,,,,
508.0,7.0,wc_7,wc_5,1.0,"[('wc_5', 0.6600000000000005), ('wc_7', 0.3500000000000002), ('wc_2', 0.7900000000000006)]",0.9535900000000002,,,29.0,0.040332,['Pass'],Pass,0.6600000000000005,-0.26000000000000045,2.0,5.0,0.7
517.0,8.0,wc_8,,0.0,,,,101.0,,,,Pass,,,,,
517.0,8.0,wc_8,,0.0,,,77.0,,,,,Pass,,,,,
517.0,8.0,wc_8,,0.0,,,,0.0,,,,Pass,,,,,
517.0,8.0,wc_8,wc_8,0.0,"[('wc_8', 0.8100000000000006)]",0.8100000000000006,,,28.0,0.002208,['Pass'],Pass,0.8100000000000006,-0.8100000000000006,0.0,2.0,0.7
517.0,8.0,wc_8,,0.0,,,,183.0,,,,Pass,,,,,
517.0,8.0,wc_8,wc_15,0.0,"[('wc_8', 0.8100000000000006)]",0.8100000000000006,,,24.0,0.004439,['Pass'],Pass,0.3400000000000002,-0.09000000000000019,1.0,4.0,0.1
517.0,8.0,wc_8,,0.0,,,,283.0,,,,Pass,,,,,
517.0,8.0,wc_8,wc_1,0.0,"[('wc_1', 0.6600000000000005), ('wc_8', 0.8100000000000006)]",0.9354000000000003,,,29.0,0.007305000000000001,['Pass'],Pass,0.6600000000000005,-0.6600000000000005,0.0,7.0,0.4
517.0,8.0,wc_8,,0.0,,,,222.0,,,,Pass,,,,,
517.0,8.0,wc_8,wc_14,1.0,"[('wc_14', 0.41000000000000025), ('wc_8', 0.8100000000000006), ('wc_1', 0.6600000000000005)]",0.9618860000000002,,,30.0,0.050251000000000004,['Pass'],Pass,0.41000000000000025,-0.41000000000000025,0.0,0.0,0.4
524.0,10.0,wc_10,,0.0,,,,301.0,,,,Fail,,,,,
524.0,10.0,wc_10,,0.0,,,63.0,,,,,Fail,,,,,
524.0,10.0,wc_10,,0.0,,,,0.0,,,,Fail,,,,,
524.0,10.0,wc_10,wc_10,0.0,"[('wc_10', 0.27000000000000013)]",0.27000000000000013,,,23.0,0.002099,['Pass'],Fail,0.27000000000000013,-0.12714285714285728,1.0,7.0,0.1
524.0,10.0,wc_10,,0.0,,,,61.0,,,,Fail,,,,,
524.0,10.0,wc_10,wc_7,0.0,"[('wc_7', 0.3500000000000002), ('wc_10', 0.27000000000000013)]",0.5255000000000003,,,22.0,0.004087,['Pass'],Fail,0.3500000000000002,-0.1000000000000002,1.0,4.0,0.2
524.0,10.0,wc_10,,0.0,,,,102.0,,,,Fail,,,,,
524.0,10.0,wc_10,wc_6,0.0,"[('wc_6', 0.4900000000000003), ('wc_10', 0.27000000000000013), ('wc_7', 0.3500000000000002)]",0.7580050000000003,,,38.0,0.006731000000000001,['Pass'],Fail,0.4900000000000003,-0.07333333333333364,0.0,0.0,0.3
524.0,10.0,wc_10,,0.0,,,,321.0,,,,Fail,,,,,
524.0,10.0,wc_10,wc_3,0.0,"[('wc_3', 0.8200000000000006)]",0.8200000000000006,,,28.0,0.008688999999999999,['Fail'],Fail,0.8200000000000006,-0.6950000000000006,1.0,8.0,0.7
524.0,10.0,wc_10,,0.0,,,,162.0,,,,Fail,,,,,
524.0,10.0,wc_10,wc_9,0.0,"[('wc_9', 0.2600000000000001), ('wc_3', 0.8200000000000006)]",0.8668000000000005,,,23.0,0.009742,['Fail'],Fail,0.2600000000000001,-0.09333333333333346,1.0,6.0,0.1
524.0,10.0,wc_10,,0.0,,,,101.0,,,,Fail,,,,,
524.0,10.0,wc_10,wc_12,1.0,"[('wc_12', 0.7900000000000006), ('wc_3', 0.8200000000000006), ('wc_9', 0.2600000000000001)]",0.9720280000000002,,,33.0,0.04616800000000001,['Fail'],Fail,0.7900000000000006,-0.2900000000000006,2.0,4.0,0.6
531.0,10.0,wc_10,,0.0,,,,341.0,,,,Fail,,,,,
531.0,10.0,wc_10,,0.0,,,74.0,,,,,Fail,,,,,
531.0,10.0,wc_10,,0.0,,,,0.0,,,,Fail,,,,,
531.0,10.0,wc_10,wc_10,0.0,"[('wc_10', 0.2600000000000001)]",0.2600000000000001,,,31.0,0.003364,['Fail'],Fail,0.2600000000000001,-0.13500000000000012,1.0,8.0,0.1
531.0,10.0,wc_10,,0.0,,,,81.0,,,,Fail,,,,,
531.0,10.0,wc_10,wc_8,0.0,"[('wc_8', 0.8100000000000006)]",0.8100000000000006,,,34.0,0.006618000000000001,['Pass'],Fail,0.8100000000000006,-0.5600000000000006,1.0,4.0,0.7
531.0,10.0,wc_10,,0.0,,,,0.0,,,,Fail,,,,,
531.0,10.0,wc_10,wc_11,0.0,"[('wc_11', 0.28000000000000014), ('wc_8', 0.8100000000000006)]",0.8632000000000004,,,25.0,0.005778,['Pass'],Fail,0.28000000000000014,-0.08000000000000013,1.0,5.0,0.1
531.0,10.0,wc_10,,0.0,,,,101.0,,,,Fail,,,,,
531.0,10.0,wc_10,wc_14,0.0,"[('wc_8', 0.8100000000000006), ('wc_11', 0.28000000000000014)]",0.8632000000000004,,,20.0,0.011499,['Pass'],Fail,0.41000000000000025,-0.41000000000000025,0.0,1.0,0.4
531.0,10.0,wc_10,,0.0,,,,361.0,,,,Fail,,,,,
531.0,10.0,wc_10,wc_5,0.0,"[('wc_8', 0.8100000000000006), ('wc_11', 0.28000000000000014)]",0.8632000000000004,,,39.0,0.01149,['Pass'],Fail,0.6600000000000005,-0.3742857142857148,2.0,7.0,0.7
531.0,10.0,wc_10,,0.0,,,,182.0,,,,Fail,,,,,
531.0,10.0,wc_10,wc_16,1.0,"[('wc_16', 0.39000000000000024), ('wc_10', 0.2600000000000001), ('wc_14', 0.41000000000000025), ('wc_5', 0.6600000000000005)]",0.9094491600000002,,,37.0,0.04366,['Fail'],Fail,0.39000000000000024,-0.39000000000000024,0.0,0.0,0.3
536.0,11.0,wc_11,,0.0,,,,382.0,,,,Pass,,,,,
536.0,11.0,wc_11,,0.0,,,52.0,,,,,Pass,,,,,
536.0,11.0,wc_11,,0.0,,,,0.0,,,,Pass,,,,,
536.0,11.0,wc_11,wc_11,0.0,"[('wc_11', 0.27000000000000013)]",0.27000000000000013,,,26.0,0.002172,['Fail'],Pass,0.27000000000000013,-0.10333333333333347,1.0,6.0,0.1
536.0,11.0,wc_11,,0.0,,,,61.0,,,,Pass,,,,,
536.0,11.0,wc_11,wc_12,0.0,"[('wc_12', 0.7900000000000006)]",0.7900000000000006,,,34.0,0.004099,['Pass'],Pass,0.7900000000000006,-0.39000000000000057,2.0,5.0,0.6
536.0,11.0,wc_11,,0.0,,,,0.0,,,,Pass,,,,,
536.0,11.0,wc_11,wc_15,0.0,"[('wc_15', 0.3300000000000002), ('wc_12', 0.7900000000000006)]",0.8593000000000004,,,20.0,0.005679,['Pass'],Pass,0.3300000000000002,-0.18714285714285733,1.0,7.0,0.1
536.0,11.0,wc_11,,0.0,,,,402.0,,,,Pass,,,,,
536.0,11.0,wc_11,wc_3,1.0,"[('wc_3', 0.8200000000000006), ('wc_12', 0.7900000000000006), ('wc_15', 0.3300000000000002)]",0.9746740000000002,,,20.0,0.044589000000000004,['Pass'],Pass,0.8200000000000006,-0.8200000000000006,0.0,0.0,0.7
540.0,9.0,wc_9,,0.0,,,,162.0,,,,Fail,,,,,
540.0,9.0,wc_9,,0.0,,,54.0,,,,,Fail,,,,,
540.0,9.0,wc_9,,0.0,,,,0.0,,,,Fail,,,,,
540.0,9.0,wc_9,wc_9,0.0,"[('wc_9', 0.27000000000000013)]",0.27000000000000013,,,25.0,0.002119,['Fail'],Fail,0.27000000000000013,-0.04777777777777792,2.0,9.0,0.1
540.0,9.0,wc_9,,0.0,,,,263.0,,,,Fail,,,,,
540.0,9.0,wc_9,wc_2,0.0,"[('wc_2', 0.7900000000000006), ('wc_9', 0.27000000000000013)]",0.8467000000000005,,,40.0,0.004061,['Fail'],Fail,0.7900000000000006,-0.5400000000000006,0.0,0.0,0.9
540.0,9.0,wc_9,,0.0,,,,162.0,,,,Fail,,,,,
540.0,9.0,wc_9,wc_8,1.0,"[('wc_8', 0.8000000000000006), ('wc_9', 0.27000000000000013), ('wc_2', 0.7900000000000006)]",0.9693400000000002,,,35.0,0.04793299999999999,['Fail'],Fail,0.8000000000000006,-0.5142857142857149,2.0,7.0,0.7
549.0,9.0,wc_9,,0.0,,,,0.0,,,,Fail,,,,,
549.0,9.0,wc_9,,0.0,,,77.0,,,,,Fail,,,,,
549.0,9.0,wc_9,,0.0,,,,0.0,,,,Fail,,,,,
549.0,9.0,wc_9,wc_9,0.0,"[('wc_9', 0.28000000000000014)]",0.28000000000000014,,,30.0,0.002156,['Pass'],Fail,0.28000000000000014,-0.28000000000000014,0.0,0.0,0.1
549.0,9.0,wc_9,,0.0,,,,402.0,,,,Fail,,,,,
549.0,9.0,wc_9,wc_5,0.0,"[('wc_5', 0.6600000000000005)]",0.6600000000000005,,,36.0,0.003863,['Fail'],Fail,0.6600000000000005,-0.3600000000000005,0.0,0.0,0.7
549.0,9.0,wc_9,,0.0,,,,61.0,,,,Fail,,,,,
549.0,9.0,wc_9,wc_2,0.0,"[('wc_2', 0.8000000000000006), ('wc_5', 0.6600000000000005)]",0.9320000000000003,,,31.0,0.013814,['Fail'],Fail,0.8000000000000006,0.1999999999999994,1.0,1.0,0.9
549.0,9.0,wc_9,,0.0,,,,102.0,,,,Fail,,,,,
549.0,9.0,wc_9,wc_1,1.0,"[('wc_1', 0.6600000000000005), ('wc_5', 0.6600000000000005), ('wc_2', 0.8000000000000006)]",0.9768800000000001,,,39.0,0.044663999999999995,['Fail'],Fail,0.6600000000000005,-0.6600000000000005,0.0,0.0,0.4
556.0,9.0,wc_9,,0.0,,,,203.0,,,,Fail,,,,,
556.0,9.0,wc_9,,0.0,,,55.0,,,,,Fail,,,,,
556.0,9.0,wc_9,,0.0,,,,0.0,,,,Fail,,,,,
556.0,9.0,wc_9,wc_9,0.0,"[('wc_9', 0.27000000000000013)]",0.27000000000000013,,,28.0,0.002193,['Pass'],Fail,0.27000000000000013,-0.27000000000000013,0.0,1.0,0.1
556.0,9.0,wc_9,,0.0,,,,362.0,,,,Fail,,,,,
556.0,9.0,wc_9,wc_3,0.0,"[('wc_3', 0.8200000000000006)]",0.8200000000000006,,,38.0,0.004155,['Fail'],Fail,0.8200000000000006,-0.8200000000000006,0.0,2.0,0.7
556.0,9.0,wc_9,,0.0,,,,161.0,,,,Fail,,,,,
556.0,9.0,wc_9,wc_13,0.0,"[('wc_13', 0.6100000000000004), ('wc_3', 0.8200000000000006)]",0.9298000000000003,,,24.0,0.005697999999999999,['Fail'],Fail,0.6100000000000004,-0.4100000000000004,0.0,0.0,0.6
556.0,9.0,wc_9,,0.0,,,,162.0,,,,Fail,,,,,
556.0,9.0,wc_9,wc_6,0.0,"[('wc_3', 0.8200000000000006), ('wc_13', 0.6100000000000004)]",0.9298000000000003,,,32.0,0.008456,['Fail'],Fail,0.4800000000000003,-0.4800000000000003,0.0,5.0,0.3
556.0,9.0,wc_9,,0.0,,,,222.0,,,,Fail,,,,,
556.0,9.0,wc_9,wc_2,1.0,"[('wc_2', 0.8100000000000006), ('wc_3', 0.8200000000000006), ('wc_13', 0.6100000000000004)]",0.9866620000000002,,,28.0,0.04934600000000001,['Fail'],Fail,0.8200000000000006,0.17999999999999938,3.0,3.0,0.9
569.0,9.0,wc_9,,0.0,,,,183.0,,,,Pass,,,,,
569.0,9.0,wc_9,,0.0,,,78.0,,,,,Pass,,,,,
569.0,9.0,wc_9,,0.0,,,,0.0,,,,Pass,,,,,
569.0,9.0,wc_9,wc_9,0.0,"[('wc_9', 0.2600000000000001)]",0.2600000000000001,,,22.0,0.003677,['Fail'],Pass,0.2600000000000001,-0.2600000000000001,0.0,2.0,0.1
569.0,9.0,wc_9,,0.0,,,,362.0,,,,Pass,,,,,
569.0,9.0,wc_9,wc_3,0.0,"[('wc_3', 0.8200000000000006)]",0.8200000000000006,,,30.0,0.008102999999999999,['Pass'],Pass,0.8200000000000006,-0.4866666666666673,1.0,3.0,0.7
569.0,9.0,wc_9,,0.0,,,,242.0,,,,Pass,,,,,
569.0,9.0,wc_9,wc_17,0.0,"[('wc_17', 0.8500000000000006), ('wc_3', 0.8200000000000006)]",0.9730000000000002,,,32.0,0.005809,['Pass'],Pass,0.8500000000000006,-0.7590909090909097,0.0,0.0,0.8
569.0,9.0,wc_9,,0.0,,,,263.0,,,,Pass,,,,,
569.0,9.0,wc_9,wc_2,1.0,"[('wc_2', 0.8200000000000006), ('wc_3', 0.8200000000000006), ('wc_17', 0.8500000000000006)]",0.99514,,,32.0,0.044775,['Pass'],Pass,0.8300000000000006,0.16999999999999937,4.0,4.0,0.9
584.0,10.0,wc_10,,0.0,,,,203.0,,,,Pass,,,,,
584.0,10.0,wc_10,,0.0,,,74.0,,,,,Pass,,,,,
584.0,10.0,wc_10,,0.0,,,,0.0,,,,Pass,,,,,
584.0,10.0,wc_10,wc_10,0.0,"[('wc_10', 0.2600000000000001)]",0.2600000000000001,,,31.0,0.003005,['Pass'],Pass,0.2600000000000001,-0.11714285714285727,0.0,0.0,0.1
584.0,10.0,wc_10,,0.0,,,,382.0,,,,Pass,,,,,
584.0,10.0,wc_10,wc_5,0.0,"[('wc_5', 0.6700000000000005), ('wc_10', 0.2600000000000001)]",0.7558000000000004,,,35.0,0.005772,['Pass'],Pass,0.6700000000000005,-0.33666666666666717,1.0,3.0,0.7
584.0,10.0,wc_10,,0.0,,,,101.0,,,,Pass,,,,,
584.0,10.0,wc_10,wc_8,1.0,"[('wc_8', 0.8000000000000006), ('wc_10', 0.2600000000000001), ('wc_5', 0.6700000000000005)]",0.9511600000000002,,,21.0,0.041005,['Pass'],Pass,0.8000000000000006,-0.8000000000000006,0.0,0.0,0.7
594.0,12.0,wc_12,,0.0,,,,122.0,,,,Fail,,,,,
594.0,12.0,wc_12,,0.0,,,75.0,,,,,Fail,,,,,
594.0,12.0,wc_12,,0.0,,,,0.0,,,,Fail,,,,,
594.0,12.0,wc_12,wc_12,0.0,"[('wc_12', 0.7900000000000006)]",0.7900000000000006,,,31.0,0.002107,['Fail'],Fail,0.7900000000000006,-0.5172727272727279,0.0,0.0,0.6
594.0,12.0,wc_12,,0.0,,,,381.0,,,,Fail,,,,,
594.0,12.0,wc_12,wc_4,0.0,"[('wc_4', 0.7600000000000006), ('wc_12', 0.7900000000000006)]",0.9496000000000002,,,28.0,0.005208,['Fail'],Fail,0.7600000000000006,-0.6600000000000006,0.0,0.0,0.8
594.0,12.0,wc_12,,0.0,,,,161.0,,,,Fail,,,,,
594.0,12.0,wc_12,wc_14,0.0,"[('wc_12', 0.7900000000000006), ('wc_4', 0.7600000000000006)]",0.9496000000000002,,,39.0,0.005626,['Fail'],Fail,0.42000000000000026,-0.29500000000000026,1.0,8.0,0.4
594.0,12.0,wc_12,,0.0,,,,142.0,,,,Fail,,,,,
594.0,12.0,wc_12,wc_6,0.0,"[('wc_12', 0.7900000000000006), ('wc_4', 0.7600000000000006)]",0.9496000000000002,,,20.0,0.007802999999999999,['Fail'],Fail,0.4700000000000003,-0.4700000000000003,0.0,8.0,0.3
594.0,12.0,wc_12,,0.0,,,,223.0,,,,Fail,,,,,
594.0,12.0,wc_12,wc_15,0.0,"[('wc_12', 0.7900000000000006), ('wc_4', 0.7600000000000006)]",0.9496000000000002,,,21.0,0.009881000000000001,['Fail'],Fail,0.3300000000000002,-0.17615384615384633,0.0,0.0,0.1
594.0,12.0,wc_12,,0.0,,,,402.0,,,,Fail,,,,,
594.0,12.0,wc_12,wc_3,1.0,"[('wc_3', 0.8200000000000006), ('wc_12', 0.7900000000000006), ('wc_4', 0.7600000000000006)]",0.990928,,,40.0,0.043933,['Fail'],Fail,0.8200000000000006,-0.3200000000000006,3.0,6.0,0.7
601.0,12.0,wc_12,,0.0,,,,141.0,,,,Fail,,,,,
601.0,12.0,wc_12,,0.0,,,60.0,,,,,Fail,,,,,
601.0,12.0,wc_12,,0.0,,,,0.0,,,,Fail,,,,,
601.0,12.0,wc_12,wc_12,0.0,"[('wc_12', 0.8000000000000006)]",0.8000000000000006,,,33.0,0.00247,['Fail'],Fail,0.8000000000000006,0.1999999999999994,1.0,1.0,0.6
601.0,12.0,wc_12,,0.0,,,,222.0,,,,Fail,,,,,
601.0,12.0,wc_12,wc_8,0.0,"[('wc_8', 0.8000000000000006), ('wc_12', 0.8000000000000006)]",0.9600000000000002,,,26.0,0.005431,['Fail'],Fail,0.8000000000000006,-0.8000000000000006,0.0,1.0,0.7
601.0,12.0,wc_12,,0.0,,,,0.0,,,,Fail,,,,,
601.0,12.0,wc_12,wc_10,1.0,"[('wc_10', 0.27000000000000013), ('wc_12', 0.8000000000000006), ('wc_8', 0.8000000000000006)]",0.9708000000000002,,,37.0,0.038512,['Fail'],Fail,0.28000000000000014,0.3866666666666665,2.0,3.0,0.1
614.0,12.0,wc_12,,0.0,,,,81.0,,,,Fail,,,,,
614.0,12.0,wc_12,,0.0,,,79.0,,,,,Fail,,,,,
614.0,12.0,wc_12,,0.0,,,,0.0,,,,Fail,,,,,
614.0,12.0,wc_12,wc_12,0.0,"[('wc_12', 0.8100000000000006)]",0.8100000000000006,,,36.0,0.001977,['Fail'],Fail,0.8100000000000006,0.1899999999999994,2.0,2.0,0.6
614.0,12.0,wc_12,,0.0,,,,341.0,,,,Fail,,,,,
614.0,12.0,wc_12,wc_10,0.0,"[('wc_12', 0.8100000000000006)]",0.8100000000000006,,,32.0,0.0040479999999999995,['Fail'],Fail,0.28000000000000014,0.3866666666666665,2.0,3.0,0.1
614.0,12.0,wc_12,,0.0,,,,243.0,,,,Fail,,,,,
614.0,12.0,wc_12,wc_2,0.0,"[('wc_2', 0.8300000000000006), ('wc_12', 0.8100000000000006)]",0.9677000000000002,,,34.0,0.005692,['Fail'],Fail,0.8300000000000006,-0.25857142857142923,4.0,7.0,0.9
614.0,12.0,wc_12,,0.0,,,,0.0,,,,Fail,,,,,
614.0,12.0,wc_12,wc_3,1.0,"[('wc_3', 0.8200000000000006), ('wc_12', 0.8100000000000006), ('wc_2', 0.8300000000000006)]",0.994186,,,27.0,0.041550000000000004,['Fail'],Fail,0.8200000000000006,-0.3200000000000006,4.0,8.0,0.7
625.0,12.0,wc_12,,0.0,,,,141.0,,,,Pass,,,,,
625.0,12.0,wc_12,,0.0,,,58.0,,,,,Pass,,,,,
625.0,12.0,wc_12,,0.0,,,,0.0,,,,Pass,,,,,
625.0,12.0,wc_12,wc_12,0.0,"[('wc_12', 0.8200000000000006)]",0.8200000000000006,,,34.0,0.002149,['Pass'],Pass,0.8200000000000006,0.17999999999999938,3.0,3.0,0.6
625.0,12.0,wc_12,,0.0,,,,222.0,,,,Pass,,,,,
625.0,12.0,wc_12,wc_8,0.0,"[('wc_8', 0.8000000000000006), ('wc_12', 0.8200000000000006)]",0.9640000000000002,,,35.0,0.004018,['Pass'],Pass,0.8000000000000006,-0.4666666666666673,1.0,3.0,0.7
625.0,12.0,wc_12,,0.0,,,,203.0,,,,Pass,,,,,
625.0,12.0,wc_12,wc_16,1.0,"[('wc_16', 0.39000000000000024), ('wc_12', 0.8200000000000006), ('wc_8', 0.8000000000000006)]",0.9780400000000001,,,25.0,0.039757,['Pass'],Pass,0.39000000000000024,-0.39000000000000024,0.0,0.0,0.3
631.0,13.0,wc_13,,0.0,,,,61.0,,,,Fail,,,,,
631.0,13.0,wc_13,,0.0,,,65.0,,,,,Fail,,,,,
631.0,13.0,wc_13,,0.0,,,,0.0,,,,Fail,,,,,
631.0,13.0,wc_13,wc_13,0.0,"[('wc_13', 0.6200000000000004)]",0.6200000000000004,,,22.0,0.002134,['Fail'],Fail,0.6200000000000004,-0.4771428571428576,1.0,7.0,0.6
631.0,13.0,wc_13,,0.0,,,,0.0,,,,Fail,,,,,
631.0,13.0,wc_13,wc_17,0.0,"[('wc_17', 0.8600000000000007)]",0.8600000000000007,,,25.0,0.00417,['Pass'],Fail,0.8600000000000007,-0.693333333333334,1.0,6.0,0.8
631.0,13.0,wc_13,,0.0,,,,402.0,,,,Fail,,,,,
631.0,13.0,wc_13,wc_5,0.0,"[('wc_5', 0.6700000000000005), ('wc_17', 0.8600000000000007)]",0.9538000000000003,,,35.0,0.005908,['Pass'],Fail,0.6700000000000005,-0.4200000000000005,2.0,8.0,0.7
631.0,13.0,wc_13,,0.0,,,,61.0,,,,Fail,,,,,
631.0,13.0,wc_13,wc_6,1.0,"[('wc_6', 0.4600000000000003), ('wc_17', 0.8600000000000007), ('wc_5', 0.6700000000000005)]",0.9750520000000001,,,38.0,0.041302000000000005,['Pass'],Fail,0.4600000000000003,-0.4600000000000003,0.0,0.0,0.3
637.0,13.0,wc_13,,0.0,,,,182.0,,,,Fail,,,,,
637.0,13.0,wc_13,,0.0,,,60.0,,,,,Fail,,,,,
637.0,13.0,wc_13,,0.0,,,,0.0,,,,Fail,,,,,
637.0,13.0,wc_13,wc_13,0.0,"[('wc_13', 0.6100000000000004)]",0.6100000000000004,,,31.0,0.002402,['Fail'],Fail,0.6100000000000004,-0.48500000000000043,1.0,8.0,0.6
637.0,13.0,wc_13,,0.0,,,,162.0,,,,Fail,,,,,
637.0,13.0,wc_13,wc_6,0.0,"[('wc_13', 0.6100000000000004)]",0.6100000000000004,,,26.0,0.004246,['Fail'],Fail,0.4600000000000003,-0.4600000000000003,0.0,0.0,0.3
637.0,13.0,wc_13,,0.0,,,,321.0,,,,Fail,,,,,
637.0,13.0,wc_13,wc_3,0.0,"[('wc_3', 0.8200000000000006), ('wc_13', 0.6100000000000004)]",0.9298000000000003,,,25.0,0.007974,['Fail'],Fail,0.8200000000000006,-0.4200000000000006,0.0,0.0,0.7
637.0,13.0,wc_13,,0.0,,,,81.0,,,,Fail,,,,,
637.0,13.0,wc_13,wc_1,0.0,"[('wc_13', 0.6100000000000004), ('wc_3', 0.8200000000000006)]",0.9298000000000003,,,30.0,0.008287,['Fail'],Fail,0.6600000000000005,-0.6600000000000005,0.0,8.0,0.4
637.0,13.0,wc_13,,0.0,,,,182.0,,,,Fail,,,,,
637.0,13.0,wc_13,wc_12,1.0,"[('wc_12', 0.8300000000000006), ('wc_13', 0.6100000000000004), ('wc_3', 0.8200000000000006)]",0.9880660000000001,,,39.0,0.044828,['Fail'],Fail,0.8300000000000006,0.003333333333332744,5.0,6.0,0.6
649.0,13.0,wc_13,,0.0,,,,0.0,,,,Fail,,,,,
649.0,13.0,wc_13,,0.0,,,50.0,,,,,Fail,,,,,
649.0,13.0,wc_13,,0.0,,,,0.0,,,,Fail,,,,,
649.0,13.0,wc_13,wc_13,0.0,"[('wc_13', 0.6100000000000004)]",0.6100000000000004,,,27.0,0.002057,['Fail'],Fail,0.6100000000000004,-0.3877777777777782,2.0,9.0,0.6
649.0,13.0,wc_13,,0.0,,,,0.0,,,,Fail,,,,,
649.0,13.0,wc_13,wc_17,0.0,"[('wc_17', 0.8600000000000007), ('wc_13', 0.6100000000000004)]",0.9454000000000004,,,31.0,0.004236,['Fail'],Fail,0.8600000000000007,-0.6100000000000007,2.0,8.0,0.8
649.0,13.0,wc_13,,0.0,,,,21.0,,,,Fail,,,,,
649.0,13.0,wc_13,wc_12,1.0,"[('wc_12', 0.8300000000000006), ('wc_13', 0.6100000000000004), ('wc_17', 0.8600000000000007)]",0.9907180000000001,,,38.0,0.03819499999999999,['Fail'],Fail,0.8400000000000006,0.01714285714285646,6.0,7.0,0.6
663.0,13.0,wc_13,,0.0,,,,0.0,,,,Fail,,,,,
663.0,13.0,wc_13,,0.0,,,55.0,,,,,Fail,,,,,
663.0,13.0,wc_13,,0.0,,,,0.0,,,,Fail,,,,,
663.0,13.0,wc_13,wc_13,0.0,"[('wc_13', 0.6100000000000004)]",0.6100000000000004,,,27.0,0.002239,['Fail'],Fail,0.6100000000000004,-0.6100000000000004,0.0,0.0,0.6
663.0,13.0,wc_13,,0.0,,,,341.0,,,,Fail,,,,,
663.0,13.0,wc_13,wc_11,0.0,"[('wc_13', 0.6100000000000004)]",0.6100000000000004,,,21.0,0.00409,['Fail'],Fail,0.2600000000000001,-0.2073684210526317,0.0,0.0,0.1
663.0,13.0,wc_13,,0.0,,,,142.0,,,,Fail,,,,,
663.0,13.0,wc_13,wc_16,0.0,"[('wc_13', 0.6100000000000004)]",0.6100000000000004,,,40.0,0.005743,['Fail'],Fail,0.39000000000000024,-0.39000000000000024,0.0,3.0,0.3
663.0,13.0,wc_13,,0.0,,,,243.0,,,,Fail,,,,,
663.0,13.0,wc_13,wc_8,0.0,"[('wc_8', 0.8000000000000006), ('wc_13', 0.6100000000000004)]",0.9220000000000004,,,34.0,0.007649,['Fail'],Fail,0.8000000000000006,-0.5142857142857149,2.0,7.0,0.7
663.0,13.0,wc_13,,0.0,,,,182.0,,,,Fail,,,,,
663.0,13.0,wc_13,wc_2,1.0,"[('wc_2', 0.8300000000000006), ('wc_13', 0.6100000000000004), ('wc_8', 0.8000000000000006)]",0.9867400000000001,,,28.0,0.045114,['Fail'],Fail,0.8300000000000006,-0.8300000000000006,0.0,0.0,0.9
677.0,13.0,wc_13,,0.0,,,,182.0,,,,Fail,,,,,
677.0,13.0,wc_13,,0.0,,,70.0,,,,,Fail,,,,,
677.0,13.0,wc_13,,0.0,,,,0.0,,,,Fail,,,,,
677.0,13.0,wc_13,wc_13,0.0,"[('wc_13', 0.6200000000000004)]",0.6200000000000004,,,27.0,0.002094,['Fail'],Fail,0.6200000000000004,0.37999999999999956,1.0,1.0,0.6
677.0,13.0,wc_13,,0.0,,,,381.0,,,,Fail,,,,,
677.0,13.0,wc_13,wc_5,0.0,"[('wc_5', 0.6700000000000005), ('wc_13', 0.6200000000000004)]",0.8746000000000003,,,40.0,0.003936,['Fail'],Fail,0.6700000000000005,-0.4200000000000005,0.0,0.0,0.7
677.0,13.0,wc_13,,0.0,,,,101.0,,,,Fail,,,,,
677.0,13.0,wc_13,wc_8,1.0,"[('wc_8', 0.8000000000000006), ('wc_13', 0.6200000000000004), ('wc_5', 0.6700000000000005)]",0.9749200000000001,,,39.0,0.039496,['Fail'],Fail,0.8000000000000006,-0.3555555555555562,4.0,9.0,0.7
684.0,13.0,wc_13,,0.0,,,,142.0,,,,Pass,,,,,
684.0,13.0,wc_13,,0.0,,,73.0,,,,,Pass,,,,,
684.0,13.0,wc_13,,0.0,,,,0.0,,,,Pass,,,,,
684.0,13.0,wc_13,wc_13,0.0,"[('wc_13', 0.6300000000000004)]",0.6300000000000004,,,33.0,0.002355,['Pass'],Pass,0.6300000000000004,0.36999999999999955,2.0,2.0,0.6
684.0,13.0,wc_13,,0.0,,,,321.0,,,,Pass,,,,,
684.0,13.0,wc_13,wc_10,0.0,"[('wc_13', 0.6300000000000004)]",0.6300000000000004,,,25.0,0.004399,['Pass'],Pass,0.28000000000000014,-0.08000000000000013,0.0,0.0,0.1
684.0,13.0,wc_13,,0.0,,,,81.0,,,,Pass,,,,,
684.0,13.0,wc_13,wc_12,0.0,"[('wc_12', 0.8400000000000006), ('wc_13', 0.6300000000000004)]",0.9408000000000003,,,21.0,0.005613,['Pass'],Pass,0.8400000000000006,-0.173333333333334,6.0,9.0,0.6
684.0,13.0,wc_13,,0.0,,,,321.0,,,,Pass,,,,,
684.0,13.0,wc_13,wc_9,0.0,"[('wc_13', 0.6300000000000004), ('wc_12', 0.8400000000000006)]",0.9408000000000003,,,40.0,0.007698,['Pass'],Pass,0.2500000000000001,-0.2500000000000001,0.0,0.0,0.1
684.0,13.0,wc_13,,0.0,,,,362.0,,,,Pass,,,,,
684.0,13.0,wc_13,wc_3,1.0,"[('wc_3', 0.8300000000000006), ('wc_13', 0.6300000000000004), ('wc_12', 0.8400000000000006)]",0.989936,,,39.0,0.044858,['Pass'],Pass,0.8300000000000006,-0.4300000000000006,2.0,5.0,0.7
688.0,14.0,wc_14,,0.0,,,,181.0,,,,Fail,,,,,
688.0,14.0,wc_14,,0.0,,,59.0,,,,,Fail,,,,,
688.0,14.0,wc_14,,0.0,,,,0.0,,,,Fail,,,,,
688.0,14.0,wc_14,wc_14,0.0,"[('wc_14', 0.41000000000000025)]",0.41000000000000025,,,21.0,0.002683,['Fail'],Fail,0.41000000000000025,-0.3544444444444447,0.0,0.0,0.4
688.0,14.0,wc_14,,0.0,,,,341.0,,,,Fail,,,,,
688.0,14.0,wc_14,wc_4,0.0,"[('wc_4', 0.7700000000000006), ('wc_14', 0.41000000000000025)]",0.8643000000000004,,,31.0,0.003843,['Fail'],Fail,0.7700000000000006,-0.6700000000000006,0.0,0.0,0.8
688.0,14.0,wc_14,,0.0,,,,141.0,,,,Fail,,,,,
688.0,14.0,wc_14,wc_13,1.0,"[('wc_13', 0.6400000000000005), ('wc_14', 0.41000000000000025), ('wc_4', 0.7700000000000006)]",0.9511480000000002,,,40.0,0.040067,['Fail'],Fail,0.6500000000000005,0.34999999999999953,4.0,4.0,0.6
691.0,14.0,wc_14,,0.0,,,,0.0,,,,Pass,,,,,
691.0,14.0,wc_14,,0.0,,,59.0,,,,,Pass,,,,,
691.0,14.0,wc_14,,0.0,,,,0.0,,,,Pass,,,,,
691.0,14.0,wc_14,wc_14,0.0,"[('wc_14', 0.42000000000000026)]",0.42000000000000026,,,24.0,0.002208,['Fail'],Pass,0.42000000000000026,0.5799999999999997,1.0,1.0,0.4
691.0,14.0,wc_14,,0.0,,,,162.0,,,,Pass,,,,,
691.0,14.0,wc_14,wc_7,0.0,"[('wc_14', 0.42000000000000026)]",0.42000000000000026,,,28.0,0.0042769999999999996,['Fail'],Pass,0.3400000000000002,-0.296521739130435,0.0,0.0,0.2
691.0,14.0,wc_14,,0.0,,,,223.0,,,,Pass,,,,,
691.0,14.0,wc_14,wc_16,0.0,"[('wc_16', 0.3800000000000002), ('wc_14', 0.42000000000000026)]",0.6404000000000003,,,36.0,0.005823999999999999,['Fail'],Pass,0.3800000000000002,-0.3800000000000002,0.0,7.0,0.3
691.0,14.0,wc_14,,0.0,,,,243.0,,,,Pass,,,,,
691.0,14.0,wc_14,wc_8,0.0,"[('wc_8', 0.8000000000000006), ('wc_7', 0.3400000000000002)]",0.8680000000000004,,,40.0,0.008098,['Pass'],Pass,0.8000000000000006,-0.43636363636363695,0.0,0.0,0.7
691.0,14.0,wc_14,,0.0,,,,281.0,,,,Pass,,,,,
691.0,14.0,wc_14,wc_3,1.0,"[('wc_3', 0.8300000000000006), ('wc_7', 0.3400000000000002), ('wc_8', 0.8000000000000006)]",0.9775600000000002,,,39.0,0.043206999999999995,['Pass'],Pass,0.8300000000000006,-0.4014285714285721,3.0,7.0,0.7
694.0,15.0,wc_15,,0.0,,,,202.0,,,,Fail,,,,,
694.0,15.0,wc_15,,0.0,,,70.0,,,,,Fail,,,,,
694.0,15.0,wc_15,,0.0,,,,0.0,,,,Fail,,,,,
694.0,15.0,wc_15,wc_15,0.0,"[('wc_15', 0.3200000000000002)]",0.3200000000000002,,,29.0,0.002321,['Fail'],Fail,0.3200000000000002,-0.3200000000000002,0.0,0.0,0.1
694.0,15.0,wc_15,,0.0,,,,422.0,,,,Fail,,,,,
694.0,15.0,wc_15,wc_4,0.0,"[('wc_4', 0.7800000000000006), ('wc_15', 0.3200000000000002)]",0.8504000000000005,,,30.0,0.004,['Fail'],Fail,0.7800000000000006,-0.2800000000000006,1.0,2.0,0.8
694.0,15.0,wc_15,,0.0,,,,121.0,,,,Fail,,,,,
694.0,15.0,wc_15,wc_12,1.0,"[('wc_12', 0.8400000000000006), ('wc_15', 0.3200000000000002), ('wc_4', 0.7800000000000006)]",0.9760640000000002,,,30.0,0.041692999999999994,['Fail'],Fail,0.8400000000000006,-0.5066666666666673,1.0,3.0,0.6
697.0,15.0,wc_15,,0.0,,,,0.0,,,,Pass,,,,,
697.0,15.0,wc_15,,0.0,,,66.0,,,,,Pass,,,,,
697.0,15.0,wc_15,,0.0,,,,0.0,,,,Pass,,,,,
697.0,15.0,wc_15,wc_15,0.0,"[('wc_15', 0.3300000000000002)]",0.3300000000000002,,,31.0,0.002169,['Fail'],Pass,0.3300000000000002,0.6699999999999998,1.0,1.0,0.1
697.0,15.0,wc_15,,0.0,,,,402.0,,,,Pass,,,,,
697.0,15.0,wc_15,wc_11,0.0,"[('wc_15', 0.3300000000000002)]",0.3300000000000002,,,39.0,0.004523,['Fail'],Pass,0.2500000000000001,-0.2500000000000001,0.0,6.0,0.1
697.0,15.0,wc_15,,0.0,,,,21.0,,,,Pass,,,,,
697.0,15.0,wc_15,wc_6,0.0,"[('wc_6', 0.4500000000000003), ('wc_15', 0.3300000000000002)]",0.6315000000000003,,,40.0,0.005658,['Fail'],Pass,0.4500000000000003,-0.4500000000000003,0.0,8.0,0.3
697.0,15.0,wc_15,,0.0,,,,0.0,,,,Pass,,,,,
697.0,15.0,wc_15,wc_9,0.0,"[('wc_15', 0.3300000000000002), ('wc_6', 0.4500000000000003)]",0.6315000000000003,,,27.0,0.007757999999999999,['Fail'],Pass,0.2400000000000001,-0.2400000000000001,0.0,4.0,0.1
697.0,15.0,wc_15,,0.0,,,,263.0,,,,Pass,,,,,
697.0,15.0,wc_15,wc_2,1.0,"[('wc_2', 0.8300000000000006), ('wc_11', 0.2500000000000001), ('wc_9', 0.2400000000000001)]",0.9031000000000003,,,33.0,0.04667899999999999,['Pass'],Pass,0.8300000000000006,-0.663333333333334,1.0,6.0,0.9
699.0,16.0,wc_16,,0.0,,,,243.0,,,,Fail,,,,,
699.0,16.0,wc_16,,0.0,,,80.0,,,,,Fail,,,,,
699.0,16.0,wc_16,,0.0,,,,0.0,,,,Fail,,,,,
699.0,16.0,wc_16,wc_16,0.0,"[('wc_16', 0.3700000000000002)]",0.3700000000000002,,,37.0,0.002097,['Fail'],Fail,0.3700000000000002,-0.3700000000000002,0.0,0.0,0.3
699.0,16.0,wc_16,,0.0,,,,81.0,,,,Fail,,,,,
699.0,16.0,wc_16,wc_14,0.0,"[('wc_14', 0.42000000000000026), ('wc_16', 0.3700000000000002)]",0.6346000000000003,,,28.0,0.00405,['Fail'],Fail,0.42000000000000026,-0.17000000000000026,1.0,4.0,0.4
699.0,16.0,wc_16,,0.0,,,,202.0,,,,Fail,,,,,
699.0,16.0,wc_16,wc_1,0.0,"[('wc_1', 0.6500000000000005), ('wc_16', 0.3700000000000002), ('wc_14', 0.42000000000000026)]",0.8721100000000003,,,24.0,0.006693000000000001,['Fail'],Fail,0.6500000000000005,-0.6500000000000005,0.0,0.0,0.4
699.0,16.0,wc_16,,0.0,,,,0.0,,,,Fail,,,,,
699.0,16.0,wc_16,wc_4,1.0,"[('wc_4', 0.7800000000000006), ('wc_16', 0.3700000000000002), ('wc_14', 0.42000000000000026), ('wc_1', 0.6500000000000005)]",0.9718642000000002,,,37.0,0.047743999999999995,['Fail'],Fail,0.7800000000000006,-0.1800000000000006,3.0,5.0,0.8
701.0,16.0,wc_16,,0.0,,,,202.0,,,,Pass,,,,,
701.0,16.0,wc_16,,0.0,,,79.0,,,,,Pass,,,,,
701.0,16.0,wc_16,,0.0,,,,0.0,,,,Pass,,,,,
701.0,16.0,wc_16,wc_16,0.0,"[('wc_16', 0.3800000000000002)]",0.3800000000000002,,,29.0,0.003082,['Fail'],Pass,0.3800000000000002,0.6199999999999998,1.0,1.0,0.3
701.0,16.0,wc_16,,0.0,,,,0.0,,,,Pass,,,,,
701.0,16.0,wc_16,wc_17,0.0,"[('wc_17', 0.8600000000000007)]",0.8600000000000007,,,32.0,0.0038770000000000002,['Pass'],Pass,0.8600000000000007,-0.6835294117647065,0.0,0.0,0.8
701.0,16.0,wc_16,,0.0,,,,263.0,,,,Pass,,,,,
701.0,16.0,wc_16,wc_2,0.0,"[('wc_2', 0.8300000000000006), ('wc_16', 0.3800000000000002)]",0.8946000000000004,,,24.0,0.00687,['Fail'],Pass,0.8300000000000006,-0.6871428571428577,1.0,7.0,0.9
701.0,16.0,wc_16,,0.0,,,,202.0,,,,Pass,,,,,
701.0,16.0,wc_16,wc_14,0.0,"[('wc_14', 0.42000000000000026), ('wc_17', 0.8600000000000007)]",0.9188000000000004,,,23.0,0.0075379999999999996,['Pass'],Pass,0.42000000000000026,-0.02000000000000024,2.0,5.0,0.4
701.0,16.0,wc_16,,0.0,,,,0.0,,,,Pass,,,,,
701.0,16.0,wc_16,wc_15,1.0,"[('wc_15', 0.3300000000000002), ('wc_17', 0.8600000000000007), ('wc_14', 0.42000000000000026)]",0.9455960000000003,,,30.0,0.044556,['Pass'],Pass,0.3400000000000002,0.1599999999999998,2.0,4.0,0.1
703.0,17.0,wc_17,,0.0,,,,0.0,,,,Fail,,,,,
703.0,17.0,wc_17,,0.0,,,79.0,,,,,Fail,,,,,
703.0,17.0,wc_17,,0.0,,,,0.0,,,,Fail,,,,,
703.0,17.0,wc_17,wc_17,0.0,"[('wc_17', 0.8700000000000007)]",0.8700000000000007,,,36.0,0.002092,['Fail'],Fail,0.8700000000000007,0.12999999999999934,1.0,1.0,0.8
703.0,17.0,wc_17,,0.0,,,,402.0,,,,Fail,,,,,
703.0,17.0,wc_17,wc_5,0.0,"[('wc_5', 0.6800000000000005), ('wc_17', 0.8700000000000007)]",0.9584000000000003,,,33.0,0.004014,['Fail'],Fail,0.6800000000000005,-0.5550000000000005,1.0,8.0,0.7
703.0,17.0,wc_17,,0.0,,,,121.0,,,,Fail,,,,,
703.0,17.0,wc_17,wc_13,1.0,"[('wc_13', 0.6500000000000005), ('wc_17', 0.8700000000000007), ('wc_5', 0.6800000000000005)]",0.9854400000000001,,,25.0,0.044699,['Fail'],Fail,0.6500000000000005,-0.6500000000000005,0.0,0.0,0.6
705.0,17.0,wc_17,,0.0,,,,0.0,,,,Fail,,,,,
705.0,17.0,wc_17,,0.0,,,70.0,,,,,Fail,,,,,
705.0,17.0,wc_17,,0.0,,,,0.0,,,,Fail,,,,,
705.0,17.0,wc_17,wc_17,0.0,"[('wc_17', 0.8800000000000007)]",0.8800000000000007,,,38.0,0.002379,['Fail'],Fail,0.8800000000000007,0.11999999999999933,2.0,2.0,0.8
705.0,17.0,wc_17,,0.0,,,,382.0,,,,Fail,,,,,
705.0,17.0,wc_17,wc_4,0.0,"[('wc_4', 0.7800000000000006), ('wc_17', 0.8800000000000007)]",0.9736000000000002,,,27.0,0.004071,['Fail'],Fail,0.7800000000000006,-0.35142857142857203,3.0,7.0,0.8
705.0,17.0,wc_17,,0.0,,,,202.0,,,,Fail,,,,,
705.0,17.0,wc_17,wc_16,0.0,"[('wc_17', 0.8800000000000007), ('wc_4', 0.7800000000000006)]",0.9736000000000002,,,23.0,0.006899000000000001,['Fail'],Fail,0.3800000000000002,-0.04666666666666691,1.0,3.0,0.3
705.0,17.0,wc_17,,0.0,,,,382.0,,,,Fail,,,,,
705.0,17.0,wc_17,wc_3,1.0,"[('wc_3', 0.8300000000000006), ('wc_17', 0.8800000000000007), ('wc_4', 0.7800000000000006)]",0.9955120000000001,,,34.0,0.041819,['Fail'],Fail,0.8300000000000006,-0.8300000000000006,0.0,0.0,0.7
707.0,17.0,wc_17,,0.0,,,,242.0,,,,Fail,,,,,
707.0,17.0,wc_17,,0.0,,,50.0,,,,,Fail,,,,,
707.0,17.0,wc_17,,0.0,,,,0.0,,,,Fail,,,,,
707.0,17.0,wc_17,wc_17,0.0,"[('wc_17', 0.8900000000000007)]",0.8900000000000007,,,36.0,0.002113,['Fail'],Fail,0.8900000000000007,0.10999999999999932,3.0,3.0,0.8
707.0,17.0,wc_17,,0.0,,,,382.0,,,,Fail,,,,,
707.0,17.0,wc_17,wc_4,0.0,"[('wc_4', 0.7800000000000006), ('wc_17', 0.8900000000000007)]",0.9758000000000002,,,30.0,0.004571,['Fail'],Fail,0.7800000000000006,-0.2800000000000006,4.0,8.0,0.8
707.0,17.0,wc_17,,0.0,,,,61.0,,,,Fail,,,,,
707.0,17.0,wc_17,wc_1,1.0,"[('wc_1', 0.6600000000000005), ('wc_17', 0.8900000000000007), ('wc_4', 0.7800000000000006)]",0.9917720000000001,,,39.0,0.046376,['Fail'],Fail,0.6600000000000005,-0.26000000000000045,2.0,5.0,0.4
708.0,17.0,wc_17,,0.0,,,,283.0,,,,Pass,,,,,
708.0,17.0,wc_17,,0.0,,,62.0,,,,,Pass,,,,,
708.0,17.0,wc_17,,0.0,,,,0.0,,,,Pass,,,,,
708.0,17.0,wc_17,wc_17,0.0,"[('wc_17', 0.9000000000000007)]",0.9000000000000007,,,20.0,0.002308,['Pass'],Pass,0.9000000000000007,0.09999999999999931,4.0,4.0,0.8
708.0,17.0,wc_17,,0.0,,,,41.0,,,,Pass,,,,,
708.0,17.0,wc_17,wc_13,0.0,"[('wc_13', 0.6500000000000005), ('wc_17', 0.9000000000000007)]",0.9650000000000003,,,21.0,0.00419,['Pass'],Pass,0.6500000000000005,-0.6500000000000005,0.0,2.0,0.6
708.0,17.0,wc_17,,0.0,,,,0.0,,,,Pass,,,,,
708.0,17.0,wc_17,wc_16,0.0,"[('wc_17', 0.9000000000000007), ('wc_13', 0.6500000000000005)]",0.9650000000000003,,,39.0,0.005918,['Pass'],Pass,0.3700000000000002,-0.1700000000000002,1.0,5.0,0.3
708.0,17.0,wc_17,,0.0,,,,263.0,,,,Pass,,,,,
708.0,17.0,wc_17,wc_1,0.0,"[('wc_17', 0.9000000000000007), ('wc_13', 0.6500000000000005)]",0.9650000000000003,,,34.0,0.007495000000000001,['Pass'],Pass,0.6600000000000005,-0.26000000000000045,2.0,5.0,0.4
708.0,17.0,wc_17,,0.0,,,,142.0,,,,Pass,,,,,
708.0,17.0,wc_17,wc_6,1.0,"[('wc_6', 0.4400000000000003), ('wc_17', 0.9000000000000007), ('wc_13', 0.6500000000000005)]",0.9804000000000002,,,26.0,0.07563199999999999,['Pass'],Pass,0.4400000000000003,-0.4400000000000003,0.0,0.0,0.3
