mpecck/BCQC/bcqc_with_qdt/results/raw/input_11/independent_qc/training/20_workpiece/20200429_084445/wp_10_qc_majority_0.9.csv
production_index,step_idx,production_workcell,qc,consent,winner_qc_list,score,production_time,transport_time,inspection_time,network_time,qc_results,actual_quality,qc_score,score_error,in_winner_counter,in_qc_counter,qc_capability
24.0,1.0,wc_1,,0.0,,,56.0,,,,,Pass,,,,,
24.0,1.0,wc_1,,0.0,,,,0.0,,,,Pass,,,,,
24.0,1.0,wc_1,wc_1,0.0,"[('wc_1', 0.6900000000000005)]",0.6900000000000005,,,27.0,0.002028,['Pass'],Pass,0.6900000000000005,-0.4900000000000005,0.0,0.0,0.4
24.0,1.0,wc_1,,0.0,,,,243.0,,,,Pass,,,,,
24.0,1.0,wc_1,wc_15,0.0,"[('wc_1', 0.6900000000000005)]",0.6900000000000005,,,33.0,0.004084000000000001,['Pass'],Pass,0.39000000000000024,-0.39000000000000024,0.0,4.0,0.1
24.0,1.0,wc_1,,0.0,,,,402.0,,,,Pass,,,,,
24.0,1.0,wc_1,wc_11,0.0,"[('wc_11', 0.41000000000000025), ('wc_1', 0.6900000000000005)]",0.8171000000000004,,,31.0,0.008248,['Pass'],Pass,0.41000000000000025,-0.2671428571428574,1.0,7.0,0.1
24.0,1.0,wc_1,,0.0,,,,41.0,,,,Pass,,,,,
24.0,1.0,wc_1,wc_7,0.0,"[('wc_1', 0.6900000000000005), ('wc_11', 0.41000000000000025)]",0.8171000000000004,,,37.0,0.007604999999999999,['Pass'],Pass,0.39000000000000024,-0.26500000000000024,1.0,8.0,0.2
24.0,1.0,wc_1,,0.0,,,,223.0,,,,Pass,,,,,
24.0,1.0,wc_1,wc_16,0.0,"[('wc_16', 0.3500000000000002), ('wc_1', 0.6900000000000005), ('wc_11', 0.41000000000000025)]",0.8811150000000003,,,35.0,0.010422,['Pass'],Pass,0.3500000000000002,-0.2388888888888891,1.0,9.0,0.3
24.0,1.0,wc_1,,0.0,,,,362.0,,,,Pass,,,,,
24.0,1.0,wc_1,wc_10,0.0,"[('wc_1', 0.6900000000000005), ('wc_11', 0.41000000000000025), ('wc_16', 0.3500000000000002)]",0.8811150000000003,,,27.0,0.011488,['Pass'],Pass,0.39000000000000024,-0.26500000000000024,0.0,0.0,0.1
24.0,1.0,wc_1,,0.0,,,,362.0,,,,Pass,,,,,
24.0,1.0,wc_1,wc_4,1.0,"[('wc_4', 0.6700000000000005), ('wc_1', 0.6900000000000005), ('wc_11', 0.41000000000000025), ('wc_16', 0.3500000000000002)]",0.9607679500000001,,,40.0,0.04489800000000001,['Pass'],Pass,0.6700000000000005,-0.17000000000000048,2.0,4.0,0.8
31.0,2.0,wc_2,,0.0,,,,81.0,,,,Fail,,,,,
31.0,2.0,wc_2,,0.0,,,71.0,,,,,Fail,,,,,
31.0,2.0,wc_2,,0.0,,,,0.0,,,,Fail,,,,,
31.0,2.0,wc_2,wc_2,0.0,"[('wc_2', 0.6600000000000005)]",0.6600000000000005,,,36.0,0.002584,['Fail'],Fail,0.6600000000000005,0.08999999999999952,3.0,4.0,0.9
31.0,2.0,wc_2,,0.0,,,,162.0,,,,Fail,,,,,
31.0,2.0,wc_2,wc_8,0.0,"[('wc_8', 0.6500000000000005), ('wc_2', 0.6600000000000005)]",0.8810000000000003,,,27.0,0.004479,['Fail'],Fail,0.6500000000000005,-0.15000000000000047,3.0,6.0,0.7
31.0,2.0,wc_2,,0.0,,,,281.0,,,,Fail,,,,,
31.0,2.0,wc_2,wc_3,1.0,"[('wc_3', 0.5500000000000004), ('wc_2', 0.6600000000000005), ('wc_8', 0.6500000000000005)]",0.9464500000000002,,,20.0,0.03473899999999999,['Fail'],Fail,0.5500000000000004,-0.5500000000000004,0.0,0.0,0.7
36.0,3.0,wc_3,,0.0,,,,0.0,,,,Pass,,,,,
36.0,3.0,wc_3,,0.0,,,68.0,,,,,Pass,,,,,
36.0,3.0,wc_3,,0.0,,,,0.0,,,,Pass,,,,,
36.0,3.0,wc_3,wc_3,0.0,"[('wc_3', 0.5500000000000004)]",0.5500000000000004,,,36.0,0.002831,['Pass'],Pass,0.5500000000000004,-0.5500000000000004,0.0,0.0,0.7
36.0,3.0,wc_3,,0.0,,,,121.0,,,,Pass,,,,,
36.0,3.0,wc_3,wc_7,0.0,"[('wc_3', 0.5500000000000004)]",0.5500000000000004,,,39.0,0.004178,['Pass'],Pass,0.3800000000000002,-0.28000000000000025,0.0,0.0,0.2
36.0,3.0,wc_3,,0.0,,,,0.0,,,,Pass,,,,,
36.0,3.0,wc_3,wc_8,0.0,"[('wc_8', 0.6500000000000005), ('wc_3', 0.5500000000000004)]",0.8425000000000004,,,34.0,0.00569,['Pass'],Pass,0.6500000000000005,-0.07857142857142907,4.0,7.0,0.7
36.0,3.0,wc_3,,0.0,,,,0.0,,,,Pass,,,,,
36.0,3.0,wc_3,wc_9,0.0,"[('wc_9', 0.3500000000000002), ('wc_3', 0.5500000000000004), ('wc_8', 0.6500000000000005)]",0.8976250000000002,,,21.0,0.007587,['Pass'],Pass,0.3500000000000002,-0.1625000000000002,0.0,0.0,0.1
36.0,3.0,wc_3,,0.0,,,,0.0,,,,Pass,,,,,
36.0,3.0,wc_3,wc_10,0.0,"[('wc_3', 0.5500000000000004), ('wc_8', 0.6500000000000005), ('wc_9', 0.3500000000000002)]",0.8976250000000002,,,39.0,0.009580000000000002,['Pass'],Pass,0.3800000000000002,-0.3800000000000002,0.0,2.0,0.1
36.0,3.0,wc_3,,0.0,,,,362.0,,,,Pass,,,,,
36.0,3.0,wc_3,wc_4,1.0,"[('wc_4', 0.6700000000000005), ('wc_3', 0.5500000000000004), ('wc_8', 0.6500000000000005), ('wc_9', 0.3500000000000002)]",0.9662162500000001,,,30.0,0.042282,['Pass'],Pass,0.6700000000000005,-0.17000000000000048,3.0,6.0,0.8
43.0,4.0,wc_4,,0.0,,,,0.0,,,,Pass,,,,,
43.0,4.0,wc_4,,0.0,,,79.0,,,,,Pass,,,,,
43.0,4.0,wc_4,,0.0,,,,0.0,,,,Pass,,,,,
43.0,4.0,wc_4,wc_4,0.0,"[('wc_4', 0.6700000000000005)]",0.6700000000000005,,,30.0,0.002265,['Pass'],Pass,0.6700000000000005,-0.17000000000000048,3.0,6.0,0.8
43.0,4.0,wc_4,,0.0,,,,61.0,,,,Pass,,,,,
43.0,4.0,wc_4,wc_1,0.0,"[('wc_1', 0.7000000000000005), ('wc_4', 0.6700000000000005)]",0.9010000000000004,,,24.0,0.004114,['Pass'],Pass,0.7000000000000005,-0.3666666666666672,1.0,3.0,0.4
43.0,4.0,wc_4,,0.0,,,,182.0,,,,Pass,,,,,
43.0,4.0,wc_4,wc_8,1.0,"[('wc_8', 0.6500000000000005), ('wc_4', 0.6700000000000005), ('wc_1', 0.7000000000000005)]",0.9653500000000002,,,40.0,0.0365,['Pass'],Pass,0.6600000000000005,0.0066666666666661545,6.0,9.0,0.7
48.0,2.0,wc_2,,0.0,,,,182.0,,,,Fail,,,,,
48.0,2.0,wc_2,,0.0,,,54.0,,,,,Fail,,,,,
48.0,2.0,wc_2,,0.0,,,,0.0,,,,Fail,,,,,
48.0,2.0,wc_2,wc_2,0.0,"[('wc_2', 0.6700000000000005)]",0.6700000000000005,,,21.0,0.003306,['Fail'],Fail,0.6700000000000005,-0.09857142857142909,4.0,7.0,0.9
48.0,2.0,wc_2,,0.0,,,,202.0,,,,Fail,,,,,
48.0,2.0,wc_2,wc_14,0.0,"[('wc_14', 0.5100000000000003), ('wc_2', 0.6700000000000005)]",0.8383000000000004,,,21.0,0.004199,['Fail'],Fail,0.5100000000000003,-0.21000000000000035,0.0,0.0,0.4
48.0,2.0,wc_2,,0.0,,,,321.0,,,,Fail,,,,,
48.0,2.0,wc_2,wc_11,0.0,"[('wc_2', 0.6700000000000005), ('wc_14', 0.5100000000000003)]",0.8383000000000004,,,23.0,0.006540000000000001,['Fail'],Fail,0.41000000000000025,-0.22818181818181843,0.0,0.0,0.1
48.0,2.0,wc_2,,0.0,,,,322.0,,,,Fail,,,,,
48.0,2.0,wc_2,wc_3,1.0,"[('wc_3', 0.5600000000000004), ('wc_2', 0.6700000000000005), ('wc_14', 0.5100000000000003)]",0.9288520000000002,,,30.0,0.04434200000000001,['Fail'],Fail,0.5700000000000004,0.09666666666666623,2.0,3.0,0.7
58.0,2.0,wc_2,,0.0,,,,101.0,,,,Pass,,,,,
58.0,2.0,wc_2,,0.0,,,80.0,,,,,Pass,,,,,
58.0,2.0,wc_2,,0.0,,,,0.0,,,,Pass,,,,,
58.0,2.0,wc_2,wc_2,0.0,"[('wc_2', 0.6700000000000005)]",0.6700000000000005,,,29.0,0.002115,['Fail'],Pass,0.6700000000000005,-0.045000000000000484,5.0,8.0,0.9
58.0,2.0,wc_2,,0.0,,,,162.0,,,,Pass,,,,,
58.0,2.0,wc_2,wc_12,0.0,"[('wc_2', 0.6700000000000005)]",0.6700000000000005,,,28.0,0.0045590000000000006,['Fail'],Pass,0.6600000000000005,-0.5061538461538466,0.0,0.0,0.6
58.0,2.0,wc_2,,0.0,,,,361.0,,,,Pass,,,,,
58.0,2.0,wc_2,wc_11,0.0,"[('wc_11', 0.40000000000000024), ('wc_12', 0.6600000000000005)]",0.7960000000000004,,,29.0,0.00813,['Pass'],Pass,0.40000000000000024,-0.40000000000000024,0.0,1.0,0.1
58.0,2.0,wc_2,,0.0,,,,21.0,,,,Pass,,,,,
58.0,2.0,wc_2,wc_6,0.0,"[('wc_6', 0.40000000000000024), ('wc_12', 0.6600000000000005), ('wc_11', 0.40000000000000024)]",0.8776000000000003,,,28.0,0.008624,['Pass'],Pass,0.40000000000000024,-0.40000000000000024,0.0,0.0,0.3
58.0,2.0,wc_2,,0.0,,,,321.0,,,,Pass,,,,,
58.0,2.0,wc_2,wc_3,1.0,"[('wc_3', 0.5700000000000004), ('wc_12', 0.6600000000000005), ('wc_11', 0.40000000000000024), ('wc_6', 0.40000000000000024)]",0.9473680000000002,,,36.0,0.039783,['Pass'],Pass,0.5800000000000004,0.1699999999999996,3.0,4.0,0.7
68.0,5.0,wc_5,,0.0,,,,0.0,,,,Fail,,,,,
68.0,5.0,wc_5,,0.0,,,58.0,,,,,Fail,,,,,
68.0,5.0,wc_5,,0.0,,,,0.0,,,,Fail,,,,,
68.0,5.0,wc_5,wc_5,0.0,"[('wc_5', 0.5600000000000004)]",0.5600000000000004,,,37.0,0.002409,['Fail'],Fail,0.5600000000000004,-0.488571428571429,0.0,0.0,0.7
68.0,5.0,wc_5,,0.0,,,,142.0,,,,Fail,,,,,
68.0,5.0,wc_5,wc_10,0.0,"[('wc_10', 0.3700000000000002), ('wc_5', 0.5600000000000004)]",0.7228000000000003,,,37.0,0.004971,['Fail'],Fail,0.3700000000000002,-0.3700000000000002,0.0,6.0,0.1
68.0,5.0,wc_5,,0.0,,,,41.0,,,,Fail,,,,,
68.0,5.0,wc_5,wc_6,0.0,"[('wc_5', 0.5600000000000004), ('wc_10', 0.3700000000000002)]",0.7228000000000003,,,24.0,0.00598,['Fail'],Fail,0.41000000000000025,0.5899999999999997,1.0,1.0,0.3
68.0,5.0,wc_5,,0.0,,,,202.0,,,,Fail,,,,,
68.0,5.0,wc_5,wc_1,1.0,"[('wc_1', 0.7000000000000005), ('wc_5', 0.5600000000000004), ('wc_10', 0.3700000000000002)]",0.9168400000000002,,,30.0,0.040603,['Fail'],Fail,0.7000000000000005,-0.27142857142857196,3.0,7.0,0.4
82.0,5.0,wc_5,,0.0,,,,0.0,,,,Pass,,,,,
82.0,5.0,wc_5,,0.0,,,56.0,,,,,Pass,,,,,
82.0,5.0,wc_5,,0.0,,,,0.0,,,,Pass,,,,,
82.0,5.0,wc_5,wc_5,0.0,"[('wc_5', 0.5700000000000004)]",0.5700000000000004,,,28.0,0.002254,['Pass'],Pass,0.5700000000000004,0.4299999999999996,1.0,1.0,0.7
82.0,5.0,wc_5,,0.0,,,,83.0,,,,Pass,,,,,
82.0,5.0,wc_5,wc_3,0.0,"[('wc_3', 0.5800000000000004), ('wc_5', 0.5700000000000004)]",0.8194000000000004,,,35.0,0.004222,['Pass'],Pass,0.5800000000000004,0.019999999999999574,3.0,5.0,0.7
82.0,5.0,wc_5,,0.0,,,,101.0,,,,Pass,,,,,
82.0,5.0,wc_5,wc_6,0.0,"[('wc_6', 0.41000000000000025), ('wc_5', 0.5700000000000004), ('wc_3', 0.5800000000000004)]",0.8934460000000003,,,20.0,0.006016,['Pass'],Pass,0.41000000000000025,0.08999999999999975,1.0,2.0,0.3
82.0,5.0,wc_5,,0.0,,,,0.0,,,,Pass,,,,,
82.0,5.0,wc_5,wc_8,1.0,"[('wc_8', 0.6600000000000005), ('wc_5', 0.5700000000000004), ('wc_3', 0.5800000000000004), ('wc_6', 0.41000000000000025)]",0.9637716400000002,,,39.0,0.03903799999999999,['Pass'],Pass,0.6600000000000005,-0.6600000000000005,0.0,0.0,0.7
89.0,6.0,wc_6,,0.0,,,,82.0,,,,Fail,,,,,
89.0,6.0,wc_6,,0.0,,,58.0,,,,,Fail,,,,,
89.0,6.0,wc_6,,0.0,,,,0.0,,,,Fail,,,,,
89.0,6.0,wc_6,wc_6,0.0,"[('wc_6', 0.42000000000000026)]",0.42000000000000026,,,34.0,0.002439,['Fail'],Fail,0.42000000000000026,0.24666666666666637,2.0,3.0,0.3
89.0,6.0,wc_6,,0.0,,,,162.0,,,,Fail,,,,,
89.0,6.0,wc_6,wc_12,0.0,"[('wc_12', 0.6700000000000005), ('wc_6', 0.42000000000000026)]",0.8086000000000004,,,34.0,0.004147,['Fail'],Fail,0.6700000000000005,-0.33666666666666717,1.0,3.0,0.6
89.0,6.0,wc_6,,0.0,,,,222.0,,,,Fail,,,,,
89.0,6.0,wc_6,wc_8,1.0,"[('wc_8', 0.6600000000000005), ('wc_6', 0.42000000000000026), ('wc_12', 0.6700000000000005)]",0.9349240000000002,,,37.0,0.042281000000000006,['Fail'],Fail,0.6700000000000005,0.3299999999999995,1.0,1.0,0.7
99.0,6.0,wc_6,,0.0,,,,82.0,,,,Fail,,,,,
99.0,6.0,wc_6,,0.0,,,65.0,,,,,Fail,,,,,
99.0,6.0,wc_6,,0.0,,,,0.0,,,,Fail,,,,,
99.0,6.0,wc_6,wc_6,0.0,"[('wc_6', 0.43000000000000027)]",0.43000000000000027,,,25.0,0.002093,['Pass'],Fail,0.43000000000000027,0.31999999999999973,3.0,4.0,0.3
99.0,6.0,wc_6,,0.0,,,,0.0,,,,Fail,,,,,
99.0,6.0,wc_6,wc_10,0.0,"[('wc_10', 0.3700000000000002), ('wc_6', 0.43000000000000027)]",0.6409000000000002,,,30.0,0.004127,['Pass'],Fail,0.3700000000000002,-0.2588888888888891,1.0,9.0,0.1
99.0,6.0,wc_6,,0.0,,,,61.0,,,,Fail,,,,,
99.0,6.0,wc_6,wc_7,0.0,"[('wc_7', 0.3700000000000002), ('wc_6', 0.43000000000000027), ('wc_10', 0.3700000000000002)]",0.7737670000000003,,,31.0,0.005624,['Pass'],Fail,0.3700000000000002,-0.3700000000000002,0.0,7.0,0.2
99.0,6.0,wc_6,,0.0,,,,182.0,,,,Fail,,,,,
99.0,6.0,wc_6,wc_1,0.0,"[('wc_6', 0.43000000000000027), ('wc_10', 0.3700000000000002), ('wc_7', 0.3700000000000002)]",0.7737670000000003,,,35.0,0.007770000000000001,['Pass'],Fail,0.7000000000000005,-0.3666666666666672,3.0,9.0,0.4
99.0,6.0,wc_6,,0.0,,,,0.0,,,,Fail,,,,,
99.0,6.0,wc_6,wc_4,0.0,"[('wc_4', 0.6700000000000005), ('wc_1', 0.7000000000000005)]",0.9010000000000004,,,33.0,0.010579,['Fail'],Fail,0.6700000000000005,-0.33666666666666717,0.0,0.0,0.8
99.0,6.0,wc_6,,0.0,,,,81.0,,,,Fail,,,,,
99.0,6.0,wc_6,wc_2,1.0,"[('wc_2', 0.6600000000000005), ('wc_1', 0.7000000000000005), ('wc_4', 0.6700000000000005)]",0.9663400000000002,,,34.0,0.041214,['Fail'],Fail,0.6600000000000005,-0.6600000000000005,0.0,0.0,0.9
116.0,6.0,wc_6,,0.0,,,,122.0,,,,Pass,,,,,
116.0,6.0,wc_6,,0.0,,,76.0,,,,,Pass,,,,,
116.0,6.0,wc_6,,0.0,,,,0.0,,,,Pass,,,,,
116.0,6.0,wc_6,wc_6,0.0,"[('wc_6', 0.43000000000000027)]",0.43000000000000027,,,38.0,0.002238,['Fail'],Pass,0.43000000000000027,0.1699999999999997,3.0,5.0,0.3
116.0,6.0,wc_6,,0.0,,,,361.0,,,,Pass,,,,,
116.0,6.0,wc_6,wc_5,0.0,"[('wc_5', 0.5800000000000004)]",0.5800000000000004,,,25.0,0.004102,['Pass'],Pass,0.5800000000000004,-0.0800000000000004,2.0,4.0,0.7
116.0,6.0,wc_6,,0.0,,,,101.0,,,,Pass,,,,,
116.0,6.0,wc_6,wc_8,0.0,"[('wc_8', 0.6700000000000005), ('wc_6', 0.43000000000000027)]",0.8119000000000004,,,32.0,0.0055639999999999995,['Fail'],Pass,0.6700000000000005,-0.17000000000000048,1.0,2.0,0.7
116.0,6.0,wc_6,,0.0,,,,122.0,,,,Pass,,,,,
116.0,6.0,wc_6,wc_12,1.0,"[('wc_12', 0.6700000000000005), ('wc_6', 0.43000000000000027), ('wc_8', 0.6700000000000005)]",0.9379270000000002,,,20.0,0.042154000000000004,['Fail'],Pass,0.6700000000000005,-0.17000000000000048,3.0,6.0,0.6
121.0,8.0,wc_8,,0.0,,,,222.0,,,,Fail,,,,,
121.0,8.0,wc_8,,0.0,,,54.0,,,,,Fail,,,,,
121.0,8.0,wc_8,,0.0,,,,0.0,,,,Fail,,,,,
121.0,8.0,wc_8,wc_8,0.0,"[('wc_8', 0.6700000000000005)]",0.6700000000000005,,,26.0,0.002075,['Pass'],Fail,0.6700000000000005,-0.0033333333333338544,2.0,3.0,0.7
121.0,8.0,wc_8,,0.0,,,,82.0,,,,Fail,,,,,
121.0,8.0,wc_8,wc_6,0.0,"[('wc_6', 0.4400000000000003), ('wc_8', 0.6700000000000005)]",0.8152000000000004,,,21.0,0.004731,['Pass'],Fail,0.4400000000000003,0.22666666666666635,4.0,6.0,0.3
121.0,8.0,wc_8,,0.0,,,,0.0,,,,Fail,,,,,
121.0,8.0,wc_8,wc_11,0.0,"[('wc_11', 0.41000000000000025), ('wc_8', 0.6700000000000005), ('wc_6', 0.4400000000000003)]",0.8909680000000002,,,34.0,0.006189999999999999,['Pass'],Fail,0.41000000000000025,-0.2671428571428574,1.0,7.0,0.1
121.0,8.0,wc_8,,0.0,,,,162.0,,,,Fail,,,,,
121.0,8.0,wc_8,wc_17,1.0,"[('wc_17', 0.6900000000000005), ('wc_8', 0.6700000000000005), ('wc_6', 0.4400000000000003), ('wc_11', 0.41000000000000025)]",0.9662000800000001,,,38.0,0.039439999999999996,['Pass'],Fail,0.6900000000000005,-0.6900000000000005,0.0,0.0,0.8
129.0,8.0,wc_8,,0.0,,,,223.0,,,,Pass,,,,,
129.0,8.0,wc_8,,0.0,,,58.0,,,,,Pass,,,,,
129.0,8.0,wc_8,,0.0,,,,0.0,,,,Pass,,,,,
129.0,8.0,wc_8,wc_8,0.0,"[('wc_8', 0.6800000000000005)]",0.6800000000000005,,,25.0,0.002136,['Pass'],Pass,0.6800000000000005,0.06999999999999951,3.0,4.0,0.7
129.0,8.0,wc_8,,0.0,,,,0.0,,,,Pass,,,,,
129.0,8.0,wc_8,wc_9,0.0,"[('wc_8', 0.6800000000000005)]",0.6800000000000005,,,23.0,0.004175,['Pass'],Pass,0.3600000000000002,-0.26000000000000023,0.0,0.0,0.1
129.0,8.0,wc_8,,0.0,,,,0.0,,,,Pass,,,,,
129.0,8.0,wc_8,wc_11,0.0,"[('wc_8', 0.6800000000000005)]",0.6800000000000005,,,21.0,0.0060090000000000005,['Pass'],Pass,0.41000000000000025,-0.16000000000000025,2.0,8.0,0.1
129.0,8.0,wc_8,,0.0,,,,142.0,,,,Pass,,,,,
129.0,8.0,wc_8,wc_16,0.0,"[('wc_16', 0.3500000000000002), ('wc_9', 0.3600000000000002), ('wc_11', 0.41000000000000025)]",0.7545600000000002,,,26.0,0.008006000000000001,['Fail'],Pass,0.3500000000000002,-0.3500000000000002,0.0,0.0,0.3
129.0,8.0,wc_8,,0.0,,,,0.0,,,,Pass,,,,,
129.0,8.0,wc_8,wc_17,0.0,"[('wc_17', 0.6900000000000005), ('wc_8', 0.6800000000000005)]",0.9008000000000003,,,32.0,0.009566,['Pass'],Pass,0.6900000000000005,-0.6900000000000005,0.0,0.0,0.8
129.0,8.0,wc_8,,0.0,,,,61.0,,,,Pass,,,,,
129.0,8.0,wc_8,wc_14,0.0,"[('wc_8', 0.6800000000000005), ('wc_17', 0.6900000000000005)]",0.9008000000000003,,,29.0,0.013021000000000001,['Pass'],Pass,0.5200000000000004,-0.39500000000000035,1.0,8.0,0.4
129.0,8.0,wc_8,,0.0,,,,341.0,,,,Pass,,,,,
129.0,8.0,wc_8,wc_4,1.0,"[('wc_4', 0.6800000000000005), ('wc_8', 0.6800000000000005), ('wc_17', 0.6900000000000005)]",0.9682560000000001,,,33.0,0.045467999999999995,['Pass'],Pass,0.6800000000000005,-0.1800000000000005,2.0,4.0,0.8
138.0,11.0,wc_11,,0.0,,,,182.0,,,,Fail,,,,,
138.0,11.0,wc_11,,0.0,,,72.0,,,,,Fail,,,,,
138.0,11.0,wc_11,,0.0,,,,0.0,,,,Fail,,,,,
138.0,11.0,wc_11,wc_11,0.0,"[('wc_11', 0.40000000000000024)]",0.40000000000000024,,,23.0,0.002056,['Pass'],Fail,0.40000000000000024,-0.17777777777777803,2.0,9.0,0.1
138.0,11.0,wc_11,,0.0,,,,322.0,,,,Fail,,,,,
138.0,11.0,wc_11,wc_3,0.0,"[('wc_3', 0.5900000000000004)]",0.5900000000000004,,,32.0,0.004104,['Fail'],Fail,0.5900000000000004,-0.22636363636363677,0.0,0.0,0.7
138.0,11.0,wc_11,,0.0,,,,242.0,,,,Fail,,,,,
138.0,11.0,wc_11,wc_17,0.0,"[('wc_17', 0.7000000000000005), ('wc_3', 0.5900000000000004)]",0.8770000000000003,,,28.0,0.005981,['Fail'],Fail,0.7000000000000005,0.2999999999999995,1.0,1.0,0.8
138.0,11.0,wc_11,,0.0,,,,402.0,,,,Fail,,,,,
138.0,11.0,wc_11,wc_5,1.0,"[('wc_5', 0.5700000000000004), ('wc_3', 0.5900000000000004), ('wc_17', 0.7000000000000005)]",0.9471100000000002,,,40.0,0.043996,['Fail'],Fail,0.5700000000000004,-0.1950000000000004,3.0,8.0,0.7
147.0,11.0,wc_11,,0.0,,,,162.0,,,,Pass,,,,,
147.0,11.0,wc_11,,0.0,,,51.0,,,,,Pass,,,,,
147.0,11.0,wc_11,,0.0,,,,0.0,,,,Pass,,,,,
147.0,11.0,wc_11,wc_11,0.0,"[('wc_11', 0.39000000000000024)]",0.39000000000000024,,,35.0,0.002136,['Fail'],Pass,0.39000000000000024,-0.39000000000000024,0.0,0.0,0.1
147.0,11.0,wc_11,,0.0,,,,83.0,,,,Pass,,,,,
147.0,11.0,wc_11,wc_9,0.0,"[('wc_9', 0.3500000000000002), ('wc_11', 0.39000000000000024)]",0.6035000000000003,,,27.0,0.004376,['Fail'],Pass,0.3500000000000002,-0.3500000000000002,0.0,2.0,0.1
147.0,11.0,wc_11,,0.0,,,,382.0,,,,Pass,,,,,
147.0,11.0,wc_11,wc_4,0.0,"[('wc_4', 0.6800000000000005), ('wc_11', 0.39000000000000024), ('wc_9', 0.3500000000000002)]",0.8731200000000003,,,28.0,0.005909,['Fail'],Pass,0.6800000000000005,-0.28000000000000047,2.0,5.0,0.8
147.0,11.0,wc_11,,0.0,,,,182.0,,,,Pass,,,,,
147.0,11.0,wc_11,wc_15,1.0,"[('wc_15', 0.3800000000000002), ('wc_11', 0.39000000000000024), ('wc_9', 0.3500000000000002), ('wc_4', 0.6800000000000005)]",0.9213344000000002,,,40.0,0.044797,['Fail'],Pass,0.3800000000000002,-0.3800000000000002,0.0,0.0,0.1
155.0,9.0,wc_9,,0.0,,,,362.0,,,,Pass,,,,,
155.0,9.0,wc_9,,0.0,,,57.0,,,,,Pass,,,,,
155.0,9.0,wc_9,,0.0,,,,0.0,,,,Pass,,,,,
155.0,9.0,wc_9,wc_9,0.0,"[('wc_9', 0.3500000000000002)]",0.3500000000000002,,,27.0,0.002211,['Fail'],Pass,0.3500000000000002,-0.016666666666666885,1.0,3.0,0.1
155.0,9.0,wc_9,,0.0,,,,141.0,,,,Pass,,,,,
155.0,9.0,wc_9,wc_14,0.0,"[('wc_14', 0.5100000000000003)]",0.5100000000000003,,,38.0,0.004026999999999999,['Pass'],Pass,0.5100000000000003,-0.4190909090909094,0.0,0.0,0.4
155.0,9.0,wc_9,,0.0,,,,341.0,,,,Pass,,,,,
155.0,9.0,wc_9,wc_4,0.0,"[('wc_4', 0.6800000000000005), ('wc_14', 0.5100000000000003)]",0.8432000000000004,,,21.0,0.0058649999999999996,['Pass'],Pass,0.6800000000000005,-0.1800000000000005,3.0,6.0,0.8
155.0,9.0,wc_9,,0.0,,,,182.0,,,,Pass,,,,,
155.0,9.0,wc_9,wc_11,1.0,"[('wc_11', 0.40000000000000024), ('wc_14', 0.5100000000000003), ('wc_4', 0.6800000000000005)]",0.9059200000000003,,,23.0,0.04105400000000001,['Pass'],Pass,0.41000000000000025,0.5899999999999997,2.0,2.0,0.1
164.0,7.0,wc_7,,0.0,,,,41.0,,,,Pass,,,,,
164.0,7.0,wc_7,,0.0,,,74.0,,,,,Pass,,,,,
164.0,7.0,wc_7,,0.0,,,,0.0,,,,Pass,,,,,
164.0,7.0,wc_7,wc_7,0.0,"[('wc_7', 0.3600000000000002)]",0.3600000000000002,,,37.0,0.002388,['Fail'],Pass,0.3600000000000002,-0.3600000000000002,0.0,0.0,0.2
164.0,7.0,wc_7,,0.0,,,,0.0,,,,Pass,,,,,
164.0,7.0,wc_7,wc_11,0.0,"[('wc_11', 0.41000000000000025)]",0.41000000000000025,,,32.0,0.005363,['Pass'],Pass,0.41000000000000025,0.5899999999999997,2.0,2.0,0.1
164.0,7.0,wc_7,,0.0,,,,61.0,,,,Pass,,,,,
164.0,7.0,wc_7,wc_12,0.0,"[('wc_12', 0.6700000000000005), ('wc_11', 0.41000000000000025)]",0.8053000000000003,,,22.0,0.006307,['Pass'],Pass,0.6700000000000005,-0.3972727272727278,0.0,0.0,0.6
164.0,7.0,wc_7,,0.0,,,,0.0,,,,Pass,,,,,
164.0,7.0,wc_7,wc_16,0.0,"[('wc_11', 0.41000000000000025), ('wc_12', 0.6700000000000005)]",0.8053000000000003,,,34.0,0.007968,['Pass'],Pass,0.3400000000000002,-0.3400000000000002,0.0,4.0,0.3
164.0,7.0,wc_7,,0.0,,,,382.0,,,,Pass,,,,,
164.0,7.0,wc_7,wc_3,1.0,"[('wc_3', 0.6000000000000004), ('wc_11', 0.41000000000000025), ('wc_12', 0.6700000000000005)]",0.9221200000000003,,,35.0,0.04767000000000001,['Pass'],Pass,0.6000000000000004,-0.10000000000000042,2.0,4.0,0.7
177.0,10.0,wc_10,,0.0,,,,182.0,,,,Fail,,,,,
177.0,10.0,wc_10,,0.0,,,56.0,,,,,Fail,,,,,
177.0,10.0,wc_10,,0.0,,,,0.0,,,,Fail,,,,,
177.0,10.0,wc_10,wc_10,0.0,"[('wc_10', 0.3600000000000002)]",0.3600000000000002,,,35.0,0.00218,['Pass'],Fail,0.3600000000000002,-0.3600000000000002,0.0,7.0,0.1
177.0,10.0,wc_10,,0.0,,,,103.0,,,,Fail,,,,,
177.0,10.0,wc_10,wc_9,0.0,"[('wc_9', 0.3400000000000002), ('wc_10', 0.3600000000000002)]",0.5776000000000003,,,24.0,0.00417,['Pass'],Fail,0.3400000000000002,-0.14000000000000018,1.0,5.0,0.1
177.0,10.0,wc_10,,0.0,,,,121.0,,,,Fail,,,,,
177.0,10.0,wc_10,wc_13,0.0,"[('wc_13', 0.6200000000000004)]",0.6200000000000004,,,24.0,0.006047,['Fail'],Fail,0.6200000000000004,-0.48956521739130476,0.0,0.0,0.6
177.0,10.0,wc_10,,0.0,,,,102.0,,,,Fail,,,,,
177.0,10.0,wc_10,wc_12,0.0,"[('wc_12', 0.6800000000000005), ('wc_10', 0.3600000000000002), ('wc_9', 0.3400000000000002)]",0.8648320000000003,,,24.0,0.010312000000000002,['Pass'],Fail,0.6800000000000005,0.3199999999999995,1.0,1.0,0.6
177.0,10.0,wc_10,,0.0,,,,202.0,,,,Fail,,,,,
177.0,10.0,wc_10,wc_7,0.0,"[('wc_10', 0.3600000000000002), ('wc_9', 0.3400000000000002), ('wc_12', 0.6800000000000005)]",0.8648320000000003,,,22.0,0.010427,['Pass'],Fail,0.3500000000000002,-0.3500000000000002,0.0,1.0,0.2
177.0,10.0,wc_10,,0.0,,,,202.0,,,,Fail,,,,,
177.0,10.0,wc_10,wc_2,1.0,"[('wc_2', 0.6600000000000005), ('wc_13', 0.6200000000000004), ('wc_7', 0.3500000000000002)]",0.9160200000000003,,,23.0,0.048827999999999996,['Fail'],Fail,0.6600000000000005,-0.5350000000000005,1.0,8.0,0.9
185.0,10.0,wc_10,,0.0,,,,203.0,,,,Pass,,,,,
185.0,10.0,wc_10,,0.0,,,65.0,,,,,Pass,,,,,
185.0,10.0,wc_10,,0.0,,,,0.0,,,,Pass,,,,,
185.0,10.0,wc_10,wc_10,0.0,"[('wc_10', 0.3500000000000002)]",0.3500000000000002,,,37.0,0.002492,['Pass'],Pass,0.3500000000000002,-0.3500000000000002,0.0,8.0,0.1
185.0,10.0,wc_10,,0.0,,,,162.0,,,,Pass,,,,,
185.0,10.0,wc_10,wc_16,0.0,"[('wc_16', 0.3300000000000002), ('wc_10', 0.3500000000000002)]",0.5645000000000002,,,22.0,0.004932000000000001,['Pass'],Pass,0.3300000000000002,-0.3300000000000002,0.0,6.0,0.3
185.0,10.0,wc_10,,0.0,,,,81.0,,,,Pass,,,,,
185.0,10.0,wc_10,wc_14,0.0,"[('wc_14', 0.5200000000000004), ('wc_10', 0.3500000000000002), ('wc_16', 0.3300000000000002)]",0.7909600000000003,,,31.0,0.005657,['Pass'],Pass,0.5200000000000004,-0.18666666666666704,1.0,3.0,0.4
185.0,10.0,wc_10,,0.0,,,,182.0,,,,Pass,,,,,
185.0,10.0,wc_10,wc_8,1.0,"[('wc_8', 0.6900000000000005), ('wc_10', 0.3500000000000002), ('wc_16', 0.3300000000000002), ('wc_14', 0.5200000000000004)]",0.9351976000000002,,,27.0,0.04492499999999999,['Pass'],Pass,0.6900000000000005,-0.6900000000000005,0.0,0.0,0.7
198.0,12.0,wc_12,,0.0,,,,122.0,,,,Fail,,,,,
198.0,12.0,wc_12,,0.0,,,64.0,,,,,Fail,,,,,
198.0,12.0,wc_12,,0.0,,,,0.0,,,,Fail,,,,,
198.0,12.0,wc_12,wc_12,0.0,"[('wc_12', 0.6700000000000005)]",0.6700000000000005,,,34.0,0.002028,['Fail'],Fail,0.6700000000000005,-0.33666666666666717,1.0,3.0,0.6
198.0,12.0,wc_12,,0.0,,,,182.0,,,,Fail,,,,,
198.0,12.0,wc_12,wc_6,0.0,"[('wc_12', 0.6700000000000005)]",0.6700000000000005,,,37.0,0.003935,['Fail'],Fail,0.4500000000000003,-0.09285714285714314,0.0,0.0,0.3
198.0,12.0,wc_12,,0.0,,,,0.0,,,,Fail,,,,,
198.0,12.0,wc_12,wc_8,0.0,"[('wc_8', 0.6900000000000005), ('wc_12', 0.6700000000000005)]",0.8977000000000003,,,37.0,0.006296,['Fail'],Fail,0.6900000000000005,-0.6900000000000005,0.0,0.0,0.7
198.0,12.0,wc_12,,0.0,,,,102.0,,,,Fail,,,,,
198.0,12.0,wc_12,wc_7,1.0,"[('wc_7', 0.3600000000000002), ('wc_12', 0.6700000000000005), ('wc_8', 0.6900000000000005)]",0.9345280000000002,,,40.0,0.04591,['Fail'],Fail,0.3700000000000002,0.12999999999999978,2.0,4.0,0.2
209.0,12.0,wc_12,,0.0,,,,142.0,,,,Fail,,,,,
209.0,12.0,wc_12,,0.0,,,59.0,,,,,Fail,,,,,
209.0,12.0,wc_12,,0.0,,,,0.0,,,,Fail,,,,,
209.0,12.0,wc_12,wc_12,0.0,"[('wc_12', 0.6700000000000005)]",0.6700000000000005,,,27.0,0.00228,['Fail'],Fail,0.6700000000000005,-0.17000000000000048,2.0,4.0,0.6
209.0,12.0,wc_12,,0.0,,,,222.0,,,,Fail,,,,,
209.0,12.0,wc_12,wc_8,0.0,"[('wc_8', 0.7000000000000005), ('wc_12', 0.6700000000000005)]",0.9010000000000004,,,20.0,0.004142,['Fail'],Fail,0.7000000000000005,0.2999999999999995,1.0,1.0,0.7
209.0,12.0,wc_12,,0.0,,,,223.0,,,,Fail,,,,,
209.0,12.0,wc_12,wc_17,1.0,"[('wc_17', 0.7100000000000005), ('wc_12', 0.6700000000000005), ('wc_8', 0.7000000000000005)]",0.9712900000000001,,,36.0,0.04044299999999999,['Fail'],Fail,0.7100000000000005,-0.3766666666666672,3.0,9.0,0.8
230.0,12.0,wc_12,,0.0,,,,21.0,,,,Fail,,,,,
230.0,12.0,wc_12,,0.0,,,79.0,,,,,Fail,,,,,
230.0,12.0,wc_12,,0.0,,,,0.0,,,,Fail,,,,,
230.0,12.0,wc_12,wc_12,0.0,"[('wc_12', 0.6700000000000005)]",0.6700000000000005,,,34.0,0.002224,['Fail'],Fail,0.6700000000000005,-0.0700000000000005,3.0,5.0,0.6
230.0,12.0,wc_12,,0.0,,,,0.0,,,,Fail,,,,,
230.0,12.0,wc_12,wc_14,0.0,"[('wc_14', 0.5200000000000004), ('wc_12', 0.6700000000000005)]",0.8416000000000003,,,29.0,0.004001,['Fail'],Fail,0.5200000000000004,-0.18666666666666704,2.0,6.0,0.4
230.0,12.0,wc_12,,0.0,,,,0.0,,,,Fail,,,,,
230.0,12.0,wc_12,wc_17,1.0,"[('wc_17', 0.7100000000000005), ('wc_12', 0.6700000000000005), ('wc_14', 0.5200000000000004)]",0.9540640000000001,,,20.0,0.040365,['Fail'],Fail,0.7100000000000005,-0.7100000000000005,0.0,0.0,0.8
248.0,12.0,wc_12,,0.0,,,,21.0,,,,Pass,,,,,
248.0,12.0,wc_12,,0.0,,,61.0,,,,,Pass,,,,,
248.0,12.0,wc_12,,0.0,,,,0.0,,,,Pass,,,,,
248.0,12.0,wc_12,wc_12,0.0,"[('wc_12', 0.6700000000000005)]",0.6700000000000005,,,28.0,0.002181,['Pass'],Pass,0.6700000000000005,-0.0033333333333338544,4.0,6.0,0.6
248.0,12.0,wc_12,,0.0,,,,262.0,,,,Pass,,,,,
248.0,12.0,wc_12,wc_2,0.0,"[('wc_2', 0.6600000000000005), ('wc_12', 0.6700000000000005)]",0.8878000000000004,,,29.0,0.0044150000000000005,['Pass'],Pass,0.6600000000000005,-0.5766666666666671,0.0,0.0,0.9
248.0,12.0,wc_12,,0.0,,,,263.0,,,,Pass,,,,,
248.0,12.0,wc_12,wc_17,1.0,"[('wc_17', 0.7100000000000005), ('wc_12', 0.6700000000000005), ('wc_2', 0.6600000000000005)]",0.9674620000000002,,,34.0,0.04275,['Pass'],Pass,0.7200000000000005,0.27999999999999947,1.0,1.0,0.8
257.0,13.0,wc_13,,0.0,,,,41.0,,,,Fail,,,,,
257.0,13.0,wc_13,,0.0,,,53.0,,,,,Fail,,,,,
257.0,13.0,wc_13,,0.0,,,,0.0,,,,Fail,,,,,
257.0,13.0,wc_13,wc_13,0.0,"[('wc_13', 0.6300000000000004)]",0.6300000000000004,,,31.0,0.002277,['Pass'],Fail,0.6300000000000004,-0.4633333333333338,1.0,6.0,0.6
257.0,13.0,wc_13,,0.0,,,,0.0,,,,Fail,,,,,
257.0,13.0,wc_13,wc_17,0.0,"[('wc_17', 0.7200000000000005)]",0.7200000000000005,,,21.0,0.003993,['Fail'],Fail,0.7200000000000005,0.27999999999999947,1.0,1.0,0.8
257.0,13.0,wc_13,,0.0,,,,21.0,,,,Fail,,,,,
257.0,13.0,wc_13,wc_12,0.0,"[('wc_12', 0.6800000000000005), ('wc_13', 0.6300000000000004)]",0.8816000000000004,,,39.0,0.006136,['Pass'],Fail,0.6800000000000005,0.03428571428571381,5.0,7.0,0.6
257.0,13.0,wc_13,,0.0,,,,361.0,,,,Fail,,,,,
257.0,13.0,wc_13,wc_11,1.0,"[('wc_11', 0.42000000000000026), ('wc_13', 0.6300000000000004), ('wc_12', 0.6800000000000005)]",0.9313280000000002,,,27.0,0.045519,['Pass'],Fail,0.42000000000000026,-0.42000000000000026,0.0,0.0,0.1
268.0,13.0,wc_13,,0.0,,,,81.0,,,,Pass,,,,,
268.0,13.0,wc_13,,0.0,,,69.0,,,,,Pass,,,,,
268.0,13.0,wc_13,,0.0,,,,0.0,,,,Pass,,,,,
268.0,13.0,wc_13,wc_13,0.0,"[('wc_13', 0.6300000000000004)]",0.6300000000000004,,,38.0,0.002022,['Pass'],Pass,0.6300000000000004,-0.34428571428571475,2.0,7.0,0.6
268.0,13.0,wc_13,,0.0,,,,0.0,,,,Pass,,,,,
268.0,13.0,wc_13,wc_16,0.0,"[('wc_16', 0.3300000000000002), ('wc_13', 0.6300000000000004)]",0.7521000000000004,,,32.0,0.004175,['Pass'],Pass,0.3300000000000002,-0.24666666666666687,0.0,0.0,0.3
268.0,13.0,wc_13,,0.0,,,,103.0,,,,Pass,,,,,
268.0,13.0,wc_13,wc_15,0.0,"[('wc_15', 0.3800000000000002), ('wc_13', 0.6300000000000004), ('wc_16', 0.3300000000000002)]",0.8463020000000003,,,25.0,0.007171,['Pass'],Pass,0.3800000000000002,-0.3800000000000002,0.0,9.0,0.1
268.0,13.0,wc_13,,0.0,,,,442.0,,,,Pass,,,,,
268.0,13.0,wc_13,wc_5,1.0,"[('wc_5', 0.5700000000000004), ('wc_13', 0.6300000000000004), ('wc_16', 0.3300000000000002), ('wc_15', 0.3800000000000002)]",0.9339098600000002,,,38.0,0.044580999999999996,['Pass'],Pass,0.5700000000000004,-0.5700000000000004,0.0,0.0,0.7
283.0,14.0,wc_14,,0.0,,,,141.0,,,,Pass,,,,,
283.0,14.0,wc_14,,0.0,,,74.0,,,,,Pass,,,,,
283.0,14.0,wc_14,,0.0,,,,0.0,,,,Pass,,,,,
283.0,14.0,wc_14,wc_14,0.0,"[('wc_14', 0.5200000000000004)]",0.5200000000000004,,,28.0,0.002441,['Fail'],Pass,0.5200000000000004,-0.22000000000000036,0.0,0.0,0.4
283.0,14.0,wc_14,,0.0,,,,102.0,,,,Pass,,,,,
283.0,14.0,wc_14,wc_13,0.0,"[('wc_13', 0.6300000000000004), ('wc_14', 0.5200000000000004)]",0.8224000000000004,,,39.0,0.004359999999999999,['Fail'],Pass,0.6300000000000004,-0.25500000000000045,3.0,8.0,0.6
283.0,14.0,wc_14,,0.0,,,,182.0,,,,Pass,,,,,
283.0,14.0,wc_14,wc_7,0.0,"[('wc_7', 0.3700000000000002), ('wc_14', 0.5200000000000004), ('wc_13', 0.6300000000000004)]",0.8881120000000002,,,36.0,0.005451,['Fail'],Pass,0.3700000000000002,-0.147777777777778,2.0,9.0,0.2
283.0,14.0,wc_14,,0.0,,,,202.0,,,,Pass,,,,,
283.0,14.0,wc_14,wc_2,1.0,"[('wc_2', 0.6700000000000005), ('wc_14', 0.5200000000000004), ('wc_13', 0.6300000000000004), ('wc_7', 0.3700000000000002)]",0.9630769600000001,,,39.0,0.041949999999999994,['Fail'],Pass,0.6700000000000005,-0.17000000000000048,2.0,4.0,0.9
291.0,15.0,wc_15,,0.0,,,,223.0,,,,Fail,,,,,
291.0,15.0,wc_15,,0.0,,,59.0,,,,,Fail,,,,,
291.0,15.0,wc_15,,0.0,,,,0.0,,,,Fail,,,,,
291.0,15.0,wc_15,wc_15,0.0,"[('wc_15', 0.3800000000000002)]",0.3800000000000002,,,33.0,0.001926,['Pass'],Fail,0.3800000000000002,-0.3800000000000002,0.0,1.0,0.1
291.0,15.0,wc_15,,0.0,,,,61.0,,,,Fail,,,,,
291.0,15.0,wc_15,wc_12,0.0,"[('wc_12', 0.6900000000000005)]",0.6900000000000005,,,20.0,0.004625,['Fail'],Fail,0.6900000000000005,-0.09000000000000052,0.0,0.0,0.6
291.0,15.0,wc_15,,0.0,,,,381.0,,,,Fail,,,,,
291.0,15.0,wc_15,wc_4,0.0,"[('wc_4', 0.6800000000000005), ('wc_12', 0.6900000000000005)]",0.9008000000000003,,,22.0,0.006137,['Fail'],Fail,0.6800000000000005,-0.4447058823529417,0.0,0.0,0.8
291.0,15.0,wc_15,,0.0,,,,141.0,,,,Fail,,,,,
291.0,15.0,wc_15,wc_13,1.0,"[('wc_13', 0.6300000000000004), ('wc_12', 0.6900000000000005), ('wc_4', 0.6800000000000005)]",0.9632960000000002,,,34.0,0.049164,['Fail'],Fail,0.6300000000000004,-0.6300000000000004,0.0,0.0,0.6
300.0,15.0,wc_15,,0.0,,,,0.0,,,,Fail,,,,,
300.0,15.0,wc_15,,0.0,,,60.0,,,,,Fail,,,,,
300.0,15.0,wc_15,,0.0,,,,0.0,,,,Fail,,,,,
300.0,15.0,wc_15,wc_15,0.0,"[('wc_15', 0.3700000000000002)]",0.3700000000000002,,,26.0,0.002373,['Pass'],Fail,0.3700000000000002,-0.3700000000000002,0.0,2.0,0.1
300.0,15.0,wc_15,,0.0,,,,382.0,,,,Fail,,,,,
300.0,15.0,wc_15,wc_10,0.0,"[('wc_15', 0.3700000000000002)]",0.3700000000000002,,,29.0,0.003994,['Pass'],Fail,0.3500000000000002,-0.2911764705882355,0.0,0.0,0.1
300.0,15.0,wc_15,,0.0,,,,223.0,,,,Fail,,,,,
300.0,15.0,wc_15,wc_1,0.0,"[('wc_1', 0.7000000000000005), ('wc_10', 0.3500000000000002)]",0.8050000000000004,,,30.0,0.006227999999999999,['Fail'],Fail,0.7000000000000005,-0.7000000000000005,0.0,0.0,0.4
300.0,15.0,wc_15,,0.0,,,,142.0,,,,Fail,,,,,
300.0,15.0,wc_15,wc_6,0.0,"[('wc_6', 0.4400000000000003), ('wc_10', 0.3500000000000002), ('wc_1', 0.7000000000000005)]",0.8908000000000003,,,30.0,0.00866,['Fail'],Fail,0.4400000000000003,-0.4400000000000003,0.0,8.0,0.3
300.0,15.0,wc_15,,0.0,,,,361.0,,,,Fail,,,,,
300.0,15.0,wc_15,wc_5,1.0,"[('wc_5', 0.5700000000000004), ('wc_10', 0.3500000000000002), ('wc_1', 0.7000000000000005), ('wc_6', 0.4400000000000003)]",0.9530440000000002,,,25.0,0.043201,['Fail'],Fail,0.5700000000000004,-0.23666666666666708,1.0,3.0,0.7
310.0,16.0,wc_16,,0.0,,,,182.0,,,,Pass,,,,,
310.0,16.0,wc_16,,0.0,,,65.0,,,,,Pass,,,,,
310.0,16.0,wc_16,,0.0,,,,0.0,,,,Pass,,,,,
310.0,16.0,wc_16,wc_16,0.0,"[('wc_16', 0.3400000000000002)]",0.3400000000000002,,,25.0,0.002613,['Fail'],Pass,0.3400000000000002,-0.09000000000000019,1.0,4.0,0.3
310.0,16.0,wc_16,,0.0,,,,0.0,,,,Pass,,,,,
310.0,16.0,wc_16,wc_17,0.0,"[('wc_17', 0.7100000000000005)]",0.7100000000000005,,,30.0,0.004207000000000001,['Pass'],Pass,0.7100000000000005,-0.5433333333333339,1.0,6.0,0.8
310.0,16.0,wc_16,,0.0,,,,183.0,,,,Pass,,,,,
310.0,16.0,wc_16,wc_6,0.0,"[('wc_17', 0.7100000000000005)]",0.7100000000000005,,,40.0,0.005967999999999999,['Pass'],Pass,0.4400000000000003,-0.3288888888888892,1.0,9.0,0.3
310.0,16.0,wc_16,,0.0,,,,0.0,,,,Pass,,,,,
310.0,16.0,wc_16,wc_11,0.0,"[('wc_11', 0.42000000000000026), ('wc_16', 0.3400000000000002), ('wc_6', 0.4400000000000003)]",0.7856320000000003,,,26.0,0.009436,['Fail'],Pass,0.42000000000000026,-0.42000000000000026,0.0,4.0,0.1
310.0,16.0,wc_16,,0.0,,,,103.0,,,,Pass,,,,,
310.0,16.0,wc_16,wc_10,0.0,"[('wc_10', 0.3600000000000002), ('wc_16', 0.3400000000000002), ('wc_6', 0.4400000000000003), ('wc_11', 0.42000000000000026)]",0.8628044800000002,,,30.0,0.010021,['Fail'],Pass,0.3600000000000002,0.6399999999999998,1.0,1.0,0.1
310.0,16.0,wc_16,,0.0,,,,81.0,,,,Pass,,,,,
310.0,16.0,wc_16,wc_12,0.0,"[('wc_12', 0.7000000000000005), ('wc_17', 0.7100000000000005)]",0.9130000000000003,,,26.0,0.011363999999999999,['Pass'],Pass,0.7000000000000005,-0.2000000000000005,1.0,2.0,0.6
310.0,16.0,wc_16,,0.0,,,,222.0,,,,Pass,,,,,
310.0,16.0,wc_16,wc_8,1.0,"[('wc_8', 0.7100000000000005), ('wc_16', 0.3400000000000002), ('wc_6', 0.4400000000000003), ('wc_11', 0.42000000000000026), ('wc_10', 0.3600000000000002)]",0.9602132992000001,,,33.0,0.05615200000000001,['Fail'],Pass,0.7100000000000005,-0.7100000000000005,0.0,0.0,0.7
323.0,15.0,wc_15,,0.0,,,,183.0,,,,Fail,,,,,
323.0,15.0,wc_15,,0.0,,,76.0,,,,,Fail,,,,,
323.0,15.0,wc_15,,0.0,,,,0.0,,,,Fail,,,,,
323.0,15.0,wc_15,wc_15,0.0,"[('wc_15', 0.3600000000000002)]",0.3600000000000002,,,27.0,0.002246,['Fail'],Fail,0.3600000000000002,-0.3600000000000002,0.0,4.0,0.1
323.0,15.0,wc_15,,0.0,,,,81.0,,,,Fail,,,,,
323.0,15.0,wc_15,wc_13,0.0,"[('wc_13', 0.6300000000000004), ('wc_15', 0.3600000000000002)]",0.7632000000000003,,,26.0,0.003788,['Fail'],Fail,0.6300000000000004,-0.6300000000000004,0.0,2.0,0.6
323.0,15.0,wc_15,,0.0,,,,0.0,,,,Fail,,,,,
323.0,15.0,wc_15,wc_14,0.0,"[('wc_14', 0.5300000000000004), ('wc_15', 0.3600000000000002), ('wc_13', 0.6300000000000004)]",0.8887040000000003,,,24.0,0.006246999999999999,['Fail'],Fail,0.5300000000000004,-0.28000000000000036,1.0,4.0,0.4
323.0,15.0,wc_15,,0.0,,,,361.0,,,,Fail,,,,,
323.0,15.0,wc_15,wc_5,1.0,"[('wc_5', 0.5700000000000004), ('wc_15', 0.3600000000000002), ('wc_13', 0.6300000000000004), ('wc_14', 0.5300000000000004)]",0.9521427200000001,,,37.0,0.047263,['Fail'],Fail,0.5700000000000004,-0.17000000000000037,2.0,5.0,0.7
340.0,15.0,wc_15,,0.0,,,,162.0,,,,Fail,,,,,
340.0,15.0,wc_15,,0.0,,,64.0,,,,,Fail,,,,,
340.0,15.0,wc_15,,0.0,,,,0.0,,,,Fail,,,,,
340.0,15.0,wc_15,wc_15,0.0,"[('wc_15', 0.3600000000000002)]",0.3600000000000002,,,35.0,0.002169,['Fail'],Fail,0.3600000000000002,-0.1600000000000002,1.0,5.0,0.1
340.0,15.0,wc_15,,0.0,,,,61.0,,,,Fail,,,,,
340.0,15.0,wc_15,wc_12,0.0,"[('wc_12', 0.6900000000000005), ('wc_15', 0.3600000000000002)]",0.8016000000000004,,,30.0,0.004059,['Fail'],Fail,0.6900000000000005,-0.4400000000000005,1.0,4.0,0.6
340.0,15.0,wc_15,,0.0,,,,341.0,,,,Fail,,,,,
340.0,15.0,wc_15,wc_10,0.0,"[('wc_10', 0.3700000000000002), ('wc_15', 0.3600000000000002), ('wc_12', 0.6900000000000005)]",0.8750080000000002,,,33.0,0.006703000000000001,['Fail'],Fail,0.3700000000000002,0.2966666666666664,2.0,3.0,0.1
340.0,15.0,wc_15,,0.0,,,,0.0,,,,Fail,,,,,
340.0,15.0,wc_15,wc_11,0.0,"[('wc_15', 0.3600000000000002), ('wc_12', 0.6900000000000005), ('wc_10', 0.3700000000000002)]",0.8750080000000002,,,39.0,0.007991,['Fail'],Fail,0.42000000000000026,-0.25333333333333363,1.0,6.0,0.1
340.0,15.0,wc_15,,0.0,,,,41.0,,,,Fail,,,,,
340.0,15.0,wc_15,wc_7,0.0,"[('wc_15', 0.3600000000000002), ('wc_12', 0.6900000000000005), ('wc_10', 0.3700000000000002)]",0.8750080000000002,,,40.0,0.009928,['Fail'],Fail,0.3700000000000002,-0.3700000000000002,0.0,4.0,0.2
340.0,15.0,wc_15,,0.0,,,,162.0,,,,Fail,,,,,
340.0,15.0,wc_15,wc_13,1.0,"[('wc_13', 0.6300000000000004), ('wc_15', 0.3600000000000002), ('wc_12', 0.6900000000000005), ('wc_10', 0.3700000000000002)]",0.9537529600000002,,,33.0,0.047178000000000005,['Fail'],Fail,0.6300000000000004,-0.13000000000000045,2.0,4.0,0.6
358.0,15.0,wc_15,,0.0,,,,0.0,,,,Fail,,,,,
358.0,15.0,wc_15,,0.0,,,63.0,,,,,Fail,,,,,
358.0,15.0,wc_15,,0.0,,,,0.0,,,,Fail,,,,,
358.0,15.0,wc_15,wc_15,0.0,"[('wc_15', 0.3600000000000002)]",0.3600000000000002,,,27.0,0.002081,['Fail'],Fail,0.3600000000000002,-0.026666666666666894,2.0,6.0,0.1
358.0,15.0,wc_15,,0.0,,,,223.0,,,,Fail,,,,,
358.0,15.0,wc_15,wc_6,0.0,"[('wc_6', 0.4400000000000003)]",0.4400000000000003,,,33.0,0.004232,['Pass'],Fail,0.4400000000000003,-0.4400000000000003,0.0,2.0,0.3
358.0,15.0,wc_15,,0.0,,,,321.0,,,,Fail,,,,,
358.0,15.0,wc_15,wc_3,0.0,"[('wc_3', 0.6000000000000004), ('wc_15', 0.3600000000000002)]",0.7440000000000003,,,28.0,0.006507000000000001,['Fail'],Fail,0.6000000000000004,-0.4888888888888893,0.0,0.0,0.7
358.0,15.0,wc_15,,0.0,,,,141.0,,,,Fail,,,,,
358.0,15.0,wc_15,wc_8,1.0,"[('wc_8', 0.7100000000000005), ('wc_15', 0.3600000000000002), ('wc_3', 0.6000000000000004)]",0.9257600000000002,,,36.0,0.042461000000000006,['Fail'],Fail,0.7100000000000005,-0.3766666666666672,1.0,3.0,0.7
369.0,15.0,wc_15,,0.0,,,,183.0,,,,Fail,,,,,
369.0,15.0,wc_15,,0.0,,,78.0,,,,,Fail,,,,,
369.0,15.0,wc_15,,0.0,,,,0.0,,,,Fail,,,,,
369.0,15.0,wc_15,wc_15,0.0,"[('wc_15', 0.3700000000000002)]",0.3700000000000002,,,35.0,0.002265,['Fail'],Fail,0.3700000000000002,0.05857142857142833,3.0,7.0,0.1
369.0,15.0,wc_15,,0.0,,,,442.0,,,,Fail,,,,,
369.0,15.0,wc_15,wc_5,0.0,"[('wc_5', 0.5700000000000004), ('wc_15', 0.3700000000000002)]",0.7291000000000003,,,23.0,0.004073,['Fail'],Fail,0.5700000000000004,-0.2842857142857147,2.0,7.0,0.7
369.0,15.0,wc_15,,0.0,,,,101.0,,,,Fail,,,,,
369.0,15.0,wc_15,wc_12,1.0,"[('wc_12', 0.6900000000000005), ('wc_15', 0.3700000000000002), ('wc_5', 0.5700000000000004)]",0.9160210000000002,,,30.0,0.044913,['Fail'],Fail,0.6900000000000005,-0.26142857142857195,3.0,7.0,0.6
381.0,15.0,wc_15,,0.0,,,,0.0,,,,Fail,,,,,
381.0,15.0,wc_15,,0.0,,,65.0,,,,,Fail,,,,,
381.0,15.0,wc_15,,0.0,,,,0.0,,,,Fail,,,,,
381.0,15.0,wc_15,wc_15,0.0,"[('wc_15', 0.3800000000000002)]",0.3800000000000002,,,28.0,0.002982,['Pass'],Fail,0.3800000000000002,0.11999999999999977,4.0,8.0,0.1
381.0,15.0,wc_15,,0.0,,,,422.0,,,,Fail,,,,,
381.0,15.0,wc_15,wc_4,0.0,"[('wc_4', 0.6900000000000005)]",0.6900000000000005,,,30.0,0.003919,['Fail'],Fail,0.6900000000000005,-0.5471428571428576,1.0,7.0,0.8
381.0,15.0,wc_15,,0.0,,,,182.0,,,,Fail,,,,,
381.0,15.0,wc_15,wc_11,0.0,"[('wc_11', 0.41000000000000025), ('wc_4', 0.6900000000000005)]",0.8171000000000004,,,37.0,0.006021,['Fail'],Fail,0.41000000000000025,-0.29888888888888915,1.0,9.0,0.1
381.0,15.0,wc_15,,0.0,,,,103.0,,,,Fail,,,,,
381.0,15.0,wc_15,wc_10,0.0,"[('wc_4', 0.6900000000000005), ('wc_11', 0.41000000000000025)]",0.8171000000000004,,,40.0,0.008299,['Fail'],Fail,0.3800000000000002,0.11999999999999977,3.0,6.0,0.1
381.0,15.0,wc_15,,0.0,,,,41.0,,,,Fail,,,,,
381.0,15.0,wc_15,wc_6,0.0,"[('wc_4', 0.6900000000000005), ('wc_11', 0.41000000000000025)]",0.8171000000000004,,,39.0,0.009631,['Fail'],Fail,0.43000000000000027,-0.43000000000000027,0.0,4.0,0.3
381.0,15.0,wc_15,,0.0,,,,182.0,,,,Fail,,,,,
381.0,15.0,wc_15,wc_13,1.0,"[('wc_13', 0.6300000000000004), ('wc_4', 0.6900000000000005), ('wc_11', 0.41000000000000025)]",0.9323270000000002,,,22.0,0.077006,['Fail'],Fail,0.6300000000000004,-0.2014285714285719,3.0,7.0,0.6
391.0,15.0,wc_15,,0.0,,,,0.0,,,,Pass,,,,,
391.0,15.0,wc_15,,0.0,,,54.0,,,,,Pass,,,,,
391.0,15.0,wc_15,,0.0,,,,0.0,,,,Pass,,,,,
391.0,15.0,wc_15,wc_15,0.0,"[('wc_15', 0.3800000000000002)]",0.3800000000000002,,,37.0,0.002295,['Fail'],Pass,0.3800000000000002,0.0644444444444442,4.0,9.0,0.1
391.0,15.0,wc_15,,0.0,,,,263.0,,,,Pass,,,,,
391.0,15.0,wc_15,wc_8,0.0,"[('wc_8', 0.7100000000000005)]",0.7100000000000005,,,38.0,0.0036230000000000004,['Pass'],Pass,0.7100000000000005,-0.5100000000000005,1.0,5.0,0.7
391.0,15.0,wc_15,,0.0,,,,0.0,,,,Pass,,,,,
391.0,15.0,wc_15,wc_10,0.0,"[('wc_10', 0.3800000000000002), ('wc_8', 0.7100000000000005)]",0.8202000000000004,,,34.0,0.005693,['Pass'],Pass,0.3800000000000002,0.04857142857142832,3.0,7.0,0.1
391.0,15.0,wc_15,,0.0,,,,362.0,,,,Pass,,,,,
391.0,15.0,wc_15,wc_4,1.0,"[('wc_4', 0.6900000000000005), ('wc_8', 0.7100000000000005), ('wc_10', 0.3800000000000002)]",0.9442620000000002,,,34.0,0.046295,['Pass'],Pass,0.6900000000000005,-0.3566666666666672,3.0,9.0,0.8
400.0,17.0,wc_17,,0.0,,,,222.0,,,,Fail,,,,,
400.0,17.0,wc_17,,0.0,,,56.0,,,,,Fail,,,,,
400.0,17.0,wc_17,,0.0,,,,0.0,,,,Fail,,,,,
400.0,17.0,wc_17,wc_17,0.0,"[('wc_17', 0.7000000000000005)]",0.7000000000000005,,,23.0,0.002223,['Fail'],Fail,0.7000000000000005,-0.6230769230769235,0.0,0.0,0.8
400.0,17.0,wc_17,,0.0,,,,183.0,,,,Fail,,,,,
400.0,17.0,wc_17,wc_6,0.0,"[('wc_17', 0.7000000000000005)]",0.7000000000000005,,,24.0,0.004091,['Fail'],Fail,0.42000000000000026,-0.42000000000000026,0.0,6.0,0.3
400.0,17.0,wc_17,,0.0,,,,321.0,,,,Fail,,,,,
400.0,17.0,wc_17,wc_3,0.0,"[('wc_3', 0.6100000000000004), ('wc_17', 0.7000000000000005)]",0.8830000000000003,,,34.0,0.005607,['Fail'],Fail,0.6100000000000004,-0.36000000000000043,1.0,4.0,0.7
400.0,17.0,wc_17,,0.0,,,,222.0,,,,Fail,,,,,
400.0,17.0,wc_17,wc_16,1.0,"[('wc_16', 0.3500000000000002), ('wc_17', 0.7000000000000005), ('wc_3', 0.6100000000000004)]",0.9239500000000003,,,40.0,0.04571499999999999,['Fail'],Fail,0.3500000000000002,-0.3500000000000002,0.0,0.0,0.3
409.0,17.0,wc_17,,0.0,,,,0.0,,,,Fail,,,,,
409.0,17.0,wc_17,,0.0,,,51.0,,,,,Fail,,,,,
409.0,17.0,wc_17,,0.0,,,,0.0,,,,Fail,,,,,
409.0,17.0,wc_17,wc_17,0.0,"[('wc_17', 0.7100000000000005)]",0.7100000000000005,,,36.0,0.002491,['Fail'],Fail,0.7100000000000005,0.2899999999999995,1.0,1.0,0.8
409.0,17.0,wc_17,,0.0,,,,203.0,,,,Fail,,,,,
409.0,17.0,wc_17,wc_7,0.0,"[('wc_17', 0.7100000000000005)]",0.7100000000000005,,,21.0,0.004083,['Fail'],Fail,0.3600000000000002,-0.3600000000000002,0.0,0.0,0.2
409.0,17.0,wc_17,,0.0,,,,182.0,,,,Fail,,,,,
409.0,17.0,wc_17,wc_1,0.0,"[('wc_1', 0.7100000000000005), ('wc_17', 0.7100000000000005)]",0.9159000000000003,,,39.0,0.007789000000000001,['Fail'],Fail,0.7100000000000005,-0.5988888888888895,1.0,9.0,0.4
409.0,17.0,wc_17,,0.0,,,,243.0,,,,Fail,,,,,
409.0,17.0,wc_17,wc_15,1.0,"[('wc_15', 0.3800000000000002), ('wc_17', 0.7100000000000005), ('wc_1', 0.7100000000000005)]",0.9478580000000002,,,20.0,0.046148,['Fail'],Fail,0.39000000000000024,0.10999999999999976,1.0,2.0,0.1
417.0,17.0,wc_17,,0.0,,,,0.0,,,,Pass,,,,,
417.0,17.0,wc_17,,0.0,,,61.0,,,,,Pass,,,,,
417.0,17.0,wc_17,,0.0,,,,0.0,,,,Pass,,,,,
417.0,17.0,wc_17,wc_17,0.0,"[('wc_17', 0.7200000000000005)]",0.7200000000000005,,,24.0,0.002193,['Pass'],Pass,0.7200000000000005,0.27999999999999947,2.0,2.0,0.8
417.0,17.0,wc_17,,0.0,,,,382.0,,,,Pass,,,,,
417.0,17.0,wc_17,wc_4,0.0,"[('wc_4', 0.6900000000000005), ('wc_17', 0.7200000000000005)]",0.9132000000000003,,,36.0,0.00403,['Pass'],Pass,0.6900000000000005,-0.4172727272727278,0.0,0.0,0.8
417.0,17.0,wc_17,,0.0,,,,0.0,,,,Pass,,,,,
417.0,17.0,wc_17,wc_5,0.0,"[('wc_17', 0.7200000000000005), ('wc_4', 0.6900000000000005)]",0.9132000000000003,,,24.0,0.00601,['Pass'],Pass,0.5700000000000004,-0.3200000000000004,0.0,0.0,0.7
417.0,17.0,wc_17,,0.0,,,,162.0,,,,Pass,,,,,
417.0,17.0,wc_17,wc_11,1.0,"[('wc_11', 0.41000000000000025), ('wc_17', 0.7200000000000005), ('wc_4', 0.6900000000000005)]",0.9487880000000002,,,36.0,0.047751,['Pass'],Pass,0.41000000000000025,-0.16000000000000025,1.0,4.0,0.1
