mpecck/BCQC/bcqc_with_qdt/results/raw/input_13/independent_qc/score/5_workpiece/20200429_114137/wp_3_qc_majority_0.9.csv
production_index,step_idx,production_workcell,qc,consent,winner_qc_list,score,production_time,transport_time,inspection_time,network_time,qc_results,actual_quality,qc_score,score_error,in_winner_counter,in_qc_counter,qc_capability
3.0,1.0,wc_1,,0.0,,,64.0,,,,,Fail,,,,,
3.0,1.0,wc_1,,0.0,,,,0.0,,,,Fail,,,,,
3.0,1.0,wc_1,wc_1,0.0,"[('wc_1', 0.4000000000000001)]",0.40000000000000013,,,28.0,0.003858,['Fail'],Fail,0.4000000000000001,-0.2750000000000001,0.0,0.0,0.4
3.0,1.0,wc_1,,0.0,,,,0.0,,,,Fail,,,,,
3.0,1.0,wc_1,wc_2,0.0,"[('wc_2', 0.9800000000000008), ('wc_1', 0.4000000000000001)]",0.9880000000000004,,,35.0,0.0045190000000000004,['Fail'],Fail,0.9800000000000008,-0.9800000000000008,0.0,0.0,1.0
3.0,1.0,wc_1,,0.0,,,,0.0,,,,Fail,,,,,
3.0,1.0,wc_1,wc_3,0.0,"[('wc_1', 0.4000000000000001), ('wc_2', 0.9800000000000008)]",0.9880000000000004,,,37.0,0.008018,['Fail'],Fail,0.2900000000000001,-0.23871794871794882,0.0,0.0,0.2
3.0,1.0,wc_1,,0.0,,,,0.0,,,,Fail,,,,,
3.0,1.0,wc_1,wc_4,0.0,"[('wc_1', 0.4000000000000001), ('wc_2', 0.9800000000000008)]",0.9880000000000004,,,23.0,0.007542,['Fail'],Fail,0.4500000000000003,-0.34743589743589776,0.0,0.0,0.1
3.0,1.0,wc_1,,0.0,,,,0.0,,,,Fail,,,,,
3.0,1.0,wc_1,wc_5,0.0,"[('wc_1', 0.4000000000000001), ('wc_2', 0.9800000000000008)]",0.9880000000000004,,,33.0,0.034022,['Fail'],Fail,0.6700000000000005,-0.49051282051282097,0.0,0.0,0.5
3.0,1.0,wc_1,,0.0,,,,61.0,,,,Fail,,,,,
3.0,1.0,wc_1,wc_6,1.0,"[('wc_6', 0.17), ('wc_1', 0.4000000000000001), ('wc_2', 0.9800000000000008)]",0.9900400000000004,,,26.0,0.044857999999999995,['Fail'],Fail,0.17,-0.09857142857142859,0.0,0.0,0.1
12.0,1.0,wc_1,,0.0,,,,202.0,,,,Pass,,,,,
12.0,1.0,wc_1,,0.0,,,70.0,,,,,Pass,,,,,
12.0,1.0,wc_1,,0.0,,,,0.0,,,,Pass,,,,,
12.0,1.0,wc_1,wc_1,0.0,"[('wc_1', 0.4000000000000001)]",0.40000000000000013,,,27.0,0.003616,['Pass'],Pass,0.4000000000000001,0.5999999999999999,1.0,1.0,0.4
12.0,1.0,wc_1,,0.0,,,,0.0,,,,Pass,,,,,
12.0,1.0,wc_1,wc_2,0.0,"[('wc_2', 0.9800000000000008), ('wc_1', 0.4000000000000001)]",0.9880000000000004,,,36.0,0.007965,['Pass'],Pass,0.9800000000000008,0.01999999999999924,1.0,1.0,1.0
12.0,1.0,wc_1,,0.0,,,,0.0,,,,Pass,,,,,
12.0,1.0,wc_1,wc_3,1.0,"[('wc_3', 0.2900000000000001), ('wc_1', 0.4000000000000001), ('wc_2', 0.9800000000000008)]",0.9914800000000004,,,28.0,0.044763000000000004,['Pass'],Pass,0.2900000000000001,0.2099999999999999,1.0,2.0,0.2
17.0,2.0,wc_2,,0.0,,,,101.0,,,,Fail,,,,,
17.0,2.0,wc_2,,0.0,,,76.0,,,,,Fail,,,,,
17.0,2.0,wc_2,,0.0,,,,0.0,,,,Fail,,,,,
17.0,2.0,wc_2,wc_2,0.0,"[('wc_2', 0.9800000000000008)]",0.9800000000000008,,,21.0,0.003183,['Fail'],Fail,0.9800000000000008,0.01999999999999924,2.0,2.0,1.0
17.0,2.0,wc_2,,0.0,,,,0.0,,,,Fail,,,,,
17.0,2.0,wc_2,wc_3,0.0,"[('wc_3', 0.2900000000000001), ('wc_2', 0.9800000000000008)]",0.9858000000000006,,,30.0,0.005268999999999999,['Fail'],Fail,0.2900000000000001,0.2099999999999999,1.0,2.0,0.2
17.0,2.0,wc_2,,0.0,,,,0.0,,,,Fail,,,,,
17.0,2.0,wc_2,wc_4,0.0,"[('wc_2', 0.9800000000000008), ('wc_3', 0.2900000000000001)]",0.9858000000000006,,,23.0,0.006530000000000001,['Fail'],Fail,0.4500000000000003,-0.4500000000000003,0.0,2.0,0.1
17.0,2.0,wc_2,,0.0,,,,0.0,,,,Fail,,,,,
17.0,2.0,wc_2,wc_5,1.0,"[('wc_5', 0.6700000000000005), ('wc_2', 0.9800000000000008), ('wc_3', 0.2900000000000001)]",0.9953140000000001,,,34.0,0.045312000000000005,['Fail'],Fail,0.6700000000000005,-0.33666666666666717,1.0,3.0,0.5
22.0,4.0,wc_4,,0.0,,,,103.0,,,,Fail,,,,,
22.0,4.0,wc_4,,0.0,,,56.0,,,,,Fail,,,,,
22.0,4.0,wc_4,,0.0,,,,0.0,,,,Fail,,,,,
22.0,4.0,wc_4,wc_4,0.0,"[('wc_4', 0.4500000000000003)]",0.4500000000000003,,,21.0,0.002674,['Pass'],Fail,0.4500000000000003,-0.4500000000000003,0.0,3.0,0.1
22.0,4.0,wc_4,,0.0,,,,0.0,,,,Fail,,,,,
22.0,4.0,wc_4,wc_5,0.0,"[('wc_5', 0.6700000000000005)]",0.6700000000000005,,,26.0,0.015451,['Fail'],Fail,0.6700000000000005,-0.33666666666666717,1.0,3.0,0.5
22.0,4.0,wc_4,,0.0,,,,41.0,,,,Fail,,,,,
22.0,4.0,wc_4,wc_1,0.0,"[('wc_5', 0.6700000000000005)]",0.6700000000000005,,,22.0,0.0063609999999999995,['Fail'],Fail,0.4000000000000001,0.26666666666666655,2.0,3.0,0.4
22.0,4.0,wc_4,,0.0,,,,0.0,,,,Fail,,,,,
22.0,4.0,wc_4,wc_2,1.0,"[('wc_2', 0.9800000000000008), ('wc_4', 0.4500000000000003), ('wc_1', 0.4000000000000001)]",0.9934000000000003,,,27.0,0.040271,['Pass'],Fail,0.9800000000000008,0.01999999999999924,4.0,4.0,1.0
27.0,3.0,wc_3,,0.0,,,,0.0,,,,Pass,,,,,
27.0,3.0,wc_3,,0.0,,,71.0,,,,,Pass,,,,,
27.0,3.0,wc_3,,0.0,,,,0.0,,,,Pass,,,,,
27.0,3.0,wc_3,wc_3,0.0,"[('wc_3', 0.2900000000000001)]",0.29000000000000004,,,39.0,0.002351,['Fail'],Pass,0.2900000000000001,0.2099999999999999,2.0,4.0,0.2
27.0,3.0,wc_3,,0.0,,,,0.0,,,,Pass,,,,,
27.0,3.0,wc_3,wc_4,0.0,"[('wc_4', 0.4500000000000003)]",0.4500000000000003,,,22.0,0.005923,['Pass'],Pass,0.4500000000000003,-0.2000000000000003,1.0,4.0,0.1
27.0,3.0,wc_3,,0.0,,,,0.0,,,,Pass,,,,,
27.0,3.0,wc_3,wc_5,0.0,"[('wc_5', 0.6700000000000005), ('wc_4', 0.4500000000000003)]",0.8185000000000003,,,20.0,0.007056,['Pass'],Pass,0.6700000000000005,-0.4200000000000005,1.0,4.0,0.5
27.0,3.0,wc_3,,0.0,,,,41.0,,,,Pass,,,,,
27.0,3.0,wc_3,wc_1,0.0,"[('wc_4', 0.4500000000000003), ('wc_5', 0.6700000000000005)]",0.8185000000000003,,,24.0,0.008443,['Pass'],Pass,0.4000000000000001,0.3499999999999999,3.0,4.0,0.4
27.0,3.0,wc_3,,0.0,,,,0.0,,,,Pass,,,,,
27.0,3.0,wc_3,wc_2,1.0,"[('wc_2', 0.9800000000000008), ('wc_4', 0.4500000000000003), ('wc_5', 0.6700000000000005)]",0.9963700000000002,,,31.0,0.050553,['Pass'],Pass,0.9800000000000008,0.01999999999999924,5.0,5.0,1.0
34.0,4.0,wc_4,,0.0,,,,0.0,,,,Pass,,,,,
34.0,4.0,wc_4,,0.0,,,79.0,,,,,Pass,,,,,
34.0,4.0,wc_4,,0.0,,,,0.0,,,,Pass,,,,,
34.0,4.0,wc_4,wc_4,0.0,"[('wc_4', 0.4500000000000003)]",0.4500000000000003,,,36.0,0.003244,['Pass'],Pass,0.4500000000000003,-0.050000000000000266,2.0,5.0,0.1
34.0,4.0,wc_4,,0.0,,,,0.0,,,,Pass,,,,,
34.0,4.0,wc_4,wc_5,0.0,"[('wc_5', 0.6700000000000005), ('wc_4', 0.4500000000000003)]",0.8185000000000003,,,39.0,0.004501,['Pass'],Pass,0.6700000000000005,-0.27000000000000046,2.0,5.0,0.5
34.0,4.0,wc_4,,0.0,,,,41.0,,,,Pass,,,,,
34.0,4.0,wc_4,wc_1,0.0,"[('wc_1', 0.4000000000000001), ('wc_4', 0.4500000000000003), ('wc_5', 0.6700000000000005)]",0.8911000000000002,,,35.0,0.007554,['Pass'],Pass,0.4000000000000001,0.1999999999999999,3.0,5.0,0.4
34.0,4.0,wc_4,,0.0,,,,0.0,,,,Pass,,,,,
34.0,4.0,wc_4,wc_2,1.0,"[('wc_2', 0.9800000000000008), ('wc_4', 0.4500000000000003), ('wc_5', 0.6700000000000005), ('wc_1', 0.4000000000000001)]",0.9978220000000001,,,38.0,0.04741700000000001,['Pass'],Pass,0.9800000000000008,0.01999999999999924,6.0,6.0,1.0
38.0,2.0,wc_2,,0.0,,,,0.0,,,,Fail,,,,,
38.0,2.0,wc_2,,0.0,,,73.0,,,,,Fail,,,,,
38.0,2.0,wc_2,,0.0,,,,0.0,,,,Fail,,,,,
38.0,2.0,wc_2,wc_2,0.0,"[('wc_2', 0.9800000000000008)]",0.9800000000000008,,,21.0,0.002448,['Fail'],Fail,0.9800000000000008,0.01999999999999924,6.0,6.0,1.0
38.0,2.0,wc_2,,0.0,,,,0.0,,,,Fail,,,,,
38.0,2.0,wc_2,wc_3,0.0,"[('wc_3', 0.2900000000000001), ('wc_2', 0.9800000000000008)]",0.9858000000000006,,,40.0,0.004510999999999999,['Fail'],Fail,0.2900000000000001,0.043333333333333224,2.0,6.0,0.2
38.0,2.0,wc_2,,0.0,,,,0.0,,,,Fail,,,,,
38.0,2.0,wc_2,wc_4,1.0,"[('wc_4', 0.4500000000000003), ('wc_2', 0.9800000000000008), ('wc_3', 0.2900000000000001)]",0.9921900000000003,,,32.0,0.058972000000000004,['Fail'],Fail,0.4500000000000003,0.12142857142857111,4.0,7.0,0.1
43.0,2.0,wc_2,,0.0,,,,81.0,,,,Fail,,,,,
43.0,2.0,wc_2,,0.0,,,65.0,,,,,Fail,,,,,
43.0,2.0,wc_2,,0.0,,,,0.0,,,,Fail,,,,,
43.0,2.0,wc_2,wc_2,0.0,"[('wc_2', 0.9800000000000008)]",0.9800000000000008,,,26.0,0.003029,['Fail'],Fail,0.9800000000000008,0.01999999999999924,7.0,7.0,1.0
43.0,2.0,wc_2,,0.0,,,,0.0,,,,Fail,,,,,
43.0,2.0,wc_2,wc_3,0.0,"[('wc_3', 0.2900000000000001), ('wc_2', 0.9800000000000008)]",0.9858000000000006,,,28.0,0.004031,['Fail'],Fail,0.2900000000000001,0.13857142857142846,3.0,7.0,0.2
43.0,2.0,wc_2,,0.0,,,,0.0,,,,Fail,,,,,
43.0,2.0,wc_2,wc_4,1.0,"[('wc_4', 0.4500000000000003), ('wc_2', 0.9800000000000008), ('wc_3', 0.2900000000000001)]",0.9921900000000003,,,34.0,0.0375,['Fail'],Fail,0.4500000000000003,0.1749999999999997,5.0,8.0,0.1
47.0,2.0,wc_2,,0.0,,,,81.0,,,,Fail,,,,,
47.0,2.0,wc_2,,0.0,,,65.0,,,,,Fail,,,,,
47.0,2.0,wc_2,,0.0,,,,0.0,,,,Fail,,,,,
47.0,2.0,wc_2,wc_2,0.0,"[('wc_2', 0.9800000000000008)]",0.9800000000000008,,,23.0,0.002452,['Fail'],Fail,0.9800000000000008,0.01999999999999924,8.0,8.0,1.0
47.0,2.0,wc_2,,0.0,,,,0.0,,,,Fail,,,,,
47.0,2.0,wc_2,wc_3,0.0,"[('wc_3', 0.2900000000000001), ('wc_2', 0.9800000000000008)]",0.9858000000000006,,,29.0,0.004133,['Fail'],Fail,0.2900000000000001,0.2099999999999999,4.0,8.0,0.2
47.0,2.0,wc_2,,0.0,,,,0.0,,,,Fail,,,,,
47.0,2.0,wc_2,wc_4,0.0,"[('wc_2', 0.9800000000000008), ('wc_3', 0.2900000000000001)]",0.9858000000000006,,,31.0,0.006131,['Fail'],Fail,0.4500000000000003,0.1749999999999997,5.0,8.0,0.1
47.0,2.0,wc_2,,0.0,,,,0.0,,,,Fail,,,,,
47.0,2.0,wc_2,wc_5,1.0,"[('wc_5', 0.6700000000000005), ('wc_2', 0.9800000000000008), ('wc_3', 0.2900000000000001)]",0.9953140000000001,,,21.0,0.041385000000000005,['Fail'],Fail,0.6700000000000005,-0.22555555555555606,4.0,9.0,0.5
51.0,2.0,wc_2,,0.0,,,,61.0,,,,Fail,,,,,
51.0,2.0,wc_2,,0.0,,,64.0,,,,,Fail,,,,,
51.0,2.0,wc_2,,0.0,,,,0.0,,,,Fail,,,,,
51.0,2.0,wc_2,wc_2,0.0,"[('wc_2', 0.9800000000000008)]",0.9800000000000008,,,36.0,0.002482,['Fail'],Fail,0.9800000000000008,0.01999999999999924,9.0,9.0,1.0
51.0,2.0,wc_2,,0.0,,,,0.0,,,,Fail,,,,,
51.0,2.0,wc_2,wc_3,0.0,"[('wc_2', 0.9800000000000008)]",0.9800000000000008,,,26.0,0.00565,['Fail'],Fail,0.2900000000000001,0.2655555555555555,5.0,9.0,0.2
51.0,2.0,wc_2,,0.0,,,,0.0,,,,Fail,,,,,
51.0,2.0,wc_2,wc_4,0.0,"[('wc_2', 0.9800000000000008)]",0.9800000000000008,,,28.0,0.007196,['Fail'],Fail,0.4500000000000003,0.10555555555555529,5.0,9.0,0.1
51.0,2.0,wc_2,,0.0,,,,0.0,,,,Fail,,,,,
51.0,2.0,wc_2,wc_5,0.0,"[('wc_2', 0.9800000000000008)]",0.9800000000000008,,,30.0,0.011944,['Fail'],Fail,0.6700000000000005,-0.22555555555555606,4.0,9.0,0.5
51.0,2.0,wc_2,,0.0,,,,41.0,,,,Fail,,,,,
51.0,2.0,wc_2,wc_1,0.0,"[('wc_2', 0.9800000000000008)]",0.9800000000000008,,,36.0,0.011196,['Fail'],Fail,0.4000000000000001,0.04444444444444434,4.0,9.0,0.4
51.0,2.0,wc_2,,0.0,,,,142.0,,,,Fail,,,,,
51.0,2.0,wc_2,wc_6,0.0,"[('wc_6', 0.17), ('wc_2', 0.9800000000000008)]",0.9834000000000006,,,33.0,0.011392,['Fail'],Fail,0.17,-0.17,0.0,8.0,0.1
51.0,2.0,wc_2,,0.0,,,,0.0,,,,Fail,,,,,
51.0,2.0,wc_2,wc_7,1.0,"[('wc_7', 0.5800000000000004), ('wc_2', 0.9800000000000008), ('wc_6', 0.17)]",0.9930280000000002,,,31.0,0.053722000000000006,['Fail'],Fail,0.5800000000000004,-0.508571428571429,0.0,0.0,0.6
56.0,2.0,wc_2,,0.0,,,,202.0,,,,Pass,,,,,
56.0,2.0,wc_2,,0.0,,,77.0,,,,,Pass,,,,,
56.0,2.0,wc_2,,0.0,,,,0.0,,,,Pass,,,,,
56.0,2.0,wc_2,wc_2,0.0,"[('wc_2', 0.9800000000000008)]",0.9800000000000008,,,25.0,0.003334,['Pass'],Pass,0.9800000000000008,0.01999999999999924,0.0,0.0,1.0
56.0,2.0,wc_2,,0.0,,,,0.0,,,,Pass,,,,,
56.0,2.0,wc_2,wc_3,0.0,"[('wc_2', 0.9800000000000008)]",0.9800000000000008,,,24.0,0.005022,['Pass'],Pass,0.2900000000000001,0.2099999999999999,0.0,0.0,0.2
56.0,2.0,wc_2,,0.0,,,,0.0,,,,Pass,,,,,
56.0,2.0,wc_2,wc_4,0.0,"[('wc_4', 0.4500000000000003), ('wc_2', 0.9800000000000008)]",0.9890000000000004,,,22.0,0.006238,['Pass'],Pass,0.4500000000000003,0.04999999999999971,0.0,0.0,0.1
56.0,2.0,wc_2,,0.0,,,,0.0,,,,Pass,,,,,
56.0,2.0,wc_2,wc_5,0.0,"[('wc_2', 0.9800000000000008), ('wc_4', 0.4500000000000003)]",0.9890000000000004,,,23.0,0.008789,['Pass'],Pass,0.6700000000000005,-0.27000000000000046,0.0,0.0,0.5
56.0,2.0,wc_2,,0.0,,,,41.0,,,,Pass,,,,,
56.0,2.0,wc_2,wc_1,1.0,"[('wc_1', 0.4000000000000001), ('wc_2', 0.9800000000000008), ('wc_4', 0.4500000000000003)]",0.9934000000000003,,,39.0,0.041711,['Pass'],Pass,0.4000000000000001,0.05454545454545445,0.0,0.0,0.4
61.0,5.0,wc_5,,0.0,,,,0.0,,,,Pass,,,,,
61.0,5.0,wc_5,,0.0,,,66.0,,,,,Pass,,,,,
61.0,5.0,wc_5,,0.0,,,,0.0,,,,Pass,,,,,
61.0,5.0,wc_5,wc_5,0.0,"[('wc_5', 0.6700000000000005)]",0.6700000000000005,,,37.0,0.004184,['Pass'],Pass,0.6700000000000005,-0.6700000000000005,0.0,1.0,0.5
61.0,5.0,wc_5,,0.0,,,,41.0,,,,Pass,,,,,
61.0,5.0,wc_5,wc_1,0.0,"[('wc_1', 0.4000000000000001), ('wc_5', 0.6700000000000005)]",0.8020000000000003,,,39.0,0.004014,['Pass'],Pass,0.4000000000000001,-0.4000000000000001,0.0,0.0,0.4
61.0,5.0,wc_5,,0.0,,,,0.0,,,,Pass,,,,,
61.0,5.0,wc_5,wc_2,1.0,"[('wc_2', 0.9800000000000008), ('wc_5', 0.6700000000000005), ('wc_1', 0.4000000000000001)]",0.9960400000000001,,,39.0,0.038633,['Pass'],Pass,0.9800000000000008,0.01999999999999924,2.0,2.0,1.0
67.0,6.0,wc_6,,0.0,,,,122.0,,,,Fail,,,,,
67.0,6.0,wc_6,,0.0,,,80.0,,,,,Fail,,,,,
67.0,6.0,wc_6,,0.0,,,,0.0,,,,Fail,,,,,
67.0,6.0,wc_6,wc_6,0.0,"[('wc_6', 0.17)]",0.17000000000000004,,,22.0,0.00268,['Pass'],Fail,0.17,-0.0790909090909091,0.0,0.0,0.1
67.0,6.0,wc_6,,0.0,,,,0.0,,,,Fail,,,,,
67.0,6.0,wc_6,wc_7,0.0,"[('wc_7', 0.5800000000000004), ('wc_6', 0.17)]",0.6514000000000004,,,25.0,0.004351,['Pass'],Fail,0.5800000000000004,-0.5800000000000004,0.0,2.0,0.6
67.0,6.0,wc_6,,0.0,,,,0.0,,,,Fail,,,,,
67.0,6.0,wc_6,wc_8,0.0,"[('wc_8', 0.8300000000000006)]",0.8300000000000006,,,20.0,0.007553,['Fail'],Fail,0.8300000000000006,-0.663333333333334,0.0,0.0,0.9
67.0,6.0,wc_6,,0.0,,,,0.0,,,,Fail,,,,,
67.0,6.0,wc_6,wc_9,0.0,"[('wc_9', 0.4900000000000003), ('wc_8', 0.8300000000000006)]",0.9133000000000003,,,24.0,0.008792999999999999,['Fail'],Fail,0.4900000000000003,-0.2712500000000003,0.0,0.0,0.5
67.0,6.0,wc_6,,0.0,,,,0.0,,,,Fail,,,,,
67.0,6.0,wc_6,wc_10,1.0,"[('wc_10', 0.9200000000000008), ('wc_8', 0.8300000000000006), ('wc_9', 0.4900000000000003)]",0.9930640000000001,,,36.0,0.042501,['Fail'],Fail,0.9200000000000008,-0.7325000000000008,0.0,0.0,1.0
75.0,6.0,wc_6,,0.0,,,,41.0,,,,Pass,,,,,
75.0,6.0,wc_6,,0.0,,,64.0,,,,,Pass,,,,,
75.0,6.0,wc_6,,0.0,,,,0.0,,,,Pass,,,,,
75.0,6.0,wc_6,wc_6,0.0,"[('wc_6', 0.17)]",0.17000000000000004,,,26.0,0.004669,['Fail'],Pass,0.17,-0.17,0.0,1.0,0.1
75.0,6.0,wc_6,,0.0,,,,0.0,,,,Pass,,,,,
75.0,6.0,wc_6,wc_7,0.0,"[('wc_7', 0.5800000000000004)]",0.5800000000000004,,,36.0,0.004276,['Pass'],Pass,0.5800000000000004,-0.5800000000000004,0.0,3.0,0.6
75.0,6.0,wc_6,,0.0,,,,0.0,,,,Pass,,,,,
75.0,6.0,wc_6,wc_8,0.0,"[('wc_8', 0.8300000000000006), ('wc_7', 0.5800000000000004)]",0.9286000000000003,,,40.0,0.007817,['Pass'],Pass,0.8300000000000006,0.16999999999999937,1.0,1.0,0.9
75.0,6.0,wc_6,,0.0,,,,0.0,,,,Pass,,,,,
75.0,6.0,wc_6,wc_9,1.0,"[('wc_9', 0.4900000000000003), ('wc_7', 0.5800000000000004), ('wc_8', 0.8300000000000006)]",0.9635860000000002,,,34.0,0.040447,['Pass'],Pass,0.4900000000000003,0.5099999999999997,2.0,2.0,0.5
78.0,9.0,wc_9,,0.0,,,,0.0,,,,Fail,,,,,
78.0,9.0,wc_9,,0.0,,,57.0,,,,,Fail,,,,,
78.0,9.0,wc_9,,0.0,,,,0.0,,,,Fail,,,,,
78.0,9.0,wc_9,wc_9,0.0,"[('wc_9', 0.4900000000000003)]",0.4900000000000003,,,38.0,0.002743,['Fail'],Fail,0.4900000000000003,0.5099999999999997,2.0,2.0,0.5
78.0,9.0,wc_9,,0.0,,,,0.0,,,,Fail,,,,,
78.0,9.0,wc_9,wc_10,0.0,"[('wc_10', 0.9200000000000008), ('wc_9', 0.4900000000000003)]",0.9592000000000005,,,29.0,0.004144,['Fail'],Fail,0.9200000000000008,-0.9200000000000008,0.0,1.0,1.0
78.0,9.0,wc_9,,0.0,,,,0.0,,,,Fail,,,,,
78.0,9.0,wc_9,wc_11,1.0,"[('wc_11', 0.7900000000000006), ('wc_9', 0.4900000000000003), ('wc_10', 0.9200000000000008)]",0.9914320000000001,,,30.0,0.042709,['Fail'],Fail,0.7900000000000006,-0.623333333333334,0.0,0.0,0.8
84.0,11.0,wc_11,,0.0,,,,0.0,,,,Pass,,,,,
84.0,11.0,wc_11,,0.0,,,69.0,,,,,Pass,,,,,
84.0,11.0,wc_11,,0.0,,,,0.0,,,,Pass,,,,,
84.0,11.0,wc_11,wc_11,0.0,"[('wc_11', 0.7900000000000006)]",0.7900000000000006,,,29.0,0.002366,['Pass'],Pass,0.7900000000000006,-0.7900000000000006,0.0,0.0,0.8
84.0,11.0,wc_11,,0.0,,,,21.0,,,,Pass,,,,,
84.0,11.0,wc_11,wc_6,0.0,"[('wc_11', 0.7900000000000006)]",0.7900000000000006,,,32.0,0.004131,['Pass'],Pass,0.17,-0.17,0.0,3.0,0.1
84.0,11.0,wc_11,,0.0,,,,0.0,,,,Pass,,,,,
84.0,11.0,wc_11,wc_7,0.0,"[('wc_11', 0.7900000000000006)]",0.7900000000000006,,,21.0,0.007148,['Pass'],Pass,0.5800000000000004,-0.3800000000000004,1.0,5.0,0.6
84.0,11.0,wc_11,,0.0,,,,0.0,,,,Pass,,,,,
84.0,11.0,wc_11,wc_8,0.0,"[('wc_8', 0.8300000000000006), ('wc_11', 0.7900000000000006)]",0.9643000000000003,,,38.0,0.008621,['Pass'],Pass,0.8300000000000006,-0.163333333333334,2.0,3.0,0.9
84.0,11.0,wc_11,,0.0,,,,0.0,,,,Pass,,,,,
84.0,11.0,wc_11,wc_9,0.0,"[('wc_11', 0.7900000000000006), ('wc_8', 0.8300000000000006)]",0.9643000000000003,,,36.0,0.009502,['Pass'],Pass,0.4900000000000003,0.5099999999999997,3.0,3.0,0.5
84.0,11.0,wc_11,,0.0,,,,0.0,,,,Pass,,,,,
84.0,11.0,wc_11,wc_10,1.0,"[('wc_10', 0.9200000000000008), ('wc_6', 0.17), ('wc_7', 0.5800000000000004), ('wc_9', 0.4900000000000003)]",0.9857771200000002,,,31.0,0.04902000000000001,['Fail'],Pass,0.9200000000000008,-0.2533333333333342,2.0,3.0,1.0
86.0,8.0,wc_8,,0.0,,,,81.0,,,,Fail,,,,,
86.0,8.0,wc_8,,0.0,,,57.0,,,,,Fail,,,,,
86.0,8.0,wc_8,,0.0,,,,0.0,,,,Fail,,,,,
86.0,8.0,wc_8,wc_8,0.0,"[('wc_8', 0.8300000000000006)]",0.8300000000000006,,,20.0,0.002333,['Fail'],Fail,0.8300000000000006,-0.3300000000000006,2.0,4.0,0.9
86.0,8.0,wc_8,,0.0,,,,0.0,,,,Fail,,,,,
86.0,8.0,wc_8,wc_9,0.0,"[('wc_9', 0.4900000000000003), ('wc_8', 0.8300000000000006)]",0.9133000000000003,,,29.0,0.0040680000000000004,['Fail'],Fail,0.4900000000000003,0.5099999999999997,4.0,4.0,0.5
86.0,8.0,wc_8,,0.0,,,,0.0,,,,Fail,,,,,
86.0,8.0,wc_8,wc_10,1.0,"[('wc_10', 0.9200000000000008), ('wc_8', 0.8300000000000006), ('wc_9', 0.4900000000000003)]",0.9930640000000001,,,21.0,0.03868799999999999,['Fail'],Fail,0.9200000000000008,-0.17000000000000082,3.0,4.0,1.0
91.0,8.0,wc_8,,0.0,,,,81.0,,,,Fail,,,,,
91.0,8.0,wc_8,,0.0,,,57.0,,,,,Fail,,,,,
91.0,8.0,wc_8,,0.0,,,,0.0,,,,Fail,,,,,
91.0,8.0,wc_8,wc_8,0.0,"[('wc_8', 0.8300000000000006)]",0.8300000000000006,,,31.0,0.00268,['Fail'],Fail,0.8300000000000006,-0.23000000000000065,3.0,5.0,0.9
91.0,8.0,wc_8,,0.0,,,,0.0,,,,Fail,,,,,
91.0,8.0,wc_8,wc_9,0.0,"[('wc_9', 0.4900000000000003), ('wc_8', 0.8300000000000006)]",0.9133000000000003,,,36.0,0.004338,['Fail'],Fail,0.4900000000000003,0.5099999999999997,5.0,5.0,0.5
91.0,8.0,wc_8,,0.0,,,,0.0,,,,Fail,,,,,
91.0,8.0,wc_8,wc_10,1.0,"[('wc_10', 0.9200000000000008), ('wc_8', 0.8300000000000006), ('wc_9', 0.4900000000000003)]",0.9930640000000001,,,32.0,0.038946999999999996,['Fail'],Fail,0.9200000000000008,-0.12000000000000077,4.0,5.0,1.0
95.0,9.0,wc_9,,0.0,,,,103.0,,,,Pass,,,,,
95.0,9.0,wc_9,,0.0,,,50.0,,,,,Pass,,,,,
95.0,9.0,wc_9,,0.0,,,,0.0,,,,Pass,,,,,
95.0,9.0,wc_9,wc_9,0.0,"[('wc_9', 0.4900000000000003)]",0.4900000000000003,,,37.0,0.003258,['Pass'],Pass,0.4900000000000003,0.5099999999999997,6.0,6.0,0.5
95.0,9.0,wc_9,,0.0,,,,0.0,,,,Pass,,,,,
95.0,9.0,wc_9,wc_10,0.0,"[('wc_10', 0.9200000000000008), ('wc_9', 0.4900000000000003)]",0.9592000000000005,,,36.0,0.0067139999999999995,['Pass'],Pass,0.9200000000000008,-0.12000000000000077,4.0,5.0,1.0
95.0,9.0,wc_9,,0.0,,,,0.0,,,,Pass,,,,,
95.0,9.0,wc_9,wc_11,1.0,"[('wc_11', 0.7900000000000006), ('wc_9', 0.4900000000000003), ('wc_10', 0.9200000000000008)]",0.9914320000000001,,,21.0,0.039444,['Pass'],Pass,0.7900000000000006,-0.5400000000000006,1.0,4.0,0.8
100.0,10.0,wc_10,,0.0,,,,103.0,,,,Fail,,,,,
100.0,10.0,wc_10,,0.0,,,78.0,,,,,Fail,,,,,
100.0,10.0,wc_10,,0.0,,,,0.0,,,,Fail,,,,,
100.0,10.0,wc_10,wc_10,0.0,"[('wc_10', 0.9200000000000008)]",0.9200000000000008,,,21.0,0.002756,['Fail'],Fail,0.9200000000000008,-0.08666666666666745,5.0,6.0,1.0
100.0,10.0,wc_10,,0.0,,,,0.0,,,,Fail,,,,,
100.0,10.0,wc_10,wc_11,0.0,"[('wc_11', 0.7900000000000006), ('wc_10', 0.9200000000000008)]",0.9832000000000002,,,38.0,0.005568,['Fail'],Fail,0.7900000000000006,-0.5400000000000006,1.0,4.0,0.8
100.0,10.0,wc_10,,0.0,,,,21.0,,,,Fail,,,,,
100.0,10.0,wc_10,wc_6,0.0,"[('wc_10', 0.9200000000000008), ('wc_11', 0.7900000000000006)]",0.9832000000000002,,,21.0,0.005692,['Fail'],Fail,0.17,-0.027142857142857163,1.0,7.0,0.1
100.0,10.0,wc_10,,0.0,,,,0.0,,,,Fail,,,,,
100.0,10.0,wc_10,wc_7,1.0,"[('wc_7', 0.5800000000000004), ('wc_10', 0.9200000000000008), ('wc_11', 0.7900000000000006)]",0.992944,,,39.0,0.053024999999999996,['Fail'],Fail,0.5800000000000004,-0.2800000000000004,0.0,0.0,0.6
104.0,10.0,wc_10,,0.0,,,,0.0,,,,Pass,,,,,
104.0,10.0,wc_10,,0.0,,,61.0,,,,,Pass,,,,,
104.0,10.0,wc_10,,0.0,,,,0.0,,,,Pass,,,,,
104.0,10.0,wc_10,wc_10,0.0,"[('wc_10', 0.9200000000000008)]",0.9200000000000008,,,33.0,0.009612,['Pass'],Pass,0.9200000000000008,-0.06285714285714372,6.0,7.0,1.0
104.0,10.0,wc_10,,0.0,,,,0.0,,,,Pass,,,,,
104.0,10.0,wc_10,wc_11,0.0,"[('wc_11', 0.7900000000000006), ('wc_10', 0.9200000000000008)]",0.9832000000000002,,,23.0,0.005499,['Pass'],Pass,0.7900000000000006,-0.39000000000000057,2.0,5.0,0.8
104.0,10.0,wc_10,,0.0,,,,21.0,,,,Pass,,,,,
104.0,10.0,wc_10,wc_6,0.0,"[('wc_10', 0.9200000000000008), ('wc_11', 0.7900000000000006)]",0.9832000000000002,,,35.0,0.006170999999999999,['Pass'],Pass,0.17,-0.04500000000000001,1.0,8.0,0.1
104.0,10.0,wc_10,,0.0,,,,0.0,,,,Pass,,,,,
104.0,10.0,wc_10,wc_7,1.0,"[('wc_7', 0.5800000000000004), ('wc_10', 0.9200000000000008), ('wc_11', 0.7900000000000006)]",0.992944,,,29.0,0.0438,['Pass'],Pass,0.5800000000000004,0.4199999999999996,1.0,1.0,0.6
107.0,7.0,wc_7,,0.0,,,,0.0,,,,Pass,,,,,
107.0,7.0,wc_7,,0.0,,,55.0,,,,,Pass,,,,,
107.0,7.0,wc_7,,0.0,,,,0.0,,,,Pass,,,,,
107.0,7.0,wc_7,wc_7,0.0,"[('wc_7', 0.5800000000000004)]",0.5800000000000004,,,28.0,0.003195,['Pass'],Pass,0.5800000000000004,0.4199999999999996,1.0,1.0,0.6
107.0,7.0,wc_7,,0.0,,,,0.0,,,,Pass,,,,,
107.0,7.0,wc_7,wc_8,0.0,"[('wc_8', 0.8300000000000006), ('wc_7', 0.5800000000000004)]",0.9286000000000003,,,36.0,0.005615,['Pass'],Pass,0.8300000000000006,-0.3855555555555562,4.0,9.0,0.9
107.0,7.0,wc_7,,0.0,,,,0.0,,,,Pass,,,,,
107.0,7.0,wc_7,wc_9,1.0,"[('wc_9', 0.4900000000000003), ('wc_7', 0.5800000000000004), ('wc_8', 0.8300000000000006)]",0.9635860000000002,,,30.0,0.04126200000000001,['Pass'],Pass,0.4900000000000003,0.3099999999999997,0.0,0.0,0.5
112.0,8.0,wc_8,,0.0,,,,101.0,,,,Pass,,,,,
112.0,8.0,wc_8,,0.0,,,76.0,,,,,Pass,,,,,
112.0,8.0,wc_8,,0.0,,,,0.0,,,,Pass,,,,,
112.0,8.0,wc_8,wc_8,0.0,"[('wc_8', 0.8300000000000006)]",0.8300000000000006,,,38.0,0.003323,['Pass'],Pass,0.8300000000000006,-0.3300000000000006,0.0,0.0,0.9
112.0,8.0,wc_8,,0.0,,,,0.0,,,,Pass,,,,,
112.0,8.0,wc_8,wc_9,0.0,"[('wc_8', 0.8300000000000006)]",0.8300000000000006,,,24.0,0.005441,['Pass'],Pass,0.4900000000000003,-0.4900000000000003,0.0,0.0,0.5
112.0,8.0,wc_8,,0.0,,,,0.0,,,,Pass,,,,,
112.0,8.0,wc_8,wc_10,0.0,"[('wc_10', 0.9200000000000008), ('wc_8', 0.8300000000000006)]",0.9864000000000002,,,22.0,0.006687,['Pass'],Pass,0.9200000000000008,-0.14222222222222303,7.0,9.0,1.0
112.0,8.0,wc_8,,0.0,,,,0.0,,,,Pass,,,,,
112.0,8.0,wc_8,wc_11,1.0,"[('wc_11', 0.7900000000000006), ('wc_8', 0.8300000000000006), ('wc_10', 0.9200000000000008)]",0.997144,,,28.0,0.047219000000000004,['Pass'],Pass,0.7900000000000006,-0.2900000000000006,4.0,8.0,0.8
115.0,12.0,wc_12,,0.0,,,,61.0,,,,Fail,,,,,
115.0,12.0,wc_12,,0.0,,,67.0,,,,,Fail,,,,,
115.0,12.0,wc_12,,0.0,,,,0.0,,,,Fail,,,,,
115.0,12.0,wc_12,wc_12,0.0,"[('wc_12', 0.8900000000000007)]",0.8900000000000007,,,30.0,0.002865,['Fail'],Fail,0.8900000000000007,-0.7746153846153853,0.0,0.0,0.9
115.0,12.0,wc_12,,0.0,,,,0.0,,,,Fail,,,,,
115.0,12.0,wc_12,wc_13,0.0,"[('wc_12', 0.8900000000000007)]",0.8900000000000007,,,27.0,0.012825,['Fail'],Fail,0.7800000000000006,-0.6646153846153852,0.0,0.0,0.8
115.0,12.0,wc_12,,0.0,,,,0.0,,,,Fail,,,,,
115.0,12.0,wc_12,wc_14,0.0,"[('wc_14', 0.7400000000000005), ('wc_12', 0.8900000000000007)]",0.9714000000000003,,,29.0,0.007015,['Fail'],Fail,0.7400000000000005,-0.7400000000000005,0.0,0.0,0.9
115.0,12.0,wc_12,,0.0,,,,0.0,,,,Fail,,,,,
115.0,12.0,wc_12,wc_15,1.0,"[('wc_15', 0.6200000000000004), ('wc_12', 0.8900000000000007), ('wc_14', 0.7400000000000005)]",0.9891320000000001,,,29.0,0.050118,['Fail'],Fail,0.6200000000000004,-0.5342857142857147,0.0,0.0,0.5
118.0,12.0,wc_12,,0.0,,,,61.0,,,,Fail,,,,,
118.0,12.0,wc_12,,0.0,,,71.0,,,,,Fail,,,,,
118.0,12.0,wc_12,,0.0,,,,0.0,,,,Fail,,,,,
118.0,12.0,wc_12,wc_12,0.0,"[('wc_12', 0.8900000000000007)]",0.8900000000000007,,,38.0,0.002372,['Fail'],Fail,0.8900000000000007,0.10999999999999932,1.0,1.0,0.9
118.0,12.0,wc_12,,0.0,,,,0.0,,,,Fail,,,,,
118.0,12.0,wc_12,wc_13,0.0,"[('wc_13', 0.7800000000000006), ('wc_12', 0.8900000000000007)]",0.9758000000000002,,,31.0,0.004605,['Fail'],Fail,0.7800000000000006,-0.7800000000000006,0.0,1.0,0.8
118.0,12.0,wc_12,,0.0,,,,0.0,,,,Fail,,,,,
118.0,12.0,wc_12,wc_14,1.0,"[('wc_14', 0.7400000000000005), ('wc_12', 0.8900000000000007), ('wc_13', 0.7800000000000006)]",0.993708,,,22.0,0.043139000000000004,['Fail'],Fail,0.7400000000000005,0.25999999999999945,2.0,2.0,0.9
121.0,12.0,wc_12,,0.0,,,,82.0,,,,Fail,,,,,
121.0,12.0,wc_12,,0.0,,,65.0,,,,,Fail,,,,,
121.0,12.0,wc_12,,0.0,,,,0.0,,,,Fail,,,,,
121.0,12.0,wc_12,wc_12,0.0,"[('wc_12', 0.8900000000000007)]",0.8900000000000007,,,20.0,0.008516,['Fail'],Fail,0.8900000000000007,0.10999999999999932,2.0,2.0,0.9
121.0,12.0,wc_12,,0.0,,,,0.0,,,,Fail,,,,,
121.0,12.0,wc_12,wc_13,0.0,"[('wc_13', 0.7800000000000006), ('wc_12', 0.8900000000000007)]",0.9758000000000002,,,27.0,0.005648,['Fail'],Fail,0.7800000000000006,-0.2800000000000006,1.0,2.0,0.8
121.0,12.0,wc_12,,0.0,,,,0.0,,,,Fail,,,,,
121.0,12.0,wc_12,wc_14,1.0,"[('wc_14', 0.7400000000000005), ('wc_12', 0.8900000000000007), ('wc_13', 0.7800000000000006)]",0.993708,,,24.0,0.050753,['Fail'],Fail,0.7400000000000005,0.25999999999999945,3.0,3.0,0.9
123.0,12.0,wc_12,,0.0,,,,82.0,,,,Fail,,,,,
123.0,12.0,wc_12,,0.0,,,50.0,,,,,Fail,,,,,
123.0,12.0,wc_12,,0.0,,,,0.0,,,,Fail,,,,,
123.0,12.0,wc_12,wc_12,0.0,"[('wc_12', 0.8900000000000007)]",0.8900000000000007,,,29.0,0.005929,['Fail'],Fail,0.8900000000000007,0.10999999999999932,3.0,3.0,0.9
123.0,12.0,wc_12,,0.0,,,,0.0,,,,Fail,,,,,
123.0,12.0,wc_12,wc_13,0.0,"[('wc_12', 0.8900000000000007)]",0.8900000000000007,,,24.0,0.00422,['Fail'],Fail,0.7800000000000006,-0.11333333333333395,2.0,3.0,0.8
123.0,12.0,wc_12,,0.0,,,,0.0,,,,Fail,,,,,
123.0,12.0,wc_12,wc_14,0.0,"[('wc_14', 0.7400000000000005), ('wc_12', 0.8900000000000007)]",0.9714000000000003,,,25.0,0.006488,['Fail'],Fail,0.7400000000000005,0.25999999999999945,3.0,3.0,0.9
123.0,12.0,wc_12,,0.0,,,,0.0,,,,Fail,,,,,
123.0,12.0,wc_12,wc_15,1.0,"[('wc_15', 0.6200000000000004), ('wc_12', 0.8900000000000007), ('wc_14', 0.7400000000000005)]",0.9891320000000001,,,21.0,0.046712,['Fail'],Fail,0.6200000000000004,-0.2866666666666671,1.0,3.0,0.5
129.0,12.0,wc_12,,0.0,,,,61.0,,,,Pass,,,,,
129.0,12.0,wc_12,,0.0,,,56.0,,,,,Pass,,,,,
129.0,12.0,wc_12,,0.0,,,,0.0,,,,Pass,,,,,
129.0,12.0,wc_12,wc_12,0.0,"[('wc_12', 0.8900000000000007)]",0.8900000000000007,,,23.0,0.00305,['Pass'],Pass,0.8900000000000007,0.10999999999999932,4.0,4.0,0.9
129.0,12.0,wc_12,,0.0,,,,0.0,,,,Pass,,,,,
129.0,12.0,wc_12,wc_13,0.0,"[('wc_13', 0.7800000000000006), ('wc_12', 0.8900000000000007)]",0.9758000000000002,,,22.0,0.010068,['Pass'],Pass,0.7800000000000006,-0.2800000000000006,2.0,4.0,0.8
129.0,12.0,wc_12,,0.0,,,,0.0,,,,Pass,,,,,
129.0,12.0,wc_12,wc_14,1.0,"[('wc_14', 0.7400000000000005), ('wc_12', 0.8900000000000007), ('wc_13', 0.7800000000000006)]",0.993708,,,31.0,0.043292000000000004,['Pass'],Pass,0.7400000000000005,0.25999999999999945,5.0,5.0,0.9
133.0,13.0,wc_13,,0.0,,,,102.0,,,,Fail,,,,,
133.0,13.0,wc_13,,0.0,,,73.0,,,,,Fail,,,,,
133.0,13.0,wc_13,,0.0,,,,0.0,,,,Fail,,,,,
133.0,13.0,wc_13,wc_13,0.0,"[('wc_13', 0.7800000000000006)]",0.7800000000000006,,,27.0,0.002191,['Fail'],Fail,0.7800000000000006,-0.1800000000000006,3.0,5.0,0.8
133.0,13.0,wc_13,,0.0,,,,0.0,,,,Fail,,,,,
133.0,13.0,wc_13,wc_14,0.0,"[('wc_14', 0.7400000000000005), ('wc_13', 0.7800000000000006)]",0.9428000000000003,,,22.0,0.008812,['Fail'],Fail,0.7400000000000005,0.25999999999999945,5.0,5.0,0.9
133.0,13.0,wc_13,,0.0,,,,0.0,,,,Fail,,,,,
133.0,13.0,wc_13,wc_15,1.0,"[('wc_15', 0.6200000000000004), ('wc_13', 0.7800000000000006), ('wc_14', 0.7400000000000005)]",0.9782640000000001,,,33.0,0.043415999999999996,['Fail'],Fail,0.6200000000000004,-0.22000000000000042,2.0,5.0,0.5
140.0,13.0,wc_13,,0.0,,,,81.0,,,,Pass,,,,,
140.0,13.0,wc_13,,0.0,,,65.0,,,,,Pass,,,,,
140.0,13.0,wc_13,,0.0,,,,0.0,,,,Pass,,,,,
140.0,13.0,wc_13,wc_13,0.0,"[('wc_13', 0.7800000000000006)]",0.7800000000000006,,,26.0,0.003495,['Pass'],Pass,0.7800000000000006,-0.11333333333333395,4.0,6.0,0.8
140.0,13.0,wc_13,,0.0,,,,0.0,,,,Pass,,,,,
140.0,13.0,wc_13,wc_14,0.0,"[('wc_14', 0.7400000000000005), ('wc_13', 0.7800000000000006)]",0.9428000000000003,,,22.0,0.010833,['Pass'],Pass,0.7400000000000005,0.25999999999999945,6.0,6.0,0.9
140.0,13.0,wc_13,,0.0,,,,0.0,,,,Pass,,,,,
140.0,13.0,wc_13,wc_15,1.0,"[('wc_15', 0.6200000000000004), ('wc_13', 0.7800000000000006), ('wc_14', 0.7400000000000005)]",0.9782640000000001,,,36.0,0.058205,['Pass'],Pass,0.6200000000000004,-0.12000000000000044,3.0,6.0,0.5
144.0,15.0,wc_15,,0.0,,,,0.0,,,,Fail,,,,,
144.0,15.0,wc_15,,0.0,,,62.0,,,,,Fail,,,,,
144.0,15.0,wc_15,,0.0,,,,0.0,,,,Fail,,,,,
144.0,15.0,wc_15,wc_15,0.0,"[('wc_15', 0.6200000000000004)]",0.6200000000000004,,,38.0,0.002713,['Fail'],Fail,0.6200000000000004,-0.12000000000000044,3.0,6.0,0.5
144.0,15.0,wc_15,,0.0,,,,0.0,,,,Fail,,,,,
144.0,15.0,wc_15,wc_16,0.0,"[('wc_16', 0.4200000000000003), ('wc_15', 0.6200000000000004)]",0.7796000000000004,,,36.0,0.00621,['Fail'],Fail,0.4200000000000003,-0.34682926829268323,0.0,0.0,0.3
144.0,15.0,wc_15,,0.0,,,,0.0,,,,Fail,,,,,
144.0,15.0,wc_15,wc_17,1.0,"[('wc_17', 0.6600000000000005), ('wc_15', 0.6200000000000004), ('wc_16', 0.4200000000000003)]",0.9250640000000002,,,26.0,0.055962,['Fail'],Fail,0.6600000000000005,-0.5975000000000005,0.0,0.0,0.5
150.0,15.0,wc_15,,0.0,,,,83.0,,,,Fail,,,,,
150.0,15.0,wc_15,,0.0,,,65.0,,,,,Fail,,,,,
150.0,15.0,wc_15,,0.0,,,,0.0,,,,Fail,,,,,
150.0,15.0,wc_15,wc_15,0.0,"[('wc_15', 0.6200000000000004)]",0.6200000000000004,,,37.0,0.003496,['Pass'],Fail,0.6200000000000004,-0.04857142857142904,4.0,7.0,0.5
150.0,15.0,wc_15,,0.0,,,,0.0,,,,Fail,,,,,
150.0,15.0,wc_15,wc_16,0.0,"[('wc_15', 0.6200000000000004)]",0.6200000000000004,,,37.0,0.010052,['Pass'],Fail,0.4200000000000003,0.5799999999999996,1.0,1.0,0.3
150.0,15.0,wc_15,,0.0,,,,0.0,,,,Fail,,,,,
150.0,15.0,wc_15,wc_17,0.0,"[('wc_17', 0.6600000000000005), ('wc_16', 0.4200000000000003)]",0.8028000000000004,,,24.0,0.005881,['Fail'],Fail,0.6600000000000005,-0.6600000000000005,0.0,0.0,0.5
150.0,15.0,wc_15,,0.0,,,,21.0,,,,Fail,,,,,
150.0,15.0,wc_15,wc_12,1.0,"[('wc_12', 0.8900000000000007), ('wc_16', 0.4200000000000003), ('wc_17', 0.6600000000000005)]",0.9783080000000002,,,31.0,0.045604,['Fail'],Fail,0.8900000000000007,-0.22333333333333405,6.0,9.0,0.9
156.0,16.0,wc_16,,0.0,,,,0.0,,,,Pass,,,,,
156.0,16.0,wc_16,,0.0,,,80.0,,,,,Pass,,,,,
156.0,16.0,wc_16,,0.0,,,,0.0,,,,Pass,,,,,
156.0,16.0,wc_16,wc_16,0.0,"[('wc_16', 0.4200000000000003)]",0.4200000000000004,,,23.0,0.003431,['Pass'],Pass,0.4200000000000003,0.5799999999999996,2.0,2.0,0.3
156.0,16.0,wc_16,,0.0,,,,0.0,,,,Pass,,,,,
156.0,16.0,wc_16,wc_17,0.0,"[('wc_17', 0.6600000000000005), ('wc_16', 0.4200000000000003)]",0.8028000000000004,,,33.0,0.013803,['Pass'],Pass,0.6600000000000005,0.3399999999999995,1.0,1.0,0.5
156.0,16.0,wc_16,,0.0,,,,21.0,,,,Pass,,,,,
156.0,16.0,wc_16,wc_12,1.0,"[('wc_12', 0.8900000000000007), ('wc_16', 0.4200000000000003), ('wc_17', 0.6600000000000005)]",0.9783080000000002,,,24.0,0.04588,['Pass'],Pass,0.8900000000000007,-0.19000000000000072,0.0,0.0,0.9
161.0,15.0,wc_15,,0.0,,,,0.0,,,,Fail,,,,,
161.0,15.0,wc_15,,0.0,,,52.0,,,,,Fail,,,,,
161.0,15.0,wc_15,,0.0,,,,0.0,,,,Fail,,,,,
161.0,15.0,wc_15,wc_15,0.0,"[('wc_15', 0.6200000000000004)]",0.6200000000000004,,,33.0,0.002515,['Pass'],Fail,0.6200000000000004,-0.17555555555555602,4.0,9.0,0.5
161.0,15.0,wc_15,,0.0,,,,0.0,,,,Fail,,,,,
161.0,15.0,wc_15,wc_16,0.0,"[('wc_15', 0.6200000000000004)]",0.6200000000000004,,,38.0,0.013362,['Pass'],Fail,0.4200000000000003,0.5799999999999996,3.0,3.0,0.3
161.0,15.0,wc_15,,0.0,,,,0.0,,,,Fail,,,,,
161.0,15.0,wc_15,wc_17,0.0,"[('wc_17', 0.6600000000000005), ('wc_15', 0.6200000000000004)]",0.8708000000000004,,,35.0,0.011598,['Pass'],Fail,0.6600000000000005,0.3399999999999995,2.0,2.0,0.5
161.0,15.0,wc_15,,0.0,,,,21.0,,,,Fail,,,,,
161.0,15.0,wc_15,wc_12,0.0,"[('wc_12', 0.8900000000000007), ('wc_16', 0.4200000000000003)]",0.9362000000000005,,,33.0,0.015404999999999999,['Fail'],Fail,0.8900000000000007,-0.8900000000000007,0.0,0.0,0.9
161.0,15.0,wc_15,,0.0,,,,0.0,,,,Fail,,,,,
161.0,15.0,wc_15,wc_13,1.0,"[('wc_13', 0.7800000000000006), ('wc_16', 0.4200000000000003), ('wc_12', 0.8900000000000007)]",0.9859640000000002,,,23.0,0.047881999999999994,['Fail'],Fail,0.7800000000000006,-0.23454545454545517,0.0,0.0,0.8
166.0,15.0,wc_15,,0.0,,,,0.0,,,,Fail,,,,,
166.0,15.0,wc_15,,0.0,,,53.0,,,,,Fail,,,,,
166.0,15.0,wc_15,,0.0,,,,0.0,,,,Fail,,,,,
166.0,15.0,wc_15,wc_15,0.0,"[('wc_15', 0.6200000000000004)]",0.6200000000000004,,,28.0,0.002361,['Fail'],Fail,0.6200000000000004,-0.22000000000000042,0.0,0.0,0.5
166.0,15.0,wc_15,,0.0,,,,0.0,,,,Fail,,,,,
166.0,15.0,wc_15,wc_16,0.0,"[('wc_15', 0.6200000000000004)]",0.6200000000000004,,,29.0,0.004459,['Fail'],Fail,0.4200000000000003,0.5799999999999996,4.0,4.0,0.3
166.0,15.0,wc_15,,0.0,,,,0.0,,,,Fail,,,,,
166.0,15.0,wc_15,wc_17,0.0,"[('wc_17', 0.6600000000000005), ('wc_15', 0.6200000000000004)]",0.8708000000000004,,,20.0,0.007096,['Fail'],Fail,0.6600000000000005,0.0066666666666661545,2.0,3.0,0.5
166.0,15.0,wc_15,,0.0,,,,21.0,,,,Fail,,,,,
166.0,15.0,wc_15,wc_12,1.0,"[('wc_12', 0.8900000000000007), ('wc_15', 0.6200000000000004), ('wc_17', 0.6600000000000005)]",0.9857880000000001,,,21.0,0.04778700000000001,['Fail'],Fail,0.8900000000000007,0.10999999999999932,2.0,2.0,0.9
171.0,15.0,wc_15,,0.0,,,,0.0,,,,Pass,,,,,
171.0,15.0,wc_15,,0.0,,,56.0,,,,,Pass,,,,,
171.0,15.0,wc_15,,0.0,,,,0.0,,,,Pass,,,,,
171.0,15.0,wc_15,wc_15,0.0,"[('wc_15', 0.6200000000000004)]",0.6200000000000004,,,28.0,0.003022,['Pass'],Pass,0.6200000000000004,0.37999999999999956,1.0,1.0,0.5
171.0,15.0,wc_15,,0.0,,,,0.0,,,,Pass,,,,,
171.0,15.0,wc_15,wc_16,0.0,"[('wc_16', 0.4200000000000003), ('wc_15', 0.6200000000000004)]",0.7796000000000004,,,28.0,0.006647,['Pass'],Pass,0.4200000000000003,0.3799999999999997,4.0,5.0,0.3
171.0,15.0,wc_15,,0.0,,,,0.0,,,,Pass,,,,,
171.0,15.0,wc_15,wc_17,1.0,"[('wc_17', 0.6600000000000005), ('wc_15', 0.6200000000000004), ('wc_16', 0.4200000000000003)]",0.9250640000000002,,,29.0,0.05853300000000001,['Pass'],Pass,0.6600000000000005,0.13999999999999957,4.0,5.0,0.5
177.0,14.0,wc_14,,0.0,,,,61.0,,,,Pass,,,,,
177.0,14.0,wc_14,,0.0,,,60.0,,,,,Pass,,,,,
177.0,14.0,wc_14,,0.0,,,,0.0,,,,Pass,,,,,
177.0,14.0,wc_14,wc_14,0.0,"[('wc_14', 0.7400000000000005)]",0.7400000000000005,,,38.0,0.003306,['Pass'],Pass,0.7400000000000005,-0.2015384615384621,0.0,0.0,0.9
177.0,14.0,wc_14,,0.0,,,,0.0,,,,Pass,,,,,
177.0,14.0,wc_14,wc_15,0.0,"[('wc_15', 0.6200000000000004), ('wc_14', 0.7400000000000005)]",0.9012000000000003,,,27.0,0.003895,['Pass'],Pass,0.6200000000000004,0.37999999999999956,2.0,2.0,0.5
177.0,14.0,wc_14,,0.0,,,,0.0,,,,Pass,,,,,
177.0,14.0,wc_14,wc_16,1.0,"[('wc_16', 0.4200000000000003), ('wc_14', 0.7400000000000005), ('wc_15', 0.6200000000000004)]",0.9426960000000002,,,27.0,0.059194,['Pass'],Pass,0.4200000000000003,0.4371428571428568,6.0,7.0,0.3
181.0,17.0,wc_17,,0.0,,,,0.0,,,,Fail,,,,,
181.0,17.0,wc_17,,0.0,,,66.0,,,,,Fail,,,,,
181.0,17.0,wc_17,,0.0,,,,0.0,,,,Fail,,,,,
181.0,17.0,wc_17,wc_17,0.0,"[('wc_17', 0.6600000000000005)]",0.6600000000000005,,,21.0,0.00299,['Fail'],Fail,0.6600000000000005,0.0066666666666661545,4.0,6.0,0.5
181.0,17.0,wc_17,,0.0,,,,21.0,,,,Fail,,,,,
181.0,17.0,wc_17,wc_12,0.0,"[('wc_12', 0.8900000000000007)]",0.8900000000000007,,,36.0,0.0105,['Pass'],Fail,0.8900000000000007,-0.3900000000000007,2.0,4.0,0.9
181.0,17.0,wc_17,,0.0,,,,0.0,,,,Fail,,,,,
181.0,17.0,wc_17,wc_13,0.0,"[('wc_13', 0.7800000000000006), ('wc_12', 0.8900000000000007)]",0.9758000000000002,,,21.0,0.011001,['Pass'],Fail,0.7800000000000006,-0.7800000000000006,0.0,3.0,0.8
181.0,17.0,wc_17,,0.0,,,,0.0,,,,Fail,,,,,
181.0,17.0,wc_17,wc_14,1.0,"[('wc_14', 0.7400000000000005), ('wc_12', 0.8900000000000007), ('wc_13', 0.7800000000000006)]",0.993708,,,33.0,0.047587000000000004,['Pass'],Fail,0.7400000000000005,0.25999999999999945,2.0,2.0,0.9
190.0,17.0,wc_17,,0.0,,,,0.0,,,,Pass,,,,,
190.0,17.0,wc_17,,0.0,,,60.0,,,,,Pass,,,,,
190.0,17.0,wc_17,,0.0,,,,0.0,,,,Pass,,,,,
190.0,17.0,wc_17,wc_17,0.0,"[('wc_17', 0.6600000000000005)]",0.6600000000000005,,,32.0,0.002231,['Pass'],Pass,0.6600000000000005,-0.08857142857142908,4.0,7.0,0.5
190.0,17.0,wc_17,,0.0,,,,21.0,,,,Pass,,,,,
190.0,17.0,wc_17,wc_12,0.0,"[('wc_12', 0.8900000000000007), ('wc_17', 0.6600000000000005)]",0.9626000000000002,,,22.0,0.004765999999999999,['Pass'],Pass,0.8900000000000007,-0.2900000000000007,3.0,5.0,0.9
190.0,17.0,wc_17,,0.0,,,,0.0,,,,Pass,,,,,
190.0,17.0,wc_17,wc_13,1.0,"[('wc_13', 0.7800000000000006), ('wc_17', 0.6600000000000005), ('wc_12', 0.8900000000000007)]",0.9917720000000001,,,24.0,0.04272899999999999,['Pass'],Pass,0.7800000000000006,-0.38000000000000056,2.0,5.0,0.8
