mpecck/BCQC/bcqc_with_qdt/results/raw/input_2/independent_qc/score/5_workpiece/20200429_104634/wp_2_qc_majority_0.9.csv
production_index,step_idx,production_workcell,qc,consent,winner_qc_list,score,production_time,transport_time,inspection_time,network_time,qc_results,actual_quality,qc_score,score_error,in_winner_counter,in_qc_counter,qc_capability
2.0,1.0,wc_1,,0.0,,,77.0,,,,,Fail,,,,,
2.0,1.0,wc_1,,0.0,,,,0.0,,,,Fail,,,,,
2.0,1.0,wc_1,wc_1,0.0,"[('wc_1', 0.9500000000000008)]",0.9500000000000008,,,24.0,0.002379,['Fail'],Fail,0.9500000000000008,-0.9083333333333342,0.0,0.0,0.8
2.0,1.0,wc_1,,0.0,,,,0.0,,,,Fail,,,,,
2.0,1.0,wc_1,wc_2,0.0,"[('wc_1', 0.9500000000000008)]",0.9500000000000008,,,37.0,0.004863,['Fail'],Fail,0.7600000000000006,-0.6766666666666672,0.0,0.0,0.7
2.0,1.0,wc_1,,0.0,,,,0.0,,,,Fail,,,,,
2.0,1.0,wc_1,wc_3,0.0,"[('wc_3', 0.9300000000000008), ('wc_1', 0.9500000000000008)]",0.9965,,,38.0,0.006164000000000001,['Fail'],Fail,0.9300000000000008,-0.9300000000000008,0.0,0.0,0.9
2.0,1.0,wc_1,,0.0,,,,0.0,,,,Fail,,,,,
2.0,1.0,wc_1,wc_4,1.0,"[('wc_4', 0.9900000000000008), ('wc_1', 0.9500000000000008), ('wc_3', 0.9300000000000008)]",0.999965,,,26.0,0.039455000000000004,['Fail'],Fail,0.9900000000000008,-0.9483333333333341,0.0,0.0,0.9
10.0,1.0,wc_1,,0.0,,,,61.0,,,,Pass,,,,,
10.0,1.0,wc_1,,0.0,,,73.0,,,,,Pass,,,,,
10.0,1.0,wc_1,,0.0,,,,0.0,,,,Pass,,,,,
10.0,1.0,wc_1,wc_1,0.0,"[('wc_1', 0.9500000000000008)]",0.9500000000000008,,,28.0,0.002041,['Pass'],Pass,0.9500000000000008,0.049999999999999156,1.0,1.0,0.8
10.0,1.0,wc_1,,0.0,,,,0.0,,,,Pass,,,,,
10.0,1.0,wc_1,wc_2,0.0,"[('wc_2', 0.7600000000000006), ('wc_1', 0.9500000000000008)]",0.9880000000000002,,,29.0,0.006471,['Pass'],Pass,0.7600000000000006,-0.7600000000000006,0.0,1.0,0.7
10.0,1.0,wc_1,,0.0,,,,0.0,,,,Pass,,,,,
10.0,1.0,wc_1,wc_3,1.0,"[('wc_3', 0.9300000000000008), ('wc_1', 0.9500000000000008), ('wc_2', 0.7600000000000006)]",0.99916,,,29.0,0.038413,['Pass'],Pass,0.9300000000000008,0.06999999999999917,2.0,2.0,0.9
14.0,2.0,wc_2,,0.0,,,,101.0,,,,Pass,,,,,
14.0,2.0,wc_2,,0.0,,,53.0,,,,,Pass,,,,,
14.0,2.0,wc_2,,0.0,,,,0.0,,,,Pass,,,,,
14.0,2.0,wc_2,wc_2,0.0,"[('wc_2', 0.7600000000000006)]",0.7600000000000006,,,29.0,0.002314,['Fail'],Pass,0.7600000000000006,-0.26000000000000056,1.0,2.0,0.7
14.0,2.0,wc_2,,0.0,,,,0.0,,,,Pass,,,,,
14.0,2.0,wc_2,wc_3,0.0,"[('wc_3', 0.9300000000000008)]",0.9300000000000008,,,26.0,0.004738,['Pass'],Pass,0.9300000000000008,0.06999999999999917,2.0,2.0,0.9
14.0,2.0,wc_2,,0.0,,,,0.0,,,,Pass,,,,,
14.0,2.0,wc_2,wc_4,0.0,"[('wc_4', 0.9900000000000008), ('wc_3', 0.9300000000000008)]",0.9993000000000001,,,39.0,0.007112,['Pass'],Pass,0.9900000000000008,-0.9900000000000008,0.0,1.0,0.9
14.0,2.0,wc_2,,0.0,,,,0.0,,,,Pass,,,,,
14.0,2.0,wc_2,wc_5,1.0,"[('wc_5', 0.5800000000000004), ('wc_3', 0.9300000000000008), ('wc_4', 0.9900000000000008)]",0.999706,,,39.0,0.050777,['Pass'],Pass,0.5800000000000004,-0.4688888888888893,0.0,0.0,0.8
18.0,4.0,wc_4,,0.0,,,,103.0,,,,Fail,,,,,
18.0,4.0,wc_4,,0.0,,,58.0,,,,,Fail,,,,,
18.0,4.0,wc_4,,0.0,,,,0.0,,,,Fail,,,,,
18.0,4.0,wc_4,wc_4,0.0,"[('wc_4', 0.9900000000000008)]",0.9900000000000008,,,21.0,0.002244,['Fail'],Fail,0.9900000000000008,-0.49000000000000077,1.0,2.0,0.9
18.0,4.0,wc_4,,0.0,,,,0.0,,,,Fail,,,,,
18.0,4.0,wc_4,wc_5,0.0,"[('wc_5', 0.5800000000000004), ('wc_4', 0.9900000000000008)]",0.9958000000000004,,,38.0,0.007578,['Fail'],Fail,0.5800000000000004,-0.5800000000000004,0.0,0.0,0.8
18.0,4.0,wc_4,,0.0,,,,41.0,,,,Fail,,,,,
18.0,4.0,wc_4,wc_1,1.0,"[('wc_1', 0.9500000000000008), ('wc_4', 0.9900000000000008), ('wc_5', 0.5800000000000004)]",0.9997900000000001,,,21.0,0.045991,['Fail'],Fail,0.9500000000000008,-0.20000000000000084,3.0,4.0,0.8
27.0,3.0,wc_3,,0.0,,,,0.0,,,,Fail,,,,,
27.0,3.0,wc_3,,0.0,,,69.0,,,,,Fail,,,,,
27.0,3.0,wc_3,,0.0,,,,0.0,,,,Fail,,,,,
27.0,3.0,wc_3,wc_3,0.0,"[('wc_3', 0.9300000000000008)]",0.9300000000000008,,,35.0,0.002795,['Fail'],Fail,0.9300000000000008,-0.18000000000000083,3.0,4.0,0.9
27.0,3.0,wc_3,,0.0,,,,0.0,,,,Fail,,,,,
27.0,3.0,wc_3,wc_4,0.0,"[('wc_4', 0.9900000000000008), ('wc_3', 0.9300000000000008)]",0.9993000000000001,,,36.0,0.004256,['Fail'],Fail,0.9900000000000008,-0.32333333333333414,2.0,3.0,0.9
27.0,3.0,wc_3,,0.0,,,,0.0,,,,Fail,,,,,
27.0,3.0,wc_3,wc_5,1.0,"[('wc_5', 0.5800000000000004), ('wc_3', 0.9300000000000008), ('wc_4', 0.9900000000000008)]",0.999706,,,36.0,0.03986599999999999,['Fail'],Fail,0.5800000000000004,0.4199999999999996,2.0,2.0,0.8
31.0,3.0,wc_3,,0.0,,,,83.0,,,,Fail,,,,,
31.0,3.0,wc_3,,0.0,,,56.0,,,,,Fail,,,,,
31.0,3.0,wc_3,,0.0,,,,0.0,,,,Fail,,,,,
31.0,3.0,wc_3,wc_3,0.0,"[('wc_3', 0.9300000000000008)]",0.9300000000000008,,,33.0,0.004368,['Fail'],Fail,0.9300000000000008,-0.13000000000000078,4.0,5.0,0.9
31.0,3.0,wc_3,,0.0,,,,0.0,,,,Fail,,,,,
31.0,3.0,wc_3,wc_4,0.0,"[('wc_4', 0.9900000000000008), ('wc_3', 0.9300000000000008)]",0.9993000000000001,,,23.0,0.007738,['Fail'],Fail,0.9900000000000008,-0.24000000000000077,3.0,4.0,0.9
31.0,3.0,wc_3,,0.0,,,,0.0,,,,Fail,,,,,
31.0,3.0,wc_3,wc_5,1.0,"[('wc_5', 0.5800000000000004), ('wc_3', 0.9300000000000008), ('wc_4', 0.9900000000000008)]",0.999706,,,34.0,0.03691,['Fail'],Fail,0.5800000000000004,0.4199999999999996,3.0,3.0,0.8
37.0,3.0,wc_3,,0.0,,,,83.0,,,,Fail,,,,,
37.0,3.0,wc_3,,0.0,,,77.0,,,,,Fail,,,,,
37.0,3.0,wc_3,,0.0,,,,0.0,,,,Fail,,,,,
37.0,3.0,wc_3,wc_3,0.0,"[('wc_3', 0.9300000000000008)]",0.9300000000000008,,,38.0,0.002825,['Fail'],Fail,0.9300000000000008,-0.09666666666666746,5.0,6.0,0.9
37.0,3.0,wc_3,,0.0,,,,0.0,,,,Fail,,,,,
37.0,3.0,wc_3,wc_4,0.0,"[('wc_4', 0.9900000000000008), ('wc_3', 0.9300000000000008)]",0.9993000000000001,,,30.0,0.006632000000000001,['Fail'],Fail,0.9900000000000008,-0.19000000000000072,4.0,5.0,0.9
37.0,3.0,wc_3,,0.0,,,,0.0,,,,Fail,,,,,
37.0,3.0,wc_3,wc_5,1.0,"[('wc_5', 0.5800000000000004), ('wc_3', 0.9300000000000008), ('wc_4', 0.9900000000000008)]",0.999706,,,37.0,0.037776000000000004,['Fail'],Fail,0.5800000000000004,0.4199999999999996,4.0,4.0,0.8
40.0,3.0,wc_3,,0.0,,,,83.0,,,,Pass,,,,,
40.0,3.0,wc_3,,0.0,,,64.0,,,,,Pass,,,,,
40.0,3.0,wc_3,,0.0,,,,0.0,,,,Pass,,,,,
40.0,3.0,wc_3,wc_3,0.0,"[('wc_3', 0.9300000000000008)]",0.9300000000000008,,,23.0,0.006571,['Pass'],Pass,0.9300000000000008,-0.07285714285714373,6.0,7.0,0.9
40.0,3.0,wc_3,,0.0,,,,0.0,,,,Pass,,,,,
40.0,3.0,wc_3,wc_4,0.0,"[('wc_4', 0.9900000000000008), ('wc_3', 0.9300000000000008)]",0.9993000000000001,,,20.0,0.00783,['Pass'],Pass,0.9900000000000008,-0.1566666666666674,5.0,6.0,0.9
40.0,3.0,wc_3,,0.0,,,,0.0,,,,Pass,,,,,
40.0,3.0,wc_3,wc_5,1.0,"[('wc_5', 0.5800000000000004), ('wc_3', 0.9300000000000008), ('wc_4', 0.9900000000000008)]",0.999706,,,30.0,0.04504899999999999,['Pass'],Pass,0.5800000000000004,0.4199999999999996,5.0,5.0,0.8
47.0,4.0,wc_4,,0.0,,,,103.0,,,,Fail,,,,,
47.0,4.0,wc_4,,0.0,,,67.0,,,,,Fail,,,,,
47.0,4.0,wc_4,,0.0,,,,0.0,,,,Fail,,,,,
47.0,4.0,wc_4,wc_4,0.0,"[('wc_4', 0.9900000000000008)]",0.9900000000000008,,,22.0,0.00237,['Fail'],Fail,0.9900000000000008,-0.13285714285714367,6.0,7.0,0.9
47.0,4.0,wc_4,,0.0,,,,0.0,,,,Fail,,,,,
47.0,4.0,wc_4,wc_5,0.0,"[('wc_5', 0.5800000000000004), ('wc_4', 0.9900000000000008)]",0.9958000000000004,,,39.0,0.012726,['Fail'],Fail,0.5800000000000004,0.4199999999999996,5.0,5.0,0.8
47.0,4.0,wc_4,,0.0,,,,41.0,,,,Fail,,,,,
47.0,4.0,wc_4,wc_1,1.0,"[('wc_1', 0.9500000000000008), ('wc_4', 0.9900000000000008), ('wc_5', 0.5800000000000004)]",0.9997900000000001,,,29.0,0.049139,['Fail'],Fail,0.9500000000000008,-0.5055555555555564,4.0,9.0,0.8
56.0,4.0,wc_4,,0.0,,,,0.0,,,,Fail,,,,,
56.0,4.0,wc_4,,0.0,,,73.0,,,,,Fail,,,,,
56.0,4.0,wc_4,,0.0,,,,0.0,,,,Fail,,,,,
56.0,4.0,wc_4,wc_4,0.0,"[('wc_4', 0.9900000000000008)]",0.9900000000000008,,,28.0,0.002287,['Fail'],Fail,0.9900000000000008,-0.11500000000000077,7.0,8.0,0.9
56.0,4.0,wc_4,,0.0,,,,0.0,,,,Fail,,,,,
56.0,4.0,wc_4,wc_5,0.0,"[('wc_5', 0.5800000000000004), ('wc_4', 0.9900000000000008)]",0.9958000000000004,,,31.0,0.00403,['Fail'],Fail,0.5800000000000004,0.4199999999999996,6.0,6.0,0.8
56.0,4.0,wc_4,,0.0,,,,41.0,,,,Fail,,,,,
56.0,4.0,wc_4,wc_1,1.0,"[('wc_1', 0.9500000000000008), ('wc_4', 0.9900000000000008), ('wc_5', 0.5800000000000004)]",0.9997900000000001,,,40.0,0.051123,['Fail'],Fail,0.9500000000000008,-0.45000000000000084,0.0,0.0,0.8
61.0,4.0,wc_4,,0.0,,,,0.0,,,,Fail,,,,,
61.0,4.0,wc_4,,0.0,,,69.0,,,,,Fail,,,,,
61.0,4.0,wc_4,,0.0,,,,0.0,,,,Fail,,,,,
61.0,4.0,wc_4,wc_4,0.0,"[('wc_4', 0.9900000000000008)]",0.9900000000000008,,,30.0,0.002237,['Fail'],Fail,0.9900000000000008,-0.10111111111111193,8.0,9.0,0.9
61.0,4.0,wc_4,,0.0,,,,0.0,,,,Fail,,,,,
61.0,4.0,wc_4,wc_5,0.0,"[('wc_5', 0.5800000000000004), ('wc_4', 0.9900000000000008)]",0.9958000000000004,,,32.0,0.008417000000000001,['Fail'],Fail,0.5800000000000004,0.4199999999999996,7.0,7.0,0.8
61.0,4.0,wc_4,,0.0,,,,41.0,,,,Fail,,,,,
61.0,4.0,wc_4,wc_1,1.0,"[('wc_1', 0.9500000000000008), ('wc_4', 0.9900000000000008), ('wc_5', 0.5800000000000004)]",0.9997900000000001,,,23.0,0.049257,['Fail'],Fail,0.9500000000000008,0.049999999999999156,1.0,1.0,0.8
65.0,4.0,wc_4,,0.0,,,,0.0,,,,Fail,,,,,
65.0,4.0,wc_4,,0.0,,,66.0,,,,,Fail,,,,,
65.0,4.0,wc_4,,0.0,,,,0.0,,,,Fail,,,,,
65.0,4.0,wc_4,wc_4,0.0,"[('wc_4', 0.9900000000000008)]",0.9900000000000008,,,38.0,0.002172,['Fail'],Fail,0.9900000000000008,-0.09000000000000075,0.0,0.0,0.9
65.0,4.0,wc_4,,0.0,,,,0.0,,,,Fail,,,,,
65.0,4.0,wc_4,wc_5,0.0,"[('wc_5', 0.5800000000000004), ('wc_4', 0.9900000000000008)]",0.9958000000000004,,,26.0,0.0047209999999999995,['Fail'],Fail,0.5800000000000004,0.4199999999999996,8.0,8.0,0.8
65.0,4.0,wc_4,,0.0,,,,41.0,,,,Fail,,,,,
65.0,4.0,wc_4,wc_1,1.0,"[('wc_1', 0.9500000000000008), ('wc_4', 0.9900000000000008), ('wc_5', 0.5800000000000004)]",0.9997900000000001,,,26.0,0.042459,['Fail'],Fail,0.9500000000000008,0.049999999999999156,2.0,2.0,0.8
68.0,4.0,wc_4,,0.0,,,,0.0,,,,Fail,,,,,
68.0,4.0,wc_4,,0.0,,,57.0,,,,,Fail,,,,,
68.0,4.0,wc_4,,0.0,,,,0.0,,,,Fail,,,,,
68.0,4.0,wc_4,wc_4,0.0,"[('wc_4', 0.9900000000000008)]",0.9900000000000008,,,36.0,0.003457,['Pass'],Fail,0.9900000000000008,0.009999999999999232,1.0,1.0,0.9
68.0,4.0,wc_4,,0.0,,,,0.0,,,,Fail,,,,,
68.0,4.0,wc_4,wc_5,0.0,"[('wc_5', 0.5800000000000004), ('wc_4', 0.9900000000000008)]",0.9958000000000004,,,39.0,0.0044659999999999995,['Pass'],Fail,0.5800000000000004,0.4199999999999996,9.0,9.0,0.8
68.0,4.0,wc_4,,0.0,,,,41.0,,,,Fail,,,,,
68.0,4.0,wc_4,wc_1,0.0,"[('wc_4', 0.9900000000000008), ('wc_5', 0.5800000000000004)]",0.9958000000000004,,,21.0,0.007749000000000001,['Pass'],Fail,0.9500000000000008,0.049999999999999156,2.0,2.0,0.8
68.0,4.0,wc_4,,0.0,,,,0.0,,,,Fail,,,,,
68.0,4.0,wc_4,wc_2,1.0,"[('wc_2', 0.7600000000000006), ('wc_4', 0.9900000000000008), ('wc_5', 0.5800000000000004)]",0.9989920000000001,,,30.0,0.040186999999999994,['Pass'],Fail,0.7600000000000006,-0.6061538461538467,0.0,0.0,0.7
73.0,4.0,wc_4,,0.0,,,,0.0,,,,Pass,,,,,
73.0,4.0,wc_4,,0.0,,,53.0,,,,,Pass,,,,,
73.0,4.0,wc_4,,0.0,,,,0.0,,,,Pass,,,,,
73.0,4.0,wc_4,wc_4,0.0,"[('wc_4', 0.9900000000000008)]",0.9900000000000008,,,31.0,0.002574,['Pass'],Pass,0.9900000000000008,0.009999999999999232,2.0,2.0,0.9
73.0,4.0,wc_4,,0.0,,,,0.0,,,,Pass,,,,,
73.0,4.0,wc_4,wc_5,0.0,"[('wc_5', 0.5800000000000004), ('wc_4', 0.9900000000000008)]",0.9958000000000004,,,34.0,0.005424,['Pass'],Pass,0.5800000000000004,0.4199999999999996,0.0,0.0,0.8
73.0,4.0,wc_4,,0.0,,,,41.0,,,,Pass,,,,,
73.0,4.0,wc_4,wc_1,1.0,"[('wc_1', 0.9500000000000008), ('wc_4', 0.9900000000000008), ('wc_5', 0.5800000000000004)]",0.9997900000000001,,,32.0,0.038826,['Pass'],Pass,0.9500000000000008,-0.20000000000000084,3.0,4.0,0.8
78.0,5.0,wc_5,,0.0,,,,0.0,,,,Fail,,,,,
78.0,5.0,wc_5,,0.0,,,78.0,,,,,Fail,,,,,
78.0,5.0,wc_5,,0.0,,,,0.0,,,,Fail,,,,,
78.0,5.0,wc_5,wc_5,0.0,"[('wc_5', 0.5800000000000004)]",0.5800000000000004,,,34.0,0.002505,['Fail'],Fail,0.5800000000000004,0.4199999999999996,1.0,1.0,0.8
78.0,5.0,wc_5,,0.0,,,,41.0,,,,Fail,,,,,
78.0,5.0,wc_5,wc_1,0.0,"[('wc_1', 0.9500000000000008), ('wc_5', 0.5800000000000004)]",0.9790000000000004,,,21.0,0.01125,['Fail'],Fail,0.9500000000000008,-0.20000000000000084,3.0,4.0,0.8
78.0,5.0,wc_5,,0.0,,,,0.0,,,,Fail,,,,,
78.0,5.0,wc_5,wc_2,1.0,"[('wc_2', 0.7600000000000006), ('wc_5', 0.5800000000000004), ('wc_1', 0.9500000000000008)]",0.9949600000000001,,,27.0,0.051734,['Fail'],Fail,0.7600000000000006,-0.26000000000000056,1.0,2.0,0.7
83.0,5.0,wc_5,,0.0,,,,0.0,,,,Pass,,,,,
83.0,5.0,wc_5,,0.0,,,73.0,,,,,Pass,,,,,
83.0,5.0,wc_5,,0.0,,,,0.0,,,,Pass,,,,,
83.0,5.0,wc_5,wc_5,0.0,"[('wc_5', 0.5800000000000004)]",0.5800000000000004,,,40.0,0.004672,['Pass'],Pass,0.5800000000000004,0.4199999999999996,2.0,2.0,0.8
83.0,5.0,wc_5,,0.0,,,,41.0,,,,Pass,,,,,
83.0,5.0,wc_5,wc_1,0.0,"[('wc_1', 0.9500000000000008), ('wc_5', 0.5800000000000004)]",0.9790000000000004,,,22.0,0.006751,['Pass'],Pass,0.9500000000000008,-0.1500000000000008,4.0,5.0,0.8
83.0,5.0,wc_5,,0.0,,,,0.0,,,,Pass,,,,,
83.0,5.0,wc_5,wc_2,1.0,"[('wc_2', 0.7600000000000006), ('wc_5', 0.5800000000000004), ('wc_1', 0.9500000000000008)]",0.9949600000000001,,,37.0,0.052704,['Pass'],Pass,0.7600000000000006,-0.09333333333333393,2.0,3.0,0.7
87.0,6.0,wc_6,,0.0,,,,122.0,,,,Fail,,,,,
87.0,6.0,wc_6,,0.0,,,61.0,,,,,Fail,,,,,
87.0,6.0,wc_6,,0.0,,,,0.0,,,,Fail,,,,,
87.0,6.0,wc_6,wc_6,0.0,"[('wc_6', 0.5400000000000004)]",0.5400000000000004,,,25.0,0.002061,['Fail'],Fail,0.5400000000000004,-0.5136842105263162,0.0,0.0,0.5
87.0,6.0,wc_6,,0.0,,,,0.0,,,,Fail,,,,,
87.0,6.0,wc_6,wc_7,0.0,"[('wc_7', 0.6600000000000005), ('wc_6', 0.5400000000000004)]",0.8436000000000003,,,40.0,0.007114,['Fail'],Fail,0.6600000000000005,-0.5810526315789478,0.0,0.0,0.5
87.0,6.0,wc_6,,0.0,,,,0.0,,,,Fail,,,,,
87.0,6.0,wc_6,wc_8,1.0,"[('wc_8', 0.7800000000000006), ('wc_6', 0.5400000000000004), ('wc_7', 0.6600000000000005)]",0.9655920000000001,,,25.0,0.04127800000000001,['Fail'],Fail,0.7800000000000006,-0.5748717948717954,0.0,0.0,0.9
91.0,6.0,wc_6,,0.0,,,,82.0,,,,Pass,,,,,
91.0,6.0,wc_6,,0.0,,,73.0,,,,,Pass,,,,,
91.0,6.0,wc_6,,0.0,,,,0.0,,,,Pass,,,,,
91.0,6.0,wc_6,wc_6,0.0,"[('wc_6', 0.5400000000000004)]",0.5400000000000004,,,39.0,0.001984,['Pass'],Pass,0.5400000000000004,0.45999999999999963,1.0,1.0,0.5
91.0,6.0,wc_6,,0.0,,,,0.0,,,,Pass,,,,,
91.0,6.0,wc_6,wc_7,0.0,"[('wc_7', 0.6600000000000005), ('wc_6', 0.5400000000000004)]",0.8436000000000003,,,25.0,0.00443,['Pass'],Pass,0.6600000000000005,0.3399999999999995,1.0,1.0,0.5
91.0,6.0,wc_6,,0.0,,,,0.0,,,,Pass,,,,,
91.0,6.0,wc_6,wc_8,1.0,"[('wc_8', 0.7800000000000006), ('wc_6', 0.5400000000000004), ('wc_7', 0.6600000000000005)]",0.9655920000000001,,,38.0,0.04596600000000001,['Pass'],Pass,0.7800000000000006,0.21999999999999942,1.0,1.0,0.9
95.0,11.0,wc_11,,0.0,,,,0.0,,,,Fail,,,,,
95.0,11.0,wc_11,,0.0,,,66.0,,,,,Fail,,,,,
95.0,11.0,wc_11,,0.0,,,,0.0,,,,Fail,,,,,
95.0,11.0,wc_11,wc_11,0.0,"[('wc_11', 0.7800000000000006)]",0.7800000000000006,,,22.0,0.002271,['Fail'],Fail,0.7800000000000006,-0.6718918918918925,0.0,0.0,1.0
95.0,11.0,wc_11,,0.0,,,,21.0,,,,Fail,,,,,
95.0,11.0,wc_11,wc_6,0.0,"[('wc_11', 0.7800000000000006)]",0.7800000000000006,,,28.0,0.0038380000000000003,['Fail'],Fail,0.5400000000000004,0.45999999999999963,2.0,2.0,0.5
95.0,11.0,wc_11,,0.0,,,,0.0,,,,Fail,,,,,
95.0,11.0,wc_11,wc_7,0.0,"[('wc_7', 0.6600000000000005), ('wc_11', 0.7800000000000006)]",0.9252000000000002,,,32.0,0.005596,['Fail'],Fail,0.6600000000000005,0.3399999999999995,2.0,2.0,0.5
95.0,11.0,wc_11,,0.0,,,,0.0,,,,Fail,,,,,
95.0,11.0,wc_11,wc_8,1.0,"[('wc_8', 0.7800000000000006), ('wc_11', 0.7800000000000006), ('wc_7', 0.6600000000000005)]",0.9835440000000001,,,39.0,0.04816299999999999,['Fail'],Fail,0.7800000000000006,0.21999999999999942,2.0,2.0,0.9
98.0,9.0,wc_9,,0.0,,,,0.0,,,,Pass,,,,,
98.0,9.0,wc_9,,0.0,,,58.0,,,,,Pass,,,,,
98.0,9.0,wc_9,,0.0,,,,0.0,,,,Pass,,,,,
98.0,9.0,wc_9,wc_9,0.0,"[('wc_9', 0.6500000000000005)]",0.6500000000000005,,,40.0,0.001994,['Pass'],Pass,0.6500000000000005,-0.5000000000000004,0.0,0.0,0.7
98.0,9.0,wc_9,,0.0,,,,0.0,,,,Pass,,,,,
98.0,9.0,wc_9,wc_10,0.0,"[('wc_10', 0.7000000000000005), ('wc_9', 0.6500000000000005)]",0.8950000000000004,,,30.0,0.006195,['Pass'],Pass,0.7000000000000005,-0.520512820512821,0.0,0.0,0.8
98.0,9.0,wc_9,,0.0,,,,0.0,,,,Pass,,,,,
98.0,9.0,wc_9,wc_11,1.0,"[('wc_11', 0.7800000000000006), ('wc_9', 0.6500000000000005), ('wc_10', 0.7000000000000005)]",0.9769000000000001,,,28.0,0.041592,['Pass'],Pass,0.7800000000000006,0.21999999999999942,2.0,2.0,1.0
101.0,8.0,wc_8,,0.0,,,,61.0,,,,Pass,,,,,
101.0,8.0,wc_8,,0.0,,,55.0,,,,,Pass,,,,,
101.0,8.0,wc_8,,0.0,,,,0.0,,,,Pass,,,,,
101.0,8.0,wc_8,wc_8,0.0,"[('wc_8', 0.7800000000000006)]",0.7800000000000006,,,26.0,0.002063,['Pass'],Pass,0.7800000000000006,-0.11333333333333395,2.0,3.0,0.9
101.0,8.0,wc_8,,0.0,,,,0.0,,,,Pass,,,,,
101.0,8.0,wc_8,wc_9,0.0,"[('wc_9', 0.6500000000000005), ('wc_8', 0.7800000000000006)]",0.9230000000000003,,,26.0,0.004164,['Pass'],Pass,0.6500000000000005,0.34999999999999953,1.0,1.0,0.7
101.0,8.0,wc_8,,0.0,,,,0.0,,,,Pass,,,,,
101.0,8.0,wc_8,wc_10,0.0,"[('wc_8', 0.7800000000000006), ('wc_9', 0.6500000000000005)]",0.9230000000000003,,,40.0,0.006178,['Pass'],Pass,0.7000000000000005,0.2999999999999995,1.0,1.0,0.8
101.0,8.0,wc_8,,0.0,,,,0.0,,,,Pass,,,,,
101.0,8.0,wc_8,wc_11,1.0,"[('wc_11', 0.7800000000000006), ('wc_8', 0.7800000000000006), ('wc_9', 0.6500000000000005)]",0.9830600000000002,,,33.0,0.047056,['Pass'],Pass,0.7800000000000006,0.21999999999999942,3.0,3.0,1.0
106.0,7.0,wc_7,,0.0,,,,41.0,,,,Pass,,,,,
106.0,7.0,wc_7,,0.0,,,68.0,,,,,Pass,,,,,
106.0,7.0,wc_7,,0.0,,,,0.0,,,,Pass,,,,,
106.0,7.0,wc_7,wc_7,0.0,"[('wc_7', 0.6600000000000005)]",0.6600000000000005,,,22.0,0.002227,['Pass'],Pass,0.6600000000000005,-0.0600000000000005,3.0,5.0,0.5
106.0,7.0,wc_7,,0.0,,,,0.0,,,,Pass,,,,,
106.0,7.0,wc_7,wc_8,0.0,"[('wc_8', 0.7800000000000006), ('wc_7', 0.6600000000000005)]",0.9252000000000002,,,24.0,0.004685,['Pass'],Pass,0.7800000000000006,-0.030000000000000582,3.0,4.0,0.9
106.0,7.0,wc_7,,0.0,,,,0.0,,,,Pass,,,,,
106.0,7.0,wc_7,wc_9,1.0,"[('wc_9', 0.6500000000000005), ('wc_7', 0.6600000000000005), ('wc_8', 0.7800000000000006)]",0.9738200000000001,,,38.0,0.038072,['Pass'],Pass,0.6500000000000005,0.34999999999999953,3.0,3.0,0.7
109.0,11.0,wc_11,,0.0,,,,0.0,,,,Pass,,,,,
109.0,11.0,wc_11,,0.0,,,67.0,,,,,Pass,,,,,
109.0,11.0,wc_11,,0.0,,,,0.0,,,,Pass,,,,,
109.0,11.0,wc_11,wc_11,0.0,"[('wc_11', 0.7800000000000006)]",0.7800000000000006,,,29.0,0.002029,['Pass'],Pass,0.7800000000000006,-0.030000000000000582,3.0,4.0,1.0
109.0,11.0,wc_11,,0.0,,,,21.0,,,,Pass,,,,,
109.0,11.0,wc_11,wc_6,0.0,"[('wc_6', 0.5400000000000004), ('wc_11', 0.7800000000000006)]",0.8988000000000004,,,39.0,0.004172,['Pass'],Pass,0.5400000000000004,-0.20666666666666705,2.0,6.0,0.5
109.0,11.0,wc_11,,0.0,,,,0.0,,,,Pass,,,,,
109.0,11.0,wc_11,wc_7,1.0,"[('wc_7', 0.6600000000000005), ('wc_11', 0.7800000000000006), ('wc_6', 0.5400000000000004)]",0.9655920000000001,,,33.0,0.042876000000000004,['Pass'],Pass,0.6600000000000005,0.054285714285713826,5.0,7.0,0.5
113.0,10.0,wc_10,,0.0,,,,0.0,,,,Pass,,,,,
113.0,10.0,wc_10,,0.0,,,52.0,,,,,Pass,,,,,
113.0,10.0,wc_10,,0.0,,,,0.0,,,,Pass,,,,,
113.0,10.0,wc_10,wc_10,0.0,"[('wc_10', 0.7000000000000005)]",0.7000000000000005,,,24.0,0.001943,['Pass'],Pass,0.7000000000000005,-0.4500000000000005,1.0,4.0,0.8
113.0,10.0,wc_10,,0.0,,,,0.0,,,,Pass,,,,,
113.0,10.0,wc_10,wc_11,0.0,"[('wc_11', 0.7800000000000006), ('wc_10', 0.7000000000000005)]",0.9340000000000003,,,21.0,0.0040219999999999995,['Pass'],Pass,0.7800000000000006,0.019999999999999463,4.0,5.0,1.0
113.0,10.0,wc_10,,0.0,,,,21.0,,,,Pass,,,,,
113.0,10.0,wc_10,wc_6,1.0,"[('wc_6', 0.5400000000000004), ('wc_10', 0.7000000000000005), ('wc_11', 0.7800000000000006)]",0.9696400000000002,,,25.0,0.040352000000000006,['Pass'],Pass,0.5400000000000004,-0.04000000000000037,4.0,8.0,0.5
118.0,12.0,wc_12,,0.0,,,,162.0,,,,Pass,,,,,
118.0,12.0,wc_12,,0.0,,,77.0,,,,,Pass,,,,,
118.0,12.0,wc_12,,0.0,,,,0.0,,,,Pass,,,,,
118.0,12.0,wc_12,wc_12,0.0,"[('wc_12', 0.8200000000000006)]",0.8200000000000006,,,23.0,0.00207,['Pass'],Pass,0.8200000000000006,-0.7430769230769236,0.0,0.0,1.0
118.0,12.0,wc_12,,0.0,,,,0.0,,,,Pass,,,,,
118.0,12.0,wc_12,wc_13,0.0,"[('wc_13', 0.7700000000000006), ('wc_12', 0.8200000000000006)]",0.9586000000000002,,,33.0,0.0045850000000000005,['Pass'],Pass,0.7700000000000006,-0.7700000000000006,0.0,0.0,0.7
118.0,12.0,wc_12,,0.0,,,,0.0,,,,Pass,,,,,
118.0,12.0,wc_12,wc_14,1.0,"[('wc_14', 0.9300000000000008), ('wc_12', 0.8200000000000006), ('wc_13', 0.7700000000000006)]",0.997102,,,28.0,0.04104000000000001,['Pass'],Pass,0.9300000000000008,-0.853076923076924,0.0,0.0,1.0
122.0,13.0,wc_13,,0.0,,,,102.0,,,,Fail,,,,,
122.0,13.0,wc_13,,0.0,,,52.0,,,,,Fail,,,,,
122.0,13.0,wc_13,,0.0,,,,0.0,,,,Fail,,,,,
122.0,13.0,wc_13,wc_13,0.0,"[('wc_13', 0.7700000000000006)]",0.7700000000000006,,,32.0,0.002695,['Pass'],Fail,0.7700000000000006,0.22999999999999943,1.0,1.0,0.7
122.0,13.0,wc_13,,0.0,,,,0.0,,,,Fail,,,,,
122.0,13.0,wc_13,wc_14,0.0,"[('wc_14', 0.9300000000000008)]",0.9300000000000008,,,31.0,0.004326,['Fail'],Fail,0.9300000000000008,-0.9300000000000008,0.0,0.0,1.0
122.0,13.0,wc_13,,0.0,,,,0.0,,,,Fail,,,,,
122.0,13.0,wc_13,wc_15,0.0,"[('wc_15', 0.8000000000000006), ('wc_13', 0.7700000000000006)]",0.9540000000000003,,,31.0,0.008072000000000001,['Pass'],Fail,0.8000000000000006,-0.6888888888888896,0.0,0.0,0.7
122.0,13.0,wc_13,,0.0,,,,0.0,,,,Fail,,,,,
122.0,13.0,wc_13,wc_16,0.0,"[('wc_16', 0.6000000000000004), ('wc_14', 0.9300000000000008)]",0.9720000000000003,,,37.0,0.008652,['Fail'],Fail,0.6000000000000004,-0.42352941176470627,0.0,0.0,0.5
122.0,13.0,wc_13,,0.0,,,,0.0,,,,Fail,,,,,
122.0,13.0,wc_13,wc_17,1.0,"[('wc_17', 0.8700000000000007), ('wc_13', 0.7700000000000006), ('wc_15', 0.8000000000000006)]",0.99402,,,34.0,0.046593,['Pass'],Fail,0.8700000000000007,-0.6347058823529419,0.0,0.0,0.8
128.0,13.0,wc_13,,0.0,,,,41.0,,,,Pass,,,,,
128.0,13.0,wc_13,,0.0,,,80.0,,,,,Pass,,,,,
128.0,13.0,wc_13,,0.0,,,,0.0,,,,Pass,,,,,
128.0,13.0,wc_13,wc_13,0.0,"[('wc_13', 0.7700000000000006)]",0.7700000000000006,,,21.0,0.002236,['Pass'],Pass,0.7700000000000006,0.22999999999999943,2.0,2.0,0.7
128.0,13.0,wc_13,,0.0,,,,0.0,,,,Pass,,,,,
128.0,13.0,wc_13,wc_14,0.0,"[('wc_14', 0.9300000000000008), ('wc_13', 0.7700000000000006)]",0.9839000000000002,,,38.0,0.004065,['Pass'],Pass,0.9300000000000008,-0.9300000000000008,0.0,1.0,1.0
128.0,13.0,wc_13,,0.0,,,,0.0,,,,Pass,,,,,
128.0,13.0,wc_13,wc_15,1.0,"[('wc_15', 0.8000000000000006), ('wc_13', 0.7700000000000006), ('wc_14', 0.9300000000000008)]",0.9967800000000001,,,25.0,0.044998,['Pass'],Pass,0.8000000000000006,0.1999999999999994,2.0,2.0,0.7
133.0,14.0,wc_14,,0.0,,,,101.0,,,,Pass,,,,,
133.0,14.0,wc_14,,0.0,,,68.0,,,,,Pass,,,,,
133.0,14.0,wc_14,,0.0,,,,0.0,,,,Pass,,,,,
133.0,14.0,wc_14,wc_14,0.0,"[('wc_14', 0.9300000000000008)]",0.9300000000000008,,,32.0,0.002121,['Pass'],Pass,0.9300000000000008,-0.4300000000000008,1.0,2.0,1.0
133.0,14.0,wc_14,,0.0,,,,0.0,,,,Pass,,,,,
133.0,14.0,wc_14,wc_15,0.0,"[('wc_15', 0.8000000000000006), ('wc_14', 0.9300000000000008)]",0.9860000000000002,,,22.0,0.0042369999999999994,['Pass'],Pass,0.8000000000000006,0.1999999999999994,2.0,2.0,0.7
133.0,14.0,wc_14,,0.0,,,,0.0,,,,Pass,,,,,
133.0,14.0,wc_14,wc_16,1.0,"[('wc_16', 0.6000000000000004), ('wc_14', 0.9300000000000008), ('wc_15', 0.8000000000000006)]",0.9944000000000001,,,32.0,0.04484899999999999,['Pass'],Pass,0.6000000000000004,-0.2666666666666671,1.0,3.0,0.5
138.0,16.0,wc_16,,0.0,,,,0.0,,,,Fail,,,,,
138.0,16.0,wc_16,,0.0,,,61.0,,,,,Fail,,,,,
138.0,16.0,wc_16,,0.0,,,,0.0,,,,Fail,,,,,
138.0,16.0,wc_16,wc_16,0.0,"[('wc_16', 0.6000000000000004)]",0.6000000000000004,,,34.0,0.002167,['Fail'],Fail,0.6000000000000004,-0.2666666666666671,1.0,3.0,0.5
138.0,16.0,wc_16,,0.0,,,,0.0,,,,Fail,,,,,
138.0,16.0,wc_16,wc_17,0.0,"[('wc_17', 0.8700000000000007), ('wc_16', 0.6000000000000004)]",0.9480000000000003,,,32.0,0.003901,['Fail'],Fail,0.8700000000000007,-0.8700000000000007,0.0,2.0,0.8
138.0,16.0,wc_16,,0.0,,,,21.0,,,,Fail,,,,,
138.0,16.0,wc_16,wc_12,1.0,"[('wc_12', 0.8200000000000006), ('wc_16', 0.6000000000000004), ('wc_17', 0.8700000000000007)]",0.9906400000000001,,,33.0,0.043003,['Fail'],Fail,0.8200000000000006,-0.4200000000000006,2.0,5.0,1.0
143.0,15.0,wc_15,,0.0,,,,0.0,,,,Fail,,,,,
143.0,15.0,wc_15,,0.0,,,77.0,,,,,Fail,,,,,
143.0,15.0,wc_15,,0.0,,,,0.0,,,,Fail,,,,,
143.0,15.0,wc_15,wc_15,0.0,"[('wc_15', 0.8000000000000006)]",0.8000000000000006,,,40.0,0.002403,['Pass'],Fail,0.8000000000000006,-0.0500000000000006,3.0,4.0,0.7
143.0,15.0,wc_15,,0.0,,,,0.0,,,,Fail,,,,,
143.0,15.0,wc_15,wc_16,0.0,"[('wc_15', 0.8000000000000006)]",0.8000000000000006,,,24.0,0.004591,['Pass'],Fail,0.6000000000000004,-0.10000000000000042,2.0,4.0,0.5
143.0,15.0,wc_15,,0.0,,,,0.0,,,,Fail,,,,,
143.0,15.0,wc_15,wc_17,0.0,"[('wc_17', 0.8700000000000007), ('wc_15', 0.8000000000000006)]",0.9740000000000002,,,22.0,0.005843,['Pass'],Fail,0.8700000000000007,-0.5366666666666673,1.0,3.0,0.8
143.0,15.0,wc_15,,0.0,,,,21.0,,,,Fail,,,,,
143.0,15.0,wc_15,wc_12,0.0,"[('wc_15', 0.8000000000000006), ('wc_17', 0.8700000000000007)]",0.9740000000000002,,,28.0,0.008484,['Pass'],Fail,0.8200000000000006,-0.4200000000000006,2.0,5.0,1.0
143.0,15.0,wc_15,,0.0,,,,0.0,,,,Fail,,,,,
143.0,15.0,wc_15,wc_13,1.0,"[('wc_13', 0.7700000000000006), ('wc_16', 0.6000000000000004), ('wc_12', 0.8200000000000006)]",0.9834400000000001,,,29.0,0.055947,['Fail'],Fail,0.7700000000000006,-0.10333333333333394,4.0,6.0,0.7
148.0,16.0,wc_16,,0.0,,,,0.0,,,,Fail,,,,,
148.0,16.0,wc_16,,0.0,,,57.0,,,,,Fail,,,,,
148.0,16.0,wc_16,,0.0,,,,0.0,,,,Fail,,,,,
148.0,16.0,wc_16,wc_16,0.0,"[('wc_16', 0.6000000000000004)]",0.6000000000000004,,,27.0,0.002399,['Pass'],Fail,0.6000000000000004,-4.440892098500626e-16,3.0,5.0,0.5
148.0,16.0,wc_16,,0.0,,,,0.0,,,,Fail,,,,,
148.0,16.0,wc_16,wc_17,0.0,"[('wc_17', 0.8700000000000007)]",0.8700000000000007,,,37.0,0.004137,['Fail'],Fail,0.8700000000000007,-0.6200000000000007,1.0,4.0,0.8
148.0,16.0,wc_16,,0.0,,,,21.0,,,,Fail,,,,,
148.0,16.0,wc_16,wc_12,0.0,"[('wc_12', 0.8200000000000006), ('wc_17', 0.8700000000000007)]",0.9766000000000002,,,23.0,0.006011,['Fail'],Fail,0.8200000000000006,-0.3200000000000006,3.0,6.0,1.0
148.0,16.0,wc_16,,0.0,,,,0.0,,,,Fail,,,,,
148.0,16.0,wc_16,wc_13,0.0,"[('wc_17', 0.8700000000000007), ('wc_12', 0.8200000000000006)]",0.9766000000000002,,,27.0,0.007617,['Fail'],Fail,0.7700000000000006,-0.10333333333333394,4.0,6.0,0.7
148.0,16.0,wc_16,,0.0,,,,0.0,,,,Fail,,,,,
148.0,16.0,wc_16,wc_14,1.0,"[('wc_14', 0.9300000000000008), ('wc_17', 0.8700000000000007), ('wc_12', 0.8200000000000006)]",0.9983620000000001,,,30.0,0.050283,['Fail'],Fail,0.9300000000000008,-0.4300000000000008,3.0,6.0,1.0
153.0,15.0,wc_15,,0.0,,,,0.0,,,,Fail,,,,,
153.0,15.0,wc_15,,0.0,,,75.0,,,,,Fail,,,,,
153.0,15.0,wc_15,,0.0,,,,0.0,,,,Fail,,,,,
153.0,15.0,wc_15,wc_15,0.0,"[('wc_15', 0.8000000000000006)]",0.8000000000000006,,,39.0,0.002492,['Pass'],Fail,0.8000000000000006,-0.3000000000000006,3.0,6.0,0.7
153.0,15.0,wc_15,,0.0,,,,0.0,,,,Fail,,,,,
153.0,15.0,wc_15,wc_16,0.0,"[('wc_16', 0.6000000000000004), ('wc_15', 0.8000000000000006)]",0.9200000000000004,,,40.0,0.003917,['Pass'],Fail,0.6000000000000004,-0.10000000000000042,3.0,6.0,0.5
153.0,15.0,wc_15,,0.0,,,,0.0,,,,Fail,,,,,
153.0,15.0,wc_15,wc_17,0.0,"[('wc_15', 0.8000000000000006), ('wc_16', 0.6000000000000004)]",0.9200000000000004,,,21.0,0.0061519999999999995,['Pass'],Fail,0.8700000000000007,-0.47000000000000064,2.0,5.0,0.8
153.0,15.0,wc_15,,0.0,,,,21.0,,,,Fail,,,,,
153.0,15.0,wc_15,wc_12,0.0,"[('wc_12', 0.8200000000000006), ('wc_17', 0.8700000000000007)]",0.9766000000000002,,,26.0,0.007994,['Fail'],Fail,0.8200000000000006,-0.24857142857142922,4.0,7.0,1.0
153.0,15.0,wc_15,,0.0,,,,0.0,,,,Fail,,,,,
153.0,15.0,wc_15,wc_13,1.0,"[('wc_13', 0.7700000000000006), ('wc_17', 0.8700000000000007), ('wc_12', 0.8200000000000006)]",0.9946180000000001,,,22.0,0.047343,['Fail'],Fail,0.7700000000000006,-0.14500000000000057,5.0,8.0,0.7
155.0,16.0,wc_16,,0.0,,,,0.0,,,,Fail,,,,,
155.0,16.0,wc_16,,0.0,,,72.0,,,,,Fail,,,,,
155.0,16.0,wc_16,,0.0,,,,0.0,,,,Fail,,,,,
155.0,16.0,wc_16,wc_16,0.0,"[('wc_16', 0.6000000000000004)]",0.6000000000000004,,,27.0,0.002285,['Fail'],Fail,0.6000000000000004,-0.17142857142857187,3.0,7.0,0.5
155.0,16.0,wc_16,,0.0,,,,0.0,,,,Fail,,,,,
155.0,16.0,wc_16,wc_17,0.0,"[('wc_17', 0.8700000000000007)]",0.8700000000000007,,,38.0,0.004071,['Pass'],Fail,0.8700000000000007,-0.37000000000000066,3.0,6.0,0.8
155.0,16.0,wc_16,,0.0,,,,21.0,,,,Fail,,,,,
155.0,16.0,wc_16,wc_12,0.0,"[('wc_12', 0.8200000000000006), ('wc_16', 0.6000000000000004)]",0.9280000000000004,,,23.0,0.005749,['Fail'],Fail,0.8200000000000006,-0.19500000000000062,5.0,8.0,1.0
155.0,16.0,wc_16,,0.0,,,,0.0,,,,Fail,,,,,
155.0,16.0,wc_16,wc_13,0.0,"[('wc_13', 0.7700000000000006), ('wc_17', 0.8700000000000007)]",0.9701000000000002,,,36.0,0.007208999999999999,['Pass'],Fail,0.7700000000000006,-0.14500000000000057,5.0,8.0,0.7
155.0,16.0,wc_16,,0.0,,,,0.0,,,,Fail,,,,,
155.0,16.0,wc_16,wc_14,1.0,"[('wc_14', 0.9300000000000008), ('wc_16', 0.6000000000000004), ('wc_12', 0.8200000000000006)]",0.9949600000000001,,,29.0,0.06200100000000001,['Fail'],Fail,0.9300000000000008,-0.4300000000000008,4.0,8.0,1.0
158.0,15.0,wc_15,,0.0,,,,0.0,,,,Fail,,,,,
158.0,15.0,wc_15,,0.0,,,65.0,,,,,Fail,,,,,
158.0,15.0,wc_15,,0.0,,,,0.0,,,,Fail,,,,,
158.0,15.0,wc_15,wc_15,0.0,"[('wc_15', 0.8000000000000006)]",0.8000000000000006,,,28.0,0.002226,['Fail'],Fail,0.8000000000000006,-0.4250000000000006,3.0,8.0,0.7
158.0,15.0,wc_15,,0.0,,,,0.0,,,,Fail,,,,,
158.0,15.0,wc_15,wc_16,0.0,"[('wc_15', 0.8000000000000006)]",0.8000000000000006,,,22.0,0.0037300000000000002,['Fail'],Fail,0.6000000000000004,-0.10000000000000042,4.0,8.0,0.5
158.0,15.0,wc_15,,0.0,,,,0.0,,,,Fail,,,,,
158.0,15.0,wc_15,wc_17,0.0,"[('wc_17', 0.8700000000000007), ('wc_15', 0.8000000000000006)]",0.9740000000000002,,,20.0,0.006088999999999999,['Fail'],Fail,0.8700000000000007,-0.4414285714285721,3.0,7.0,0.8
158.0,15.0,wc_15,,0.0,,,,21.0,,,,Fail,,,,,
158.0,15.0,wc_15,wc_12,1.0,"[('wc_12', 0.8200000000000006), ('wc_15', 0.8000000000000006), ('wc_17', 0.8700000000000007)]",0.9953200000000001,,,22.0,0.04586200000000001,['Fail'],Fail,0.8200000000000006,-0.12000000000000066,0.0,0.0,1.0
159.0,16.0,wc_16,,0.0,,,,0.0,,,,Fail,,,,,
159.0,16.0,wc_16,,0.0,,,53.0,,,,,Fail,,,,,
159.0,16.0,wc_16,,0.0,,,,0.0,,,,Fail,,,,,
159.0,16.0,wc_16,wc_16,0.0,"[('wc_16', 0.6000000000000004)]",0.6000000000000004,,,36.0,0.002195,['Fail'],Fail,0.6000000000000004,-0.155555555555556,4.0,9.0,0.5
159.0,16.0,wc_16,,0.0,,,,0.0,,,,Fail,,,,,
159.0,16.0,wc_16,wc_17,0.0,"[('wc_17', 0.8700000000000007), ('wc_16', 0.6000000000000004)]",0.9480000000000003,,,34.0,0.004111,['Fail'],Fail,0.8700000000000007,-0.37000000000000066,4.0,8.0,0.8
159.0,16.0,wc_16,,0.0,,,,21.0,,,,Fail,,,,,
159.0,16.0,wc_16,wc_12,1.0,"[('wc_12', 0.8200000000000006), ('wc_16', 0.6000000000000004), ('wc_17', 0.8700000000000007)]",0.9906400000000001,,,33.0,0.040366,['Fail'],Fail,0.8200000000000006,0.17999999999999938,1.0,1.0,1.0
161.0,16.0,wc_16,,0.0,,,,0.0,,,,Fail,,,,,
161.0,16.0,wc_16,,0.0,,,66.0,,,,,Fail,,,,,
161.0,16.0,wc_16,,0.0,,,,0.0,,,,Fail,,,,,
161.0,16.0,wc_16,wc_16,0.0,"[('wc_16', 0.6000000000000004)]",0.6000000000000004,,,40.0,0.00209,['Fail'],Fail,0.6000000000000004,-0.10000000000000042,0.0,0.0,0.5
161.0,16.0,wc_16,,0.0,,,,0.0,,,,Fail,,,,,
161.0,16.0,wc_16,wc_17,0.0,"[('wc_17', 0.8700000000000007), ('wc_16', 0.6000000000000004)]",0.9480000000000003,,,32.0,0.004459,['Fail'],Fail,0.8700000000000007,-0.3144444444444451,5.0,9.0,0.8
161.0,16.0,wc_16,,0.0,,,,21.0,,,,Fail,,,,,
161.0,16.0,wc_16,wc_12,1.0,"[('wc_12', 0.8200000000000006), ('wc_16', 0.6000000000000004), ('wc_17', 0.8700000000000007)]",0.9906400000000001,,,28.0,0.040969,['Fail'],Fail,0.8200000000000006,0.17999999999999938,2.0,2.0,1.0
164.0,16.0,wc_16,,0.0,,,,0.0,,,,Pass,,,,,
164.0,16.0,wc_16,,0.0,,,69.0,,,,,Pass,,,,,
164.0,16.0,wc_16,,0.0,,,,0.0,,,,Pass,,,,,
164.0,16.0,wc_16,wc_16,0.0,"[('wc_16', 0.6000000000000004)]",0.6000000000000004,,,36.0,0.002169,['Fail'],Pass,0.6000000000000004,0.3999999999999996,1.0,1.0,0.5
164.0,16.0,wc_16,,0.0,,,,0.0,,,,Pass,,,,,
164.0,16.0,wc_16,wc_17,0.0,"[('wc_17', 0.8700000000000007)]",0.8700000000000007,,,20.0,0.004233,['Pass'],Pass,0.8700000000000007,-0.2700000000000007,0.0,0.0,0.8
164.0,16.0,wc_16,,0.0,,,,21.0,,,,Pass,,,,,
164.0,16.0,wc_16,wc_12,0.0,"[('wc_12', 0.8200000000000006), ('wc_17', 0.8700000000000007)]",0.9766000000000002,,,29.0,0.005745,['Pass'],Pass,0.8200000000000006,0.17999999999999938,2.0,2.0,1.0
164.0,16.0,wc_16,,0.0,,,,0.0,,,,Pass,,,,,
164.0,16.0,wc_16,wc_13,1.0,"[('wc_13', 0.7700000000000006), ('wc_17', 0.8700000000000007), ('wc_12', 0.8200000000000006)]",0.9946180000000001,,,39.0,0.049548999999999996,['Pass'],Pass,0.7700000000000006,-0.308461538461539,0.0,0.0,0.7
166.0,15.0,wc_15,,0.0,,,,0.0,,,,Pass,,,,,
166.0,15.0,wc_15,,0.0,,,73.0,,,,,Pass,,,,,
166.0,15.0,wc_15,,0.0,,,,0.0,,,,Pass,,,,,
166.0,15.0,wc_15,wc_15,0.0,"[('wc_15', 0.8000000000000006)]",0.8000000000000006,,,32.0,0.002128,['Pass'],Pass,0.8000000000000006,-0.4666666666666673,0.0,0.0,0.7
166.0,15.0,wc_15,,0.0,,,,0.0,,,,Pass,,,,,
166.0,15.0,wc_15,wc_16,0.0,"[('wc_16', 0.6000000000000004), ('wc_15', 0.8000000000000006)]",0.9200000000000004,,,29.0,0.004307,['Pass'],Pass,0.6000000000000004,-0.10000000000000042,1.0,2.0,0.5
166.0,15.0,wc_15,,0.0,,,,0.0,,,,Pass,,,,,
166.0,15.0,wc_15,wc_17,1.0,"[('wc_17', 0.8700000000000007), ('wc_15', 0.8000000000000006), ('wc_16', 0.6000000000000004)]",0.9896000000000001,,,34.0,0.04048900000000001,['Pass'],Pass,0.8700000000000007,0.12999999999999934,2.0,2.0,0.8
167.0,17.0,wc_17,,0.0,,,,0.0,,,,Pass,,,,,
167.0,17.0,wc_17,,0.0,,,64.0,,,,,Pass,,,,,
167.0,17.0,wc_17,,0.0,,,,0.0,,,,Pass,,,,,
167.0,17.0,wc_17,wc_17,0.0,"[('wc_17', 0.8700000000000007)]",0.8700000000000007,,,30.0,0.001999,['Pass'],Pass,0.8700000000000007,0.12999999999999934,2.0,2.0,0.8
167.0,17.0,wc_17,,0.0,,,,21.0,,,,Pass,,,,,
167.0,17.0,wc_17,wc_12,0.0,"[('wc_12', 0.8200000000000006), ('wc_17', 0.8700000000000007)]",0.9766000000000002,,,29.0,0.004045,['Pass'],Pass,0.8200000000000006,-0.07000000000000062,3.0,4.0,1.0
167.0,17.0,wc_17,,0.0,,,,0.0,,,,Pass,,,,,
167.0,17.0,wc_17,wc_13,1.0,"[('wc_13', 0.7700000000000006), ('wc_17', 0.8700000000000007), ('wc_12', 0.8200000000000006)]",0.9946180000000001,,,26.0,0.047895,['Pass'],Pass,0.7700000000000006,-0.2700000000000006,1.0,2.0,0.7
