mpecck/BCQC/bcqc_with_qdt/results/raw/input_8/independent_qc/training/20_workpiece/20200429_084420/wp_14_qc_majority_0.9.csv
production_index,step_idx,production_workcell,qc,consent,winner_qc_list,score,production_time,transport_time,inspection_time,network_time,qc_results,actual_quality,qc_score,score_error,in_winner_counter,in_qc_counter,qc_capability
49.0,1.0,wc_1,,0.0,,,58.0,,,,,Pass,,,,,
49.0,1.0,wc_1,,0.0,,,,0.0,,,,Pass,,,,,
49.0,1.0,wc_1,wc_1,0.0,"[('wc_1', 0.4900000000000003)]",0.4900000000000003,,,27.0,0.00215,['Fail'],Pass,0.4900000000000003,-0.4900000000000003,0.0,1.0,0.5
49.0,1.0,wc_1,,0.0,,,,0.0,,,,Pass,,,,,
49.0,1.0,wc_1,wc_3,0.0,"[('wc_3', 0.4800000000000003), ('wc_1', 0.4900000000000003)]",0.7348000000000003,,,37.0,0.004234,['Fail'],Pass,0.4800000000000003,-0.33714285714285747,1.0,7.0,0.4
49.0,1.0,wc_1,,0.0,,,,162.0,,,,Pass,,,,,
49.0,1.0,wc_1,wc_9,0.0,"[('wc_9', 0.8700000000000007)]",0.8700000000000007,,,34.0,0.007266999999999999,['Pass'],Pass,0.8700000000000007,-0.8700000000000007,0.0,3.0,1.0
49.0,1.0,wc_1,,0.0,,,,61.0,,,,Pass,,,,,
49.0,1.0,wc_1,wc_6,0.0,"[('wc_9', 0.8700000000000007)]",0.8700000000000007,,,32.0,0.007868,['Pass'],Pass,0.4900000000000003,-0.3788888888888892,1.0,9.0,0.4
49.0,1.0,wc_1,,0.0,,,,0.0,,,,Pass,,,,,
49.0,1.0,wc_1,wc_7,0.0,"[('wc_7', 0.3300000000000002), ('wc_9', 0.8700000000000007)]",0.9129000000000005,,,33.0,0.009736,['Pass'],Pass,0.3300000000000002,-0.08000000000000018,1.0,4.0,0.3
49.0,1.0,wc_1,,0.0,,,,243.0,,,,Pass,,,,,
49.0,1.0,wc_1,wc_17,1.0,"[('wc_17', 0.7000000000000005), ('wc_1', 0.4900000000000003), ('wc_3', 0.4800000000000003), ('wc_6', 0.4900000000000003)]",0.9594244000000002,,,39.0,0.044751,['Fail'],Pass,0.7100000000000005,0.2899999999999995,2.0,2.0,0.5
60.0,4.0,wc_4,,0.0,,,,382.0,,,,Pass,,,,,
60.0,4.0,wc_4,,0.0,,,64.0,,,,,Pass,,,,,
60.0,4.0,wc_4,,0.0,,,,0.0,,,,Pass,,,,,
60.0,4.0,wc_4,wc_4,0.0,"[('wc_4', 0.6500000000000005)]",0.6500000000000005,,,24.0,0.002018,['Pass'],Pass,0.6500000000000005,-0.25000000000000044,2.0,5.0,0.6
60.0,4.0,wc_4,,0.0,,,,182.0,,,,Pass,,,,,
60.0,4.0,wc_4,wc_11,0.0,"[('wc_11', 0.6200000000000004), ('wc_4', 0.6500000000000005)]",0.8670000000000003,,,34.0,0.0038989999999999997,['Pass'],Pass,0.6200000000000004,-0.6200000000000004,0.0,0.0,0.6
60.0,4.0,wc_4,,0.0,,,,322.0,,,,Pass,,,,,
60.0,4.0,wc_4,wc_3,1.0,"[('wc_3', 0.4800000000000003), ('wc_4', 0.6500000000000005), ('wc_11', 0.6200000000000004)]",0.9308400000000002,,,22.0,0.038705,['Pass'],Pass,0.4800000000000003,-0.146666666666667,3.0,9.0,0.4
66.0,3.0,wc_3,,0.0,,,,0.0,,,,Fail,,,,,
66.0,3.0,wc_3,,0.0,,,55.0,,,,,Fail,,,,,
66.0,3.0,wc_3,,0.0,,,,0.0,,,,Fail,,,,,
66.0,3.0,wc_3,wc_3,0.0,"[('wc_3', 0.4800000000000003)]",0.4800000000000003,,,33.0,0.00253,['Fail'],Fail,0.4800000000000003,-0.146666666666667,3.0,9.0,0.4
66.0,3.0,wc_3,,0.0,,,,162.0,,,,Fail,,,,,
66.0,3.0,wc_3,wc_9,0.0,"[('wc_9', 0.8600000000000007), ('wc_3', 0.4800000000000003)]",0.9272000000000004,,,39.0,0.00405,['Fail'],Fail,0.8600000000000007,-0.8600000000000007,0.0,5.0,1.0
66.0,3.0,wc_3,,0.0,,,,402.0,,,,Fail,,,,,
66.0,3.0,wc_3,wc_5,0.0,"[('wc_3', 0.4800000000000003), ('wc_9', 0.8600000000000007)]",0.9272000000000004,,,38.0,0.005882,['Fail'],Fail,0.22000000000000008,0.11333333333333323,1.0,3.0,0.2
66.0,3.0,wc_3,,0.0,,,,162.0,,,,Fail,,,,,
66.0,3.0,wc_3,wc_11,0.0,"[('wc_3', 0.4800000000000003), ('wc_9', 0.8600000000000007)]",0.9272000000000004,,,33.0,0.007285000000000001,['Fail'],Fail,0.6300000000000004,0.36999999999999955,1.0,1.0,0.6
66.0,3.0,wc_3,,0.0,,,,61.0,,,,Fail,,,,,
66.0,3.0,wc_3,wc_12,1.0,"[('wc_12', 0.5700000000000004), ('wc_3', 0.4800000000000003), ('wc_9', 0.8600000000000007)]",0.9686960000000002,,,40.0,0.040695,['Fail'],Fail,0.5700000000000004,-0.3200000000000004,2.0,8.0,0.6
78.0,2.0,wc_2,,0.0,,,,262.0,,,,Pass,,,,,
78.0,2.0,wc_2,,0.0,,,65.0,,,,,Pass,,,,,
78.0,2.0,wc_2,,0.0,,,,0.0,,,,Pass,,,,,
78.0,2.0,wc_2,wc_2,0.0,"[('wc_2', 0.3300000000000002)]",0.3300000000000002,,,28.0,0.002161,['Pass'],Pass,0.3300000000000002,-0.08000000000000018,1.0,4.0,0.2
78.0,2.0,wc_2,,0.0,,,,0.0,,,,Pass,,,,,
78.0,2.0,wc_2,wc_3,0.0,"[('wc_3', 0.4800000000000003), ('wc_2', 0.3300000000000002)]",0.6516000000000003,,,23.0,0.004585,['Pass'],Pass,0.4800000000000003,-0.4800000000000003,0.0,0.0,0.4
78.0,2.0,wc_2,,0.0,,,,0.0,,,,Pass,,,,,
78.0,2.0,wc_2,wc_5,0.0,"[('wc_5', 0.22000000000000008), ('wc_2', 0.3300000000000002), ('wc_3', 0.4800000000000003)]",0.7282480000000002,,,28.0,0.005551,['Pass'],Pass,0.22000000000000008,0.029999999999999916,1.0,4.0,0.2
78.0,2.0,wc_2,,0.0,,,,202.0,,,,Pass,,,,,
78.0,2.0,wc_2,wc_17,0.0,"[('wc_2', 0.3300000000000002), ('wc_3', 0.4800000000000003), ('wc_5', 0.22000000000000008)]",0.7282480000000002,,,27.0,0.007273,['Pass'],Pass,0.7100000000000005,-0.21000000000000052,2.0,4.0,0.5
78.0,2.0,wc_2,,0.0,,,,83.0,,,,Pass,,,,,
78.0,2.0,wc_2,wc_15,0.0,"[('wc_15', 0.6100000000000004), ('wc_2', 0.3300000000000002), ('wc_3', 0.4800000000000003), ('wc_5', 0.22000000000000008)]",0.8940167200000002,,,39.0,0.00907,['Pass'],Pass,0.6100000000000004,-0.6100000000000004,0.0,9.0,0.6
78.0,2.0,wc_2,,0.0,,,,243.0,,,,Pass,,,,,
78.0,2.0,wc_2,wc_7,1.0,"[('wc_7', 0.3200000000000002), ('wc_2', 0.3300000000000002), ('wc_3', 0.4800000000000003), ('wc_5', 0.22000000000000008), ('wc_15', 0.6100000000000004)]",0.9279313696000002,,,39.0,0.040892,['Pass'],Pass,0.3200000000000002,-0.07000000000000017,2.0,8.0,0.3
123.0,3.0,wc_3,,0.0,,,,301.0,,,,Fail,,,,,
123.0,3.0,wc_3,,0.0,,,61.0,,,,,Fail,,,,,
123.0,3.0,wc_3,,0.0,,,,0.0,,,,Fail,,,,,
123.0,3.0,wc_3,wc_3,0.0,"[('wc_3', 0.4900000000000003)]",0.4900000000000003,,,22.0,0.002419,['Fail'],Fail,0.4900000000000003,0.5099999999999997,1.0,1.0,0.4
123.0,3.0,wc_3,,0.0,,,,101.0,,,,Fail,,,,,
123.0,3.0,wc_3,wc_6,0.0,"[('wc_6', 0.4900000000000003), ('wc_3', 0.4900000000000003)]",0.7399000000000003,,,39.0,0.004185,['Fail'],Fail,0.4900000000000003,-0.4900000000000003,0.0,3.0,0.4
123.0,3.0,wc_3,,0.0,,,,182.0,,,,Fail,,,,,
123.0,3.0,wc_3,wc_13,1.0,"[('wc_13', 0.7600000000000006), ('wc_3', 0.4900000000000003), ('wc_6', 0.4900000000000003)]",0.9375760000000002,,,32.0,0.035815,['Fail'],Fail,0.7600000000000006,-0.7600000000000006,0.0,0.0,0.8
180.0,3.0,wc_3,,0.0,,,,341.0,,,,Fail,,,,,
180.0,3.0,wc_3,,0.0,,,74.0,,,,,Fail,,,,,
180.0,3.0,wc_3,,0.0,,,,0.0,,,,Fail,,,,,
180.0,3.0,wc_3,wc_3,0.0,"[('wc_3', 0.5000000000000003)]",0.5000000000000003,,,26.0,0.002268,['Fail'],Fail,0.5000000000000003,0.49999999999999967,2.0,2.0,0.4
180.0,3.0,wc_3,,0.0,,,,81.0,,,,Fail,,,,,
180.0,3.0,wc_3,wc_1,0.0,"[('wc_1', 0.4900000000000003), ('wc_3', 0.5000000000000003)]",0.7450000000000003,,,31.0,0.00416,['Fail'],Fail,0.4900000000000003,-0.3233333333333337,1.0,6.0,0.5
180.0,3.0,wc_3,,0.0,,,,243.0,,,,Fail,,,,,
180.0,3.0,wc_3,wc_11,1.0,"[('wc_11', 0.6200000000000004), ('wc_3', 0.5000000000000003), ('wc_1', 0.4900000000000003)]",0.9031000000000002,,,23.0,0.03533900000000001,['Fail'],Fail,0.6200000000000004,-0.22000000000000042,2.0,5.0,0.6
234.0,3.0,wc_3,,0.0,,,,322.0,,,,Pass,,,,,
234.0,3.0,wc_3,,0.0,,,57.0,,,,,Pass,,,,,
234.0,3.0,wc_3,,0.0,,,,0.0,,,,Pass,,,,,
234.0,3.0,wc_3,wc_3,0.0,"[('wc_3', 0.5100000000000003)]",0.5100000000000003,,,23.0,0.001918,['Pass'],Pass,0.5100000000000003,0.48999999999999966,3.0,3.0,0.4
234.0,3.0,wc_3,,0.0,,,,202.0,,,,Pass,,,,,
234.0,3.0,wc_3,wc_15,0.0,"[('wc_15', 0.6100000000000004), ('wc_3', 0.5100000000000003)]",0.8089000000000004,,,37.0,0.003571,['Pass'],Pass,0.6100000000000004,-0.6100000000000004,0.0,2.0,0.6
234.0,3.0,wc_3,,0.0,,,,303.0,,,,Pass,,,,,
234.0,3.0,wc_3,wc_2,0.0,"[('wc_3', 0.5100000000000003), ('wc_15', 0.6100000000000004)]",0.8089000000000004,,,23.0,0.0065769999999999995,['Pass'],Pass,0.3400000000000002,-0.05428571428571449,2.0,7.0,0.2
234.0,3.0,wc_3,,0.0,,,,202.0,,,,Pass,,,,,
234.0,3.0,wc_3,wc_14,1.0,"[('wc_14', 0.7800000000000006), ('wc_3', 0.5100000000000003), ('wc_15', 0.6100000000000004)]",0.9579580000000002,,,35.0,0.043963,['Pass'],Pass,0.7800000000000006,-0.7800000000000006,0.0,0.0,1.0
245.0,5.0,wc_5,,0.0,,,,361.0,,,,Pass,,,,,
245.0,5.0,wc_5,,0.0,,,70.0,,,,,Pass,,,,,
245.0,5.0,wc_5,,0.0,,,,0.0,,,,Pass,,,,,
245.0,5.0,wc_5,wc_5,0.0,"[('wc_5', 0.2300000000000001)]",0.2300000000000001,,,24.0,0.002045,['Fail'],Pass,0.2300000000000001,0.019999999999999907,2.0,8.0,0.2
245.0,5.0,wc_5,,0.0,,,,122.0,,,,Pass,,,,,
245.0,5.0,wc_5,wc_9,0.0,"[('wc_9', 0.8600000000000007)]",0.8600000000000007,,,40.0,0.004146,['Pass'],Pass,0.8600000000000007,-0.7600000000000007,0.0,0.0,1.0
245.0,5.0,wc_5,,0.0,,,,243.0,,,,Pass,,,,,
245.0,5.0,wc_5,wc_1,0.0,"[('wc_1', 0.4900000000000003), ('wc_9', 0.8600000000000007)]",0.9286000000000004,,,24.0,0.006269,['Pass'],Pass,0.4900000000000003,-0.24000000000000032,2.0,8.0,0.5
245.0,5.0,wc_5,,0.0,,,,202.0,,,,Pass,,,,,
245.0,5.0,wc_5,wc_13,1.0,"[('wc_13', 0.7600000000000006), ('wc_9', 0.8600000000000007), ('wc_1', 0.4900000000000003)]",0.9828640000000002,,,26.0,0.037391,['Pass'],Pass,0.7600000000000006,-0.42666666666666725,1.0,3.0,0.8
253.0,6.0,wc_6,,0.0,,,,162.0,,,,Fail,,,,,
253.0,6.0,wc_6,,0.0,,,51.0,,,,,Fail,,,,,
253.0,6.0,wc_6,,0.0,,,,0.0,,,,Fail,,,,,
253.0,6.0,wc_6,wc_6,0.0,"[('wc_6', 0.4900000000000003)]",0.4900000000000003,,,30.0,0.002237,['Pass'],Fail,0.4900000000000003,-0.3471428571428575,1.0,7.0,0.4
253.0,6.0,wc_6,,0.0,,,,202.0,,,,Fail,,,,,
253.0,6.0,wc_6,wc_1,0.0,"[('wc_1', 0.4900000000000003), ('wc_6', 0.4900000000000003)]",0.7399000000000003,,,21.0,0.004443,['Pass'],Fail,0.4900000000000003,-0.156666666666667,3.0,9.0,0.5
253.0,6.0,wc_6,,0.0,,,,0.0,,,,Fail,,,,,
253.0,6.0,wc_6,wc_4,1.0,"[('wc_4', 0.6500000000000005), ('wc_6', 0.4900000000000003), ('wc_1', 0.4900000000000003)]",0.9089650000000002,,,39.0,0.036714000000000004,['Pass'],Fail,0.6500000000000005,-0.6500000000000005,0.0,0.0,0.6
262.0,6.0,wc_6,,0.0,,,,81.0,,,,Fail,,,,,
262.0,6.0,wc_6,,0.0,,,65.0,,,,,Fail,,,,,
262.0,6.0,wc_6,,0.0,,,,0.0,,,,Fail,,,,,
262.0,6.0,wc_6,wc_6,0.0,"[('wc_6', 0.4900000000000003)]",0.4900000000000003,,,27.0,0.001944,['Fail'],Fail,0.4900000000000003,-0.24000000000000032,2.0,8.0,0.4
262.0,6.0,wc_6,,0.0,,,,321.0,,,,Fail,,,,,
262.0,6.0,wc_6,wc_3,0.0,"[('wc_3', 0.5200000000000004), ('wc_6', 0.4900000000000003)]",0.7552000000000003,,,22.0,0.004078,['Fail'],Fail,0.5200000000000004,0.14666666666666628,4.0,6.0,0.4
262.0,6.0,wc_6,,0.0,,,,222.0,,,,Fail,,,,,
262.0,6.0,wc_6,wc_16,1.0,"[('wc_16', 0.7200000000000005), ('wc_6', 0.4900000000000003), ('wc_3', 0.5200000000000004)]",0.9314560000000002,,,32.0,0.036871,['Fail'],Fail,0.7200000000000005,-0.7200000000000005,0.0,0.0,0.8
275.0,6.0,wc_6,,0.0,,,,203.0,,,,Fail,,,,,
275.0,6.0,wc_6,,0.0,,,80.0,,,,,Fail,,,,,
275.0,6.0,wc_6,,0.0,,,,0.0,,,,Fail,,,,,
275.0,6.0,wc_6,wc_6,0.0,"[('wc_6', 0.4900000000000003)]",0.4900000000000003,,,28.0,0.002379,['Fail'],Fail,0.4900000000000003,-0.156666666666667,3.0,9.0,0.4
275.0,6.0,wc_6,,0.0,,,,202.0,,,,Fail,,,,,
275.0,6.0,wc_6,wc_1,0.0,"[('wc_1', 0.4900000000000003), ('wc_6', 0.4900000000000003)]",0.7399000000000003,,,34.0,0.004123,['Fail'],Fail,0.4900000000000003,-0.4900000000000003,0.0,1.0,0.5
275.0,6.0,wc_6,,0.0,,,,203.0,,,,Fail,,,,,
275.0,6.0,wc_6,wc_9,0.0,"[('wc_9', 0.8700000000000007)]",0.8700000000000007,,,38.0,0.00908,['Pass'],Fail,0.8700000000000007,-0.5366666666666673,1.0,3.0,1.0
275.0,6.0,wc_6,,0.0,,,,162.0,,,,Fail,,,,,
275.0,6.0,wc_6,wc_15,0.0,"[('wc_15', 0.6100000000000004), ('wc_9', 0.8700000000000007)]",0.9493000000000004,,,26.0,0.007965,['Pass'],Fail,0.6100000000000004,-0.4433333333333338,1.0,6.0,0.6
275.0,6.0,wc_6,,0.0,,,,382.0,,,,Fail,,,,,
275.0,6.0,wc_6,wc_10,0.0,"[('wc_9', 0.8700000000000007), ('wc_15', 0.6100000000000004)]",0.9493000000000004,,,30.0,0.009856,['Pass'],Fail,0.7400000000000005,-0.6983333333333339,0.0,0.0,0.5
275.0,6.0,wc_6,,0.0,,,,162.0,,,,Fail,,,,,
275.0,6.0,wc_6,wc_16,1.0,"[('wc_16', 0.7200000000000005), ('wc_6', 0.4900000000000003), ('wc_1', 0.4900000000000003), ('wc_10', 0.7400000000000005)]",0.9810647200000001,,,26.0,0.050855,['Fail'],Fail,0.7300000000000005,0.26999999999999946,1.0,1.0,0.8
286.0,6.0,wc_6,,0.0,,,,203.0,,,,Fail,,,,,
286.0,6.0,wc_6,,0.0,,,76.0,,,,,Fail,,,,,
286.0,6.0,wc_6,,0.0,,,,0.0,,,,Fail,,,,,
286.0,6.0,wc_6,wc_6,0.0,"[('wc_6', 0.4900000000000003)]",0.4900000000000003,,,31.0,0.002252,['Fail'],Fail,0.4900000000000003,-0.4900000000000003,0.0,0.0,0.4
286.0,6.0,wc_6,,0.0,,,,321.0,,,,Fail,,,,,
286.0,6.0,wc_6,wc_3,0.0,"[('wc_3', 0.5300000000000004), ('wc_6', 0.4900000000000003)]",0.7603000000000003,,,37.0,0.004365,['Fail'],Fail,0.5300000000000004,0.09499999999999964,5.0,8.0,0.4
286.0,6.0,wc_6,,0.0,,,,81.0,,,,Fail,,,,,
286.0,6.0,wc_6,wc_1,0.0,"[('wc_1', 0.4900000000000003), ('wc_6', 0.4900000000000003), ('wc_3', 0.5300000000000004)]",0.8777530000000002,,,37.0,0.005537,['Fail'],Fail,0.4900000000000003,0.009999999999999676,1.0,2.0,0.5
286.0,6.0,wc_6,,0.0,,,,182.0,,,,Fail,,,,,
286.0,6.0,wc_6,wc_8,0.0,"[('wc_8', 0.17000000000000004), ('wc_6', 0.4900000000000003), ('wc_3', 0.5300000000000004), ('wc_1', 0.4900000000000003)]",0.8985349900000003,,,27.0,0.008551,['Fail'],Fail,0.17000000000000004,-0.10750000000000004,0.0,0.0,0.2
286.0,6.0,wc_6,,0.0,,,,183.0,,,,Fail,,,,,
286.0,6.0,wc_6,wc_15,1.0,"[('wc_15', 0.6000000000000004), ('wc_6', 0.4900000000000003), ('wc_3', 0.5300000000000004), ('wc_1', 0.4900000000000003), ('wc_8', 0.17000000000000004)]",0.9594139960000001,,,33.0,0.04313,['Fail'],Fail,0.6000000000000004,-0.3500000000000004,2.0,8.0,0.6
291.0,6.0,wc_6,,0.0,,,,223.0,,,,Pass,,,,,
291.0,6.0,wc_6,,0.0,,,68.0,,,,,Pass,,,,,
291.0,6.0,wc_6,,0.0,,,,0.0,,,,Pass,,,,,
291.0,6.0,wc_6,wc_6,0.0,"[('wc_6', 0.5000000000000003)]",0.5000000000000003,,,36.0,0.00229,['Fail'],Pass,0.5000000000000003,0.49999999999999967,1.0,1.0,0.4
291.0,6.0,wc_6,,0.0,,,,202.0,,,,Pass,,,,,
291.0,6.0,wc_6,wc_1,0.0,"[('wc_6', 0.5000000000000003)]",0.5000000000000003,,,20.0,0.004432,['Fail'],Pass,0.5000000000000003,0.1666666666666663,2.0,3.0,0.5
291.0,6.0,wc_6,,0.0,,,,182.0,,,,Pass,,,,,
291.0,6.0,wc_6,wc_8,0.0,"[('wc_8', 0.18000000000000005), ('wc_6', 0.5000000000000003)]",0.5900000000000003,,,32.0,0.005851,['Fail'],Pass,0.18000000000000005,0.82,1.0,1.0,0.2
291.0,6.0,wc_6,,0.0,,,,0.0,,,,Pass,,,,,
291.0,6.0,wc_6,wc_10,0.0,"[('wc_10', 0.7500000000000006), ('wc_1', 0.5000000000000003)]",0.8750000000000003,,,20.0,0.009120999999999999,['Pass'],Pass,0.7500000000000006,-0.25000000000000056,1.0,2.0,0.5
291.0,6.0,wc_6,,0.0,,,,0.0,,,,Pass,,,,,
291.0,6.0,wc_6,wc_11,1.0,"[('wc_11', 0.6200000000000004), ('wc_1', 0.5000000000000003), ('wc_10', 0.7500000000000006)]",0.9525000000000002,,,22.0,0.043654,['Pass'],Pass,0.6200000000000004,-0.6200000000000004,0.0,0.0,0.6
298.0,8.0,wc_8,,0.0,,,,61.0,,,,Pass,,,,,
298.0,8.0,wc_8,,0.0,,,69.0,,,,,Pass,,,,,
298.0,8.0,wc_8,,0.0,,,,0.0,,,,Pass,,,,,
298.0,8.0,wc_8,wc_8,0.0,"[('wc_8', 0.18000000000000005)]",0.18000000000000005,,,31.0,0.002048,['Pass'],Pass,0.18000000000000005,0.31999999999999995,1.0,2.0,0.2
298.0,8.0,wc_8,,0.0,,,,162.0,,,,Pass,,,,,
298.0,8.0,wc_8,wc_14,0.0,"[('wc_14', 0.7800000000000006)]",0.7800000000000006,,,35.0,0.003977,['Fail'],Pass,0.7800000000000006,-0.7800000000000006,0.0,6.0,1.0
298.0,8.0,wc_8,,0.0,,,,0.0,,,,Pass,,,,,
298.0,8.0,wc_8,wc_16,0.0,"[('wc_14', 0.7800000000000006)]",0.7800000000000006,,,21.0,0.005795000000000001,['Fail'],Pass,0.7300000000000005,-0.3966666666666672,1.0,3.0,0.8
298.0,8.0,wc_8,,0.0,,,,203.0,,,,Pass,,,,,
298.0,8.0,wc_8,wc_6,0.0,"[('wc_6', 0.5000000000000003), ('wc_14', 0.7800000000000006)]",0.8900000000000003,,,22.0,0.007937,['Fail'],Pass,0.5000000000000003,-3.3306690738754696e-16,1.0,2.0,0.4
298.0,8.0,wc_8,,0.0,,,,0.0,,,,Pass,,,,,
298.0,8.0,wc_8,wc_9,1.0,"[('wc_9', 0.8600000000000007), ('wc_8', 0.18000000000000005), ('wc_16', 0.7300000000000005)]",0.9690040000000002,,,27.0,0.040666,['Pass'],Pass,0.8600000000000007,-0.574285714285715,2.0,7.0,1.0
304.0,9.0,wc_9,,0.0,,,,0.0,,,,Pass,,,,,
304.0,9.0,wc_9,,0.0,,,78.0,,,,,Pass,,,,,
304.0,9.0,wc_9,,0.0,,,,0.0,,,,Pass,,,,,
304.0,9.0,wc_9,wc_9,0.0,"[('wc_9', 0.8600000000000007)]",0.8600000000000007,,,31.0,0.002331,['Pass'],Pass,0.8600000000000007,-0.574285714285715,2.0,7.0,1.0
304.0,9.0,wc_9,,0.0,,,,101.0,,,,Pass,,,,,
304.0,9.0,wc_9,wc_12,0.0,"[('wc_12', 0.5700000000000004), ('wc_9', 0.8600000000000007)]",0.9398000000000003,,,22.0,0.003777,['Pass'],Pass,0.5700000000000004,-0.46473684210526356,0.0,0.0,0.6
304.0,9.0,wc_9,,0.0,,,,341.0,,,,Pass,,,,,
304.0,9.0,wc_9,wc_10,1.0,"[('wc_10', 0.7500000000000006), ('wc_9', 0.8600000000000007), ('wc_12', 0.5700000000000004)]",0.9849500000000001,,,27.0,0.038407000000000004,['Pass'],Pass,0.7500000000000006,-0.15000000000000058,3.0,5.0,0.5
311.0,11.0,wc_11,,0.0,,,,0.0,,,,Pass,,,,,
311.0,11.0,wc_11,,0.0,,,59.0,,,,,Pass,,,,,
311.0,11.0,wc_11,,0.0,,,,0.0,,,,Pass,,,,,
311.0,11.0,wc_11,wc_11,0.0,"[('wc_11', 0.6200000000000004)]",0.6200000000000004,,,29.0,0.002263,['Pass'],Pass,0.6200000000000004,-0.6200000000000004,0.0,2.0,0.6
311.0,11.0,wc_11,,0.0,,,,342.0,,,,Pass,,,,,
311.0,11.0,wc_11,wc_4,0.0,"[('wc_4', 0.6500000000000005), ('wc_11', 0.6200000000000004)]",0.8670000000000003,,,35.0,0.003914,['Pass'],Pass,0.6500000000000005,-0.6500000000000005,0.0,6.0,0.6
311.0,11.0,wc_11,,0.0,,,,161.0,,,,Pass,,,,,
311.0,11.0,wc_11,wc_14,1.0,"[('wc_14', 0.7700000000000006), ('wc_11', 0.6200000000000004), ('wc_4', 0.6500000000000005)]",0.9694100000000001,,,23.0,0.036699999999999997,['Pass'],Pass,0.7700000000000006,-0.6588888888888895,1.0,9.0,1.0
317.0,10.0,wc_10,,0.0,,,,301.0,,,,Pass,,,,,
317.0,10.0,wc_10,,0.0,,,55.0,,,,,Pass,,,,,
317.0,10.0,wc_10,,0.0,,,,0.0,,,,Pass,,,,,
317.0,10.0,wc_10,wc_10,0.0,"[('wc_10', 0.7500000000000006)]",0.7500000000000006,,,39.0,0.00219,['Pass'],Pass,0.7500000000000006,-0.25000000000000056,3.0,6.0,0.5
317.0,10.0,wc_10,,0.0,,,,142.0,,,,Pass,,,,,
317.0,10.0,wc_10,wc_15,0.0,"[('wc_15', 0.6000000000000004), ('wc_10', 0.7500000000000006)]",0.9000000000000004,,,33.0,0.005999,['Pass'],Pass,0.6000000000000004,-0.4333333333333338,0.0,0.0,0.6
317.0,10.0,wc_10,,0.0,,,,402.0,,,,Pass,,,,,
317.0,10.0,wc_10,wc_11,1.0,"[('wc_11', 0.6200000000000004), ('wc_10', 0.7500000000000006), ('wc_15', 0.6000000000000004)]",0.9620000000000002,,,29.0,0.039237999999999995,['Pass'],Pass,0.6200000000000004,-0.12000000000000044,2.0,4.0,0.6
324.0,7.0,wc_7,,0.0,,,,41.0,,,,Fail,,,,,
324.0,7.0,wc_7,,0.0,,,80.0,,,,,Fail,,,,,
324.0,7.0,wc_7,,0.0,,,,0.0,,,,Fail,,,,,
324.0,7.0,wc_7,wc_7,0.0,"[('wc_7', 0.3200000000000002)]",0.3200000000000002,,,36.0,0.002156,['Pass'],Fail,0.3200000000000002,-0.22476190476190494,0.0,0.0,0.3
324.0,7.0,wc_7,,0.0,,,,223.0,,,,Fail,,,,,
324.0,7.0,wc_7,wc_16,0.0,"[('wc_16', 0.7300000000000005)]",0.7300000000000005,,,26.0,0.003975,['Fail'],Fail,0.7300000000000005,-0.44428571428571484,2.0,7.0,0.8
324.0,7.0,wc_7,,0.0,,,,422.0,,,,Fail,,,,,
324.0,7.0,wc_7,wc_5,0.0,"[('wc_5', 0.2300000000000001), ('wc_16', 0.7300000000000005)]",0.7921000000000005,,,22.0,0.006192,['Fail'],Fail,0.2300000000000001,-0.11888888888888899,0.0,0.0,0.2
324.0,7.0,wc_7,,0.0,,,,162.0,,,,Fail,,,,,
324.0,7.0,wc_7,wc_15,0.0,"[('wc_16', 0.7300000000000005), ('wc_5', 0.2300000000000001)]",0.7921000000000005,,,21.0,0.007824999999999999,['Fail'],Fail,0.6100000000000004,0.38999999999999957,1.0,1.0,0.6
324.0,7.0,wc_7,,0.0,,,,61.0,,,,Fail,,,,,
324.0,7.0,wc_7,wc_12,1.0,"[('wc_12', 0.5800000000000004), ('wc_16', 0.7300000000000005), ('wc_5', 0.2300000000000001)]",0.9126820000000002,,,25.0,0.044819,['Fail'],Fail,0.5800000000000004,-0.0800000000000004,2.0,4.0,0.6
330.0,7.0,wc_7,,0.0,,,,202.0,,,,Pass,,,,,
330.0,7.0,wc_7,,0.0,,,55.0,,,,,Pass,,,,,
330.0,7.0,wc_7,,0.0,,,,0.0,,,,Pass,,,,,
330.0,7.0,wc_7,wc_7,0.0,"[('wc_7', 0.31000000000000016)]",0.31000000000000016,,,38.0,0.00216,['Fail'],Pass,0.31000000000000016,-0.31000000000000016,0.0,1.0,0.3
330.0,7.0,wc_7,,0.0,,,,0.0,,,,Pass,,,,,
330.0,7.0,wc_7,wc_9,0.0,"[('wc_9', 0.8600000000000007)]",0.8600000000000007,,,22.0,0.004072,['Pass'],Pass,0.8600000000000007,-0.587272727272728,0.0,0.0,1.0
330.0,7.0,wc_7,,0.0,,,,362.0,,,,Pass,,,,,
330.0,7.0,wc_7,wc_3,0.0,"[('wc_3', 0.5400000000000004), ('wc_9', 0.8600000000000007)]",0.9356000000000003,,,38.0,0.005631,['Pass'],Pass,0.5400000000000004,-0.14000000000000035,0.0,0.0,0.4
330.0,7.0,wc_7,,0.0,,,,202.0,,,,Pass,,,,,
330.0,7.0,wc_7,wc_11,1.0,"[('wc_11', 0.6200000000000004), ('wc_9', 0.8600000000000007), ('wc_3', 0.5400000000000004)]",0.9755280000000002,,,20.0,0.04044800000000001,['Pass'],Pass,0.6200000000000004,-0.12000000000000044,3.0,6.0,0.6
338.0,12.0,wc_12,,0.0,,,,61.0,,,,Fail,,,,,
338.0,12.0,wc_12,,0.0,,,66.0,,,,,Fail,,,,,
338.0,12.0,wc_12,,0.0,,,,0.0,,,,Fail,,,,,
338.0,12.0,wc_12,wc_12,0.0,"[('wc_12', 0.5800000000000004)]",0.5800000000000004,,,37.0,0.00236,['Fail'],Fail,0.5800000000000004,-0.18000000000000038,2.0,5.0,0.6
338.0,12.0,wc_12,,0.0,,,,361.0,,,,Fail,,,,,
338.0,12.0,wc_12,wc_3,0.0,"[('wc_3', 0.5500000000000004), ('wc_12', 0.5800000000000004)]",0.8110000000000004,,,35.0,0.0040820000000000006,['Fail'],Fail,0.5500000000000004,0.4499999999999996,1.0,1.0,0.4
338.0,12.0,wc_12,,0.0,,,,202.0,,,,Fail,,,,,
338.0,12.0,wc_12,wc_15,1.0,"[('wc_15', 0.6000000000000004), ('wc_12', 0.5800000000000004), ('wc_3', 0.5500000000000004)]",0.9244000000000002,,,30.0,0.042554999999999996,['Fail'],Fail,0.6000000000000004,-0.10000000000000042,2.0,4.0,0.6
345.0,12.0,wc_12,,0.0,,,,61.0,,,,Fail,,,,,
345.0,12.0,wc_12,,0.0,,,59.0,,,,,Fail,,,,,
345.0,12.0,wc_12,,0.0,,,,0.0,,,,Fail,,,,,
345.0,12.0,wc_12,wc_12,0.0,"[('wc_12', 0.5800000000000004)]",0.5800000000000004,,,26.0,0.002072,['Pass'],Fail,0.5800000000000004,-0.0800000000000004,3.0,6.0,0.6
345.0,12.0,wc_12,,0.0,,,,0.0,,,,Fail,,,,,
345.0,12.0,wc_12,wc_17,0.0,"[('wc_17', 0.7000000000000005), ('wc_12', 0.5800000000000004)]",0.8740000000000003,,,30.0,0.004044,['Pass'],Fail,0.7000000000000005,-0.6047619047619053,0.0,0.0,0.5
345.0,12.0,wc_12,,0.0,,,,362.0,,,,Fail,,,,,
345.0,12.0,wc_12,wc_3,1.0,"[('wc_3', 0.5600000000000004), ('wc_12', 0.5800000000000004), ('wc_17', 0.7000000000000005)]",0.9445600000000002,,,40.0,0.04254,['Pass'],Fail,0.5700000000000004,0.4299999999999996,3.0,3.0,0.4
352.0,12.0,wc_12,,0.0,,,,141.0,,,,Pass,,,,,
352.0,12.0,wc_12,,0.0,,,80.0,,,,,Pass,,,,,
352.0,12.0,wc_12,,0.0,,,,0.0,,,,Pass,,,,,
352.0,12.0,wc_12,wc_12,0.0,"[('wc_12', 0.5800000000000004)]",0.5800000000000004,,,21.0,0.001936,['Pass'],Pass,0.5800000000000004,-0.008571428571429007,4.0,7.0,0.6
352.0,12.0,wc_12,,0.0,,,,361.0,,,,Pass,,,,,
352.0,12.0,wc_12,wc_11,0.0,"[('wc_11', 0.6200000000000004), ('wc_12', 0.5800000000000004)]",0.8404000000000004,,,21.0,0.0044410000000000005,['Pass'],Pass,0.6200000000000004,-0.24500000000000044,3.0,8.0,0.6
352.0,12.0,wc_12,,0.0,,,,142.0,,,,Pass,,,,,
352.0,12.0,wc_12,wc_16,1.0,"[('wc_16', 0.7300000000000005), ('wc_12', 0.5800000000000004), ('wc_11', 0.6200000000000004)]",0.9569080000000002,,,27.0,0.041797,['Pass'],Pass,0.7300000000000005,-0.7300000000000005,0.0,0.0,0.8
361.0,13.0,wc_13,,0.0,,,,61.0,,,,Pass,,,,,
361.0,13.0,wc_13,,0.0,,,79.0,,,,,Pass,,,,,
361.0,13.0,wc_13,,0.0,,,,0.0,,,,Pass,,,,,
361.0,13.0,wc_13,wc_13,0.0,"[('wc_13', 0.7600000000000006)]",0.7600000000000006,,,30.0,0.002144,['Pass'],Pass,0.7600000000000006,-0.7011764705882358,0.0,0.0,0.8
361.0,13.0,wc_13,,0.0,,,,242.0,,,,Pass,,,,,
361.0,13.0,wc_13,wc_2,0.0,"[('wc_13', 0.7600000000000006)]",0.7600000000000006,,,37.0,0.004158,['Pass'],Pass,0.3300000000000002,-0.24304347826086975,0.0,0.0,0.2
361.0,13.0,wc_13,,0.0,,,,223.0,,,,Pass,,,,,
361.0,13.0,wc_13,wc_15,0.0,"[('wc_13', 0.7600000000000006)]",0.7600000000000006,,,32.0,0.006119,['Pass'],Pass,0.6000000000000004,-0.2666666666666671,2.0,6.0,0.6
361.0,13.0,wc_13,,0.0,,,,0.0,,,,Pass,,,,,
361.0,13.0,wc_13,wc_16,0.0,"[('wc_16', 0.7300000000000005), ('wc_13', 0.7600000000000006)]",0.9352000000000003,,,23.0,0.009732,['Pass'],Pass,0.7300000000000005,-0.7300000000000005,0.0,0.0,0.8
361.0,13.0,wc_13,,0.0,,,,362.0,,,,Pass,,,,,
361.0,13.0,wc_13,wc_10,0.0,"[('wc_13', 0.7600000000000006), ('wc_16', 0.7300000000000005)]",0.9352000000000003,,,36.0,0.010305000000000002,['Pass'],Pass,0.7500000000000006,-0.41666666666666724,0.0,0.0,0.5
361.0,13.0,wc_13,,0.0,,,,0.0,,,,Pass,,,,,
361.0,13.0,wc_13,wc_11,1.0,"[('wc_11', 0.6200000000000004), ('wc_13', 0.7600000000000006), ('wc_16', 0.7300000000000005)]",0.9753760000000001,,,37.0,0.04908300000000001,['Pass'],Pass,0.6200000000000004,-0.6200000000000004,0.0,0.0,0.6
366.0,15.0,wc_15,,0.0,,,,122.0,,,,Fail,,,,,
366.0,15.0,wc_15,,0.0,,,59.0,,,,,Fail,,,,,
366.0,15.0,wc_15,,0.0,,,,0.0,,,,Fail,,,,,
366.0,15.0,wc_15,wc_15,0.0,"[('wc_15', 0.5900000000000004)]",0.5900000000000004,,,20.0,0.002312,['Fail'],Fail,0.5900000000000004,-0.3042857142857147,2.0,7.0,0.6
366.0,15.0,wc_15,,0.0,,,,303.0,,,,Fail,,,,,
366.0,15.0,wc_15,wc_2,0.0,"[('wc_15', 0.5900000000000004)]",0.5900000000000004,,,29.0,0.005048,['Fail'],Fail,0.3200000000000002,-0.3200000000000002,0.0,1.0,0.2
366.0,15.0,wc_15,,0.0,,,,0.0,,,,Fail,,,,,
366.0,15.0,wc_15,wc_5,0.0,"[('wc_5', 0.2400000000000001), ('wc_15', 0.5900000000000004)]",0.6884000000000003,,,36.0,0.0060869999999999995,['Fail'],Fail,0.2400000000000001,-0.07333333333333344,1.0,6.0,0.2
366.0,15.0,wc_15,,0.0,,,,122.0,,,,Fail,,,,,
366.0,15.0,wc_15,wc_9,1.0,"[('wc_9', 0.8700000000000007), ('wc_15', 0.5900000000000004), ('wc_5', 0.2400000000000001)]",0.9594920000000002,,,40.0,0.045249,['Fail'],Fail,0.8700000000000007,-0.5366666666666673,2.0,6.0,1.0
374.0,16.0,wc_16,,0.0,,,,182.0,,,,Pass,,,,,
374.0,16.0,wc_16,,0.0,,,76.0,,,,,Pass,,,,,
374.0,16.0,wc_16,,0.0,,,,0.0,,,,Pass,,,,,
374.0,16.0,wc_16,wc_16,0.0,"[('wc_16', 0.7400000000000005)]",0.7400000000000005,,,30.0,0.002154,['Pass'],Pass,0.7400000000000005,-0.24000000000000055,1.0,2.0,0.8
374.0,16.0,wc_16,,0.0,,,,283.0,,,,Pass,,,,,
374.0,16.0,wc_16,wc_2,0.0,"[('wc_16', 0.7400000000000005)]",0.7400000000000005,,,36.0,0.004311,['Pass'],Pass,0.31000000000000016,-0.31000000000000016,0.0,2.0,0.2
374.0,16.0,wc_16,,0.0,,,,223.0,,,,Pass,,,,,
374.0,16.0,wc_16,wc_15,0.0,"[('wc_15', 0.5900000000000004), ('wc_16', 0.7400000000000005)]",0.8934000000000003,,,34.0,0.005900000000000001,['Pass'],Pass,0.5900000000000004,-0.2150000000000004,3.0,8.0,0.6
374.0,16.0,wc_16,,0.0,,,,223.0,,,,Pass,,,,,
374.0,16.0,wc_16,wc_6,1.0,"[('wc_6', 0.4900000000000003), ('wc_16', 0.7400000000000005), ('wc_15', 0.5900000000000004)]",0.9456340000000002,,,32.0,0.04589099999999999,['Pass'],Pass,0.4900000000000003,-0.4900000000000003,0.0,0.0,0.4
381.0,14.0,wc_14,,0.0,,,,202.0,,,,Fail,,,,,
381.0,14.0,wc_14,,0.0,,,79.0,,,,,Fail,,,,,
381.0,14.0,wc_14,,0.0,,,,0.0,,,,Fail,,,,,
381.0,14.0,wc_14,wc_14,0.0,"[('wc_14', 0.7700000000000006)]",0.7700000000000006,,,27.0,0.001987,['Fail'],Fail,0.7700000000000006,-0.714444444444445,0.0,0.0,1.0
381.0,14.0,wc_14,,0.0,,,,182.0,,,,Fail,,,,,
381.0,14.0,wc_14,wc_8,0.0,"[('wc_14', 0.7700000000000006)]",0.7700000000000006,,,29.0,0.004294,['Fail'],Fail,0.19000000000000006,-0.04714285714285721,0.0,0.0,0.2
381.0,14.0,wc_14,,0.0,,,,0.0,,,,Fail,,,,,
381.0,14.0,wc_14,wc_10,0.0,"[('wc_10', 0.7400000000000005), ('wc_14', 0.7700000000000006)]",0.9402000000000003,,,25.0,0.005940000000000001,['Fail'],Fail,0.7400000000000005,-0.7400000000000005,0.0,3.0,0.5
381.0,14.0,wc_14,,0.0,,,,61.0,,,,Fail,,,,,
381.0,14.0,wc_14,wc_7,0.0,"[('wc_14', 0.7700000000000006), ('wc_10', 0.7400000000000005)]",0.9402000000000003,,,29.0,0.008740000000000001,['Fail'],Fail,0.30000000000000016,-0.30000000000000016,0.0,8.0,0.3
381.0,14.0,wc_14,,0.0,,,,203.0,,,,Fail,,,,,
381.0,14.0,wc_14,wc_15,0.0,"[('wc_14', 0.7700000000000006), ('wc_10', 0.7400000000000005)]",0.9402000000000003,,,25.0,0.008834,['Fail'],Fail,0.5900000000000004,-0.145555555555556,4.0,9.0,0.6
381.0,14.0,wc_14,,0.0,,,,0.0,,,,Fail,,,,,
381.0,14.0,wc_14,wc_16,1.0,"[('wc_16', 0.7400000000000005), ('wc_14', 0.7700000000000006), ('wc_10', 0.7400000000000005)]",0.9844520000000001,,,23.0,0.048013999999999994,['Fail'],Fail,0.7400000000000005,0.009999999999999454,3.0,4.0,0.8
388.0,15.0,wc_15,,0.0,,,,103.0,,,,Pass,,,,,
388.0,15.0,wc_15,,0.0,,,59.0,,,,,Pass,,,,,
388.0,15.0,wc_15,,0.0,,,,0.0,,,,Pass,,,,,
388.0,15.0,wc_15,wc_15,0.0,"[('wc_15', 0.5800000000000004)]",0.5800000000000004,,,35.0,0.002055,['Fail'],Pass,0.5800000000000004,-0.5800000000000004,0.0,0.0,0.6
388.0,15.0,wc_15,,0.0,,,,61.0,,,,Pass,,,,,
388.0,15.0,wc_15,wc_12,0.0,"[('wc_12', 0.5900000000000004), ('wc_15', 0.5800000000000004)]",0.8278000000000003,,,31.0,0.004021,['Fail'],Pass,0.5900000000000004,-0.17333333333333373,0.0,0.0,0.6
388.0,15.0,wc_15,,0.0,,,,361.0,,,,Pass,,,,,
388.0,15.0,wc_15,wc_3,1.0,"[('wc_3', 0.5700000000000004), ('wc_15', 0.5800000000000004), ('wc_12', 0.5900000000000004)]",0.9259540000000002,,,29.0,0.04047,['Fail'],Pass,0.5700000000000004,-0.12555555555555598,4.0,9.0,0.4
397.0,14.0,wc_14,,0.0,,,,181.0,,,,Fail,,,,,
397.0,14.0,wc_14,,0.0,,,66.0,,,,,Fail,,,,,
397.0,14.0,wc_14,,0.0,,,,0.0,,,,Fail,,,,,
397.0,14.0,wc_14,wc_14,0.0,"[('wc_14', 0.7800000000000006)]",0.7800000000000006,,,39.0,0.00217,['Fail'],Fail,0.7800000000000006,-0.2800000000000006,1.0,2.0,1.0
397.0,14.0,wc_14,,0.0,,,,82.0,,,,Fail,,,,,
397.0,14.0,wc_14,wc_12,0.0,"[('wc_14', 0.7800000000000006)]",0.7800000000000006,,,31.0,0.003967,['Fail'],Fail,0.6000000000000004,0.3999999999999996,1.0,1.0,0.6
397.0,14.0,wc_14,,0.0,,,,341.0,,,,Fail,,,,,
397.0,14.0,wc_14,wc_10,0.0,"[('wc_10', 0.7400000000000005), ('wc_14', 0.7800000000000006)]",0.9428000000000003,,,35.0,0.0059819999999999995,['Fail'],Fail,0.7400000000000005,-0.5400000000000005,1.0,5.0,0.5
397.0,14.0,wc_14,,0.0,,,,162.0,,,,Fail,,,,,
397.0,14.0,wc_14,wc_16,1.0,"[('wc_16', 0.7400000000000005), ('wc_14', 0.7800000000000006), ('wc_10', 0.7400000000000005)]",0.9851280000000001,,,24.0,0.042729,['Fail'],Fail,0.7400000000000005,-0.07333333333333392,4.0,6.0,0.8
403.0,14.0,wc_14,,0.0,,,,81.0,,,,Pass,,,,,
403.0,14.0,wc_14,,0.0,,,66.0,,,,,Pass,,,,,
403.0,14.0,wc_14,,0.0,,,,0.0,,,,Pass,,,,,
403.0,14.0,wc_14,wc_14,0.0,"[('wc_14', 0.7800000000000006)]",0.7800000000000006,,,33.0,0.002431,['Pass'],Pass,0.7800000000000006,-0.11333333333333395,2.0,3.0,1.0
403.0,14.0,wc_14,,0.0,,,,0.0,,,,Pass,,,,,
403.0,14.0,wc_14,wc_17,0.0,"[('wc_17', 0.7100000000000005), ('wc_14', 0.7800000000000006)]",0.9362000000000003,,,37.0,0.004607,['Pass'],Pass,0.7100000000000005,-0.5850000000000005,1.0,8.0,0.5
403.0,14.0,wc_14,,0.0,,,,203.0,,,,Pass,,,,,
403.0,14.0,wc_14,wc_7,0.0,"[('wc_14', 0.7800000000000006), ('wc_17', 0.7100000000000005)]",0.9362000000000003,,,23.0,0.005816,['Pass'],Pass,0.29000000000000015,-0.29000000000000015,0.0,0.0,0.3
403.0,14.0,wc_14,,0.0,,,,162.0,,,,Pass,,,,,
403.0,14.0,wc_14,wc_13,1.0,"[('wc_13', 0.7700000000000006), ('wc_14', 0.7800000000000006), ('wc_17', 0.7100000000000005)]",0.9853260000000001,,,29.0,0.04166000000000001,['Pass'],Pass,0.7700000000000006,-0.4842857142857149,2.0,7.0,0.8
409.0,17.0,wc_17,,0.0,,,,0.0,,,,Fail,,,,,
409.0,17.0,wc_17,,0.0,,,50.0,,,,,Fail,,,,,
409.0,17.0,wc_17,,0.0,,,,0.0,,,,Fail,,,,,
409.0,17.0,wc_17,wc_17,0.0,"[('wc_17', 0.7100000000000005)]",0.7100000000000005,,,22.0,0.002273,['Pass'],Fail,0.7100000000000005,-0.4877777777777783,2.0,9.0,0.5
409.0,17.0,wc_17,,0.0,,,,382.0,,,,Fail,,,,,
409.0,17.0,wc_17,wc_4,0.0,"[('wc_17', 0.7100000000000005)]",0.7100000000000005,,,32.0,0.003816,['Pass'],Fail,0.6500000000000005,-0.6000000000000004,0.0,0.0,0.6
409.0,17.0,wc_17,,0.0,,,,121.0,,,,Fail,,,,,
409.0,17.0,wc_17,wc_8,0.0,"[('wc_8', 0.18000000000000005), ('wc_17', 0.7100000000000005)]",0.7622000000000004,,,24.0,0.0057859999999999995,['Pass'],Fail,0.18000000000000005,-0.18000000000000005,0.0,4.0,0.2
409.0,17.0,wc_17,,0.0,,,,82.0,,,,Fail,,,,,
409.0,17.0,wc_17,wc_6,0.0,"[('wc_6', 0.4900000000000003), ('wc_17', 0.7100000000000005), ('wc_8', 0.18000000000000005)]",0.8787220000000003,,,30.0,0.007384999999999999,['Pass'],Fail,0.4900000000000003,-0.4900000000000003,0.0,4.0,0.4
409.0,17.0,wc_17,,0.0,,,,243.0,,,,Fail,,,,,
409.0,17.0,wc_17,wc_16,0.0,"[('wc_16', 0.7400000000000005), ('wc_4', 0.6500000000000005)]",0.9090000000000003,,,29.0,0.018699999999999998,['Fail'],Fail,0.7400000000000005,-0.16857142857142915,4.0,7.0,0.8
409.0,17.0,wc_17,,0.0,,,,422.0,,,,Fail,,,,,
409.0,17.0,wc_17,wc_5,1.0,"[('wc_5', 0.2500000000000001), ('wc_17', 0.7100000000000005), ('wc_8', 0.18000000000000005), ('wc_6', 0.4900000000000003)]",0.9090415000000003,,,40.0,0.04925699999999999,['Pass'],Fail,0.2500000000000001,-0.2500000000000001,0.0,0.0,0.2
414.0,17.0,wc_17,,0.0,,,,202.0,,,,Fail,,,,,
414.0,17.0,wc_17,,0.0,,,67.0,,,,,Fail,,,,,
414.0,17.0,wc_17,,0.0,,,,0.0,,,,Fail,,,,,
414.0,17.0,wc_17,wc_17,0.0,"[('wc_17', 0.7100000000000005)]",0.7100000000000005,,,39.0,0.002123,['Fail'],Fail,0.7100000000000005,-0.7100000000000005,0.0,0.0,0.5
414.0,17.0,wc_17,,0.0,,,,402.0,,,,Fail,,,,,
414.0,17.0,wc_17,wc_5,0.0,"[('wc_5', 0.2500000000000001), ('wc_17', 0.7100000000000005)]",0.7825000000000004,,,29.0,0.00414,['Fail'],Fail,0.2500000000000001,-0.2500000000000001,0.0,0.0,0.2
414.0,17.0,wc_17,,0.0,,,,61.0,,,,Fail,,,,,
414.0,17.0,wc_17,wc_2,0.0,"[('wc_17', 0.7100000000000005), ('wc_5', 0.2500000000000001)]",0.7825000000000004,,,24.0,0.007392,['Fail'],Fail,0.30000000000000016,-0.30000000000000016,0.0,8.0,0.2
414.0,17.0,wc_17,,0.0,,,,142.0,,,,Fail,,,,,
414.0,17.0,wc_17,wc_7,0.0,"[('wc_7', 0.28000000000000014), ('wc_17', 0.7100000000000005), ('wc_5', 0.2500000000000001)]",0.8434000000000004,,,20.0,0.007864,['Fail'],Fail,0.28000000000000014,-0.28000000000000014,0.0,2.0,0.3
414.0,17.0,wc_17,,0.0,,,,182.0,,,,Fail,,,,,
414.0,17.0,wc_17,wc_14,1.0,"[('wc_14', 0.7800000000000006), ('wc_17', 0.7100000000000005), ('wc_5', 0.2500000000000001), ('wc_7', 0.28000000000000014)]",0.9655480000000002,,,28.0,0.044668,['Fail'],Fail,0.7800000000000006,-0.11333333333333395,4.0,6.0,1.0
425.0,17.0,wc_17,,0.0,,,,0.0,,,,Fail,,,,,
425.0,17.0,wc_17,,0.0,,,72.0,,,,,Fail,,,,,
425.0,17.0,wc_17,,0.0,,,,0.0,,,,Fail,,,,,
425.0,17.0,wc_17,wc_17,0.0,"[('wc_17', 0.7200000000000005)]",0.7200000000000005,,,33.0,0.002057,['Fail'],Fail,0.7200000000000005,0.27999999999999947,1.0,1.0,0.5
425.0,17.0,wc_17,,0.0,,,,203.0,,,,Fail,,,,,
425.0,17.0,wc_17,wc_7,0.0,"[('wc_17', 0.7200000000000005)]",0.7200000000000005,,,35.0,0.004176,['Fail'],Fail,0.29000000000000015,0.04333333333333317,1.0,3.0,0.3
425.0,17.0,wc_17,,0.0,,,,321.0,,,,Fail,,,,,
425.0,17.0,wc_17,wc_4,0.0,"[('wc_4', 0.6400000000000005), ('wc_17', 0.7200000000000005)]",0.8992000000000003,,,36.0,0.006312,['Fail'],Fail,0.6400000000000005,-0.6400000000000005,0.0,2.0,0.6
425.0,17.0,wc_17,,0.0,,,,81.0,,,,Fail,,,,,
425.0,17.0,wc_17,wc_6,1.0,"[('wc_6', 0.4900000000000003), ('wc_17', 0.7200000000000005), ('wc_4', 0.6400000000000005)]",0.9485920000000002,,,27.0,0.046705,['Fail'],Fail,0.4900000000000003,-0.20428571428571463,2.0,7.0,0.4
430.0,17.0,wc_17,,0.0,,,,263.0,,,,Fail,,,,,
430.0,17.0,wc_17,,0.0,,,53.0,,,,,Fail,,,,,
430.0,17.0,wc_17,,0.0,,,,0.0,,,,Fail,,,,,
430.0,17.0,wc_17,wc_17,0.0,"[('wc_17', 0.7300000000000005)]",0.7300000000000005,,,28.0,0.002189,['Fail'],Fail,0.7300000000000005,0.26999999999999946,2.0,2.0,0.5
430.0,17.0,wc_17,,0.0,,,,223.0,,,,Fail,,,,,
430.0,17.0,wc_17,wc_8,0.0,"[('wc_8', 0.19000000000000006), ('wc_17', 0.7300000000000005)]",0.7813000000000004,,,34.0,0.003882,['Fail'],Fail,0.19000000000000006,-0.04714285714285721,1.0,7.0,0.2
430.0,17.0,wc_17,,0.0,,,,0.0,,,,Fail,,,,,
430.0,17.0,wc_17,wc_10,1.0,"[('wc_10', 0.7400000000000005), ('wc_17', 0.7300000000000005), ('wc_8', 0.19000000000000006)]",0.9431380000000003,,,33.0,0.045244999999999994,['Fail'],Fail,0.7400000000000005,-0.7400000000000005,0.0,0.0,0.5
437.0,17.0,wc_17,,0.0,,,,182.0,,,,Fail,,,,,
437.0,17.0,wc_17,,0.0,,,60.0,,,,,Fail,,,,,
437.0,17.0,wc_17,,0.0,,,,0.0,,,,Fail,,,,,
437.0,17.0,wc_17,wc_17,0.0,"[('wc_17', 0.7400000000000005)]",0.7400000000000005,,,28.0,0.002035,['Pass'],Fail,0.7400000000000005,0.25999999999999945,3.0,3.0,0.5
437.0,17.0,wc_17,,0.0,,,,203.0,,,,Fail,,,,,
437.0,17.0,wc_17,wc_7,0.0,"[('wc_7', 0.28000000000000014), ('wc_17', 0.7400000000000005)]",0.8128000000000004,,,32.0,0.0038060000000000004,['Pass'],Fail,0.28000000000000014,-0.08000000000000013,1.0,5.0,0.3
437.0,17.0,wc_17,,0.0,,,,301.0,,,,Fail,,,,,
437.0,17.0,wc_17,wc_3,1.0,"[('wc_3', 0.5700000000000004), ('wc_17', 0.7400000000000005), ('wc_7', 0.28000000000000014)]",0.9195040000000002,,,23.0,0.04363000000000001,['Pass'],Fail,0.5700000000000004,-0.5700000000000004,0.0,0.0,0.4
442.0,17.0,wc_17,,0.0,,,,242.0,,,,Pass,,,,,
442.0,17.0,wc_17,,0.0,,,50.0,,,,,Pass,,,,,
442.0,17.0,wc_17,,0.0,,,,0.0,,,,Pass,,,,,
442.0,17.0,wc_17,wc_17,0.0,"[('wc_17', 0.7500000000000006)]",0.7500000000000006,,,29.0,0.002245,['Fail'],Pass,0.7500000000000006,0.24999999999999944,4.0,4.0,0.5
442.0,17.0,wc_17,,0.0,,,,322.0,,,,Pass,,,,,
442.0,17.0,wc_17,wc_9,0.0,"[('wc_9', 0.8700000000000007)]",0.8700000000000007,,,33.0,0.0044480000000000006,['Pass'],Pass,0.8700000000000007,-0.7450000000000007,0.0,0.0,1.0
442.0,17.0,wc_17,,0.0,,,,362.0,,,,Pass,,,,,
442.0,17.0,wc_17,wc_3,0.0,"[('wc_3', 0.5700000000000004), ('wc_17', 0.7500000000000006)]",0.8925000000000003,,,28.0,0.006372,['Fail'],Pass,0.5700000000000004,-0.5700000000000004,0.0,0.0,0.4
442.0,17.0,wc_17,,0.0,,,,101.0,,,,Pass,,,,,
442.0,17.0,wc_17,wc_2,0.0,"[('wc_2', 0.29000000000000015), ('wc_9', 0.8700000000000007)]",0.9077000000000005,,,28.0,0.007875,['Pass'],Pass,0.29000000000000015,-0.29000000000000015,0.0,0.0,0.2
442.0,17.0,wc_17,,0.0,,,,0.0,,,,Pass,,,,,
442.0,17.0,wc_17,wc_5,1.0,"[('wc_5', 0.2600000000000001), ('wc_17', 0.7500000000000006), ('wc_3', 0.5700000000000004)]",0.9204500000000002,,,25.0,0.047015,['Fail'],Pass,0.27000000000000013,0.1299999999999999,2.0,5.0,0.2
