mpecck/BCQC/bcqc_with_qdt/results/raw/input_8/independent_qc/training/20_workpiece/20200429_084420/wp_17_qc_majority_0.9.csv
production_index,step_idx,production_workcell,qc,consent,winner_qc_list,score,production_time,transport_time,inspection_time,network_time,qc_results,actual_quality,qc_score,score_error,in_winner_counter,in_qc_counter,qc_capability
70.0,1.0,wc_1,,0.0,,,74.0,,,,,Pass,,,,,
70.0,1.0,wc_1,,0.0,,,,0.0,,,,Pass,,,,,
70.0,1.0,wc_1,wc_1,0.0,"[('wc_1', 0.5600000000000004)]",0.5600000000000004,,,38.0,0.002228,['Fail'],Pass,0.5600000000000004,-0.39333333333333376,1.0,6.0,0.5
70.0,1.0,wc_1,,0.0,,,,243.0,,,,Pass,,,,,
70.0,1.0,wc_1,wc_11,0.0,"[('wc_11', 0.6700000000000005), ('wc_1', 0.5600000000000004)]",0.8548000000000003,,,24.0,0.0038139999999999997,['Fail'],Pass,0.6700000000000005,-0.5588888888888894,1.0,9.0,0.6
70.0,1.0,wc_1,,0.0,,,,101.0,,,,Pass,,,,,
70.0,1.0,wc_1,wc_14,0.0,"[('wc_1', 0.5600000000000004), ('wc_11', 0.6700000000000005)]",0.8548000000000003,,,36.0,0.0060680000000000005,['Fail'],Pass,0.8300000000000006,-0.23000000000000065,3.0,5.0,1.0
70.0,1.0,wc_1,,0.0,,,,142.0,,,,Pass,,,,,
70.0,1.0,wc_1,wc_6,0.0,"[('wc_6', 0.4500000000000003), ('wc_14', 0.8300000000000006)]",0.9065000000000004,,,28.0,0.011208,['Pass'],Pass,0.4500000000000003,-0.35476190476190506,0.0,0.0,0.4
70.0,1.0,wc_1,,0.0,,,,0.0,,,,Pass,,,,,
70.0,1.0,wc_1,wc_9,1.0,"[('wc_9', 0.9000000000000007), ('wc_1', 0.5600000000000004), ('wc_11', 0.6700000000000005)]",0.9854800000000001,,,35.0,0.04538299999999999,['Fail'],Pass,0.9000000000000007,-0.2750000000000007,5.0,8.0,1.0
82.0,3.0,wc_3,,0.0,,,,362.0,,,,Pass,,,,,
82.0,3.0,wc_3,,0.0,,,78.0,,,,,Pass,,,,,
82.0,3.0,wc_3,,0.0,,,,0.0,,,,Pass,,,,,
82.0,3.0,wc_3,wc_3,0.0,"[('wc_3', 0.5900000000000004)]",0.5900000000000004,,,28.0,0.003034,['Pass'],Pass,0.5900000000000004,-0.1900000000000004,2.0,5.0,0.4
82.0,3.0,wc_3,,0.0,,,,202.0,,,,Pass,,,,,
82.0,3.0,wc_3,wc_15,0.0,"[('wc_15', 0.6400000000000005), ('wc_3', 0.5900000000000004)]",0.8524000000000003,,,27.0,0.004187,['Pass'],Pass,0.6400000000000005,-0.5288888888888894,1.0,9.0,0.6
82.0,3.0,wc_3,,0.0,,,,243.0,,,,Pass,,,,,
82.0,3.0,wc_3,wc_7,1.0,"[('wc_7', 0.40000000000000024), ('wc_3', 0.5900000000000004), ('wc_15', 0.6400000000000005)]",0.9114400000000002,,,37.0,0.075586,['Pass'],Pass,0.40000000000000024,-0.40000000000000024,0.0,0.0,0.3
93.0,2.0,wc_2,,0.0,,,,202.0,,,,Fail,,,,,
93.0,2.0,wc_2,,0.0,,,60.0,,,,,Fail,,,,,
93.0,2.0,wc_2,,0.0,,,,0.0,,,,Fail,,,,,
93.0,2.0,wc_2,wc_2,0.0,"[('wc_2', 0.30000000000000016)]",0.30000000000000016,,,40.0,0.002055,['Pass'],Fail,0.30000000000000016,-0.30000000000000016,0.0,4.0,0.2
93.0,2.0,wc_2,,0.0,,,,162.0,,,,Fail,,,,,
93.0,2.0,wc_2,wc_12,0.0,"[('wc_12', 0.6100000000000004)]",0.6100000000000004,,,39.0,0.003919,['Fail'],Fail,0.6100000000000004,-0.6100000000000004,0.0,9.0,0.6
93.0,2.0,wc_2,,0.0,,,,0.0,,,,Fail,,,,,
93.0,2.0,wc_2,wc_13,0.0,"[('wc_13', 0.8000000000000006), ('wc_12', 0.6100000000000004)]",0.9220000000000004,,,28.0,0.006202,['Fail'],Fail,0.8000000000000006,-0.4666666666666673,1.0,3.0,0.8
93.0,2.0,wc_2,,0.0,,,,202.0,,,,Fail,,,,,
93.0,2.0,wc_2,wc_8,0.0,"[('wc_12', 0.6100000000000004), ('wc_13', 0.8000000000000006)]",0.9220000000000004,,,33.0,0.008798,['Fail'],Fail,0.21000000000000008,-0.15117647058823536,0.0,0.0,0.2
93.0,2.0,wc_2,,0.0,,,,0.0,,,,Fail,,,,,
93.0,2.0,wc_2,wc_9,1.0,"[('wc_9', 0.9000000000000007), ('wc_2', 0.30000000000000016), ('wc_8', 0.21000000000000008)]",0.9447000000000004,,,22.0,0.042161,['Pass'],Fail,0.9000000000000007,-0.9000000000000007,0.0,0.0,1.0
106.0,4.0,wc_4,,0.0,,,,382.0,,,,Pass,,,,,
106.0,4.0,wc_4,,0.0,,,77.0,,,,,Pass,,,,,
106.0,4.0,wc_4,,0.0,,,,0.0,,,,Pass,,,,,
106.0,4.0,wc_4,wc_4,0.0,"[('wc_4', 0.6400000000000005)]",0.6400000000000005,,,26.0,0.002093,['Fail'],Pass,0.6400000000000005,-0.44000000000000045,0.0,0.0,0.6
106.0,4.0,wc_4,,0.0,,,,103.0,,,,Pass,,,,,
106.0,4.0,wc_4,wc_3,0.0,"[('wc_3', 0.5900000000000004), ('wc_4', 0.6400000000000005)]",0.8524000000000003,,,28.0,0.004206,['Fail'],Pass,0.5900000000000004,-0.16142857142857187,3.0,7.0,0.4
106.0,4.0,wc_4,,0.0,,,,162.0,,,,Pass,,,,,
106.0,4.0,wc_4,wc_9,0.0,"[('wc_9', 0.9000000000000007)]",0.9000000000000007,,,28.0,0.006307999999999999,['Pass'],Pass,0.9000000000000007,-0.9000000000000007,0.0,0.0,1.0
106.0,4.0,wc_4,,0.0,,,,162.0,,,,Pass,,,,,
106.0,4.0,wc_4,wc_15,0.0,"[('wc_15', 0.6400000000000005), ('wc_9', 0.9000000000000007)]",0.9640000000000003,,,27.0,0.009306,['Pass'],Pass,0.6400000000000005,-0.6400000000000005,0.0,1.0,0.6
106.0,4.0,wc_4,,0.0,,,,61.0,,,,Pass,,,,,
106.0,4.0,wc_4,wc_12,1.0,"[('wc_12', 0.6000000000000004), ('wc_9', 0.9000000000000007), ('wc_15', 0.6400000000000005)]",0.9856000000000001,,,24.0,0.039513,['Pass'],Pass,0.6100000000000004,0.38999999999999957,1.0,1.0,0.6
161.0,2.0,wc_2,,0.0,,,,262.0,,,,Fail,,,,,
161.0,2.0,wc_2,,0.0,,,58.0,,,,,Fail,,,,,
161.0,2.0,wc_2,,0.0,,,,0.0,,,,Fail,,,,,
161.0,2.0,wc_2,wc_2,0.0,"[('wc_2', 0.30000000000000016)]",0.30000000000000016,,,35.0,0.001997,['Fail'],Fail,0.30000000000000016,-0.1333333333333335,1.0,6.0,0.2
161.0,2.0,wc_2,,0.0,,,,202.0,,,,Fail,,,,,
161.0,2.0,wc_2,wc_14,0.0,"[('wc_14', 0.8200000000000006), ('wc_2', 0.30000000000000016)]",0.8740000000000004,,,40.0,0.00363,['Fail'],Fail,0.8200000000000006,-0.4866666666666673,3.0,9.0,1.0
161.0,2.0,wc_2,,0.0,,,,182.0,,,,Fail,,,,,
161.0,2.0,wc_2,wc_8,0.0,"[('wc_2', 0.30000000000000016), ('wc_14', 0.8200000000000006)]",0.8740000000000004,,,37.0,0.005601,['Fail'],Fail,0.22000000000000008,0.2799999999999999,1.0,2.0,0.2
161.0,2.0,wc_2,,0.0,,,,0.0,,,,Fail,,,,,
161.0,2.0,wc_2,wc_9,1.0,"[('wc_9', 0.9100000000000007), ('wc_2', 0.30000000000000016), ('wc_14', 0.8200000000000006)]",0.9886600000000001,,,20.0,0.040276,['Fail'],Fail,0.9200000000000007,0.0799999999999993,2.0,2.0,1.0
231.0,2.0,wc_2,,0.0,,,,263.0,,,,Fail,,,,,
231.0,2.0,wc_2,,0.0,,,77.0,,,,,Fail,,,,,
231.0,2.0,wc_2,,0.0,,,,0.0,,,,Fail,,,,,
231.0,2.0,wc_2,wc_2,0.0,"[('wc_2', 0.30000000000000016)]",0.30000000000000016,,,21.0,0.002286,['Fail'],Fail,0.30000000000000016,-0.014285714285714457,2.0,7.0,0.2
231.0,2.0,wc_2,,0.0,,,,0.0,,,,Fail,,,,,
231.0,2.0,wc_2,wc_3,0.0,"[('wc_3', 0.5800000000000004)]",0.5800000000000004,,,29.0,0.005072,['Pass'],Fail,0.5800000000000004,-0.2466666666666671,3.0,9.0,0.4
231.0,2.0,wc_2,,0.0,,,,121.0,,,,Fail,,,,,
231.0,2.0,wc_2,wc_7,0.0,"[('wc_7', 0.40000000000000024), ('wc_3', 0.5800000000000004)]",0.7480000000000003,,,27.0,0.0064670000000000005,['Pass'],Fail,0.40000000000000024,-0.40000000000000024,0.0,3.0,0.3
231.0,2.0,wc_2,,0.0,,,,182.0,,,,Fail,,,,,
231.0,2.0,wc_2,wc_1,0.0,"[('wc_3', 0.5800000000000004), ('wc_7', 0.40000000000000024)]",0.7480000000000003,,,21.0,0.008206999999999999,['Pass'],Fail,0.5600000000000004,-0.37818181818181856,0.0,0.0,0.5
231.0,2.0,wc_2,,0.0,,,,182.0,,,,Fail,,,,,
231.0,2.0,wc_2,wc_12,1.0,"[('wc_12', 0.6100000000000004), ('wc_3', 0.5800000000000004), ('wc_7', 0.40000000000000024)]",0.9017200000000003,,,29.0,0.041743,['Pass'],Fail,0.6200000000000004,0.04666666666666619,2.0,3.0,0.6
278.0,2.0,wc_2,,0.0,,,,262.0,,,,Pass,,,,,
278.0,2.0,wc_2,,0.0,,,77.0,,,,,Pass,,,,,
278.0,2.0,wc_2,,0.0,,,,0.0,,,,Pass,,,,,
278.0,2.0,wc_2,wc_2,0.0,"[('wc_2', 0.29000000000000015)]",0.29000000000000015,,,38.0,0.002723,['Fail'],Pass,0.29000000000000015,-0.04000000000000015,2.0,8.0,0.2
278.0,2.0,wc_2,,0.0,,,,202.0,,,,Pass,,,,,
278.0,2.0,wc_2,wc_14,0.0,"[('wc_14', 0.8200000000000006)]",0.8200000000000006,,,22.0,0.004119,['Pass'],Pass,0.8200000000000006,-0.8200000000000006,0.0,1.0,1.0
278.0,2.0,wc_2,,0.0,,,,281.0,,,,Pass,,,,,
278.0,2.0,wc_2,wc_9,0.0,"[('wc_9', 0.9200000000000007), ('wc_14', 0.8200000000000006)]",0.9856000000000001,,,37.0,0.006202,['Pass'],Pass,0.9200000000000007,-0.2533333333333341,2.0,3.0,1.0
278.0,2.0,wc_2,,0.0,,,,202.0,,,,Pass,,,,,
278.0,2.0,wc_2,wc_17,0.0,"[('wc_14', 0.8200000000000006), ('wc_9', 0.9200000000000007)]",0.9856000000000001,,,30.0,0.007575,['Pass'],Pass,0.7500000000000006,-0.6071428571428577,0.0,0.0,0.5
278.0,2.0,wc_2,,0.0,,,,402.0,,,,Pass,,,,,
278.0,2.0,wc_2,wc_5,1.0,"[('wc_5', 0.27000000000000013), ('wc_14', 0.8200000000000006), ('wc_9', 0.9200000000000007)]",0.9894880000000001,,,24.0,0.038861999999999994,['Pass'],Pass,0.27000000000000013,-0.27000000000000013,0.0,0.0,0.2
315.0,5.0,wc_5,,0.0,,,,0.0,,,,Pass,,,,,
315.0,5.0,wc_5,,0.0,,,55.0,,,,,Pass,,,,,
315.0,5.0,wc_5,,0.0,,,,0.0,,,,Pass,,,,,
315.0,5.0,wc_5,wc_5,0.0,"[('wc_5', 0.27000000000000013)]",0.27000000000000013,,,24.0,0.002252,['Pass'],Pass,0.27000000000000013,-0.27000000000000013,0.0,0.0,0.2
315.0,5.0,wc_5,,0.0,,,,61.0,,,,Pass,,,,,
315.0,5.0,wc_5,wc_6,0.0,"[('wc_6', 0.4400000000000003), ('wc_5', 0.27000000000000013)]",0.5912000000000003,,,21.0,0.004213,['Pass'],Pass,0.4400000000000003,-0.4400000000000003,0.0,7.0,0.4
315.0,5.0,wc_5,,0.0,,,,202.0,,,,Pass,,,,,
315.0,5.0,wc_5,wc_14,1.0,"[('wc_14', 0.8200000000000006), ('wc_5', 0.27000000000000013), ('wc_6', 0.4400000000000003)]",0.9264160000000004,,,32.0,0.035845,['Pass'],Pass,0.8200000000000006,-0.153333333333334,2.0,3.0,1.0
319.0,6.0,wc_6,,0.0,,,,142.0,,,,Fail,,,,,
319.0,6.0,wc_6,,0.0,,,54.0,,,,,Fail,,,,,
319.0,6.0,wc_6,,0.0,,,,0.0,,,,Fail,,,,,
319.0,6.0,wc_6,wc_6,0.0,"[('wc_6', 0.4400000000000003)]",0.4400000000000003,,,20.0,0.002997,['Fail'],Fail,0.4400000000000003,-0.3150000000000003,1.0,8.0,0.4
319.0,6.0,wc_6,,0.0,,,,263.0,,,,Fail,,,,,
319.0,6.0,wc_6,wc_17,0.0,"[('wc_17', 0.7400000000000005), ('wc_6', 0.4400000000000003)]",0.8544000000000004,,,29.0,0.004531,['Fail'],Fail,0.7400000000000005,-0.7400000000000005,0.0,2.0,0.5
319.0,6.0,wc_6,,0.0,,,,263.0,,,,Fail,,,,,
319.0,6.0,wc_6,wc_2,0.0,"[('wc_6', 0.4400000000000003), ('wc_17', 0.7400000000000005)]",0.8544000000000004,,,27.0,0.005893,['Fail'],Fail,0.28000000000000014,-0.08000000000000013,0.0,0.0,0.2
319.0,6.0,wc_6,,0.0,,,,243.0,,,,Fail,,,,,
319.0,6.0,wc_6,wc_16,1.0,"[('wc_16', 0.7600000000000006), ('wc_6', 0.4400000000000003), ('wc_17', 0.7400000000000005)]",0.9650560000000001,,,36.0,0.039895,['Fail'],Fail,0.7600000000000006,-0.7600000000000006,0.0,0.0,0.8
325.0,6.0,wc_6,,0.0,,,,203.0,,,,Pass,,,,,
325.0,6.0,wc_6,,0.0,,,50.0,,,,,Pass,,,,,
325.0,6.0,wc_6,,0.0,,,,0.0,,,,Pass,,,,,
325.0,6.0,wc_6,wc_6,0.0,"[('wc_6', 0.4400000000000003)]",0.4400000000000003,,,40.0,0.002286,['Pass'],Pass,0.4400000000000003,-0.21777777777777807,2.0,9.0,0.4
325.0,6.0,wc_6,,0.0,,,,321.0,,,,Pass,,,,,
325.0,6.0,wc_6,wc_3,0.0,"[('wc_3', 0.5800000000000004)]",0.5800000000000004,,,22.0,0.003928,['Fail'],Pass,0.5800000000000004,-0.5800000000000004,0.0,3.0,0.4
325.0,6.0,wc_6,,0.0,,,,202.0,,,,Pass,,,,,
325.0,6.0,wc_6,wc_15,0.0,"[('wc_15', 0.6400000000000005), ('wc_6', 0.4400000000000003)]",0.7984000000000003,,,32.0,0.005635,['Pass'],Pass,0.6400000000000005,-0.4971428571428576,1.0,7.0,0.6
325.0,6.0,wc_6,,0.0,,,,81.0,,,,Pass,,,,,
325.0,6.0,wc_6,wc_13,1.0,"[('wc_13', 0.7900000000000006), ('wc_6', 0.4400000000000003), ('wc_15', 0.6400000000000005)]",0.9576640000000002,,,30.0,0.04095,['Pass'],Pass,0.7900000000000006,-0.7900000000000006,0.0,0.0,0.8
332.0,11.0,wc_11,,0.0,,,,341.0,,,,Pass,,,,,
332.0,11.0,wc_11,,0.0,,,55.0,,,,,Pass,,,,,
332.0,11.0,wc_11,,0.0,,,,0.0,,,,Pass,,,,,
332.0,11.0,wc_11,wc_11,0.0,"[('wc_11', 0.6700000000000005)]",0.6700000000000005,,,29.0,0.002125,['Pass'],Pass,0.6700000000000005,-0.6700000000000005,0.0,9.0,0.6
332.0,11.0,wc_11,,0.0,,,,83.0,,,,Pass,,,,,
332.0,11.0,wc_11,wc_9,0.0,"[('wc_9', 0.9200000000000007), ('wc_11', 0.6700000000000005)]",0.9736000000000002,,,26.0,0.004003,['Pass'],Pass,0.9200000000000007,-0.49142857142857216,3.0,7.0,1.0
332.0,11.0,wc_11,,0.0,,,,382.0,,,,Pass,,,,,
332.0,11.0,wc_11,wc_4,1.0,"[('wc_4', 0.6300000000000004), ('wc_11', 0.6700000000000005), ('wc_9', 0.9200000000000007)]",0.9902320000000001,,,30.0,0.035913999999999995,['Pass'],Pass,0.6300000000000004,-0.5050000000000004,1.0,8.0,0.6
339.0,10.0,wc_10,,0.0,,,,162.0,,,,Fail,,,,,
339.0,10.0,wc_10,,0.0,,,65.0,,,,,Fail,,,,,
339.0,10.0,wc_10,,0.0,,,,0.0,,,,Fail,,,,,
339.0,10.0,wc_10,wc_10,0.0,"[('wc_10', 0.7900000000000006)]",0.7900000000000006,,,28.0,0.002163,['Fail'],Fail,0.7900000000000006,-0.6900000000000006,0.0,0.0,0.5
339.0,10.0,wc_10,,0.0,,,,61.0,,,,Fail,,,,,
339.0,10.0,wc_10,wc_7,0.0,"[('wc_7', 0.40000000000000024), ('wc_10', 0.7900000000000006)]",0.8740000000000004,,,32.0,0.004274,['Fail'],Fail,0.40000000000000024,-0.28888888888888914,1.0,9.0,0.3
339.0,10.0,wc_10,,0.0,,,,223.0,,,,Fail,,,,,
339.0,10.0,wc_10,wc_16,1.0,"[('wc_16', 0.7600000000000006), ('wc_10', 0.7900000000000006), ('wc_7', 0.40000000000000024)]",0.9697600000000002,,,34.0,0.040092,['Fail'],Fail,0.7600000000000006,-0.42666666666666725,1.0,3.0,0.8
347.0,8.0,wc_8,,0.0,,,,243.0,,,,Fail,,,,,
347.0,8.0,wc_8,,0.0,,,69.0,,,,,Fail,,,,,
347.0,8.0,wc_8,,0.0,,,,0.0,,,,Fail,,,,,
347.0,8.0,wc_8,wc_8,0.0,"[('wc_8', 0.22000000000000008)]",0.22000000000000008,,,21.0,0.002103,['Fail'],Fail,0.22000000000000008,-0.12000000000000008,0.0,0.0,0.2
347.0,8.0,wc_8,,0.0,,,,223.0,,,,Fail,,,,,
347.0,8.0,wc_8,wc_17,0.0,"[('wc_17', 0.7400000000000005), ('wc_8', 0.22000000000000008)]",0.7972000000000005,,,30.0,0.003872,['Fail'],Fail,0.7400000000000005,-0.5733333333333339,1.0,6.0,0.5
347.0,8.0,wc_8,,0.0,,,,342.0,,,,Fail,,,,,
347.0,8.0,wc_8,wc_10,1.0,"[('wc_10', 0.8000000000000006), ('wc_8', 0.22000000000000008), ('wc_17', 0.7400000000000005)]",0.9594400000000002,,,40.0,0.037311000000000004,['Fail'],Fail,0.8100000000000006,0.1899999999999994,2.0,2.0,0.5
355.0,8.0,wc_8,,0.0,,,,81.0,,,,Pass,,,,,
355.0,8.0,wc_8,,0.0,,,76.0,,,,,Pass,,,,,
355.0,8.0,wc_8,,0.0,,,,0.0,,,,Pass,,,,,
355.0,8.0,wc_8,wc_8,0.0,"[('wc_8', 0.2300000000000001)]",0.2300000000000001,,,31.0,0.002653,['Pass'],Pass,0.2300000000000001,0.7699999999999999,1.0,1.0,0.2
355.0,8.0,wc_8,,0.0,,,,182.0,,,,Pass,,,,,
355.0,8.0,wc_8,wc_2,0.0,"[('wc_2', 0.27000000000000013), ('wc_8', 0.2300000000000001)]",0.4379000000000002,,,35.0,0.0037800000000000004,['Pass'],Pass,0.27000000000000013,-0.27000000000000013,0.0,5.0,0.2
355.0,8.0,wc_8,,0.0,,,,0.0,,,,Pass,,,,,
355.0,8.0,wc_8,wc_5,0.0,"[('wc_5', 0.28000000000000014), ('wc_8', 0.2300000000000001), ('wc_2', 0.27000000000000013)]",0.5952880000000003,,,29.0,0.005853,['Pass'],Pass,0.28000000000000014,-0.11333333333333348,1.0,6.0,0.2
355.0,8.0,wc_8,,0.0,,,,162.0,,,,Pass,,,,,
355.0,8.0,wc_8,wc_11,0.0,"[('wc_11', 0.6700000000000005)]",0.6700000000000005,,,31.0,0.007593,['Fail'],Pass,0.6700000000000005,-0.6700000000000005,0.0,2.0,0.6
355.0,8.0,wc_8,,0.0,,,,203.0,,,,Pass,,,,,
355.0,8.0,wc_8,wc_1,0.0,"[('wc_1', 0.5500000000000004), ('wc_8', 0.2300000000000001), ('wc_2', 0.27000000000000013), ('wc_5', 0.28000000000000014)]",0.8178796000000003,,,23.0,0.011861,['Pass'],Pass,0.5500000000000004,-0.5500000000000004,0.0,8.0,0.5
355.0,8.0,wc_8,,0.0,,,,142.0,,,,Pass,,,,,
355.0,8.0,wc_8,wc_6,0.0,"[('wc_6', 0.4400000000000003), ('wc_8', 0.2300000000000001), ('wc_2', 0.27000000000000013), ('wc_5', 0.28000000000000014), ('wc_1', 0.5500000000000004)]",0.8980125760000002,,,20.0,0.011591,['Pass'],Pass,0.4400000000000003,-0.4400000000000003,0.0,3.0,0.4
355.0,8.0,wc_8,,0.0,,,,341.0,,,,Pass,,,,,
355.0,8.0,wc_8,wc_4,0.0,"[('wc_8', 0.2300000000000001), ('wc_2', 0.27000000000000013), ('wc_5', 0.28000000000000014), ('wc_1', 0.5500000000000004), ('wc_6', 0.4400000000000003)]",0.8980125760000002,,,25.0,0.013099999999999999,['Pass'],Pass,0.6300000000000004,-0.5300000000000005,0.0,0.0,0.6
355.0,8.0,wc_8,,0.0,,,,162.0,,,,Pass,,,,,
355.0,8.0,wc_8,wc_10,1.0,"[('wc_10', 0.8100000000000006), ('wc_11', 0.6700000000000005), ('wc_4', 0.6300000000000004)]",0.9768010000000001,,,40.0,0.045503,['Fail'],Pass,0.8200000000000006,0.17999999999999938,3.0,3.0,0.5
358.0,9.0,wc_9,,0.0,,,,103.0,,,,Fail,,,,,
358.0,9.0,wc_9,,0.0,,,62.0,,,,,Fail,,,,,
358.0,9.0,wc_9,,0.0,,,,0.0,,,,Fail,,,,,
358.0,9.0,wc_9,wc_9,0.0,"[('wc_9', 0.9200000000000007)]",0.9200000000000007,,,22.0,0.002334,['Fail'],Fail,0.9200000000000007,-0.5563636363636371,0.0,0.0,1.0
358.0,9.0,wc_9,,0.0,,,,0.0,,,,Fail,,,,,
358.0,9.0,wc_9,wc_11,0.0,"[('wc_11', 0.6700000000000005), ('wc_9', 0.9200000000000007)]",0.9736000000000002,,,26.0,0.004226000000000001,['Fail'],Fail,0.6700000000000005,-0.33666666666666717,1.0,3.0,0.6
358.0,9.0,wc_9,,0.0,,,,223.0,,,,Fail,,,,,
358.0,9.0,wc_9,wc_2,0.0,"[('wc_9', 0.9200000000000007), ('wc_11', 0.6700000000000005)]",0.9736000000000002,,,40.0,0.005927999999999999,['Fail'],Fail,0.2600000000000001,-0.2600000000000001,0.0,6.0,0.2
358.0,9.0,wc_9,,0.0,,,,102.0,,,,Fail,,,,,
358.0,9.0,wc_9,wc_1,1.0,"[('wc_1', 0.5400000000000004), ('wc_9', 0.9200000000000007), ('wc_11', 0.6700000000000005)]",0.9878560000000002,,,27.0,0.040095000000000006,['Fail'],Fail,0.5400000000000004,-0.5400000000000004,0.0,0.0,0.5
364.0,9.0,wc_9,,0.0,,,,203.0,,,,Pass,,,,,
364.0,9.0,wc_9,,0.0,,,58.0,,,,,Pass,,,,,
364.0,9.0,wc_9,,0.0,,,,0.0,,,,Pass,,,,,
364.0,9.0,wc_9,wc_9,0.0,"[('wc_9', 0.9300000000000007)]",0.9300000000000007,,,37.0,0.002282,['Pass'],Pass,0.9300000000000007,0.06999999999999929,1.0,1.0,1.0
364.0,9.0,wc_9,,0.0,,,,202.0,,,,Pass,,,,,
364.0,9.0,wc_9,wc_17,0.0,"[('wc_17', 0.7400000000000005), ('wc_9', 0.9300000000000007)]",0.9818000000000002,,,20.0,0.0038380000000000003,['Pass'],Pass,0.7400000000000005,-0.5177777777777783,2.0,9.0,0.5
364.0,9.0,wc_9,,0.0,,,,243.0,,,,Pass,,,,,
364.0,9.0,wc_9,wc_1,1.0,"[('wc_1', 0.5400000000000004), ('wc_9', 0.9300000000000007), ('wc_17', 0.7400000000000005)]",0.9916280000000001,,,31.0,0.037144,['Pass'],Pass,0.5500000000000004,0.4499999999999996,1.0,1.0,0.5
370.0,7.0,wc_7,,0.0,,,,162.0,,,,Pass,,,,,
370.0,7.0,wc_7,,0.0,,,55.0,,,,,Pass,,,,,
370.0,7.0,wc_7,,0.0,,,,0.0,,,,Pass,,,,,
370.0,7.0,wc_7,wc_7,0.0,"[('wc_7', 0.40000000000000024)]",0.40000000000000024,,,31.0,0.002802,['Pass'],Pass,0.40000000000000024,-0.40000000000000024,0.0,4.0,0.3
370.0,7.0,wc_7,,0.0,,,,202.0,,,,Pass,,,,,
370.0,7.0,wc_7,wc_2,0.0,"[('wc_7', 0.40000000000000024)]",0.40000000000000024,,,25.0,0.004059,['Pass'],Pass,0.2500000000000001,-0.2500000000000001,0.0,8.0,0.2
370.0,7.0,wc_7,,0.0,,,,162.0,,,,Pass,,,,,
370.0,7.0,wc_7,wc_8,0.0,"[('wc_8', 0.2300000000000001), ('wc_2', 0.2500000000000001)]",0.4225000000000002,,,28.0,0.0057280000000000005,['Fail'],Pass,0.2300000000000001,0.019999999999999907,1.0,4.0,0.2
370.0,7.0,wc_7,,0.0,,,,0.0,,,,Pass,,,,,
370.0,7.0,wc_7,wc_11,0.0,"[('wc_11', 0.6700000000000005), ('wc_7', 0.40000000000000024)]",0.8020000000000004,,,23.0,0.007385000000000001,['Pass'],Pass,0.6700000000000005,-0.27000000000000046,2.0,5.0,0.6
370.0,7.0,wc_7,,0.0,,,,83.0,,,,Pass,,,,,
370.0,7.0,wc_7,wc_9,1.0,"[('wc_9', 0.9400000000000007), ('wc_7', 0.40000000000000024), ('wc_11', 0.6700000000000005)]",0.9881200000000001,,,40.0,0.05770299999999999,['Pass'],Pass,0.9500000000000007,0.04999999999999927,3.0,3.0,1.0
382.0,10.0,wc_10,,0.0,,,,0.0,,,,Fail,,,,,
382.0,10.0,wc_10,,0.0,,,69.0,,,,,Fail,,,,,
382.0,10.0,wc_10,,0.0,,,,0.0,,,,Fail,,,,,
382.0,10.0,wc_10,wc_10,0.0,"[('wc_10', 0.8200000000000006)]",0.8200000000000006,,,28.0,0.002216,['Pass'],Fail,0.8200000000000006,-0.3200000000000006,3.0,6.0,0.5
382.0,10.0,wc_10,,0.0,,,,41.0,,,,Fail,,,,,
382.0,10.0,wc_10,wc_6,0.0,"[('wc_10', 0.8200000000000006)]",0.8200000000000006,,,37.0,0.00412,['Pass'],Fail,0.43000000000000027,-0.43000000000000027,0.0,7.0,0.4
382.0,10.0,wc_10,,0.0,,,,222.0,,,,Fail,,,,,
382.0,10.0,wc_10,wc_2,0.0,"[('wc_2', 0.2400000000000001), ('wc_10', 0.8200000000000006)]",0.8632000000000005,,,23.0,0.006078999999999999,['Pass'],Fail,0.2400000000000001,-0.2400000000000001,0.0,9.0,0.2
382.0,10.0,wc_10,,0.0,,,,243.0,,,,Fail,,,,,
382.0,10.0,wc_10,wc_16,0.0,"[('wc_10', 0.8200000000000006), ('wc_2', 0.2400000000000001)]",0.8632000000000005,,,37.0,0.007783,['Pass'],Fail,0.7600000000000006,-0.6350000000000006,1.0,8.0,0.8
382.0,10.0,wc_10,,0.0,,,,382.0,,,,Fail,,,,,
382.0,10.0,wc_10,wc_11,1.0,"[('wc_11', 0.6700000000000005), ('wc_10', 0.8200000000000006), ('wc_2', 0.2400000000000001)]",0.9548560000000003,,,29.0,0.039674,['Pass'],Fail,0.6700000000000005,-0.09857142857142909,4.0,7.0,0.6
390.0,10.0,wc_10,,0.0,,,,103.0,,,,Fail,,,,,
390.0,10.0,wc_10,,0.0,,,55.0,,,,,Fail,,,,,
390.0,10.0,wc_10,,0.0,,,,0.0,,,,Fail,,,,,
390.0,10.0,wc_10,wc_10,0.0,"[('wc_10', 0.8200000000000006)]",0.8200000000000006,,,37.0,0.002062,['Fail'],Fail,0.8200000000000006,-0.24857142857142922,4.0,7.0,0.5
390.0,10.0,wc_10,,0.0,,,,0.0,,,,Fail,,,,,
390.0,10.0,wc_10,wc_11,0.0,"[('wc_11', 0.6700000000000005), ('wc_10', 0.8200000000000006)]",0.9406000000000003,,,35.0,0.003939,['Fail'],Fail,0.6700000000000005,-0.09857142857142909,4.0,7.0,0.6
390.0,10.0,wc_10,,0.0,,,,162.0,,,,Fail,,,,,
390.0,10.0,wc_10,wc_17,1.0,"[('wc_17', 0.7400000000000005), ('wc_10', 0.8200000000000006), ('wc_11', 0.6700000000000005)]",0.9845560000000001,,,22.0,0.046560000000000004,['Fail'],Fail,0.7400000000000005,-0.40666666666666723,1.0,3.0,0.5
396.0,10.0,wc_10,,0.0,,,,342.0,,,,Fail,,,,,
396.0,10.0,wc_10,,0.0,,,52.0,,,,,Fail,,,,,
396.0,10.0,wc_10,,0.0,,,,0.0,,,,Fail,,,,,
396.0,10.0,wc_10,wc_10,0.0,"[('wc_10', 0.8200000000000006)]",0.8200000000000006,,,21.0,0.002367,['Fail'],Fail,0.8200000000000006,-0.19500000000000062,5.0,8.0,0.5
396.0,10.0,wc_10,,0.0,,,,223.0,,,,Fail,,,,,
396.0,10.0,wc_10,wc_1,0.0,"[('wc_1', 0.5500000000000004), ('wc_10', 0.8200000000000006)]",0.9190000000000004,,,21.0,0.004653,['Fail'],Fail,0.5500000000000004,-0.3000000000000004,1.0,4.0,0.5
396.0,10.0,wc_10,,0.0,,,,182.0,,,,Fail,,,,,
396.0,10.0,wc_10,wc_8,0.0,"[('wc_10', 0.8200000000000006), ('wc_1', 0.5500000000000004)]",0.9190000000000004,,,40.0,0.0064849999999999994,['Fail'],Fail,0.22000000000000008,-0.07714285714285724,1.0,7.0,0.2
396.0,10.0,wc_10,,0.0,,,,203.0,,,,Fail,,,,,
396.0,10.0,wc_10,wc_16,1.0,"[('wc_16', 0.7500000000000006), ('wc_10', 0.8200000000000006), ('wc_1', 0.5500000000000004)]",0.9797500000000001,,,30.0,0.045465,['Fail'],Fail,0.7500000000000006,-0.7500000000000006,0.0,0.0,0.8
405.0,10.0,wc_10,,0.0,,,,362.0,,,,Pass,,,,,
405.0,10.0,wc_10,,0.0,,,78.0,,,,,Pass,,,,,
405.0,10.0,wc_10,,0.0,,,,0.0,,,,Pass,,,,,
405.0,10.0,wc_10,wc_10,0.0,"[('wc_10', 0.8200000000000006)]",0.8200000000000006,,,35.0,0.002174,['Fail'],Pass,0.8200000000000006,-0.153333333333334,6.0,9.0,0.5
405.0,10.0,wc_10,,0.0,,,,162.0,,,,Pass,,,,,
405.0,10.0,wc_10,wc_16,0.0,"[('wc_10', 0.8200000000000006)]",0.8200000000000006,,,24.0,0.004172,['Fail'],Pass,0.7500000000000006,-0.7500000000000006,0.0,0.0,0.8
405.0,10.0,wc_10,,0.0,,,,103.0,,,,Pass,,,,,
405.0,10.0,wc_10,wc_15,0.0,"[('wc_15', 0.6400000000000005), ('wc_16', 0.7500000000000006)]",0.9100000000000004,,,28.0,0.005977,['Pass'],Pass,0.6400000000000005,-0.5288888888888894,0.0,0.0,0.6
405.0,10.0,wc_10,,0.0,,,,81.0,,,,Pass,,,,,
405.0,10.0,wc_10,wc_13,1.0,"[('wc_13', 0.7900000000000006), ('wc_16', 0.7500000000000006), ('wc_15', 0.6400000000000005)]",0.9811000000000001,,,21.0,0.048505,['Pass'],Pass,0.7900000000000006,-0.7900000000000006,0.0,0.0,0.8
411.0,12.0,wc_12,,0.0,,,,102.0,,,,Fail,,,,,
411.0,12.0,wc_12,,0.0,,,68.0,,,,,Fail,,,,,
411.0,12.0,wc_12,,0.0,,,,0.0,,,,Fail,,,,,
411.0,12.0,wc_12,wc_12,0.0,"[('wc_12', 0.6200000000000004)]",0.6200000000000004,,,26.0,0.002707,['Fail'],Fail,0.6200000000000004,-0.5088888888888894,0.0,0.0,0.6
411.0,12.0,wc_12,,0.0,,,,0.0,,,,Fail,,,,,
411.0,12.0,wc_12,wc_15,0.0,"[('wc_15', 0.6500000000000005), ('wc_12', 0.6200000000000004)]",0.8670000000000003,,,29.0,0.004732999999999999,['Fail'],Fail,0.6500000000000005,0.34999999999999953,1.0,1.0,0.6
411.0,12.0,wc_12,,0.0,,,,362.0,,,,Fail,,,,,
411.0,12.0,wc_12,wc_9,1.0,"[('wc_9', 0.9500000000000007), ('wc_12', 0.6200000000000004), ('wc_15', 0.6500000000000005)]",0.9933500000000001,,,36.0,0.050265000000000004,['Fail'],Fail,0.9500000000000007,-0.45000000000000073,4.0,8.0,1.0
417.0,12.0,wc_12,,0.0,,,,101.0,,,,Fail,,,,,
417.0,12.0,wc_12,,0.0,,,59.0,,,,,Fail,,,,,
417.0,12.0,wc_12,,0.0,,,,0.0,,,,Fail,,,,,
417.0,12.0,wc_12,wc_12,0.0,"[('wc_12', 0.6300000000000004)]",0.6300000000000004,,,22.0,0.002345,['Fail'],Fail,0.6300000000000004,0.36999999999999955,1.0,1.0,0.6
417.0,12.0,wc_12,,0.0,,,,341.0,,,,Fail,,,,,
417.0,12.0,wc_12,wc_10,0.0,"[('wc_10', 0.8100000000000006), ('wc_12', 0.6300000000000004)]",0.9297000000000003,,,25.0,0.003857,['Fail'],Fail,0.8100000000000006,-0.8100000000000006,0.0,1.0,0.5
417.0,12.0,wc_12,,0.0,,,,342.0,,,,Fail,,,,,
417.0,12.0,wc_12,wc_3,1.0,"[('wc_3', 0.5700000000000004), ('wc_12', 0.6300000000000004), ('wc_10', 0.8100000000000006)]",0.9697710000000002,,,35.0,0.04073199999999999,['Fail'],Fail,0.5700000000000004,-0.5700000000000004,0.0,0.0,0.4
426.0,12.0,wc_12,,0.0,,,,141.0,,,,Fail,,,,,
426.0,12.0,wc_12,,0.0,,,80.0,,,,,Fail,,,,,
426.0,12.0,wc_12,,0.0,,,,0.0,,,,Fail,,,,,
426.0,12.0,wc_12,wc_12,0.0,"[('wc_12', 0.6400000000000005)]",0.6400000000000005,,,29.0,0.002317,['Pass'],Fail,0.6400000000000005,0.35999999999999954,2.0,2.0,0.6
426.0,12.0,wc_12,,0.0,,,,341.0,,,,Fail,,,,,
426.0,12.0,wc_12,wc_10,0.0,"[('wc_10', 0.8100000000000006), ('wc_12', 0.6400000000000005)]",0.9316000000000003,,,26.0,0.003995,['Pass'],Fail,0.8100000000000006,-0.3100000000000006,1.0,2.0,0.5
426.0,12.0,wc_12,,0.0,,,,101.0,,,,Fail,,,,,
426.0,12.0,wc_12,wc_13,0.0,"[('wc_12', 0.6400000000000005), ('wc_10', 0.8100000000000006)]",0.9316000000000003,,,33.0,0.006212,['Pass'],Fail,0.7900000000000006,-0.7900000000000006,0.0,2.0,0.8
426.0,12.0,wc_12,,0.0,,,,341.0,,,,Fail,,,,,
426.0,12.0,wc_12,wc_11,0.0,"[('wc_12', 0.6400000000000005), ('wc_10', 0.8100000000000006)]",0.9316000000000003,,,32.0,0.008126000000000001,['Pass'],Fail,0.6700000000000005,-0.2533333333333338,0.0,0.0,0.6
426.0,12.0,wc_12,,0.0,,,,41.0,,,,Fail,,,,,
426.0,12.0,wc_12,wc_7,1.0,"[('wc_7', 0.40000000000000024), ('wc_12', 0.6400000000000005), ('wc_10', 0.8100000000000006)]",0.9589600000000003,,,30.0,0.042435,['Pass'],Fail,0.40000000000000024,-0.40000000000000024,0.0,0.0,0.3
451.0,12.0,wc_12,,0.0,,,,142.0,,,,Pass,,,,,
451.0,12.0,wc_12,,0.0,,,74.0,,,,,Pass,,,,,
451.0,12.0,wc_12,,0.0,,,,0.0,,,,Pass,,,,,
451.0,12.0,wc_12,wc_12,0.0,"[('wc_12', 0.6500000000000005)]",0.6500000000000005,,,37.0,0.002214,['Fail'],Pass,0.6500000000000005,0.34999999999999953,3.0,3.0,0.6
451.0,12.0,wc_12,,0.0,,,,222.0,,,,Pass,,,,,
451.0,12.0,wc_12,wc_8,0.0,"[('wc_8', 0.21000000000000008), ('wc_12', 0.6500000000000005)]",0.7235000000000005,,,39.0,0.004141,['Fail'],Pass,0.21000000000000008,-0.12666666666666676,0.0,0.0,0.2
451.0,12.0,wc_12,,0.0,,,,281.0,,,,Pass,,,,,
451.0,12.0,wc_12,wc_3,0.0,"[('wc_12', 0.6500000000000005), ('wc_8', 0.21000000000000008)]",0.7235000000000005,,,34.0,0.006307,['Fail'],Pass,0.5700000000000004,-0.5700000000000004,0.0,1.0,0.4
451.0,12.0,wc_12,,0.0,,,,181.0,,,,Pass,,,,,
451.0,12.0,wc_12,wc_14,0.0,"[('wc_14', 0.8200000000000006), ('wc_3', 0.5700000000000004)]",0.9226000000000003,,,32.0,0.009002999999999999,['Pass'],Pass,0.8200000000000006,-0.7147368421052638,0.0,0.0,1.0
451.0,12.0,wc_12,,0.0,,,,202.0,,,,Pass,,,,,
451.0,12.0,wc_12,wc_1,1.0,"[('wc_1', 0.5500000000000004), ('wc_3', 0.5700000000000004), ('wc_14', 0.8200000000000006)]",0.9651700000000002,,,24.0,0.044016000000000007,['Pass'],Pass,0.5500000000000004,-0.5500000000000004,0.0,0.0,0.5
464.0,13.0,wc_13,,0.0,,,,202.0,,,,Pass,,,,,
464.0,13.0,wc_13,,0.0,,,57.0,,,,,Pass,,,,,
464.0,13.0,wc_13,,0.0,,,,0.0,,,,Pass,,,,,
464.0,13.0,wc_13,wc_13,0.0,"[('wc_13', 0.7800000000000006)]",0.7800000000000006,,,26.0,0.002059,['Pass'],Pass,0.7800000000000006,-0.7800000000000006,0.0,4.0,0.8
464.0,13.0,wc_13,,0.0,,,,341.0,,,,Pass,,,,,
464.0,13.0,wc_13,wc_11,0.0,"[('wc_13', 0.7800000000000006)]",0.7800000000000006,,,27.0,0.003991,['Pass'],Pass,0.6600000000000005,-0.6600000000000005,0.0,2.0,0.6
464.0,13.0,wc_13,,0.0,,,,103.0,,,,Pass,,,,,
464.0,13.0,wc_13,wc_10,0.0,"[('wc_10', 0.8100000000000006), ('wc_13', 0.7800000000000006)]",0.9582000000000003,,,30.0,0.006364999999999999,['Pass'],Pass,0.8100000000000006,-0.3100000000000006,2.0,4.0,0.5
464.0,13.0,wc_13,,0.0,,,,162.0,,,,Pass,,,,,
464.0,13.0,wc_13,wc_16,1.0,"[('wc_16', 0.7600000000000006), ('wc_13', 0.7800000000000006), ('wc_10', 0.8100000000000006)]",0.9899680000000001,,,38.0,0.04989500000000001,['Pass'],Pass,0.7600000000000006,-0.42666666666666725,2.0,6.0,0.8
474.0,15.0,wc_15,,0.0,,,,103.0,,,,Fail,,,,,
474.0,15.0,wc_15,,0.0,,,61.0,,,,,Fail,,,,,
474.0,15.0,wc_15,,0.0,,,,0.0,,,,Fail,,,,,
474.0,15.0,wc_15,wc_15,0.0,"[('wc_15', 0.6600000000000005)]",0.6600000000000005,,,36.0,0.002049,['Fail'],Fail,0.6600000000000005,-0.32666666666666716,2.0,6.0,0.6
474.0,15.0,wc_15,,0.0,,,,362.0,,,,Fail,,,,,
474.0,15.0,wc_15,wc_9,0.0,"[('wc_9', 0.9500000000000007), ('wc_15', 0.6600000000000005)]",0.9830000000000003,,,40.0,0.003978,['Fail'],Fail,0.9500000000000007,-0.6166666666666674,0.0,0.0,1.0
474.0,15.0,wc_15,,0.0,,,,263.0,,,,Fail,,,,,
474.0,15.0,wc_15,wc_2,1.0,"[('wc_2', 0.2400000000000001), ('wc_15', 0.6600000000000005), ('wc_9', 0.9500000000000007)]",0.9870800000000002,,,26.0,0.04157199999999999,['Fail'],Fail,0.2400000000000001,-0.128888888888889,1.0,9.0,0.2
484.0,16.0,wc_16,,0.0,,,,243.0,,,,Pass,,,,,
484.0,16.0,wc_16,,0.0,,,69.0,,,,,Pass,,,,,
484.0,16.0,wc_16,,0.0,,,,0.0,,,,Pass,,,,,
484.0,16.0,wc_16,wc_16,0.0,"[('wc_16', 0.7600000000000006)]",0.7600000000000006,,,25.0,0.002477,['Pass'],Pass,0.7600000000000006,-0.47428571428571487,2.0,7.0,0.8
484.0,16.0,wc_16,,0.0,,,,41.0,,,,Pass,,,,,
484.0,16.0,wc_16,wc_12,0.0,"[('wc_12', 0.6500000000000005), ('wc_16', 0.7600000000000006)]",0.9160000000000004,,,36.0,0.004947,['Pass'],Pass,0.6500000000000005,-0.15000000000000047,3.0,6.0,0.6
484.0,16.0,wc_16,,0.0,,,,341.0,,,,Pass,,,,,
484.0,16.0,wc_16,wc_10,1.0,"[('wc_10', 0.8100000000000006), ('wc_16', 0.7600000000000006), ('wc_12', 0.6500000000000005)]",0.9840400000000001,,,29.0,0.05122299999999999,['Pass'],Pass,0.8100000000000006,-0.2385714285714292,4.0,7.0,0.5
495.0,14.0,wc_14,,0.0,,,,121.0,,,,Fail,,,,,
495.0,14.0,wc_14,,0.0,,,74.0,,,,,Fail,,,,,
495.0,14.0,wc_14,,0.0,,,,0.0,,,,Fail,,,,,
495.0,14.0,wc_14,wc_14,0.0,"[('wc_14', 0.8300000000000006)]",0.8300000000000006,,,34.0,0.002289,['Fail'],Fail,0.8300000000000006,-0.5800000000000006,1.0,4.0,1.0
495.0,14.0,wc_14,,0.0,,,,82.0,,,,Fail,,,,,
495.0,14.0,wc_14,wc_12,0.0,"[('wc_12', 0.6500000000000005), ('wc_14', 0.8300000000000006)]",0.9405000000000003,,,30.0,0.003974,['Fail'],Fail,0.6500000000000005,-0.07857142857142907,4.0,7.0,0.6
495.0,14.0,wc_14,,0.0,,,,0.0,,,,Fail,,,,,
495.0,14.0,wc_14,wc_16,1.0,"[('wc_16', 0.7600000000000006), ('wc_14', 0.8300000000000006), ('wc_12', 0.6500000000000005)]",0.9857200000000002,,,27.0,0.041026999999999994,['Fail'],Fail,0.7600000000000006,-0.31555555555555614,4.0,9.0,0.8
507.0,14.0,wc_14,,0.0,,,,81.0,,,,Fail,,,,,
507.0,14.0,wc_14,,0.0,,,70.0,,,,,Fail,,,,,
507.0,14.0,wc_14,,0.0,,,,0.0,,,,Fail,,,,,
507.0,14.0,wc_14,wc_14,0.0,"[('wc_14', 0.8300000000000006)]",0.8300000000000006,,,20.0,0.002253,['Fail'],Fail,0.8300000000000006,-0.4300000000000006,2.0,5.0,1.0
507.0,14.0,wc_14,,0.0,,,,301.0,,,,Fail,,,,,
507.0,14.0,wc_14,wc_10,0.0,"[('wc_10', 0.8100000000000006), ('wc_14', 0.8300000000000006)]",0.9677000000000002,,,25.0,0.004331,['Fail'],Fail,0.8100000000000006,-0.3100000000000006,4.0,8.0,0.5
507.0,14.0,wc_14,,0.0,,,,0.0,,,,Fail,,,,,
507.0,14.0,wc_14,wc_11,1.0,"[('wc_11', 0.6500000000000005), ('wc_14', 0.8300000000000006), ('wc_10', 0.8100000000000006)]",0.9886950000000001,,,24.0,0.039048,['Fail'],Fail,0.6500000000000005,-0.5071428571428576,1.0,7.0,0.6
519.0,15.0,wc_15,,0.0,,,,122.0,,,,Pass,,,,,
519.0,15.0,wc_15,,0.0,,,79.0,,,,,Pass,,,,,
519.0,15.0,wc_15,,0.0,,,,0.0,,,,Pass,,,,,
519.0,15.0,wc_15,wc_15,0.0,"[('wc_15', 0.6600000000000005)]",0.6600000000000005,,,25.0,0.002412,['Pass'],Pass,0.6600000000000005,-0.3600000000000005,0.0,0.0,0.6
519.0,15.0,wc_15,,0.0,,,,0.0,,,,Pass,,,,,
519.0,15.0,wc_15,wc_16,0.0,"[('wc_16', 0.7600000000000006), ('wc_15', 0.6600000000000005)]",0.9184000000000003,,,24.0,0.003881,['Pass'],Pass,0.7600000000000006,-0.36000000000000054,0.0,0.0,0.8
519.0,15.0,wc_15,,0.0,,,,382.0,,,,Pass,,,,,
519.0,15.0,wc_15,wc_11,1.0,"[('wc_11', 0.6500000000000005), ('wc_15', 0.6600000000000005), ('wc_16', 0.7600000000000006)]",0.9714400000000002,,,37.0,0.04135,['Pass'],Pass,0.6500000000000005,-0.40000000000000047,2.0,8.0,0.6
528.0,14.0,wc_14,,0.0,,,,101.0,,,,Fail,,,,,
528.0,14.0,wc_14,,0.0,,,63.0,,,,,Fail,,,,,
528.0,14.0,wc_14,,0.0,,,,0.0,,,,Fail,,,,,
528.0,14.0,wc_14,wc_14,0.0,"[('wc_14', 0.8300000000000006)]",0.8300000000000006,,,40.0,0.003486,['Fail'],Fail,0.8300000000000006,-0.4014285714285721,3.0,7.0,1.0
528.0,14.0,wc_14,,0.0,,,,162.0,,,,Fail,,,,,
528.0,14.0,wc_14,wc_7,0.0,"[('wc_14', 0.8300000000000006)]",0.8300000000000006,,,32.0,0.004474,['Fail'],Fail,0.40000000000000024,-0.40000000000000024,0.0,7.0,0.3
528.0,14.0,wc_14,,0.0,,,,102.0,,,,Fail,,,,,
528.0,14.0,wc_14,wc_6,0.0,"[('wc_6', 0.42000000000000026), ('wc_14', 0.8300000000000006)]",0.9014000000000004,,,26.0,0.005945000000000001,['Fail'],Fail,0.42000000000000026,-0.42000000000000026,0.0,0.0,0.4
528.0,14.0,wc_14,,0.0,,,,222.0,,,,Fail,,,,,
528.0,14.0,wc_14,wc_2,0.0,"[('wc_14', 0.8300000000000006), ('wc_6', 0.42000000000000026)]",0.9014000000000004,,,36.0,0.007187000000000001,['Fail'],Fail,0.2400000000000001,-0.16307692307692317,0.0,0.0,0.2
528.0,14.0,wc_14,,0.0,,,,183.0,,,,Fail,,,,,
528.0,14.0,wc_14,wc_9,1.0,"[('wc_9', 0.9600000000000007), ('wc_14', 0.8300000000000006), ('wc_6', 0.42000000000000026)]",0.996056,,,40.0,0.06423899999999999,['Fail'],Fail,0.9600000000000007,-0.6266666666666674,2.0,6.0,1.0
534.0,14.0,wc_14,,0.0,,,,141.0,,,,Pass,,,,,
534.0,14.0,wc_14,,0.0,,,53.0,,,,,Pass,,,,,
534.0,14.0,wc_14,,0.0,,,,0.0,,,,Pass,,,,,
534.0,14.0,wc_14,wc_14,0.0,"[('wc_14', 0.8300000000000006)]",0.8300000000000006,,,28.0,0.002177,['Pass'],Pass,0.8300000000000006,-0.3300000000000006,4.0,8.0,1.0
534.0,14.0,wc_14,,0.0,,,,0.0,,,,Pass,,,,,
534.0,14.0,wc_14,wc_16,0.0,"[('wc_16', 0.7700000000000006), ('wc_14', 0.8300000000000006)]",0.9609000000000002,,,29.0,0.004078,['Pass'],Pass,0.7700000000000006,-0.2700000000000006,1.0,2.0,0.8
534.0,14.0,wc_14,,0.0,,,,283.0,,,,Pass,,,,,
534.0,14.0,wc_14,wc_2,0.0,"[('wc_14', 0.8300000000000006), ('wc_16', 0.7700000000000006)]",0.9609000000000002,,,23.0,0.006152,['Pass'],Pass,0.2300000000000001,-0.2300000000000001,0.0,1.0,0.2
534.0,14.0,wc_14,,0.0,,,,263.0,,,,Pass,,,,,
534.0,14.0,wc_14,wc_17,1.0,"[('wc_17', 0.7400000000000005), ('wc_14', 0.8300000000000006), ('wc_16', 0.7700000000000006)]",0.9898340000000001,,,26.0,0.051121,['Pass'],Pass,0.7400000000000005,-0.7400000000000005,0.0,0.0,0.5
542.0,17.0,wc_17,,0.0,,,,0.0,,,,Pass,,,,,
542.0,17.0,wc_17,,0.0,,,53.0,,,,,Pass,,,,,
542.0,17.0,wc_17,,0.0,,,,0.0,,,,Pass,,,,,
542.0,17.0,wc_17,wc_17,0.0,"[('wc_17', 0.7400000000000005)]",0.7400000000000005,,,39.0,0.005126,['Fail'],Pass,0.7400000000000005,-0.7400000000000005,0.0,0.0,0.5
542.0,17.0,wc_17,,0.0,,,,203.0,,,,Pass,,,,,
542.0,17.0,wc_17,wc_7,0.0,"[('wc_17', 0.7400000000000005)]",0.7400000000000005,,,21.0,0.005679,['Fail'],Pass,0.39000000000000024,-0.39000000000000024,0.0,9.0,0.3
542.0,17.0,wc_17,,0.0,,,,0.0,,,,Pass,,,,,
542.0,17.0,wc_17,wc_10,0.0,"[('wc_10', 0.8100000000000006), ('wc_17', 0.7400000000000005)]",0.9506000000000002,,,33.0,0.008553999999999999,['Fail'],Pass,0.8100000000000006,-0.3933333333333339,0.0,0.0,0.5
542.0,17.0,wc_17,,0.0,,,,223.0,,,,Pass,,,,,
542.0,17.0,wc_17,wc_1,1.0,"[('wc_1', 0.5500000000000004), ('wc_17', 0.7400000000000005), ('wc_10', 0.8100000000000006)]",0.9777700000000001,,,24.0,0.053197,['Fail'],Pass,0.5500000000000004,-0.4388888888888893,1.0,9.0,0.5
