mpecck/BCQC/bcqc_with_qdt/results/raw/input_8/independent_qc/training/20_workpiece/20200429_084420/wp_18_qc_majority_0.9.csv
production_index,step_idx,production_workcell,qc,consent,winner_qc_list,score,production_time,transport_time,inspection_time,network_time,qc_results,actual_quality,qc_score,score_error,in_winner_counter,in_qc_counter,qc_capability
77.0,1.0,wc_1,,0.0,,,68.0,,,,,Pass,,,,,
77.0,1.0,wc_1,,0.0,,,,0.0,,,,Pass,,,,,
77.0,1.0,wc_1,wc_1,0.0,"[('wc_1', 0.5500000000000004)]",0.5500000000000004,,,40.0,0.002178,['Pass'],Pass,0.5500000000000004,-0.4388888888888893,1.0,9.0,0.5
77.0,1.0,wc_1,,0.0,,,,243.0,,,,Pass,,,,,
77.0,1.0,wc_1,wc_15,0.0,"[('wc_15', 0.6700000000000005), ('wc_1', 0.5500000000000004)]",0.8515000000000004,,,30.0,0.012459,['Pass'],Pass,0.6700000000000005,-0.4200000000000005,1.0,4.0,0.6
77.0,1.0,wc_1,,0.0,,,,61.0,,,,Pass,,,,,
77.0,1.0,wc_1,wc_12,1.0,"[('wc_12', 0.6500000000000005), ('wc_1', 0.5500000000000004), ('wc_15', 0.6700000000000005)]",0.9480250000000002,,,34.0,0.033948000000000006,['Pass'],Pass,0.6500000000000005,-0.6500000000000005,0.0,0.0,0.6
89.0,3.0,wc_3,,0.0,,,,361.0,,,,Pass,,,,,
89.0,3.0,wc_3,,0.0,,,70.0,,,,,Pass,,,,,
89.0,3.0,wc_3,,0.0,,,,0.0,,,,Pass,,,,,
89.0,3.0,wc_3,wc_3,0.0,"[('wc_3', 0.5700000000000004)]",0.5700000000000004,,,28.0,0.002291,['Fail'],Pass,0.5700000000000004,-0.4866666666666671,0.0,0.0,0.4
89.0,3.0,wc_3,,0.0,,,,141.0,,,,Pass,,,,,
89.0,3.0,wc_3,wc_12,0.0,"[('wc_12', 0.6500000000000005)]",0.6500000000000005,,,32.0,0.00383,['Pass'],Pass,0.6500000000000005,-0.6500000000000005,0.0,0.0,0.6
89.0,3.0,wc_3,,0.0,,,,0.0,,,,Pass,,,,,
89.0,3.0,wc_3,wc_14,0.0,"[('wc_14', 0.8300000000000006), ('wc_12', 0.6500000000000005)]",0.9405000000000003,,,20.0,0.005829,['Pass'],Pass,0.8300000000000006,-0.3754545454545461,0.0,0.0,1.0
89.0,3.0,wc_3,,0.0,,,,341.0,,,,Pass,,,,,
89.0,3.0,wc_3,wc_4,1.0,"[('wc_4', 0.6400000000000005), ('wc_12', 0.6500000000000005), ('wc_14', 0.8300000000000006)]",0.9785800000000001,,,32.0,0.040833,['Pass'],Pass,0.6400000000000005,-0.6400000000000005,0.0,0.0,0.6
103.0,2.0,wc_2,,0.0,,,,81.0,,,,Pass,,,,,
103.0,2.0,wc_2,,0.0,,,75.0,,,,,Pass,,,,,
103.0,2.0,wc_2,,0.0,,,,0.0,,,,Pass,,,,,
103.0,2.0,wc_2,wc_2,0.0,"[('wc_2', 0.22000000000000008)]",0.22000000000000008,,,32.0,0.002124,['Fail'],Pass,0.22000000000000008,-0.22000000000000008,0.0,5.0,0.2
103.0,2.0,wc_2,,0.0,,,,182.0,,,,Pass,,,,,
103.0,2.0,wc_2,wc_13,0.0,"[('wc_13', 0.7800000000000006)]",0.7800000000000006,,,24.0,0.003796,['Pass'],Pass,0.7800000000000006,-0.7133333333333339,0.0,0.0,0.8
103.0,2.0,wc_2,,0.0,,,,0.0,,,,Pass,,,,,
103.0,2.0,wc_2,wc_17,0.0,"[('wc_17', 0.7500000000000006), ('wc_13', 0.7800000000000006)]",0.9450000000000003,,,23.0,0.006155,['Pass'],Pass,0.7500000000000006,-0.41666666666666724,1.0,3.0,0.5
103.0,2.0,wc_2,,0.0,,,,322.0,,,,Pass,,,,,
103.0,2.0,wc_2,wc_9,1.0,"[('wc_9', 0.9600000000000007), ('wc_13', 0.7800000000000006), ('wc_17', 0.7500000000000006)]",0.9978,,,22.0,0.038329999999999996,['Pass'],Pass,0.9600000000000007,-0.9600000000000007,0.0,0.0,1.0
113.0,4.0,wc_4,,0.0,,,,382.0,,,,Pass,,,,,
113.0,4.0,wc_4,,0.0,,,65.0,,,,,Pass,,,,,
113.0,4.0,wc_4,,0.0,,,,0.0,,,,Pass,,,,,
113.0,4.0,wc_4,wc_4,0.0,"[('wc_4', 0.6400000000000005)]",0.6400000000000005,,,26.0,0.002296,['Fail'],Pass,0.6400000000000005,-0.6400000000000005,0.0,1.0,0.6
113.0,4.0,wc_4,,0.0,,,,222.0,,,,Pass,,,,,
113.0,4.0,wc_4,wc_17,0.0,"[('wc_17', 0.7500000000000006)]",0.7500000000000006,,,37.0,0.003979,['Pass'],Pass,0.7500000000000006,-0.25000000000000056,2.0,4.0,0.5
113.0,4.0,wc_4,,0.0,,,,362.0,,,,Pass,,,,,
113.0,4.0,wc_4,wc_3,0.0,"[('wc_3', 0.5600000000000004), ('wc_4', 0.6400000000000005)]",0.8416000000000003,,,40.0,0.005998,['Fail'],Pass,0.5600000000000004,-0.5600000000000004,0.0,2.0,0.4
113.0,4.0,wc_4,,0.0,,,,222.0,,,,Pass,,,,,
113.0,4.0,wc_4,wc_16,1.0,"[('wc_16', 0.7700000000000006), ('wc_4', 0.6400000000000005), ('wc_3', 0.5600000000000004)]",0.9635680000000002,,,37.0,0.039418999999999996,['Fail'],Pass,0.7700000000000006,-0.3950000000000006,3.0,8.0,0.8
174.0,4.0,wc_4,,0.0,,,,402.0,,,,Pass,,,,,
174.0,4.0,wc_4,,0.0,,,67.0,,,,,Pass,,,,,
174.0,4.0,wc_4,,0.0,,,,0.0,,,,Pass,,,,,
174.0,4.0,wc_4,wc_4,0.0,"[('wc_4', 0.6400000000000005)]",0.6400000000000005,,,40.0,0.002101,['Pass'],Pass,0.6400000000000005,-0.14000000000000046,1.0,2.0,0.6
174.0,4.0,wc_4,,0.0,,,,61.0,,,,Pass,,,,,
174.0,4.0,wc_4,wc_1,0.0,"[('wc_1', 0.5500000000000004), ('wc_4', 0.6400000000000005)]",0.8380000000000003,,,34.0,0.003919000000000001,['Pass'],Pass,0.5500000000000004,-0.5500000000000004,0.0,3.0,0.5
174.0,4.0,wc_4,,0.0,,,,142.0,,,,Pass,,,,,
174.0,4.0,wc_4,wc_6,1.0,"[('wc_6', 0.43000000000000027), ('wc_4', 0.6400000000000005), ('wc_1', 0.5500000000000004)]",0.9076600000000002,,,27.0,0.03743299999999999,['Pass'],Pass,0.43000000000000027,-0.18000000000000027,2.0,8.0,0.4
181.0,5.0,wc_5,,0.0,,,,361.0,,,,Pass,,,,,
181.0,5.0,wc_5,,0.0,,,57.0,,,,,Pass,,,,,
181.0,5.0,wc_5,,0.0,,,,0.0,,,,Pass,,,,,
181.0,5.0,wc_5,wc_5,0.0,"[('wc_5', 0.27000000000000013)]",0.27000000000000013,,,38.0,0.002282,['Pass'],Pass,0.27000000000000013,-0.23875000000000013,0.0,0.0,0.2
181.0,5.0,wc_5,,0.0,,,,101.0,,,,Pass,,,,,
181.0,5.0,wc_5,wc_12,0.0,"[('wc_12', 0.6600000000000005), ('wc_5', 0.27000000000000013)]",0.7518000000000004,,,23.0,0.00421,['Pass'],Pass,0.6600000000000005,-0.4100000000000005,1.0,4.0,0.6
181.0,5.0,wc_5,,0.0,,,,361.0,,,,Pass,,,,,
181.0,5.0,wc_5,wc_11,1.0,"[('wc_11', 0.6500000000000005), ('wc_5', 0.27000000000000013), ('wc_12', 0.6600000000000005)]",0.9131300000000002,,,29.0,0.036643,['Pass'],Pass,0.6500000000000005,-0.6500000000000005,0.0,0.0,0.6
189.0,6.0,wc_6,,0.0,,,,21.0,,,,Pass,,,,,
189.0,6.0,wc_6,,0.0,,,56.0,,,,,Pass,,,,,
189.0,6.0,wc_6,,0.0,,,,0.0,,,,Pass,,,,,
189.0,6.0,wc_6,wc_6,0.0,"[('wc_6', 0.43000000000000027)]",0.43000000000000027,,,22.0,0.002334,['Fail'],Pass,0.43000000000000027,-0.20777777777777806,2.0,9.0,0.4
189.0,6.0,wc_6,,0.0,,,,0.0,,,,Pass,,,,,
189.0,6.0,wc_6,wc_10,0.0,"[('wc_10', 0.8200000000000006)]",0.8200000000000006,,,33.0,0.004163,['Pass'],Pass,0.8200000000000006,-0.6771428571428577,1.0,7.0,0.5
189.0,6.0,wc_6,,0.0,,,,382.0,,,,Pass,,,,,
189.0,6.0,wc_6,wc_5,0.0,"[('wc_5', 0.28000000000000014), ('wc_10', 0.8200000000000006)]",0.8704000000000005,,,24.0,0.005974999999999999,['Pass'],Pass,0.28000000000000014,0.7199999999999999,1.0,1.0,0.2
189.0,6.0,wc_6,,0.0,,,,141.0,,,,Pass,,,,,
189.0,6.0,wc_6,wc_14,1.0,"[('wc_14', 0.8400000000000006), ('wc_10', 0.8200000000000006), ('wc_5', 0.28000000000000014)]",0.9792640000000001,,,36.0,0.036879999999999996,['Pass'],Pass,0.8400000000000006,-0.5066666666666673,2.0,6.0,1.0
198.0,11.0,wc_11,,0.0,,,,321.0,,,,Fail,,,,,
198.0,11.0,wc_11,,0.0,,,69.0,,,,,Fail,,,,,
198.0,11.0,wc_11,,0.0,,,,0.0,,,,Fail,,,,,
198.0,11.0,wc_11,wc_11,0.0,"[('wc_11', 0.6500000000000005)]",0.6500000000000005,,,34.0,0.002237,['Fail'],Fail,0.6500000000000005,-0.6500000000000005,0.0,1.0,0.6
198.0,11.0,wc_11,,0.0,,,,142.0,,,,Fail,,,,,
198.0,11.0,wc_11,wc_16,0.0,"[('wc_16', 0.7700000000000006), ('wc_11', 0.6500000000000005)]",0.9195000000000003,,,21.0,0.004228,['Fail'],Fail,0.7700000000000006,-0.49727272727272787,0.0,0.0,0.8
198.0,11.0,wc_11,,0.0,,,,103.0,,,,Fail,,,,,
198.0,11.0,wc_11,wc_15,0.0,"[('wc_11', 0.6500000000000005), ('wc_16', 0.7700000000000006)]",0.9195000000000003,,,38.0,0.005835,['Fail'],Fail,0.6700000000000005,-0.48818181818181866,0.0,0.0,0.6
198.0,11.0,wc_11,,0.0,,,,81.0,,,,Fail,,,,,
198.0,11.0,wc_11,wc_13,1.0,"[('wc_13', 0.7900000000000006), ('wc_11', 0.6500000000000005), ('wc_16', 0.7700000000000006)]",0.9830950000000002,,,29.0,0.041084,['Fail'],Fail,0.7900000000000006,-0.4566666666666673,2.0,6.0,0.8
207.0,11.0,wc_11,,0.0,,,,341.0,,,,Pass,,,,,
207.0,11.0,wc_11,,0.0,,,58.0,,,,,Pass,,,,,
207.0,11.0,wc_11,,0.0,,,,0.0,,,,Pass,,,,,
207.0,11.0,wc_11,wc_11,0.0,"[('wc_11', 0.6500000000000005)]",0.6500000000000005,,,30.0,0.002247,['Pass'],Pass,0.6500000000000005,-0.15000000000000047,1.0,2.0,0.6
207.0,11.0,wc_11,,0.0,,,,223.0,,,,Pass,,,,,
207.0,11.0,wc_11,wc_2,0.0,"[('wc_2', 0.21000000000000008), ('wc_11', 0.6500000000000005)]",0.7235000000000005,,,25.0,0.003947,['Pass'],Pass,0.21000000000000008,-0.21000000000000008,0.0,0.0,0.2
207.0,11.0,wc_11,,0.0,,,,0.0,,,,Pass,,,,,
207.0,11.0,wc_11,wc_4,0.0,"[('wc_11', 0.6500000000000005), ('wc_2', 0.21000000000000008)]",0.7235000000000005,,,36.0,0.0064410000000000005,['Pass'],Pass,0.6500000000000005,-0.31666666666666715,2.0,6.0,0.6
207.0,11.0,wc_11,,0.0,,,,121.0,,,,Pass,,,,,
207.0,11.0,wc_11,wc_8,0.0,"[('wc_8', 0.20000000000000007), ('wc_11', 0.6500000000000005), ('wc_2', 0.21000000000000008)]",0.7788000000000004,,,31.0,0.008414,['Pass'],Pass,0.20000000000000007,-0.20000000000000007,0.0,0.0,0.2
207.0,11.0,wc_11,,0.0,,,,162.0,,,,Pass,,,,,
207.0,11.0,wc_11,wc_1,0.0,"[('wc_1', 0.5500000000000004), ('wc_4', 0.6500000000000005)]",0.8425000000000004,,,23.0,0.010236,['Fail'],Pass,0.5500000000000004,-0.40714285714285753,1.0,7.0,0.5
207.0,11.0,wc_11,,0.0,,,,263.0,,,,Pass,,,,,
207.0,11.0,wc_11,wc_16,1.0,"[('wc_16', 0.7800000000000006), ('wc_11', 0.6500000000000005), ('wc_2', 0.21000000000000008), ('wc_8', 0.20000000000000007)]",0.9513360000000002,,,27.0,0.041649,['Pass'],Pass,0.7900000000000006,0.2099999999999994,2.0,2.0,0.8
214.0,7.0,wc_7,,0.0,,,,223.0,,,,Fail,,,,,
214.0,7.0,wc_7,,0.0,,,56.0,,,,,Fail,,,,,
214.0,7.0,wc_7,,0.0,,,,0.0,,,,Fail,,,,,
214.0,7.0,wc_7,wc_7,0.0,"[('wc_7', 0.3800000000000002)]",0.3800000000000002,,,31.0,0.002032,['Pass'],Fail,0.3800000000000002,-0.3800000000000002,0.0,9.0,0.3
214.0,7.0,wc_7,,0.0,,,,182.0,,,,Fail,,,,,
214.0,7.0,wc_7,wc_14,0.0,"[('wc_14', 0.8400000000000006), ('wc_7', 0.3800000000000002)]",0.9008000000000005,,,26.0,0.004252000000000001,['Pass'],Fail,0.8400000000000006,-0.5900000000000006,2.0,8.0,1.0
214.0,7.0,wc_7,,0.0,,,,301.0,,,,Fail,,,,,
214.0,7.0,wc_7,wc_10,1.0,"[('wc_10', 0.8200000000000006), ('wc_7', 0.3800000000000002), ('wc_14', 0.8400000000000006)]",0.9821440000000001,,,27.0,0.03815099999999999,['Pass'],Fail,0.8200000000000006,-0.8200000000000006,0.0,0.0,0.5
223.0,9.0,wc_9,,0.0,,,,103.0,,,,Fail,,,,,
223.0,9.0,wc_9,,0.0,,,53.0,,,,,Fail,,,,,
223.0,9.0,wc_9,,0.0,,,,0.0,,,,Fail,,,,,
223.0,9.0,wc_9,wc_9,0.0,"[('wc_9', 0.9600000000000007)]",0.9600000000000007,,,29.0,0.002105,['Fail'],Fail,0.9600000000000007,-0.9600000000000007,0.0,7.0,1.0
223.0,9.0,wc_9,,0.0,,,,81.0,,,,Fail,,,,,
223.0,9.0,wc_9,wc_7,0.0,"[('wc_9', 0.9600000000000007)]",0.9600000000000007,,,21.0,0.003781,['Fail'],Fail,0.3800000000000002,-0.3800000000000002,0.0,0.0,0.3
223.0,9.0,wc_9,,0.0,,,,142.0,,,,Fail,,,,,
223.0,9.0,wc_9,wc_12,0.0,"[('wc_12', 0.6600000000000005), ('wc_9', 0.9600000000000007)]",0.9864000000000003,,,29.0,0.006285000000000001,['Fail'],Fail,0.6600000000000005,-0.43777777777777827,2.0,9.0,0.6
223.0,9.0,wc_9,,0.0,,,,0.0,,,,Fail,,,,,
223.0,9.0,wc_9,wc_15,1.0,"[('wc_15', 0.6600000000000005), ('wc_9', 0.9600000000000007), ('wc_12', 0.6600000000000005)]",0.9953760000000001,,,36.0,0.042910000000000004,['Fail'],Fail,0.6600000000000005,-0.4100000000000005,1.0,4.0,0.6
233.0,9.0,wc_9,,0.0,,,,362.0,,,,Fail,,,,,
233.0,9.0,wc_9,,0.0,,,68.0,,,,,Fail,,,,,
233.0,9.0,wc_9,,0.0,,,,0.0,,,,Fail,,,,,
233.0,9.0,wc_9,wc_9,0.0,"[('wc_9', 0.9600000000000007)]",0.9600000000000007,,,34.0,0.002195,['Fail'],Fail,0.9600000000000007,-0.8350000000000007,1.0,8.0,1.0
233.0,9.0,wc_9,,0.0,,,,243.0,,,,Fail,,,,,
233.0,9.0,wc_9,wc_1,0.0,"[('wc_1', 0.5400000000000004), ('wc_9', 0.9600000000000007)]",0.9816000000000004,,,36.0,0.0042769999999999996,['Fail'],Fail,0.5400000000000004,-0.4400000000000004,0.0,0.0,0.5
233.0,9.0,wc_9,,0.0,,,,0.0,,,,Fail,,,,,
233.0,9.0,wc_9,wc_4,1.0,"[('wc_4', 0.6400000000000005), ('wc_9', 0.9600000000000007), ('wc_1', 0.5400000000000004)]",0.9933760000000001,,,28.0,0.035236,['Fail'],Fail,0.6400000000000005,-0.6400000000000005,0.0,0.0,0.6
242.0,10.0,wc_10,,0.0,,,,162.0,,,,Pass,,,,,
242.0,10.0,wc_10,,0.0,,,52.0,,,,,Pass,,,,,
242.0,10.0,wc_10,,0.0,,,,0.0,,,,Pass,,,,,
242.0,10.0,wc_10,wc_10,0.0,"[('wc_10', 0.8200000000000006)]",0.8200000000000006,,,22.0,0.002143,['Pass'],Pass,0.8200000000000006,-0.8200000000000006,0.0,2.0,0.5
242.0,10.0,wc_10,,0.0,,,,342.0,,,,Pass,,,,,
242.0,10.0,wc_10,wc_3,0.0,"[('wc_10', 0.8200000000000006)]",0.8200000000000006,,,36.0,0.004304,['Pass'],Pass,0.5600000000000004,-0.46909090909090945,0.0,0.0,0.4
242.0,10.0,wc_10,,0.0,,,,181.0,,,,Pass,,,,,
242.0,10.0,wc_10,wc_14,0.0,"[('wc_14', 0.8400000000000006), ('wc_10', 0.8200000000000006)]",0.9712000000000002,,,21.0,0.011278,['Pass'],Pass,0.8400000000000006,-0.5672727272727279,0.0,0.0,1.0
242.0,10.0,wc_10,,0.0,,,,0.0,,,,Pass,,,,,
242.0,10.0,wc_10,wc_16,1.0,"[('wc_16', 0.7900000000000006), ('wc_10', 0.8200000000000006), ('wc_14', 0.8400000000000006)]",0.9939520000000001,,,35.0,0.043476,['Pass'],Pass,0.7900000000000006,-0.2900000000000006,3.0,6.0,0.8
252.0,7.0,wc_7,,0.0,,,,223.0,,,,Fail,,,,,
252.0,7.0,wc_7,,0.0,,,73.0,,,,,Fail,,,,,
252.0,7.0,wc_7,,0.0,,,,0.0,,,,Fail,,,,,
252.0,7.0,wc_7,wc_7,0.0,"[('wc_7', 0.3700000000000002)]",0.3700000000000002,,,25.0,0.002504,['Pass'],Fail,0.3700000000000002,-0.3700000000000002,0.0,3.0,0.3
252.0,7.0,wc_7,,0.0,,,,162.0,,,,Fail,,,,,
252.0,7.0,wc_7,wc_13,0.0,"[('wc_13', 0.7900000000000006)]",0.7900000000000006,,,35.0,0.0039959999999999996,['Fail'],Fail,0.7900000000000006,-0.6081818181818188,0.0,0.0,0.8
252.0,7.0,wc_7,,0.0,,,,0.0,,,,Fail,,,,,
252.0,7.0,wc_7,wc_15,0.0,"[('wc_15', 0.6600000000000005), ('wc_13', 0.7900000000000006)]",0.9286000000000003,,,21.0,0.006668,['Fail'],Fail,0.6600000000000005,-0.49333333333333385,1.0,6.0,0.6
252.0,7.0,wc_7,,0.0,,,,442.0,,,,Fail,,,,,
252.0,7.0,wc_7,wc_5,0.0,"[('wc_13', 0.7900000000000006), ('wc_15', 0.6600000000000005)]",0.9286000000000003,,,37.0,0.009014000000000001,['Fail'],Fail,0.29000000000000015,-0.04000000000000015,2.0,8.0,0.2
252.0,7.0,wc_7,,0.0,,,,141.0,,,,Fail,,,,,
252.0,7.0,wc_7,wc_14,1.0,"[('wc_14', 0.8500000000000006), ('wc_13', 0.7900000000000006), ('wc_15', 0.6600000000000005)]",0.9892900000000001,,,22.0,0.042547,['Fail'],Fail,0.8600000000000007,0.13999999999999935,2.0,2.0,1.0
263.0,8.0,wc_8,,0.0,,,,182.0,,,,Fail,,,,,
263.0,8.0,wc_8,,0.0,,,75.0,,,,,Fail,,,,,
263.0,8.0,wc_8,,0.0,,,,0.0,,,,Fail,,,,,
263.0,8.0,wc_8,wc_8,0.0,"[('wc_8', 0.21000000000000008)]",0.21000000000000008,,,38.0,0.00223,['Pass'],Fail,0.21000000000000008,-0.04333333333333342,1.0,6.0,0.2
263.0,8.0,wc_8,,0.0,,,,162.0,,,,Fail,,,,,
263.0,8.0,wc_8,wc_14,0.0,"[('wc_14', 0.8600000000000007)]",0.8600000000000007,,,38.0,0.0041270000000000005,['Fail'],Fail,0.8600000000000007,0.13999999999999935,2.0,2.0,1.0
263.0,8.0,wc_8,,0.0,,,,321.0,,,,Fail,,,,,
263.0,8.0,wc_8,wc_3,0.0,"[('wc_3', 0.5500000000000004), ('wc_14', 0.8600000000000007)]",0.9370000000000004,,,34.0,0.006447,['Fail'],Fail,0.5500000000000004,-0.5500000000000004,0.0,2.0,0.4
263.0,8.0,wc_8,,0.0,,,,162.0,,,,Fail,,,,,
263.0,8.0,wc_8,wc_9,0.0,"[('wc_9', 0.9600000000000007), ('wc_8', 0.21000000000000008)]",0.9684000000000006,,,22.0,0.010562,['Pass'],Fail,0.9600000000000007,-0.778181818181819,0.0,0.0,1.0
263.0,8.0,wc_8,,0.0,,,,121.0,,,,Fail,,,,,
263.0,8.0,wc_8,wc_13,1.0,"[('wc_13', 0.8000000000000006), ('wc_14', 0.8600000000000007), ('wc_3', 0.5500000000000004)]",0.9874,,,21.0,0.051725999999999994,['Fail'],Fail,0.8100000000000006,0.1899999999999994,2.0,2.0,0.8
273.0,9.0,wc_9,,0.0,,,,301.0,,,,Pass,,,,,
273.0,9.0,wc_9,,0.0,,,64.0,,,,,Pass,,,,,
273.0,9.0,wc_9,,0.0,,,,0.0,,,,Pass,,,,,
273.0,9.0,wc_9,wc_9,0.0,"[('wc_9', 0.9500000000000007)]",0.9500000000000007,,,30.0,0.002853,['Pass'],Pass,0.9500000000000007,-0.9500000000000007,0.0,1.0,1.0
273.0,9.0,wc_9,,0.0,,,,81.0,,,,Pass,,,,,
273.0,9.0,wc_9,wc_7,0.0,"[('wc_7', 0.3600000000000002), ('wc_9', 0.9500000000000007)]",0.9680000000000005,,,26.0,0.008009,['Pass'],Pass,0.3600000000000002,-0.3600000000000002,0.0,5.0,0.3
273.0,9.0,wc_9,,0.0,,,,203.0,,,,Pass,,,,,
273.0,9.0,wc_9,wc_15,0.0,"[('wc_9', 0.9500000000000007), ('wc_7', 0.3600000000000002)]",0.9680000000000005,,,38.0,0.006531,['Pass'],Pass,0.6600000000000005,-0.4100000000000005,2.0,8.0,0.6
273.0,9.0,wc_9,,0.0,,,,0.0,,,,Pass,,,,,
273.0,9.0,wc_9,wc_16,1.0,"[('wc_16', 0.7900000000000006), ('wc_9', 0.9500000000000007), ('wc_7', 0.3600000000000002)]",0.9932800000000002,,,34.0,0.047088,['Pass'],Pass,0.7900000000000006,-0.34555555555555617,4.0,9.0,0.8
282.0,8.0,wc_8,,0.0,,,,243.0,,,,Fail,,,,,
282.0,8.0,wc_8,,0.0,,,65.0,,,,,Fail,,,,,
282.0,8.0,wc_8,,0.0,,,,0.0,,,,Fail,,,,,
282.0,8.0,wc_8,wc_8,0.0,"[('wc_8', 0.20000000000000007)]",0.20000000000000007,,,33.0,0.002346,['Pass'],Fail,0.20000000000000007,-0.07500000000000007,1.0,8.0,0.2
282.0,8.0,wc_8,,0.0,,,,102.0,,,,Fail,,,,,
282.0,8.0,wc_8,wc_7,0.0,"[('wc_7', 0.3600000000000002)]",0.3600000000000002,,,40.0,0.00574,['Fail'],Fail,0.3600000000000002,-0.19333333333333355,1.0,6.0,0.3
282.0,8.0,wc_8,,0.0,,,,301.0,,,,Fail,,,,,
282.0,8.0,wc_8,wc_3,0.0,"[('wc_3', 0.5500000000000004), ('wc_7', 0.3600000000000002)]",0.7120000000000004,,,24.0,0.006031,['Fail'],Fail,0.5500000000000004,-0.3000000000000004,1.0,4.0,0.4
282.0,8.0,wc_8,,0.0,,,,202.0,,,,Fail,,,,,
282.0,8.0,wc_8,wc_11,1.0,"[('wc_11', 0.6600000000000005), ('wc_7', 0.3600000000000002), ('wc_3', 0.5500000000000004)]",0.9020800000000002,,,20.0,0.049108,['Fail'],Fail,0.6600000000000005,-0.6600000000000005,0.0,0.0,0.6
289.0,8.0,wc_8,,0.0,,,,61.0,,,,Pass,,,,,
289.0,8.0,wc_8,,0.0,,,76.0,,,,,Pass,,,,,
289.0,8.0,wc_8,,0.0,,,,0.0,,,,Pass,,,,,
289.0,8.0,wc_8,wc_8,0.0,"[('wc_8', 0.19000000000000006)]",0.19000000000000006,,,25.0,0.002015,['Fail'],Pass,0.19000000000000006,-0.07888888888888895,1.0,9.0,0.2
289.0,8.0,wc_8,,0.0,,,,0.0,,,,Pass,,,,,
289.0,8.0,wc_8,wc_11,0.0,"[('wc_11', 0.6600000000000005)]",0.6600000000000005,,,24.0,0.004648,['Pass'],Pass,0.6600000000000005,-0.6600000000000005,0.0,0.0,0.6
289.0,8.0,wc_8,,0.0,,,,342.0,,,,Pass,,,,,
289.0,8.0,wc_8,wc_4,0.0,"[('wc_4', 0.6400000000000005), ('wc_8', 0.19000000000000006)]",0.7084000000000004,,,34.0,0.006519,['Fail'],Pass,0.6400000000000005,-0.6400000000000005,0.0,5.0,0.6
289.0,8.0,wc_8,,0.0,,,,222.0,,,,Pass,,,,,
289.0,8.0,wc_8,wc_17,1.0,"[('wc_17', 0.7400000000000005), ('wc_8', 0.19000000000000006), ('wc_4', 0.6400000000000005)]",0.9241840000000002,,,30.0,0.045104,['Fail'],Pass,0.7400000000000005,-0.7400000000000005,0.0,0.0,0.5
296.0,7.0,wc_7,,0.0,,,,203.0,,,,Fail,,,,,
296.0,7.0,wc_7,,0.0,,,70.0,,,,,Fail,,,,,
296.0,7.0,wc_7,,0.0,,,,0.0,,,,Fail,,,,,
296.0,7.0,wc_7,wc_7,0.0,"[('wc_7', 0.3600000000000002)]",0.3600000000000002,,,29.0,0.00206,['Pass'],Fail,0.3600000000000002,-0.11000000000000021,2.0,8.0,0.3
296.0,7.0,wc_7,,0.0,,,,0.0,,,,Fail,,,,,
296.0,7.0,wc_7,wc_10,0.0,"[('wc_10', 0.8200000000000006), ('wc_7', 0.3600000000000002)]",0.8848000000000005,,,29.0,0.004404,['Pass'],Fail,0.8200000000000006,-0.6950000000000006,1.0,8.0,0.5
296.0,7.0,wc_7,,0.0,,,,81.0,,,,Fail,,,,,
296.0,7.0,wc_7,wc_8,0.0,"[('wc_7', 0.3600000000000002), ('wc_10', 0.8200000000000006)]",0.8848000000000005,,,20.0,0.006728,['Pass'],Fail,0.19000000000000006,-0.19000000000000006,0.0,0.0,0.2
296.0,7.0,wc_7,,0.0,,,,122.0,,,,Fail,,,,,
296.0,7.0,wc_7,wc_12,0.0,"[('wc_7', 0.3600000000000002), ('wc_10', 0.8200000000000006)]",0.8848000000000005,,,37.0,0.00935,['Pass'],Fail,0.6600000000000005,-0.6600000000000005,0.0,7.0,0.6
296.0,7.0,wc_7,,0.0,,,,262.0,,,,Fail,,,,,
296.0,7.0,wc_7,wc_2,1.0,"[('wc_2', 0.22000000000000008), ('wc_7', 0.3600000000000002), ('wc_10', 0.8200000000000006)]",0.9101440000000003,,,37.0,0.04161499999999999,['Pass'],Fail,0.22000000000000008,-0.22000000000000008,0.0,0.0,0.2
302.0,7.0,wc_7,,0.0,,,,142.0,,,,Pass,,,,,
302.0,7.0,wc_7,,0.0,,,54.0,,,,,Pass,,,,,
302.0,7.0,wc_7,,0.0,,,,0.0,,,,Pass,,,,,
302.0,7.0,wc_7,wc_7,0.0,"[('wc_7', 0.3600000000000002)]",0.3600000000000002,,,29.0,0.002194,['Pass'],Pass,0.3600000000000002,-0.026666666666666894,3.0,9.0,0.3
302.0,7.0,wc_7,,0.0,,,,202.0,,,,Pass,,,,,
302.0,7.0,wc_7,wc_2,0.0,"[('wc_7', 0.3600000000000002)]",0.3600000000000002,,,37.0,0.004468,['Pass'],Pass,0.22000000000000008,-0.22000000000000008,0.0,0.0,0.2
302.0,7.0,wc_7,,0.0,,,,182.0,,,,Pass,,,,,
302.0,7.0,wc_7,wc_13,0.0,"[('wc_13', 0.8100000000000006), ('wc_7', 0.3600000000000002)]",0.8784000000000004,,,39.0,0.005698999999999999,['Pass'],Pass,0.8100000000000006,-0.4766666666666673,2.0,6.0,0.8
302.0,7.0,wc_7,,0.0,,,,341.0,,,,Pass,,,,,
302.0,7.0,wc_7,wc_11,1.0,"[('wc_11', 0.6500000000000005), ('wc_7', 0.3600000000000002), ('wc_13', 0.8100000000000006)]",0.9574400000000002,,,40.0,0.04212,['Pass'],Pass,0.6500000000000005,-0.31666666666666715,1.0,3.0,0.6
308.0,12.0,wc_12,,0.0,,,,61.0,,,,Pass,,,,,
308.0,12.0,wc_12,,0.0,,,64.0,,,,,Pass,,,,,
308.0,12.0,wc_12,,0.0,,,,0.0,,,,Pass,,,,,
308.0,12.0,wc_12,wc_12,0.0,"[('wc_12', 0.6500000000000005)]",0.6500000000000005,,,40.0,0.002738,['Fail'],Pass,0.6500000000000005,-0.6500000000000005,0.0,9.0,0.6
308.0,12.0,wc_12,,0.0,,,,361.0,,,,Pass,,,,,
308.0,12.0,wc_12,wc_3,0.0,"[('wc_3', 0.5500000000000004), ('wc_12', 0.6500000000000005)]",0.8425000000000004,,,35.0,0.004058,['Fail'],Pass,0.5500000000000004,-0.3000000000000004,2.0,8.0,0.4
308.0,12.0,wc_12,,0.0,,,,162.0,,,,Pass,,,,,
308.0,12.0,wc_12,wc_9,0.0,"[('wc_9', 0.9500000000000007)]",0.9500000000000007,,,34.0,0.00618,['Pass'],Pass,0.9500000000000007,-0.7833333333333341,1.0,6.0,1.0
308.0,12.0,wc_12,,0.0,,,,243.0,,,,Pass,,,,,
308.0,12.0,wc_12,wc_1,0.0,"[('wc_1', 0.5500000000000004), ('wc_9', 0.9500000000000007)]",0.9775000000000004,,,29.0,0.007249,['Pass'],Pass,0.5500000000000004,-0.4388888888888893,1.0,9.0,0.5
308.0,12.0,wc_12,,0.0,,,,243.0,,,,Pass,,,,,
308.0,12.0,wc_12,wc_11,0.0,"[('wc_9', 0.9500000000000007), ('wc_1', 0.5500000000000004)]",0.9775000000000004,,,27.0,0.009828,['Pass'],Pass,0.6500000000000005,-0.31666666666666715,1.0,3.0,0.6
308.0,12.0,wc_12,,0.0,,,,342.0,,,,Pass,,,,,
308.0,12.0,wc_12,wc_4,1.0,"[('wc_4', 0.6400000000000005), ('wc_12', 0.6500000000000005), ('wc_3', 0.5500000000000004), ('wc_11', 0.6500000000000005)]",0.9801550000000001,,,40.0,0.04244800000000001,['Fail'],Pass,0.6400000000000005,-0.41777777777777825,2.0,9.0,0.6
313.0,12.0,wc_12,,0.0,,,,121.0,,,,Pass,,,,,
313.0,12.0,wc_12,,0.0,,,52.0,,,,,Pass,,,,,
313.0,12.0,wc_12,,0.0,,,,0.0,,,,Pass,,,,,
313.0,12.0,wc_12,wc_12,0.0,"[('wc_12', 0.6500000000000005)]",0.6500000000000005,,,27.0,0.002172,['Pass'],Pass,0.6500000000000005,-0.6500000000000005,0.0,0.0,0.6
313.0,12.0,wc_12,,0.0,,,,202.0,,,,Pass,,,,,
313.0,12.0,wc_12,wc_7,0.0,"[('wc_7', 0.3700000000000002), ('wc_12', 0.6500000000000005)]",0.7795000000000003,,,27.0,0.004184,['Pass'],Pass,0.3700000000000002,-0.3700000000000002,0.0,1.0,0.3
313.0,12.0,wc_12,,0.0,,,,321.0,,,,Pass,,,,,
313.0,12.0,wc_12,wc_4,1.0,"[('wc_4', 0.6400000000000005), ('wc_12', 0.6500000000000005), ('wc_7', 0.3700000000000002)]",0.9206200000000002,,,21.0,0.0394,['Pass'],Pass,0.6400000000000005,-0.6400000000000005,0.0,0.0,0.6
321.0,13.0,wc_13,,0.0,,,,141.0,,,,Fail,,,,,
321.0,13.0,wc_13,,0.0,,,76.0,,,,,Fail,,,,,
321.0,13.0,wc_13,,0.0,,,,0.0,,,,Fail,,,,,
321.0,13.0,wc_13,wc_13,0.0,"[('wc_13', 0.8100000000000006)]",0.8100000000000006,,,38.0,0.002841,['Fail'],Fail,0.8100000000000006,-0.4766666666666673,3.0,9.0,0.8
321.0,13.0,wc_13,,0.0,,,,222.0,,,,Fail,,,,,
321.0,13.0,wc_13,wc_1,0.0,"[('wc_1', 0.5400000000000004), ('wc_13', 0.8100000000000006)]",0.9126000000000003,,,24.0,0.004252,['Fail'],Fail,0.5400000000000004,-0.5400000000000004,0.0,1.0,0.5
321.0,13.0,wc_13,,0.0,,,,0.0,,,,Fail,,,,,
321.0,13.0,wc_13,wc_3,1.0,"[('wc_3', 0.5500000000000004), ('wc_13', 0.8100000000000006), ('wc_1', 0.5400000000000004)]",0.9606700000000001,,,22.0,0.040551000000000004,['Fail'],Fail,0.5500000000000004,-0.5500000000000004,0.0,0.0,0.4
328.0,13.0,wc_13,,0.0,,,,161.0,,,,Pass,,,,,
328.0,13.0,wc_13,,0.0,,,58.0,,,,,Pass,,,,,
328.0,13.0,wc_13,,0.0,,,,0.0,,,,Pass,,,,,
328.0,13.0,wc_13,wc_13,0.0,"[('wc_13', 0.8100000000000006)]",0.8100000000000006,,,27.0,0.002917,['Fail'],Pass,0.8100000000000006,-0.8100000000000006,0.0,0.0,0.8
328.0,13.0,wc_13,,0.0,,,,381.0,,,,Pass,,,,,
328.0,13.0,wc_13,wc_5,0.0,"[('wc_5', 0.28000000000000014), ('wc_13', 0.8100000000000006)]",0.8632000000000004,,,38.0,0.003981,['Fail'],Pass,0.28000000000000014,-0.16888888888888903,0.0,0.0,0.2
328.0,13.0,wc_13,,0.0,,,,103.0,,,,Pass,,,,,
328.0,13.0,wc_13,wc_4,0.0,"[('wc_13', 0.8100000000000006), ('wc_5', 0.28000000000000014)]",0.8632000000000004,,,20.0,0.005634,['Fail'],Pass,0.6400000000000005,-0.6400000000000005,0.0,1.0,0.6
328.0,13.0,wc_13,,0.0,,,,101.0,,,,Pass,,,,,
328.0,13.0,wc_13,wc_7,0.0,"[('wc_13', 0.8100000000000006), ('wc_5', 0.28000000000000014)]",0.8632000000000004,,,37.0,0.00779,['Fail'],Pass,0.3800000000000002,-0.04666666666666691,1.0,3.0,0.3
328.0,13.0,wc_13,,0.0,,,,0.0,,,,Pass,,,,,
328.0,13.0,wc_13,wc_8,0.0,"[('wc_8', 0.18000000000000005), ('wc_13', 0.8100000000000006), ('wc_5', 0.28000000000000014)]",0.8878240000000004,,,24.0,0.009612,['Fail'],Pass,0.18000000000000005,-0.18000000000000005,0.0,5.0,0.2
328.0,13.0,wc_13,,0.0,,,,162.0,,,,Pass,,,,,
328.0,13.0,wc_13,wc_1,0.0,"[('wc_1', 0.5400000000000004), ('wc_4', 0.6400000000000005), ('wc_7', 0.3800000000000002)]",0.8973280000000002,,,35.0,0.011536,['Pass'],Pass,0.5400000000000004,-0.04000000000000037,1.0,2.0,0.5
328.0,13.0,wc_13,,0.0,,,,182.0,,,,Pass,,,,,
328.0,13.0,wc_13,wc_12,1.0,"[('wc_12', 0.6600000000000005), ('wc_4', 0.6400000000000005), ('wc_7', 0.3800000000000002), ('wc_1', 0.5400000000000004)]",0.9650915200000001,,,21.0,0.04434,['Pass'],Pass,0.6600000000000005,0.0066666666666661545,2.0,3.0,0.6
335.0,15.0,wc_15,,0.0,,,,0.0,,,,Fail,,,,,
335.0,15.0,wc_15,,0.0,,,73.0,,,,,Fail,,,,,
335.0,15.0,wc_15,,0.0,,,,0.0,,,,Fail,,,,,
335.0,15.0,wc_15,wc_15,0.0,"[('wc_15', 0.6500000000000005)]",0.6500000000000005,,,39.0,0.002103,['Fail'],Fail,0.6500000000000005,-0.532352941176471,0.0,0.0,0.6
335.0,15.0,wc_15,,0.0,,,,382.0,,,,Fail,,,,,
335.0,15.0,wc_15,wc_10,0.0,"[('wc_10', 0.8200000000000006), ('wc_15', 0.6500000000000005)]",0.9370000000000003,,,23.0,0.003994,['Fail'],Fail,0.8200000000000006,-0.6771428571428577,0.0,0.0,0.5
335.0,15.0,wc_15,,0.0,,,,362.0,,,,Fail,,,,,
335.0,15.0,wc_15,wc_4,0.0,"[('wc_15', 0.6500000000000005), ('wc_10', 0.8200000000000006)]",0.9370000000000003,,,31.0,0.006064,['Fail'],Fail,0.6400000000000005,-0.14000000000000046,1.0,2.0,0.6
335.0,15.0,wc_15,,0.0,,,,202.0,,,,Fail,,,,,
335.0,15.0,wc_15,wc_16,1.0,"[('wc_16', 0.7900000000000006), ('wc_15', 0.6500000000000005), ('wc_10', 0.8200000000000006)]",0.9867700000000001,,,28.0,0.042238,['Fail'],Fail,0.7900000000000006,-0.7900000000000006,0.0,0.0,0.8
342.0,15.0,wc_15,,0.0,,,,103.0,,,,Fail,,,,,
342.0,15.0,wc_15,,0.0,,,50.0,,,,,Fail,,,,,
342.0,15.0,wc_15,,0.0,,,,0.0,,,,Fail,,,,,
342.0,15.0,wc_15,wc_15,0.0,"[('wc_15', 0.6600000000000005)]",0.6600000000000005,,,36.0,0.002822,['Fail'],Fail,0.6600000000000005,0.3399999999999995,1.0,1.0,0.6
342.0,15.0,wc_15,,0.0,,,,0.0,,,,Fail,,,,,
342.0,15.0,wc_15,wc_16,0.0,"[('wc_16', 0.7900000000000006), ('wc_15', 0.6600000000000005)]",0.9286000000000003,,,22.0,0.00417,['Fail'],Fail,0.7900000000000006,-0.7900000000000006,0.0,0.0,0.8
342.0,15.0,wc_15,,0.0,,,,263.0,,,,Fail,,,,,
342.0,15.0,wc_15,wc_1,1.0,"[('wc_1', 0.5500000000000004), ('wc_15', 0.6600000000000005), ('wc_16', 0.7900000000000006)]",0.9678700000000001,,,40.0,0.03954800000000001,['Fail'],Fail,0.5600000000000004,0.03999999999999959,3.0,5.0,0.5
349.0,15.0,wc_15,,0.0,,,,243.0,,,,Fail,,,,,
349.0,15.0,wc_15,,0.0,,,65.0,,,,,Fail,,,,,
349.0,15.0,wc_15,,0.0,,,,0.0,,,,Fail,,,,,
349.0,15.0,wc_15,wc_15,0.0,"[('wc_15', 0.6700000000000005)]",0.6700000000000005,,,34.0,0.002118,['Fail'],Fail,0.6700000000000005,0.3299999999999995,2.0,2.0,0.6
349.0,15.0,wc_15,,0.0,,,,61.0,,,,Fail,,,,,
349.0,15.0,wc_15,wc_12,0.0,"[('wc_12', 0.6600000000000005), ('wc_15', 0.6700000000000005)]",0.8878000000000004,,,20.0,0.003934,['Fail'],Fail,0.6600000000000005,-0.26000000000000045,2.0,5.0,0.6
349.0,15.0,wc_15,,0.0,,,,0.0,,,,Fail,,,,,
349.0,15.0,wc_15,wc_13,1.0,"[('wc_13', 0.8000000000000006), ('wc_15', 0.6700000000000005), ('wc_12', 0.6600000000000005)]",0.9775600000000001,,,23.0,0.039261000000000004,['Fail'],Fail,0.8000000000000006,-0.5500000000000006,1.0,4.0,0.8
356.0,15.0,wc_15,,0.0,,,,0.0,,,,Pass,,,,,
356.0,15.0,wc_15,,0.0,,,62.0,,,,,Pass,,,,,
356.0,15.0,wc_15,,0.0,,,,0.0,,,,Pass,,,,,
356.0,15.0,wc_15,wc_15,0.0,"[('wc_15', 0.6800000000000005)]",0.6800000000000005,,,24.0,0.002325,['Fail'],Pass,0.6800000000000005,0.3199999999999995,3.0,3.0,0.6
356.0,15.0,wc_15,,0.0,,,,442.0,,,,Pass,,,,,
356.0,15.0,wc_15,wc_5,0.0,"[('wc_15', 0.6800000000000005)]",0.6800000000000005,,,36.0,0.003918,['Fail'],Pass,0.27000000000000013,-0.27000000000000013,0.0,4.0,0.2
356.0,15.0,wc_15,,0.0,,,,182.0,,,,Pass,,,,,
356.0,15.0,wc_15,wc_16,0.0,"[('wc_16', 0.8000000000000006), ('wc_5', 0.27000000000000013)]",0.8540000000000004,,,35.0,0.005729,['Pass'],Pass,0.8000000000000006,-0.3000000000000006,1.0,2.0,0.8
356.0,15.0,wc_15,,0.0,,,,283.0,,,,Pass,,,,,
356.0,15.0,wc_15,wc_2,0.0,"[('wc_2', 0.21000000000000008), ('wc_5', 0.27000000000000013), ('wc_16', 0.8000000000000006)]",0.8846600000000003,,,31.0,0.00843,['Pass'],Pass,0.21000000000000008,-0.21000000000000008,0.0,8.0,0.2
356.0,15.0,wc_15,,0.0,,,,263.0,,,,Pass,,,,,
356.0,15.0,wc_15,wc_17,1.0,"[('wc_17', 0.7400000000000005), ('wc_5', 0.27000000000000013), ('wc_16', 0.8000000000000006), ('wc_2', 0.21000000000000008)]",0.9700116000000002,,,23.0,0.043988,['Pass'],Pass,0.7400000000000005,-0.7400000000000005,0.0,0.0,0.5
362.0,16.0,wc_16,,0.0,,,,103.0,,,,Fail,,,,,
362.0,16.0,wc_16,,0.0,,,71.0,,,,,Fail,,,,,
362.0,16.0,wc_16,,0.0,,,,0.0,,,,Fail,,,,,
362.0,16.0,wc_16,wc_16,0.0,"[('wc_16', 0.8000000000000006)]",0.8000000000000006,,,21.0,0.002173,['Fail'],Fail,0.8000000000000006,-0.13333333333333397,2.0,3.0,0.8
362.0,16.0,wc_16,,0.0,,,,81.0,,,,Fail,,,,,
362.0,16.0,wc_16,wc_14,0.0,"[('wc_14', 0.8700000000000007), ('wc_16', 0.8000000000000006)]",0.9740000000000002,,,23.0,0.004136,['Fail'],Fail,0.8700000000000007,-0.6825000000000007,0.0,0.0,1.0
362.0,16.0,wc_16,,0.0,,,,321.0,,,,Fail,,,,,
362.0,16.0,wc_16,wc_11,0.0,"[('wc_16', 0.8000000000000006), ('wc_14', 0.8700000000000007)]",0.9740000000000002,,,27.0,0.005493,['Fail'],Fail,0.6500000000000005,-0.46818181818181864,0.0,0.0,0.6
362.0,16.0,wc_16,,0.0,,,,342.0,,,,Fail,,,,,
362.0,16.0,wc_16,wc_4,0.0,"[('wc_16', 0.8000000000000006), ('wc_14', 0.8700000000000007)]",0.9740000000000002,,,28.0,0.007204,['Fail'],Fail,0.6300000000000004,-0.4633333333333338,1.0,6.0,0.6
362.0,16.0,wc_16,,0.0,,,,222.0,,,,Fail,,,,,
362.0,16.0,wc_16,wc_17,1.0,"[('wc_17', 0.7400000000000005), ('wc_16', 0.8000000000000006), ('wc_14', 0.8700000000000007)]",0.9932400000000001,,,21.0,0.043569,['Fail'],Fail,0.7500000000000006,0.24999999999999944,1.0,1.0,0.5
368.0,14.0,wc_14,,0.0,,,,61.0,,,,Pass,,,,,
368.0,14.0,wc_14,,0.0,,,74.0,,,,,Pass,,,,,
368.0,14.0,wc_14,,0.0,,,,0.0,,,,Pass,,,,,
368.0,14.0,wc_14,wc_14,0.0,"[('wc_14', 0.8800000000000007)]",0.8800000000000007,,,36.0,0.002203,['Pass'],Pass,0.8800000000000007,0.11999999999999933,1.0,1.0,1.0
368.0,14.0,wc_14,,0.0,,,,281.0,,,,Pass,,,,,
368.0,14.0,wc_14,wc_9,0.0,"[('wc_9', 0.9400000000000007), ('wc_14', 0.8800000000000007)]",0.9928000000000001,,,21.0,0.004129,['Pass'],Pass,0.9400000000000007,-0.8733333333333341,0.0,0.0,1.0
368.0,14.0,wc_14,,0.0,,,,101.0,,,,Pass,,,,,
368.0,14.0,wc_14,wc_8,0.0,"[('wc_14', 0.8800000000000007), ('wc_9', 0.9400000000000007)]",0.9928000000000001,,,39.0,0.0055969999999999995,['Pass'],Pass,0.17000000000000004,-0.17000000000000004,0.0,0.0,0.2
368.0,14.0,wc_14,,0.0,,,,0.0,,,,Pass,,,,,
368.0,14.0,wc_14,wc_11,1.0,"[('wc_11', 0.6400000000000005), ('wc_14', 0.8800000000000007), ('wc_9', 0.9400000000000007)]",0.9974080000000001,,,35.0,0.04154999999999999,['Pass'],Pass,0.6400000000000005,-0.14000000000000046,1.0,2.0,0.6
377.0,16.0,wc_16,,0.0,,,,142.0,,,,Fail,,,,,
377.0,16.0,wc_16,,0.0,,,57.0,,,,,Fail,,,,,
377.0,16.0,wc_16,,0.0,,,,0.0,,,,Fail,,,,,
377.0,16.0,wc_16,wc_16,0.0,"[('wc_16', 0.8000000000000006)]",0.8000000000000006,,,40.0,0.001883,['Fail'],Fail,0.8000000000000006,-0.20000000000000062,3.0,5.0,0.8
377.0,16.0,wc_16,,0.0,,,,103.0,,,,Fail,,,,,
377.0,16.0,wc_16,wc_15,0.0,"[('wc_15', 0.6800000000000005), ('wc_16', 0.8000000000000006)]",0.9360000000000003,,,26.0,0.004701,['Fail'],Fail,0.6800000000000005,-0.1800000000000005,3.0,6.0,0.6
377.0,16.0,wc_16,,0.0,,,,243.0,,,,Fail,,,,,
377.0,16.0,wc_16,wc_7,1.0,"[('wc_7', 0.39000000000000024), ('wc_16', 0.8000000000000006), ('wc_15', 0.6800000000000005)]",0.9609600000000001,,,20.0,0.03855299999999999,['Fail'],Fail,0.39000000000000024,-0.39000000000000024,0.0,0.0,0.3
387.0,16.0,wc_16,,0.0,,,,223.0,,,,Pass,,,,,
387.0,16.0,wc_16,,0.0,,,67.0,,,,,Pass,,,,,
387.0,16.0,wc_16,,0.0,,,,0.0,,,,Pass,,,,,
387.0,16.0,wc_16,wc_16,0.0,"[('wc_16', 0.8000000000000006)]",0.8000000000000006,,,36.0,0.002133,['Pass'],Pass,0.8000000000000006,-0.13333333333333397,4.0,6.0,0.8
387.0,16.0,wc_16,,0.0,,,,362.0,,,,Pass,,,,,
387.0,16.0,wc_16,wc_10,0.0,"[('wc_10', 0.8300000000000006)]",0.8300000000000006,,,36.0,0.004256,['Fail'],Pass,0.8300000000000006,-0.6871428571428577,1.0,7.0,0.5
387.0,16.0,wc_16,,0.0,,,,103.0,,,,Pass,,,,,
387.0,16.0,wc_16,wc_9,0.0,"[('wc_9', 0.9500000000000007), ('wc_16', 0.8000000000000006)]",0.9900000000000002,,,26.0,0.006488,['Pass'],Pass,0.9500000000000007,-0.45000000000000073,1.0,2.0,1.0
387.0,16.0,wc_16,,0.0,,,,202.0,,,,Pass,,,,,
387.0,16.0,wc_16,wc_17,1.0,"[('wc_17', 0.7500000000000006), ('wc_16', 0.8000000000000006), ('wc_9', 0.9500000000000007)]",0.9975,,,35.0,0.043019,['Pass'],Pass,0.7500000000000006,-0.25000000000000056,2.0,4.0,0.5
393.0,17.0,wc_17,,0.0,,,,0.0,,,,Pass,,,,,
393.0,17.0,wc_17,,0.0,,,67.0,,,,,Pass,,,,,
393.0,17.0,wc_17,,0.0,,,,0.0,,,,Pass,,,,,
393.0,17.0,wc_17,wc_17,0.0,"[('wc_17', 0.7500000000000006)]",0.7500000000000006,,,26.0,0.002209,['Pass'],Pass,0.7500000000000006,-0.25000000000000056,2.0,4.0,0.5
393.0,17.0,wc_17,,0.0,,,,322.0,,,,Pass,,,,,
393.0,17.0,wc_17,wc_9,0.0,"[('wc_9', 0.9500000000000007), ('wc_17', 0.7500000000000006)]",0.9875000000000003,,,23.0,0.00393,['Pass'],Pass,0.9500000000000007,-0.2833333333333341,2.0,3.0,1.0
393.0,17.0,wc_17,,0.0,,,,162.0,,,,Pass,,,,,
393.0,17.0,wc_17,wc_15,1.0,"[('wc_15', 0.6800000000000005), ('wc_17', 0.7500000000000006), ('wc_9', 0.9500000000000007)]",0.9960000000000001,,,40.0,0.038268,['Pass'],Pass,0.6800000000000005,-0.12444444444444491,5.0,9.0,0.6
