mpecck/BCQC/bcqc_with_qdt/results/raw/input_8/independent_qc/training/20_workpiece/20200429_084420/wp_15_qc_majority_0.9.csv
production_index,step_idx,production_workcell,qc,consent,winner_qc_list,score,production_time,transport_time,inspection_time,network_time,qc_results,actual_quality,qc_score,score_error,in_winner_counter,in_qc_counter,qc_capability
57.0,1.0,wc_1,,0.0,,,70.0,,,,,Fail,,,,,
57.0,1.0,wc_1,,0.0,,,,0.0,,,,Fail,,,,,
57.0,1.0,wc_1,wc_1,0.0,"[('wc_1', 0.5100000000000003)]",0.5100000000000003,,,33.0,0.002268,['Fail'],Fail,0.5100000000000003,-0.3946153846153849,0.0,0.0,0.5
57.0,1.0,wc_1,,0.0,,,,162.0,,,,Fail,,,,,
57.0,1.0,wc_1,wc_7,0.0,"[('wc_7', 0.29000000000000015), ('wc_1', 0.5100000000000003)]",0.6521000000000003,,,23.0,0.003901,['Fail'],Fail,0.29000000000000015,-0.004285714285714448,2.0,7.0,0.3
57.0,1.0,wc_1,,0.0,,,,202.0,,,,Fail,,,,,
57.0,1.0,wc_1,wc_2,0.0,"[('wc_1', 0.5100000000000003), ('wc_7', 0.29000000000000015)]",0.6521000000000003,,,22.0,0.005766,['Fail'],Fail,0.28000000000000014,-0.28000000000000014,0.0,1.0,0.2
57.0,1.0,wc_1,,0.0,,,,0.0,,,,Fail,,,,,
57.0,1.0,wc_1,wc_4,0.0,"[('wc_4', 0.6400000000000005), ('wc_1', 0.5100000000000003), ('wc_7', 0.29000000000000015)]",0.8747560000000003,,,29.0,0.007411999999999999,['Fail'],Fail,0.6400000000000005,-0.4733333333333338,1.0,6.0,0.6
57.0,1.0,wc_1,,0.0,,,,161.0,,,,Fail,,,,,
57.0,1.0,wc_1,wc_14,1.0,"[('wc_14', 0.7800000000000006), ('wc_1', 0.5100000000000003), ('wc_7', 0.29000000000000015), ('wc_4', 0.6400000000000005)]",0.9724463200000001,,,20.0,0.039502999999999996,['Fail'],Fail,0.7800000000000006,-0.7800000000000006,0.0,0.0,1.0
127.0,1.0,wc_1,,0.0,,,,202.0,,,,Pass,,,,,
127.0,1.0,wc_1,,0.0,,,52.0,,,,,Pass,,,,,
127.0,1.0,wc_1,,0.0,,,,0.0,,,,Pass,,,,,
127.0,1.0,wc_1,wc_1,0.0,"[('wc_1', 0.5200000000000004)]",0.5200000000000004,,,26.0,0.002226,['Pass'],Pass,0.5200000000000004,0.47999999999999965,1.0,1.0,0.5
127.0,1.0,wc_1,,0.0,,,,0.0,,,,Pass,,,,,
127.0,1.0,wc_1,wc_5,0.0,"[('wc_5', 0.27000000000000013), ('wc_1', 0.5200000000000004)]",0.6496000000000004,,,20.0,0.003725,['Pass'],Pass,0.27000000000000013,0.06333333333333319,2.0,6.0,0.2
127.0,1.0,wc_1,,0.0,,,,101.0,,,,Pass,,,,,
127.0,1.0,wc_1,wc_8,0.0,"[('wc_1', 0.5200000000000004), ('wc_5', 0.27000000000000013)]",0.6496000000000004,,,27.0,0.00567,['Pass'],Pass,0.20000000000000007,-0.018181818181818243,0.0,0.0,0.2
127.0,1.0,wc_1,,0.0,,,,162.0,,,,Pass,,,,,
127.0,1.0,wc_1,wc_14,1.0,"[('wc_14', 0.7800000000000006), ('wc_1', 0.5200000000000004), ('wc_5', 0.27000000000000013)]",0.9229120000000003,,,36.0,0.036083000000000004,['Pass'],Pass,0.7900000000000006,0.2099999999999994,1.0,1.0,1.0
152.0,2.0,wc_2,,0.0,,,,222.0,,,,Fail,,,,,
152.0,2.0,wc_2,,0.0,,,58.0,,,,,Fail,,,,,
152.0,2.0,wc_2,,0.0,,,,0.0,,,,Fail,,,,,
152.0,2.0,wc_2,wc_2,0.0,"[('wc_2', 0.27000000000000013)]",0.27000000000000013,,,24.0,0.002483,['Fail'],Fail,0.27000000000000013,-0.27000000000000013,0.0,3.0,0.2
152.0,2.0,wc_2,,0.0,,,,162.0,,,,Fail,,,,,
152.0,2.0,wc_2,wc_12,0.0,"[('wc_12', 0.5900000000000004), ('wc_2', 0.27000000000000013)]",0.7007000000000003,,,32.0,0.004013,['Fail'],Fail,0.5900000000000004,-0.4990909090909095,0.0,0.0,0.6
152.0,2.0,wc_2,,0.0,,,,0.0,,,,Fail,,,,,
152.0,2.0,wc_2,wc_16,1.0,"[('wc_16', 0.7300000000000005), ('wc_2', 0.27000000000000013), ('wc_12', 0.5900000000000004)]",0.9191890000000003,,,37.0,0.036744,['Fail'],Fail,0.7300000000000005,-0.7300000000000005,0.0,0.0,0.8
167.0,4.0,wc_4,,0.0,,,,402.0,,,,Pass,,,,,
167.0,4.0,wc_4,,0.0,,,56.0,,,,,Pass,,,,,
167.0,4.0,wc_4,,0.0,,,,0.0,,,,Pass,,,,,
167.0,4.0,wc_4,wc_4,0.0,"[('wc_4', 0.6400000000000005)]",0.6400000000000005,,,40.0,0.002227,['Pass'],Pass,0.6400000000000005,-0.41777777777777825,2.0,9.0,0.6
167.0,4.0,wc_4,,0.0,,,,222.0,,,,Pass,,,,,
167.0,4.0,wc_4,wc_17,0.0,"[('wc_17', 0.7600000000000006), ('wc_4', 0.6400000000000005)]",0.9136000000000003,,,37.0,0.004437,['Pass'],Pass,0.7600000000000006,-0.13500000000000056,5.0,8.0,0.5
167.0,4.0,wc_4,,0.0,,,,103.0,,,,Pass,,,,,
167.0,4.0,wc_4,wc_16,1.0,"[('wc_16', 0.7300000000000005), ('wc_4', 0.6400000000000005), ('wc_17', 0.7600000000000006)]",0.9766720000000001,,,37.0,0.034918000000000005,['Pass'],Pass,0.7400000000000005,0.25999999999999945,1.0,1.0,0.8
190.0,3.0,wc_3,,0.0,,,,382.0,,,,Pass,,,,,
190.0,3.0,wc_3,,0.0,,,76.0,,,,,Pass,,,,,
190.0,3.0,wc_3,,0.0,,,,0.0,,,,Pass,,,,,
190.0,3.0,wc_3,wc_3,0.0,"[('wc_3', 0.5800000000000004)]",0.5800000000000004,,,40.0,0.002316,['Pass'],Pass,0.5800000000000004,-0.3800000000000004,1.0,5.0,0.4
190.0,3.0,wc_3,,0.0,,,,101.0,,,,Pass,,,,,
190.0,3.0,wc_3,wc_6,0.0,"[('wc_6', 0.4900000000000003), ('wc_3', 0.5800000000000004)]",0.7858000000000003,,,36.0,0.003925,['Pass'],Pass,0.4900000000000003,-0.3471428571428575,0.0,0.0,0.4
190.0,3.0,wc_3,,0.0,,,,0.0,,,,Pass,,,,,
190.0,3.0,wc_3,wc_7,0.0,"[('wc_7', 0.30000000000000016), ('wc_3', 0.5800000000000004), ('wc_6', 0.4900000000000003)]",0.8500600000000003,,,37.0,0.0058969999999999995,['Pass'],Pass,0.30000000000000016,-0.02727272727272745,0.0,0.0,0.3
190.0,3.0,wc_3,,0.0,,,,182.0,,,,Pass,,,,,
190.0,3.0,wc_3,wc_1,1.0,"[('wc_1', 0.5300000000000004), ('wc_3', 0.5800000000000004), ('wc_6', 0.4900000000000003), ('wc_7', 0.30000000000000016)]",0.9295282000000001,,,33.0,0.040254,['Pass'],Pass,0.5400000000000004,0.05999999999999961,3.0,5.0,0.5
222.0,2.0,wc_2,,0.0,,,,0.0,,,,Fail,,,,,
222.0,2.0,wc_2,,0.0,,,78.0,,,,,Fail,,,,,
222.0,2.0,wc_2,,0.0,,,,0.0,,,,Fail,,,,,
222.0,2.0,wc_2,wc_2,0.0,"[('wc_2', 0.27000000000000013)]",0.27000000000000013,,,29.0,0.002223,['Fail'],Fail,0.27000000000000013,-0.10333333333333347,1.0,6.0,0.2
222.0,2.0,wc_2,,0.0,,,,223.0,,,,Fail,,,,,
222.0,2.0,wc_2,wc_11,0.0,"[('wc_11', 0.6200000000000004), ('wc_2', 0.27000000000000013)]",0.7226000000000004,,,25.0,0.004073,['Fail'],Fail,0.6200000000000004,-0.6200000000000004,0.0,0.0,0.6
222.0,2.0,wc_2,,0.0,,,,203.0,,,,Fail,,,,,
222.0,2.0,wc_2,wc_1,0.0,"[('wc_1', 0.5400000000000004), ('wc_2', 0.27000000000000013), ('wc_11', 0.6200000000000004)]",0.8723960000000003,,,22.0,0.005775,['Fail'],Fail,0.5400000000000004,0.05999999999999961,3.0,5.0,0.5
222.0,2.0,wc_2,,0.0,,,,0.0,,,,Fail,,,,,
222.0,2.0,wc_2,wc_5,0.0,"[('wc_2', 0.27000000000000013), ('wc_11', 0.6200000000000004), ('wc_1', 0.5400000000000004)]",0.8723960000000003,,,24.0,0.007637,['Fail'],Fail,0.28000000000000014,0.01999999999999985,0.0,0.0,0.2
222.0,2.0,wc_2,,0.0,,,,101.0,,,,Fail,,,,,
222.0,2.0,wc_2,wc_8,0.0,"[('wc_8', 0.19000000000000006), ('wc_2', 0.27000000000000013), ('wc_11', 0.6200000000000004), ('wc_1', 0.5400000000000004)]",0.8966407600000003,,,27.0,0.010617000000000001,['Fail'],Fail,0.19000000000000006,-0.19000000000000006,0.0,4.0,0.2
222.0,2.0,wc_2,,0.0,,,,122.0,,,,Fail,,,,,
222.0,2.0,wc_2,wc_12,1.0,"[('wc_12', 0.6000000000000004), ('wc_2', 0.27000000000000013), ('wc_11', 0.6200000000000004), ('wc_1', 0.5400000000000004), ('wc_8', 0.19000000000000006)]",0.9586563040000001,,,26.0,0.04096999999999999,['Fail'],Fail,0.6000000000000004,-0.10000000000000042,2.0,4.0,0.6
267.0,2.0,wc_2,,0.0,,,,262.0,,,,Pass,,,,,
267.0,2.0,wc_2,,0.0,,,50.0,,,,,Pass,,,,,
267.0,2.0,wc_2,,0.0,,,,0.0,,,,Pass,,,,,
267.0,2.0,wc_2,wc_2,0.0,"[('wc_2', 0.28000000000000014)]",0.28000000000000014,,,29.0,0.00237,['Fail'],Pass,0.28000000000000014,0.005714285714285561,2.0,7.0,0.2
267.0,2.0,wc_2,,0.0,,,,223.0,,,,Pass,,,,,
267.0,2.0,wc_2,wc_11,0.0,"[('wc_11', 0.6300000000000004)]",0.6300000000000004,,,22.0,0.004087,['Pass'],Pass,0.6300000000000004,0.36999999999999955,1.0,1.0,0.6
267.0,2.0,wc_2,,0.0,,,,61.0,,,,Pass,,,,,
267.0,2.0,wc_2,wc_12,0.0,"[('wc_12', 0.6000000000000004), ('wc_11', 0.6300000000000004)]",0.8520000000000003,,,40.0,0.0065249999999999996,['Pass'],Pass,0.6000000000000004,-0.10000000000000042,2.0,4.0,0.6
267.0,2.0,wc_2,,0.0,,,,381.0,,,,Pass,,,,,
267.0,2.0,wc_2,wc_4,1.0,"[('wc_4', 0.6400000000000005), ('wc_11', 0.6300000000000004), ('wc_12', 0.6000000000000004)]",0.9467200000000002,,,28.0,0.04092,['Pass'],Pass,0.6400000000000005,-0.30666666666666714,1.0,3.0,0.6
303.0,5.0,wc_5,,0.0,,,,0.0,,,,Fail,,,,,
303.0,5.0,wc_5,,0.0,,,60.0,,,,,Fail,,,,,
303.0,5.0,wc_5,,0.0,,,,0.0,,,,Fail,,,,,
303.0,5.0,wc_5,wc_5,0.0,"[('wc_5', 0.27000000000000013)]",0.27000000000000013,,,28.0,0.002109,['Pass'],Fail,0.27000000000000013,-0.27000000000000013,0.0,2.0,0.2
303.0,5.0,wc_5,,0.0,,,,61.0,,,,Fail,,,,,
303.0,5.0,wc_5,wc_6,0.0,"[('wc_6', 0.5000000000000003), ('wc_5', 0.27000000000000013)]",0.6350000000000002,,,35.0,0.00386,['Pass'],Fail,0.5000000000000003,-0.16666666666666702,1.0,3.0,0.4
303.0,5.0,wc_5,,0.0,,,,162.0,,,,Fail,,,,,
303.0,5.0,wc_5,wc_12,0.0,"[('wc_5', 0.27000000000000013), ('wc_6', 0.5000000000000003)]",0.6350000000000002,,,28.0,0.0062369999999999995,['Pass'],Fail,0.6000000000000004,-4.440892098500626e-16,3.0,5.0,0.6
303.0,5.0,wc_5,,0.0,,,,0.0,,,,Fail,,,,,
303.0,5.0,wc_5,wc_15,0.0,"[('wc_15', 0.5900000000000004), ('wc_12', 0.6000000000000004)]",0.8360000000000003,,,40.0,0.008244999999999999,['Fail'],Fail,0.5900000000000004,-0.5275000000000004,0.0,0.0,0.6
303.0,5.0,wc_5,,0.0,,,,0.0,,,,Fail,,,,,
303.0,5.0,wc_5,wc_16,1.0,"[('wc_16', 0.7400000000000005), ('wc_12', 0.6000000000000004), ('wc_15', 0.5900000000000004)]",0.9573600000000002,,,20.0,0.041012999999999994,['Fail'],Fail,0.7400000000000005,-0.3400000000000005,2.0,5.0,0.8
378.0,5.0,wc_5,,0.0,,,,422.0,,,,Fail,,,,,
378.0,5.0,wc_5,,0.0,,,61.0,,,,,Fail,,,,,
378.0,5.0,wc_5,,0.0,,,,0.0,,,,Fail,,,,,
378.0,5.0,wc_5,wc_5,0.0,"[('wc_5', 0.2600000000000001)]",0.2600000000000001,,,20.0,0.002221,['Fail'],Fail,0.2600000000000001,-0.2600000000000001,0.0,3.0,0.2
378.0,5.0,wc_5,,0.0,,,,61.0,,,,Fail,,,,,
378.0,5.0,wc_5,wc_6,0.0,"[('wc_6', 0.4900000000000003)]",0.4900000000000003,,,33.0,0.003961,['Pass'],Fail,0.4900000000000003,-0.24000000000000032,1.0,4.0,0.4
378.0,5.0,wc_5,,0.0,,,,321.0,,,,Fail,,,,,
378.0,5.0,wc_5,wc_3,0.0,"[('wc_3', 0.5800000000000004), ('wc_5', 0.2600000000000001)]",0.6892000000000004,,,24.0,0.006525,['Fail'],Fail,0.5800000000000004,-0.3577777777777782,2.0,9.0,0.4
378.0,5.0,wc_5,,0.0,,,,182.0,,,,Fail,,,,,
378.0,5.0,wc_5,wc_10,1.0,"[('wc_10', 0.7400000000000005), ('wc_5', 0.2600000000000001), ('wc_3', 0.5800000000000004)]",0.9191920000000002,,,30.0,0.043630999999999996,['Fail'],Fail,0.7400000000000005,-0.7400000000000005,0.0,0.0,0.5
429.0,5.0,wc_5,,0.0,,,,382.0,,,,Pass,,,,,
429.0,5.0,wc_5,,0.0,,,62.0,,,,,Pass,,,,,
429.0,5.0,wc_5,,0.0,,,,0.0,,,,Pass,,,,,
429.0,5.0,wc_5,wc_5,0.0,"[('wc_5', 0.2600000000000001)]",0.2600000000000001,,,33.0,0.001984,['Pass'],Pass,0.2600000000000001,-0.01000000000000012,1.0,4.0,0.2
429.0,5.0,wc_5,,0.0,,,,81.0,,,,Pass,,,,,
429.0,5.0,wc_5,wc_7,0.0,"[('wc_7', 0.31000000000000016), ('wc_5', 0.2600000000000001)]",0.48940000000000017,,,36.0,0.004373,['Pass'],Pass,0.31000000000000016,-0.11000000000000015,1.0,5.0,0.3
429.0,5.0,wc_5,,0.0,,,,321.0,,,,Pass,,,,,
429.0,5.0,wc_5,wc_4,0.0,"[('wc_4', 0.6400000000000005), ('wc_5', 0.2600000000000001), ('wc_7', 0.31000000000000016)]",0.8161840000000002,,,32.0,0.005998,['Pass'],Pass,0.6400000000000005,-0.44000000000000045,1.0,5.0,0.6
429.0,5.0,wc_5,,0.0,,,,81.0,,,,Pass,,,,,
429.0,5.0,wc_5,wc_2,0.0,"[('wc_2', 0.27000000000000013), ('wc_5', 0.2600000000000001), ('wc_7', 0.31000000000000016), ('wc_4', 0.6400000000000005)]",0.8658143200000002,,,32.0,0.008528,['Pass'],Pass,0.27000000000000013,-0.07000000000000012,0.0,0.0,0.2
429.0,5.0,wc_5,,0.0,,,,0.0,,,,Pass,,,,,
429.0,5.0,wc_5,wc_3,1.0,"[('wc_3', 0.5800000000000004), ('wc_5', 0.2600000000000001), ('wc_7', 0.31000000000000016), ('wc_4', 0.6400000000000005), ('wc_2', 0.27000000000000013)]",0.9436420144000002,,,26.0,0.041336,['Pass'],Pass,0.5900000000000004,0.4099999999999996,1.0,1.0,0.4
444.0,6.0,wc_6,,0.0,,,,101.0,,,,Pass,,,,,
444.0,6.0,wc_6,,0.0,,,72.0,,,,,Pass,,,,,
444.0,6.0,wc_6,,0.0,,,,0.0,,,,Pass,,,,,
444.0,6.0,wc_6,wc_6,0.0,"[('wc_6', 0.4800000000000003)]",0.4800000000000003,,,23.0,0.002403,['Pass'],Pass,0.4800000000000003,-0.3133333333333337,1.0,6.0,0.4
444.0,6.0,wc_6,,0.0,,,,202.0,,,,Pass,,,,,
444.0,6.0,wc_6,wc_1,0.0,"[('wc_1', 0.5500000000000004), ('wc_6', 0.4800000000000003)]",0.7660000000000003,,,32.0,0.004387,['Pass'],Pass,0.5500000000000004,-0.15000000000000036,0.0,0.0,0.5
444.0,6.0,wc_6,,0.0,,,,0.0,,,,Pass,,,,,
444.0,6.0,wc_6,wc_2,0.0,"[('wc_2', 0.28000000000000014), ('wc_6', 0.4800000000000003), ('wc_1', 0.5500000000000004)]",0.8315200000000003,,,24.0,0.005692,['Pass'],Pass,0.28000000000000014,0.7199999999999999,1.0,1.0,0.2
444.0,6.0,wc_6,,0.0,,,,142.0,,,,Pass,,,,,
444.0,6.0,wc_6,wc_7,0.0,"[('wc_7', 0.3200000000000002), ('wc_6', 0.4800000000000003), ('wc_1', 0.5500000000000004), ('wc_2', 0.28000000000000014)]",0.8854336000000003,,,20.0,0.008252,['Pass'],Pass,0.3200000000000002,0.013333333333333142,2.0,6.0,0.3
444.0,6.0,wc_6,,0.0,,,,223.0,,,,Pass,,,,,
444.0,6.0,wc_6,wc_16,1.0,"[('wc_16', 0.7400000000000005), ('wc_6', 0.4800000000000003), ('wc_1', 0.5500000000000004), ('wc_2', 0.28000000000000014), ('wc_7', 0.3200000000000002)]",0.9702127360000001,,,34.0,0.043861000000000004,['Pass'],Pass,0.7400000000000005,-0.36500000000000055,3.0,8.0,0.8
452.0,8.0,wc_8,,0.0,,,,243.0,,,,Fail,,,,,
452.0,8.0,wc_8,,0.0,,,64.0,,,,,Fail,,,,,
452.0,8.0,wc_8,,0.0,,,,0.0,,,,Fail,,,,,
452.0,8.0,wc_8,wc_8,0.0,"[('wc_8', 0.19000000000000006)]",0.19000000000000006,,,30.0,0.002106,['Fail'],Fail,0.19000000000000006,-0.09000000000000005,0.0,0.0,0.2
452.0,8.0,wc_8,,0.0,,,,102.0,,,,Fail,,,,,
452.0,8.0,wc_8,wc_7,0.0,"[('wc_7', 0.3300000000000002), ('wc_8', 0.19000000000000006)]",0.45730000000000015,,,25.0,0.004107,['Fail'],Fail,0.3300000000000002,0.09857142857142837,3.0,7.0,0.3
452.0,8.0,wc_8,,0.0,,,,182.0,,,,Fail,,,,,
452.0,8.0,wc_8,wc_14,0.0,"[('wc_14', 0.7900000000000006), ('wc_8', 0.19000000000000006), ('wc_7', 0.3300000000000002)]",0.8860330000000004,,,25.0,0.0059700000000000005,['Fail'],Fail,0.7900000000000006,-0.6900000000000006,0.0,0.0,1.0
452.0,8.0,wc_8,,0.0,,,,301.0,,,,Fail,,,,,
452.0,8.0,wc_8,wc_10,1.0,"[('wc_10', 0.7400000000000005), ('wc_8', 0.19000000000000006), ('wc_7', 0.3300000000000002), ('wc_14', 0.7900000000000006)]",0.9703685800000001,,,20.0,0.041634000000000004,['Fail'],Fail,0.7400000000000005,-0.40666666666666723,1.0,3.0,0.5
459.0,11.0,wc_11,,0.0,,,,0.0,,,,Fail,,,,,
459.0,11.0,wc_11,,0.0,,,65.0,,,,,Fail,,,,,
459.0,11.0,wc_11,,0.0,,,,0.0,,,,Fail,,,,,
459.0,11.0,wc_11,wc_11,0.0,"[('wc_11', 0.6400000000000005)]",0.6400000000000005,,,31.0,0.002247,['Fail'],Fail,0.6400000000000005,-0.35428571428571476,2.0,7.0,0.6
459.0,11.0,wc_11,,0.0,,,,103.0,,,,Fail,,,,,
459.0,11.0,wc_11,wc_10,0.0,"[('wc_10', 0.7400000000000005), ('wc_11', 0.6400000000000005)]",0.9064000000000003,,,33.0,0.0037359999999999997,['Fail'],Fail,0.7400000000000005,-0.40666666666666723,1.0,3.0,0.5
459.0,11.0,wc_11,,0.0,,,,41.0,,,,Fail,,,,,
459.0,11.0,wc_11,wc_6,1.0,"[('wc_6', 0.4800000000000003), ('wc_11', 0.6400000000000005), ('wc_10', 0.7400000000000005)]",0.9513280000000002,,,34.0,0.042853,['Fail'],Fail,0.4800000000000003,-0.146666666666667,3.0,9.0,0.4
472.0,11.0,wc_11,,0.0,,,,0.0,,,,Fail,,,,,
472.0,11.0,wc_11,,0.0,,,78.0,,,,,Fail,,,,,
472.0,11.0,wc_11,,0.0,,,,0.0,,,,Fail,,,,,
472.0,11.0,wc_11,wc_11,0.0,"[('wc_11', 0.6400000000000005)]",0.6400000000000005,,,25.0,0.00197,['Fail'],Fail,0.6400000000000005,-0.26500000000000046,3.0,8.0,0.6
472.0,11.0,wc_11,,0.0,,,,81.0,,,,Fail,,,,,
472.0,11.0,wc_11,wc_13,0.0,"[('wc_13', 0.7700000000000006)]",0.7700000000000006,,,31.0,0.0038669999999999998,['Pass'],Fail,0.7700000000000006,-0.6930769230769236,0.0,0.0,0.8
472.0,11.0,wc_11,,0.0,,,,0.0,,,,Fail,,,,,
472.0,11.0,wc_11,wc_15,0.0,"[('wc_15', 0.6000000000000004), ('wc_11', 0.6400000000000005)]",0.8560000000000003,,,39.0,0.00639,['Fail'],Fail,0.6000000000000004,-0.4333333333333338,1.0,6.0,0.6
472.0,11.0,wc_11,,0.0,,,,0.0,,,,Fail,,,,,
472.0,11.0,wc_11,wc_17,0.0,"[('wc_17', 0.7600000000000006), ('wc_13', 0.7700000000000006)]",0.9448000000000003,,,31.0,0.007854,['Pass'],Fail,0.7600000000000006,-0.42666666666666725,0.0,0.0,0.5
472.0,11.0,wc_11,,0.0,,,,61.0,,,,Fail,,,,,
472.0,11.0,wc_11,wc_14,1.0,"[('wc_14', 0.8000000000000006), ('wc_11', 0.6400000000000005), ('wc_15', 0.6000000000000004)]",0.9712000000000002,,,38.0,0.044752999999999994,['Fail'],Fail,0.8000000000000006,-0.13333333333333397,2.0,3.0,1.0
483.0,8.0,wc_8,,0.0,,,,182.0,,,,Fail,,,,,
483.0,8.0,wc_8,,0.0,,,66.0,,,,,Fail,,,,,
483.0,8.0,wc_8,,0.0,,,,0.0,,,,Fail,,,,,
483.0,8.0,wc_8,wc_8,0.0,"[('wc_8', 0.20000000000000007)]",0.20000000000000007,,,38.0,0.002617,['Fail'],Fail,0.20000000000000007,0.13333333333333325,1.0,3.0,0.2
483.0,8.0,wc_8,,0.0,,,,0.0,,,,Fail,,,,,
483.0,8.0,wc_8,wc_10,0.0,"[('wc_10', 0.7400000000000005), ('wc_8', 0.20000000000000007)]",0.7920000000000005,,,30.0,0.004332,['Fail'],Fail,0.7400000000000005,-0.3400000000000005,2.0,5.0,0.5
483.0,8.0,wc_8,,0.0,,,,61.0,,,,Fail,,,,,
483.0,8.0,wc_8,wc_7,0.0,"[('wc_8', 0.20000000000000007), ('wc_10', 0.7400000000000005)]",0.7920000000000005,,,26.0,0.006006,['Fail'],Fail,0.3400000000000002,0.05999999999999983,0.0,0.0,0.3
483.0,8.0,wc_8,,0.0,,,,102.0,,,,Fail,,,,,
483.0,8.0,wc_8,wc_6,0.0,"[('wc_8', 0.20000000000000007), ('wc_10', 0.7400000000000005)]",0.7920000000000005,,,34.0,0.007952,['Fail'],Fail,0.4800000000000003,-0.18000000000000033,0.0,0.0,0.4
483.0,8.0,wc_8,,0.0,,,,0.0,,,,Fail,,,,,
483.0,8.0,wc_8,wc_9,1.0,"[('wc_9', 0.8600000000000007), ('wc_8', 0.20000000000000007), ('wc_10', 0.7400000000000005)]",0.9708800000000002,,,38.0,0.042631,['Fail'],Fail,0.8600000000000007,-0.8600000000000007,0.0,0.0,1.0
494.0,7.0,wc_7,,0.0,,,,81.0,,,,Fail,,,,,
494.0,7.0,wc_7,,0.0,,,71.0,,,,,Fail,,,,,
494.0,7.0,wc_7,,0.0,,,,0.0,,,,Fail,,,,,
494.0,7.0,wc_7,wc_7,0.0,"[('wc_7', 0.3300000000000002)]",0.3300000000000002,,,29.0,0.002068,['Pass'],Fail,0.3300000000000002,-0.3300000000000002,0.0,1.0,0.3
494.0,7.0,wc_7,,0.0,,,,0.0,,,,Fail,,,,,
494.0,7.0,wc_7,wc_11,0.0,"[('wc_11', 0.6400000000000005)]",0.6400000000000005,,,20.0,0.003783,['Fail'],Fail,0.6400000000000005,-0.24000000000000044,0.0,0.0,0.6
494.0,7.0,wc_7,,0.0,,,,223.0,,,,Fail,,,,,
494.0,7.0,wc_7,wc_2,0.0,"[('wc_2', 0.29000000000000015), ('wc_11', 0.6400000000000005)]",0.7444000000000004,,,20.0,0.005665,['Fail'],Fail,0.29000000000000015,0.04333333333333317,2.0,6.0,0.2
494.0,7.0,wc_7,,0.0,,,,202.0,,,,Fail,,,,,
494.0,7.0,wc_7,wc_14,1.0,"[('wc_14', 0.8000000000000006), ('wc_11', 0.6400000000000005), ('wc_2', 0.29000000000000015)]",0.9488800000000003,,,32.0,0.039665000000000006,['Fail'],Fail,0.8000000000000006,-0.20000000000000062,3.0,5.0,1.0
505.0,7.0,wc_7,,0.0,,,,162.0,,,,Fail,,,,,
505.0,7.0,wc_7,,0.0,,,78.0,,,,,Fail,,,,,
505.0,7.0,wc_7,,0.0,,,,0.0,,,,Fail,,,,,
505.0,7.0,wc_7,wc_7,0.0,"[('wc_7', 0.3200000000000002)]",0.3200000000000002,,,27.0,0.001974,['Fail'],Fail,0.3200000000000002,-0.3200000000000002,0.0,2.0,0.3
505.0,7.0,wc_7,,0.0,,,,142.0,,,,Fail,,,,,
505.0,7.0,wc_7,wc_12,0.0,"[('wc_12', 0.6100000000000004), ('wc_7', 0.3200000000000002)]",0.7348000000000003,,,31.0,0.004618000000000001,['Fail'],Fail,0.6100000000000004,-0.32428571428571473,0.0,0.0,0.6
505.0,7.0,wc_7,,0.0,,,,321.0,,,,Fail,,,,,
505.0,7.0,wc_7,wc_9,1.0,"[('wc_9', 0.8600000000000007), ('wc_7', 0.3200000000000002), ('wc_12', 0.6100000000000004)]",0.9628720000000002,,,23.0,0.039250999999999994,['Fail'],Fail,0.8600000000000007,-0.36000000000000065,1.0,2.0,1.0
515.0,11.0,wc_11,,0.0,,,,0.0,,,,Fail,,,,,
515.0,11.0,wc_11,,0.0,,,64.0,,,,,Fail,,,,,
515.0,11.0,wc_11,,0.0,,,,0.0,,,,Fail,,,,,
515.0,11.0,wc_11,wc_11,0.0,"[('wc_11', 0.6500000000000005)]",0.6500000000000005,,,27.0,0.002223,['Fail'],Fail,0.6500000000000005,-0.15000000000000047,1.0,2.0,0.6
515.0,11.0,wc_11,,0.0,,,,122.0,,,,Fail,,,,,
515.0,11.0,wc_11,wc_15,0.0,"[('wc_15', 0.6000000000000004), ('wc_11', 0.6500000000000005)]",0.8600000000000003,,,35.0,0.003976,['Fail'],Fail,0.6000000000000004,-0.4000000000000004,0.0,0.0,0.6
515.0,11.0,wc_11,,0.0,,,,0.0,,,,Fail,,,,,
515.0,11.0,wc_11,wc_17,1.0,"[('wc_17', 0.7500000000000006), ('wc_11', 0.6500000000000005), ('wc_15', 0.6000000000000004)]",0.9650000000000002,,,33.0,0.038024999999999996,['Fail'],Fail,0.7500000000000006,-0.5500000000000005,1.0,5.0,0.5
524.0,7.0,wc_7,,0.0,,,,203.0,,,,Pass,,,,,
524.0,7.0,wc_7,,0.0,,,63.0,,,,,Pass,,,,,
524.0,7.0,wc_7,,0.0,,,,0.0,,,,Pass,,,,,
524.0,7.0,wc_7,wc_7,0.0,"[('wc_7', 0.3300000000000002)]",0.3300000000000002,,,30.0,0.002341,['Pass'],Pass,0.3300000000000002,-0.08000000000000018,1.0,4.0,0.3
524.0,7.0,wc_7,,0.0,,,,321.0,,,,Pass,,,,,
524.0,7.0,wc_7,wc_4,0.0,"[('wc_4', 0.6400000000000005), ('wc_7', 0.3300000000000002)]",0.7588000000000004,,,34.0,0.003984,['Pass'],Pass,0.6400000000000005,-0.4971428571428576,0.0,0.0,0.6
524.0,7.0,wc_7,,0.0,,,,81.0,,,,Pass,,,,,
524.0,7.0,wc_7,wc_6,0.0,"[('wc_7', 0.3300000000000002), ('wc_4', 0.6400000000000005)]",0.7588000000000004,,,38.0,0.005872,['Pass'],Pass,0.4700000000000003,-0.4700000000000003,0.0,4.0,0.4
524.0,7.0,wc_7,,0.0,,,,361.0,,,,Pass,,,,,
524.0,7.0,wc_7,wc_5,0.0,"[('wc_5', 0.27000000000000013), ('wc_7', 0.3300000000000002), ('wc_4', 0.6400000000000005)]",0.8239240000000003,,,26.0,0.007585,['Pass'],Pass,0.27000000000000013,-0.11615384615384627,0.0,0.0,0.2
524.0,7.0,wc_7,,0.0,,,,121.0,,,,Pass,,,,,
524.0,7.0,wc_7,wc_13,1.0,"[('wc_13', 0.7600000000000006), ('wc_7', 0.3300000000000002), ('wc_4', 0.6400000000000005), ('wc_5', 0.27000000000000013)]",0.9577417600000002,,,24.0,0.044765999999999986,['Pass'],Pass,0.7600000000000006,-0.5933333333333339,1.0,6.0,0.8
538.0,10.0,wc_10,,0.0,,,,321.0,,,,Fail,,,,,
538.0,10.0,wc_10,,0.0,,,75.0,,,,,Fail,,,,,
538.0,10.0,wc_10,,0.0,,,,0.0,,,,Fail,,,,,
538.0,10.0,wc_10,wc_10,0.0,"[('wc_10', 0.7400000000000005)]",0.7400000000000005,,,36.0,0.002094,['Fail'],Fail,0.7400000000000005,-0.44000000000000056,0.0,0.0,0.5
538.0,10.0,wc_10,,0.0,,,,182.0,,,,Fail,,,,,
538.0,10.0,wc_10,wc_17,0.0,"[('wc_17', 0.7500000000000006), ('wc_10', 0.7400000000000005)]",0.9350000000000003,,,30.0,0.00426,['Fail'],Fail,0.7500000000000006,-0.5833333333333339,1.0,6.0,0.5
538.0,10.0,wc_10,,0.0,,,,21.0,,,,Fail,,,,,
538.0,10.0,wc_10,wc_12,1.0,"[('wc_12', 0.6200000000000004), ('wc_10', 0.7400000000000005), ('wc_17', 0.7500000000000006)]",0.9753000000000002,,,31.0,0.042654,['Fail'],Fail,0.6200000000000004,-0.12000000000000044,2.0,4.0,0.6
545.0,10.0,wc_10,,0.0,,,,341.0,,,,Pass,,,,,
545.0,10.0,wc_10,,0.0,,,65.0,,,,,Pass,,,,,
545.0,10.0,wc_10,,0.0,,,,0.0,,,,Pass,,,,,
545.0,10.0,wc_10,wc_10,0.0,"[('wc_10', 0.7500000000000006)]",0.7500000000000006,,,20.0,0.002203,['Pass'],Pass,0.7500000000000006,0.24999999999999944,1.0,1.0,0.5
545.0,10.0,wc_10,,0.0,,,,362.0,,,,Pass,,,,,
545.0,10.0,wc_10,wc_4,0.0,"[('wc_4', 0.6500000000000005), ('wc_10', 0.7500000000000006)]",0.9125000000000003,,,35.0,0.00373,['Pass'],Pass,0.6500000000000005,-0.15000000000000047,1.0,2.0,0.6
545.0,10.0,wc_10,,0.0,,,,182.0,,,,Pass,,,,,
545.0,10.0,wc_10,wc_11,1.0,"[('wc_11', 0.6600000000000005), ('wc_10', 0.7500000000000006), ('wc_4', 0.6500000000000005)]",0.9702500000000002,,,38.0,0.045181,['Pass'],Pass,0.6600000000000005,-0.16000000000000048,3.0,6.0,0.6
553.0,8.0,wc_8,,0.0,,,,61.0,,,,Fail,,,,,
553.0,8.0,wc_8,,0.0,,,68.0,,,,,Fail,,,,,
553.0,8.0,wc_8,,0.0,,,,0.0,,,,Fail,,,,,
553.0,8.0,wc_8,wc_8,0.0,"[('wc_8', 0.21000000000000008)]",0.21000000000000008,,,23.0,0.002083,['Fail'],Fail,0.21000000000000008,-0.010000000000000064,0.0,0.0,0.2
553.0,8.0,wc_8,,0.0,,,,0.0,,,,Fail,,,,,
553.0,8.0,wc_8,wc_10,0.0,"[('wc_10', 0.7600000000000006), ('wc_8', 0.21000000000000008)]",0.8104000000000005,,,35.0,0.004233000000000001,['Fail'],Fail,0.7600000000000006,0.23999999999999944,2.0,2.0,0.5
553.0,8.0,wc_8,,0.0,,,,41.0,,,,Fail,,,,,
553.0,8.0,wc_8,wc_6,0.0,"[('wc_6', 0.4600000000000003), ('wc_8', 0.21000000000000008), ('wc_10', 0.7600000000000006)]",0.8976160000000003,,,20.0,0.007044,['Fail'],Fail,0.4600000000000003,-0.4600000000000003,0.0,7.0,0.4
553.0,8.0,wc_8,,0.0,,,,182.0,,,,Fail,,,,,
553.0,8.0,wc_8,wc_13,1.0,"[('wc_13', 0.7600000000000006), ('wc_8', 0.21000000000000008), ('wc_10', 0.7600000000000006), ('wc_6', 0.4600000000000003)]",0.9754278400000002,,,37.0,0.041896,['Fail'],Fail,0.7600000000000006,-0.5377777777777784,2.0,9.0,0.8
563.0,9.0,wc_9,,0.0,,,,301.0,,,,Pass,,,,,
563.0,9.0,wc_9,,0.0,,,59.0,,,,,Pass,,,,,
563.0,9.0,wc_9,,0.0,,,,0.0,,,,Pass,,,,,
563.0,9.0,wc_9,wc_9,0.0,"[('wc_9', 0.8600000000000007)]",0.8600000000000007,,,34.0,0.002191,['Pass'],Pass,0.8600000000000007,-0.7171428571428577,1.0,7.0,1.0
563.0,9.0,wc_9,,0.0,,,,182.0,,,,Pass,,,,,
563.0,9.0,wc_9,wc_16,0.0,"[('wc_16', 0.7400000000000005), ('wc_9', 0.8600000000000007)]",0.9636000000000002,,,35.0,0.004059,['Pass'],Pass,0.7400000000000005,-0.5821052631578953,0.0,0.0,0.8
563.0,9.0,wc_9,,0.0,,,,0.0,,,,Pass,,,,,
563.0,9.0,wc_9,wc_17,1.0,"[('wc_17', 0.7500000000000006), ('wc_9', 0.8600000000000007), ('wc_16', 0.7400000000000005)]",0.9909000000000001,,,34.0,0.038372,['Pass'],Pass,0.7500000000000006,-0.7500000000000006,0.0,0.0,0.5
574.0,8.0,wc_8,,0.0,,,,223.0,,,,Pass,,,,,
574.0,8.0,wc_8,,0.0,,,51.0,,,,,Pass,,,,,
574.0,8.0,wc_8,,0.0,,,,0.0,,,,Pass,,,,,
574.0,8.0,wc_8,wc_8,0.0,"[('wc_8', 0.22000000000000008)]",0.22000000000000008,,,21.0,0.002059,['Fail'],Pass,0.22000000000000008,0.2799999999999999,1.0,2.0,0.2
574.0,8.0,wc_8,,0.0,,,,122.0,,,,Pass,,,,,
574.0,8.0,wc_8,wc_12,0.0,"[('wc_12', 0.6200000000000004), ('wc_8', 0.22000000000000008)]",0.7036000000000004,,,31.0,0.00401,['Fail'],Pass,0.6200000000000004,-0.33428571428571474,2.0,7.0,0.6
574.0,8.0,wc_8,,0.0,,,,381.0,,,,Pass,,,,,
574.0,8.0,wc_8,wc_4,0.0,"[('wc_8', 0.22000000000000008), ('wc_12', 0.6200000000000004)]",0.7036000000000004,,,35.0,0.006090999999999999,['Fail'],Pass,0.6600000000000005,-0.26000000000000045,2.0,5.0,0.6
574.0,8.0,wc_8,,0.0,,,,61.0,,,,Pass,,,,,
574.0,8.0,wc_8,wc_1,0.0,"[('wc_1', 0.5600000000000004), ('wc_4', 0.6600000000000005)]",0.8504000000000004,,,40.0,0.011788,['Pass'],Pass,0.5600000000000004,-0.48307692307692346,0.0,0.0,0.5
574.0,8.0,wc_8,,0.0,,,,223.0,,,,Pass,,,,,
574.0,8.0,wc_8,wc_10,1.0,"[('wc_10', 0.7700000000000006), ('wc_4', 0.6600000000000005), ('wc_1', 0.5600000000000004)]",0.9655920000000001,,,35.0,0.045306,['Pass'],Pass,0.7800000000000006,0.019999999999999463,4.0,5.0,0.5
582.0,11.0,wc_11,,0.0,,,,0.0,,,,Pass,,,,,
582.0,11.0,wc_11,,0.0,,,60.0,,,,,Pass,,,,,
582.0,11.0,wc_11,,0.0,,,,0.0,,,,Pass,,,,,
582.0,11.0,wc_11,wc_11,0.0,"[('wc_11', 0.6600000000000005)]",0.6600000000000005,,,40.0,0.002304,['Fail'],Pass,0.6600000000000005,-0.32666666666666716,3.0,9.0,0.6
582.0,11.0,wc_11,,0.0,,,,61.0,,,,Pass,,,,,
582.0,11.0,wc_11,wc_8,0.0,"[('wc_11', 0.6600000000000005)]",0.6600000000000005,,,36.0,0.003894,['Fail'],Pass,0.22000000000000008,0.11333333333333323,1.0,3.0,0.2
582.0,11.0,wc_11,,0.0,,,,142.0,,,,Pass,,,,,
582.0,11.0,wc_11,wc_13,0.0,"[('wc_13', 0.7600000000000006), ('wc_8', 0.22000000000000008)]",0.8128000000000004,,,23.0,0.005599,['Pass'],Pass,0.7600000000000006,-0.5781818181818188,0.0,0.0,0.8
582.0,11.0,wc_11,,0.0,,,,242.0,,,,Pass,,,,,
582.0,11.0,wc_11,wc_2,0.0,"[('wc_2', 0.30000000000000016), ('wc_8', 0.22000000000000008), ('wc_13', 0.7600000000000006)]",0.8689600000000004,,,36.0,0.007486,['Pass'],Pass,0.30000000000000016,-0.10000000000000014,0.0,0.0,0.2
582.0,11.0,wc_11,,0.0,,,,0.0,,,,Pass,,,,,
582.0,11.0,wc_11,wc_5,0.0,"[('wc_8', 0.22000000000000008), ('wc_13', 0.7600000000000006), ('wc_2', 0.30000000000000016)]",0.8689600000000004,,,33.0,0.008773999999999999,['Pass'],Pass,0.28000000000000014,-0.11333333333333348,1.0,6.0,0.2
582.0,11.0,wc_11,,0.0,,,,61.0,,,,Pass,,,,,
582.0,11.0,wc_11,wc_6,1.0,"[('wc_6', 0.4600000000000003), ('wc_8', 0.22000000000000008), ('wc_13', 0.7600000000000006), ('wc_2', 0.30000000000000016)]",0.9292384000000002,,,20.0,0.048493,['Pass'],Pass,0.4600000000000003,-0.4600000000000003,0.0,0.0,0.4
592.0,12.0,wc_12,,0.0,,,,162.0,,,,Fail,,,,,
592.0,12.0,wc_12,,0.0,,,80.0,,,,,Fail,,,,,
592.0,12.0,wc_12,,0.0,,,,0.0,,,,Fail,,,,,
592.0,12.0,wc_12,wc_12,0.0,"[('wc_12', 0.6100000000000004)]",0.6100000000000004,,,37.0,0.002262,['Fail'],Fail,0.6100000000000004,-0.3877777777777782,2.0,9.0,0.6
592.0,12.0,wc_12,,0.0,,,,361.0,,,,Fail,,,,,
592.0,12.0,wc_12,wc_3,0.0,"[('wc_3', 0.5900000000000004), ('wc_12', 0.6100000000000004)]",0.8401000000000003,,,34.0,0.00383,['Fail'],Fail,0.5900000000000004,-0.5275000000000004,0.0,0.0,0.4
592.0,12.0,wc_12,,0.0,,,,242.0,,,,Fail,,,,,
592.0,12.0,wc_12,wc_17,1.0,"[('wc_17', 0.7500000000000006), ('wc_12', 0.6100000000000004), ('wc_3', 0.5900000000000004)]",0.9600250000000001,,,38.0,0.04151200000000001,['Fail'],Fail,0.7500000000000006,-0.41666666666666724,1.0,3.0,0.5
607.0,12.0,wc_12,,0.0,,,,21.0,,,,Pass,,,,,
607.0,12.0,wc_12,,0.0,,,69.0,,,,,Pass,,,,,
607.0,12.0,wc_12,,0.0,,,,0.0,,,,Pass,,,,,
607.0,12.0,wc_12,wc_12,0.0,"[('wc_12', 0.6100000000000004)]",0.6100000000000004,,,37.0,0.002229,['Pass'],Pass,0.6100000000000004,-0.6100000000000004,0.0,0.0,0.6
607.0,12.0,wc_12,,0.0,,,,361.0,,,,Pass,,,,,
607.0,12.0,wc_12,wc_11,0.0,"[('wc_11', 0.6500000000000005), ('wc_12', 0.6100000000000004)]",0.8635000000000004,,,29.0,0.003718,['Pass'],Pass,0.6500000000000005,-0.6500000000000005,0.0,1.0,0.6
607.0,12.0,wc_12,,0.0,,,,203.0,,,,Pass,,,,,
607.0,12.0,wc_12,wc_1,1.0,"[('wc_1', 0.5700000000000004), ('wc_12', 0.6100000000000004), ('wc_11', 0.6500000000000005)]",0.9413050000000002,,,37.0,0.041491,['Pass'],Pass,0.5700000000000004,-0.0700000000000004,2.0,4.0,0.5
614.0,13.0,wc_13,,0.0,,,,202.0,,,,Pass,,,,,
614.0,13.0,wc_13,,0.0,,,54.0,,,,,Pass,,,,,
614.0,13.0,wc_13,,0.0,,,,0.0,,,,Pass,,,,,
614.0,13.0,wc_13,wc_13,0.0,"[('wc_13', 0.7700000000000006)]",0.7700000000000006,,,24.0,0.002127,['Pass'],Pass,0.7700000000000006,-0.43666666666666726,1.0,3.0,0.8
614.0,13.0,wc_13,,0.0,,,,0.0,,,,Pass,,,,,
614.0,13.0,wc_13,wc_16,0.0,"[('wc_16', 0.7500000000000006), ('wc_13', 0.7700000000000006)]",0.9425000000000002,,,31.0,0.004616,['Pass'],Pass,0.7500000000000006,-0.5500000000000005,1.0,5.0,0.8
614.0,13.0,wc_13,,0.0,,,,422.0,,,,Pass,,,,,
614.0,13.0,wc_13,wc_5,0.0,"[('wc_13', 0.7700000000000006), ('wc_16', 0.7500000000000006)]",0.9425000000000002,,,31.0,0.005964,['Pass'],Pass,0.27000000000000013,-0.15888888888888902,1.0,9.0,0.2
614.0,13.0,wc_13,,0.0,,,,162.0,,,,Pass,,,,,
614.0,13.0,wc_13,wc_11,1.0,"[('wc_11', 0.6500000000000005), ('wc_13', 0.7700000000000006), ('wc_16', 0.7500000000000006)]",0.9798750000000002,,,38.0,0.045064999999999994,['Pass'],Pass,0.6600000000000005,0.0066666666666661545,2.0,3.0,0.6
619.0,16.0,wc_16,,0.0,,,,142.0,,,,Fail,,,,,
619.0,16.0,wc_16,,0.0,,,62.0,,,,,Fail,,,,,
619.0,16.0,wc_16,,0.0,,,,0.0,,,,Fail,,,,,
619.0,16.0,wc_16,wc_16,0.0,"[('wc_16', 0.7500000000000006)]",0.7500000000000006,,,38.0,0.002315,['Fail'],Fail,0.7500000000000006,-0.41666666666666724,2.0,6.0,0.8
619.0,16.0,wc_16,,0.0,,,,103.0,,,,Fail,,,,,
619.0,16.0,wc_16,wc_15,0.0,"[('wc_15', 0.6100000000000004), ('wc_16', 0.7500000000000006)]",0.9025000000000003,,,39.0,0.003988,['Fail'],Fail,0.6100000000000004,-0.5190909090909095,0.0,0.0,0.6
619.0,16.0,wc_16,,0.0,,,,283.0,,,,Fail,,,,,
619.0,16.0,wc_16,wc_1,1.0,"[('wc_1', 0.5700000000000004), ('wc_16', 0.7500000000000006), ('wc_15', 0.6100000000000004)]",0.9580750000000002,,,28.0,0.046406,['Fail'],Fail,0.5700000000000004,-0.0700000000000004,3.0,6.0,0.5
630.0,14.0,wc_14,,0.0,,,,222.0,,,,Fail,,,,,
630.0,14.0,wc_14,,0.0,,,76.0,,,,,Fail,,,,,
630.0,14.0,wc_14,,0.0,,,,0.0,,,,Fail,,,,,
630.0,14.0,wc_14,wc_14,0.0,"[('wc_14', 0.8000000000000006)]",0.8000000000000006,,,22.0,0.002165,['Fail'],Fail,0.8000000000000006,-0.633333333333334,0.0,0.0,1.0
630.0,14.0,wc_14,,0.0,,,,321.0,,,,Fail,,,,,
630.0,14.0,wc_14,wc_3,0.0,"[('wc_3', 0.6000000000000004), ('wc_14', 0.8000000000000006)]",0.9200000000000004,,,37.0,0.004307999999999999,['Fail'],Fail,0.6000000000000004,-0.3500000000000004,1.0,4.0,0.4
630.0,14.0,wc_14,,0.0,,,,222.0,,,,Fail,,,,,
630.0,14.0,wc_14,wc_16,1.0,"[('wc_16', 0.7500000000000006), ('wc_14', 0.8000000000000006), ('wc_3', 0.6000000000000004)]",0.9800000000000001,,,27.0,0.041749,['Fail'],Fail,0.7500000000000006,-0.25000000000000056,4.0,8.0,0.8
639.0,16.0,wc_16,,0.0,,,,0.0,,,,Fail,,,,,
639.0,16.0,wc_16,,0.0,,,70.0,,,,,Fail,,,,,
639.0,16.0,wc_16,,0.0,,,,0.0,,,,Fail,,,,,
639.0,16.0,wc_16,wc_16,0.0,"[('wc_16', 0.7500000000000006)]",0.7500000000000006,,,26.0,0.002218,['Fail'],Fail,0.7500000000000006,-0.25000000000000056,4.0,8.0,0.8
639.0,16.0,wc_16,,0.0,,,,223.0,,,,Fail,,,,,
639.0,16.0,wc_16,wc_7,0.0,"[('wc_7', 0.3400000000000002), ('wc_16', 0.7500000000000006)]",0.8350000000000004,,,20.0,0.0045850000000000005,['Fail'],Fail,0.3400000000000002,-0.2150000000000002,0.0,0.0,0.3
639.0,16.0,wc_16,,0.0,,,,203.0,,,,Fail,,,,,
639.0,16.0,wc_16,wc_15,1.0,"[('wc_15', 0.6200000000000004), ('wc_16', 0.7500000000000006), ('wc_7', 0.3400000000000002)]",0.9373000000000002,,,34.0,0.042702000000000004,['Fail'],Fail,0.6300000000000004,0.03666666666666618,2.0,3.0,0.6
648.0,15.0,wc_15,,0.0,,,,0.0,,,,Pass,,,,,
648.0,15.0,wc_15,,0.0,,,52.0,,,,,Pass,,,,,
648.0,15.0,wc_15,,0.0,,,,0.0,,,,Pass,,,,,
648.0,15.0,wc_15,wc_15,0.0,"[('wc_15', 0.6300000000000004)]",0.6300000000000004,,,22.0,0.002204,['Pass'],Pass,0.6300000000000004,0.03666666666666618,2.0,3.0,0.6
648.0,15.0,wc_15,,0.0,,,,362.0,,,,Pass,,,,,
648.0,15.0,wc_15,wc_9,0.0,"[('wc_9', 0.8600000000000007), ('wc_15', 0.6300000000000004)]",0.9482000000000003,,,22.0,0.003953,['Pass'],Pass,0.8600000000000007,-0.7350000000000007,0.0,0.0,1.0
648.0,15.0,wc_15,,0.0,,,,141.0,,,,Pass,,,,,
648.0,15.0,wc_15,wc_14,1.0,"[('wc_14', 0.8100000000000006), ('wc_15', 0.6300000000000004), ('wc_9', 0.8600000000000007)]",0.9901580000000001,,,35.0,0.042419,['Pass'],Pass,0.8100000000000006,-0.14333333333333398,2.0,3.0,1.0
656.0,16.0,wc_16,,0.0,,,,0.0,,,,Fail,,,,,
656.0,16.0,wc_16,,0.0,,,57.0,,,,,Fail,,,,,
656.0,16.0,wc_16,,0.0,,,,0.0,,,,Fail,,,,,
656.0,16.0,wc_16,wc_16,0.0,"[('wc_16', 0.7500000000000006)]",0.7500000000000006,,,40.0,0.002359,['Fail'],Fail,0.7500000000000006,-0.25000000000000056,0.0,0.0,0.8
656.0,16.0,wc_16,,0.0,,,,263.0,,,,Fail,,,,,
656.0,16.0,wc_16,wc_1,0.0,"[('wc_1', 0.5700000000000004), ('wc_16', 0.7500000000000006)]",0.8925000000000003,,,25.0,0.0043479999999999994,['Fail'],Fail,0.5700000000000004,-0.23666666666666708,3.0,9.0,0.5
656.0,16.0,wc_16,,0.0,,,,162.0,,,,Fail,,,,,
656.0,16.0,wc_16,wc_7,1.0,"[('wc_7', 0.3500000000000002), ('wc_16', 0.7500000000000006), ('wc_1', 0.5700000000000004)]",0.9301250000000002,,,31.0,0.042565000000000006,['Fail'],Fail,0.3600000000000002,0.3066666666666664,2.0,3.0,0.3
661.0,16.0,wc_16,,0.0,,,,223.0,,,,Pass,,,,,
661.0,16.0,wc_16,,0.0,,,58.0,,,,,Pass,,,,,
661.0,16.0,wc_16,,0.0,,,,0.0,,,,Pass,,,,,
661.0,16.0,wc_16,wc_16,0.0,"[('wc_16', 0.7600000000000006)]",0.7600000000000006,,,21.0,0.002317,['Pass'],Pass,0.7600000000000006,0.23999999999999944,1.0,1.0,0.8
661.0,16.0,wc_16,,0.0,,,,263.0,,,,Pass,,,,,
661.0,16.0,wc_16,wc_1,0.0,"[('wc_1', 0.5700000000000004), ('wc_16', 0.7600000000000006)]",0.8968000000000004,,,34.0,0.003876,['Pass'],Pass,0.5700000000000004,-0.5700000000000004,0.0,0.0,0.5
661.0,16.0,wc_16,,0.0,,,,243.0,,,,Pass,,,,,
661.0,16.0,wc_16,wc_11,1.0,"[('wc_11', 0.6600000000000005), ('wc_16', 0.7600000000000006), ('wc_1', 0.5700000000000004)]",0.9649120000000002,,,23.0,0.042678,['Pass'],Pass,0.6600000000000005,-0.32666666666666716,3.0,9.0,0.6
674.0,14.0,wc_14,,0.0,,,,101.0,,,,Fail,,,,,
674.0,14.0,wc_14,,0.0,,,51.0,,,,,Fail,,,,,
674.0,14.0,wc_14,,0.0,,,,0.0,,,,Fail,,,,,
674.0,14.0,wc_14,wc_14,0.0,"[('wc_14', 0.8100000000000006)]",0.8100000000000006,,,32.0,0.002337,['Fail'],Fail,0.8100000000000006,-0.4100000000000006,2.0,5.0,1.0
674.0,14.0,wc_14,,0.0,,,,162.0,,,,Fail,,,,,
674.0,14.0,wc_14,wc_7,0.0,"[('wc_7', 0.3600000000000002), ('wc_14', 0.8100000000000006)]",0.8784000000000004,,,29.0,0.003857,['Fail'],Fail,0.3600000000000002,0.1399999999999998,2.0,4.0,0.3
674.0,14.0,wc_14,,0.0,,,,203.0,,,,Fail,,,,,
674.0,14.0,wc_14,wc_15,0.0,"[('wc_14', 0.8100000000000006), ('wc_7', 0.3600000000000002)]",0.8784000000000004,,,27.0,0.0058980000000000005,['Fail'],Fail,0.6400000000000005,-0.14000000000000046,3.0,6.0,0.6
674.0,14.0,wc_14,,0.0,,,,223.0,,,,Fail,,,,,
674.0,14.0,wc_14,wc_6,1.0,"[('wc_6', 0.4600000000000003), ('wc_14', 0.8100000000000006), ('wc_7', 0.3600000000000002)]",0.9343360000000003,,,32.0,0.042361,['Fail'],Fail,0.4600000000000003,-0.4600000000000003,0.0,0.0,0.4
680.0,14.0,wc_14,,0.0,,,,202.0,,,,Pass,,,,,
680.0,14.0,wc_14,,0.0,,,65.0,,,,,Pass,,,,,
680.0,14.0,wc_14,,0.0,,,,0.0,,,,Pass,,,,,
680.0,14.0,wc_14,wc_14,0.0,"[('wc_14', 0.8100000000000006)]",0.8100000000000006,,,37.0,0.002104,['Pass'],Pass,0.8100000000000006,-0.3100000000000006,3.0,6.0,1.0
680.0,14.0,wc_14,,0.0,,,,182.0,,,,Pass,,,,,
680.0,14.0,wc_14,wc_8,0.0,"[('wc_14', 0.8100000000000006)]",0.8100000000000006,,,22.0,0.004074,['Pass'],Pass,0.2300000000000001,-0.08714285714285724,0.0,0.0,0.2
680.0,14.0,wc_14,,0.0,,,,82.0,,,,Pass,,,,,
680.0,14.0,wc_14,wc_6,0.0,"[('wc_6', 0.4600000000000003), ('wc_14', 0.8100000000000006)]",0.8974000000000004,,,28.0,0.006455000000000001,['Pass'],Pass,0.4600000000000003,-0.4600000000000003,0.0,0.0,0.4
680.0,14.0,wc_14,,0.0,,,,341.0,,,,Pass,,,,,
680.0,14.0,wc_14,wc_4,0.0,"[('wc_14', 0.8100000000000006), ('wc_6', 0.4600000000000003)]",0.8974000000000004,,,35.0,0.008262,['Pass'],Pass,0.6600000000000005,-0.4835294117647063,0.0,0.0,0.6
680.0,14.0,wc_14,,0.0,,,,101.0,,,,Pass,,,,,
680.0,14.0,wc_14,wc_7,0.0,"[('wc_14', 0.8100000000000006), ('wc_6', 0.4600000000000003)]",0.8974000000000004,,,20.0,0.011859,['Pass'],Pass,0.3700000000000002,0.22999999999999976,3.0,5.0,0.3
680.0,14.0,wc_14,,0.0,,,,243.0,,,,Pass,,,,,
680.0,14.0,wc_14,wc_17,1.0,"[('wc_17', 0.7500000000000006), ('wc_14', 0.8100000000000006), ('wc_6', 0.4600000000000003)]",0.9743500000000002,,,39.0,0.04914100000000001,['Pass'],Pass,0.7500000000000006,-0.7500000000000006,0.0,0.0,0.5
682.0,17.0,wc_17,,0.0,,,,0.0,,,,Pass,,,,,
682.0,17.0,wc_17,,0.0,,,67.0,,,,,Pass,,,,,
682.0,17.0,wc_17,,0.0,,,,0.0,,,,Pass,,,,,
682.0,17.0,wc_17,wc_17,0.0,"[('wc_17', 0.7500000000000006)]",0.7500000000000006,,,38.0,0.00219,['Pass'],Pass,0.7500000000000006,-0.7500000000000006,0.0,0.0,0.5
682.0,17.0,wc_17,,0.0,,,,362.0,,,,Pass,,,,,
682.0,17.0,wc_17,wc_11,0.0,"[('wc_11', 0.6600000000000005), ('wc_17', 0.7500000000000006)]",0.9150000000000003,,,37.0,0.008541,['Pass'],Pass,0.6600000000000005,-0.38727272727272777,0.0,0.0,0.6
682.0,17.0,wc_17,,0.0,,,,342.0,,,,Pass,,,,,
682.0,17.0,wc_17,wc_4,1.0,"[('wc_4', 0.6500000000000005), ('wc_17', 0.7500000000000006), ('wc_11', 0.6600000000000005)]",0.9702500000000002,,,27.0,0.048397,['Pass'],Pass,0.6500000000000005,-0.15000000000000047,1.0,2.0,0.6
