mpecck/BCQC/bcqc_with_qdt/results/raw/input_8/independent_qc/training/20_workpiece/20200429_084420/wp_11_qc_majority_0.9.csv
production_index,step_idx,production_workcell,qc,consent,winner_qc_list,score,production_time,transport_time,inspection_time,network_time,qc_results,actual_quality,qc_score,score_error,in_winner_counter,in_qc_counter,qc_capability
34.0,1.0,wc_1,,0.0,,,80.0,,,,,Fail,,,,,
34.0,1.0,wc_1,,0.0,,,,0.0,,,,Fail,,,,,
34.0,1.0,wc_1,wc_1,0.0,"[('wc_1', 0.5000000000000003)]",0.5000000000000003,,,39.0,0.00315,['Pass'],Fail,0.5000000000000003,-0.5000000000000003,0.0,1.0,0.5
34.0,1.0,wc_1,,0.0,,,,0.0,,,,Fail,,,,,
34.0,1.0,wc_1,wc_3,0.0,"[('wc_1', 0.5000000000000003)]",0.5000000000000003,,,25.0,0.004002,['Pass'],Fail,0.39000000000000024,-0.14000000000000024,2.0,8.0,0.4
34.0,1.0,wc_1,,0.0,,,,222.0,,,,Fail,,,,,
34.0,1.0,wc_1,wc_16,0.0,"[('wc_16', 0.7200000000000005), ('wc_3', 0.39000000000000024)]",0.8292000000000004,,,39.0,0.006716,['Fail'],Fail,0.7200000000000005,-0.3866666666666672,1.0,3.0,0.8
34.0,1.0,wc_1,,0.0,,,,81.0,,,,Fail,,,,,
34.0,1.0,wc_1,wc_14,1.0,"[('wc_14', 0.7000000000000005), ('wc_3', 0.39000000000000024), ('wc_16', 0.7200000000000005)]",0.9487600000000002,,,34.0,0.042917,['Fail'],Fail,0.7000000000000005,-0.2000000000000005,2.0,4.0,1.0
122.0,1.0,wc_1,,0.0,,,,202.0,,,,Pass,,,,,
122.0,1.0,wc_1,,0.0,,,79.0,,,,,Pass,,,,,
122.0,1.0,wc_1,,0.0,,,,0.0,,,,Pass,,,,,
122.0,1.0,wc_1,wc_1,0.0,"[('wc_1', 0.4900000000000003)]",0.4900000000000003,,,29.0,0.002148,['Pass'],Pass,0.4900000000000003,-0.4900000000000003,0.0,2.0,0.5
122.0,1.0,wc_1,,0.0,,,,142.0,,,,Pass,,,,,
122.0,1.0,wc_1,wc_6,0.0,"[('wc_6', 0.4600000000000003), ('wc_1', 0.4900000000000003)]",0.7246000000000004,,,21.0,0.004313,['Pass'],Pass,0.4600000000000003,-0.3859259259259262,0.0,0.0,0.4
122.0,1.0,wc_1,,0.0,,,,202.0,,,,Pass,,,,,
122.0,1.0,wc_1,wc_14,1.0,"[('wc_14', 0.7000000000000005), ('wc_1', 0.4900000000000003), ('wc_6', 0.4600000000000003)]",0.9173800000000002,,,21.0,0.039344,['Pass'],Pass,0.7000000000000005,-0.10000000000000053,3.0,5.0,1.0
139.0,2.0,wc_2,,0.0,,,,222.0,,,,Fail,,,,,
139.0,2.0,wc_2,,0.0,,,75.0,,,,,Fail,,,,,
139.0,2.0,wc_2,,0.0,,,,0.0,,,,Fail,,,,,
139.0,2.0,wc_2,wc_2,0.0,"[('wc_2', 0.3200000000000002)]",0.3200000000000002,,,27.0,0.002133,['Pass'],Fail,0.3200000000000002,-0.17714285714285732,0.0,0.0,0.2
139.0,2.0,wc_2,,0.0,,,,223.0,,,,Fail,,,,,
139.0,2.0,wc_2,wc_11,0.0,"[('wc_11', 0.6200000000000004)]",0.6200000000000004,,,24.0,0.004225,['Fail'],Fail,0.6200000000000004,-0.6200000000000004,0.0,3.0,0.6
139.0,2.0,wc_2,,0.0,,,,362.0,,,,Fail,,,,,
139.0,2.0,wc_2,wc_5,0.0,"[('wc_11', 0.6200000000000004)]",0.6200000000000004,,,22.0,0.006132,['Fail'],Fail,0.21000000000000008,-0.21000000000000008,0.0,0.0,0.2
139.0,2.0,wc_2,,0.0,,,,81.0,,,,Fail,,,,,
139.0,2.0,wc_2,wc_7,0.0,"[('wc_7', 0.3300000000000002), ('wc_11', 0.6200000000000004)]",0.7454000000000003,,,29.0,0.008183,['Fail'],Fail,0.3300000000000002,-0.21235294117647077,0.0,0.0,0.3
139.0,2.0,wc_2,,0.0,,,,301.0,,,,Fail,,,,,
139.0,2.0,wc_2,wc_3,0.0,"[('wc_3', 0.39000000000000024), ('wc_11', 0.6200000000000004), ('wc_7', 0.3300000000000002)]",0.8446940000000003,,,25.0,0.009588,['Fail'],Fail,0.39000000000000024,-0.09000000000000025,0.0,0.0,0.4
139.0,2.0,wc_2,,0.0,,,,181.0,,,,Fail,,,,,
139.0,2.0,wc_2,wc_14,1.0,"[('wc_14', 0.7000000000000005), ('wc_11', 0.6200000000000004), ('wc_7', 0.3300000000000002), ('wc_3', 0.39000000000000024)]",0.9534082000000001,,,20.0,0.04358599999999999,['Fail'],Fail,0.7000000000000005,-0.03333333333333388,4.0,6.0,1.0
160.0,4.0,wc_4,,0.0,,,,341.0,,,,Pass,,,,,
160.0,4.0,wc_4,,0.0,,,77.0,,,,,Pass,,,,,
160.0,4.0,wc_4,,0.0,,,,0.0,,,,Pass,,,,,
160.0,4.0,wc_4,wc_4,0.0,"[('wc_4', 0.6400000000000005)]",0.6400000000000005,,,33.0,0.002181,['Fail'],Pass,0.6400000000000005,-0.6400000000000005,0.0,4.0,0.6
160.0,4.0,wc_4,,0.0,,,,81.0,,,,Pass,,,,,
160.0,4.0,wc_4,wc_6,0.0,"[('wc_4', 0.6400000000000005)]",0.6400000000000005,,,32.0,0.00399,['Fail'],Pass,0.4700000000000003,0.029999999999999694,1.0,2.0,0.4
160.0,4.0,wc_4,,0.0,,,,182.0,,,,Pass,,,,,
160.0,4.0,wc_4,wc_13,0.0,"[('wc_13', 0.7000000000000005), ('wc_6', 0.4700000000000003)]",0.8410000000000004,,,30.0,0.005646,['Pass'],Pass,0.7000000000000005,-0.5750000000000005,1.0,8.0,0.8
160.0,4.0,wc_4,,0.0,,,,222.0,,,,Pass,,,,,
160.0,4.0,wc_4,wc_1,0.0,"[('wc_6', 0.4700000000000003), ('wc_13', 0.7000000000000005)]",0.8410000000000004,,,30.0,0.007714,['Pass'],Pass,0.4900000000000003,-0.24000000000000032,1.0,4.0,0.5
160.0,4.0,wc_4,,0.0,,,,243.0,,,,Pass,,,,,
160.0,4.0,wc_4,wc_11,1.0,"[('wc_11', 0.6200000000000004), ('wc_6', 0.4700000000000003), ('wc_13', 0.7000000000000005)]",0.9395800000000002,,,27.0,0.04259199999999999,['Pass'],Pass,0.6200000000000004,-0.22000000000000042,2.0,5.0,0.6
172.0,3.0,wc_3,,0.0,,,,322.0,,,,Fail,,,,,
172.0,3.0,wc_3,,0.0,,,62.0,,,,,Fail,,,,,
172.0,3.0,wc_3,,0.0,,,,0.0,,,,Fail,,,,,
172.0,3.0,wc_3,wc_3,0.0,"[('wc_3', 0.40000000000000024)]",0.40000000000000024,,,33.0,0.002266,['Pass'],Fail,0.40000000000000024,0.09999999999999976,1.0,2.0,0.4
172.0,3.0,wc_3,,0.0,,,,0.0,,,,Fail,,,,,
172.0,3.0,wc_3,wc_5,0.0,"[('wc_5', 0.20000000000000007), ('wc_3', 0.40000000000000024)]",0.5200000000000002,,,26.0,0.004354,['Pass'],Fail,0.20000000000000007,-0.20000000000000007,0.0,2.0,0.2
172.0,3.0,wc_3,,0.0,,,,182.0,,,,Fail,,,,,
172.0,3.0,wc_3,wc_16,0.0,"[('wc_16', 0.7200000000000005)]",0.7200000000000005,,,33.0,0.005696,['Fail'],Fail,0.7200000000000005,-0.43428571428571483,2.0,7.0,0.8
172.0,3.0,wc_3,,0.0,,,,402.0,,,,Fail,,,,,
172.0,3.0,wc_3,wc_4,0.0,"[('wc_4', 0.6300000000000004), ('wc_16', 0.7200000000000005)]",0.8964000000000003,,,35.0,0.009158,['Fail'],Fail,0.6300000000000004,-0.6300000000000004,0.0,5.0,0.6
172.0,3.0,wc_3,,0.0,,,,121.0,,,,Fail,,,,,
172.0,3.0,wc_3,wc_12,1.0,"[('wc_12', 0.5600000000000004), ('wc_16', 0.7200000000000005), ('wc_4', 0.6300000000000004)]",0.9544160000000002,,,29.0,0.039648,['Fail'],Fail,0.5600000000000004,-0.3100000000000004,2.0,8.0,0.6
208.0,2.0,wc_2,,0.0,,,,262.0,,,,Pass,,,,,
208.0,2.0,wc_2,,0.0,,,55.0,,,,,Pass,,,,,
208.0,2.0,wc_2,,0.0,,,,0.0,,,,Pass,,,,,
208.0,2.0,wc_2,wc_2,0.0,"[('wc_2', 0.31000000000000016)]",0.31000000000000016,,,35.0,0.002437,['Pass'],Pass,0.31000000000000016,-0.31000000000000016,0.0,3.0,0.2
208.0,2.0,wc_2,,0.0,,,,122.0,,,,Pass,,,,,
208.0,2.0,wc_2,wc_6,0.0,"[('wc_6', 0.4800000000000003), ('wc_2', 0.31000000000000016)]",0.6412000000000003,,,24.0,0.004664,['Pass'],Pass,0.4800000000000003,0.019999999999999685,2.0,4.0,0.4
208.0,2.0,wc_2,,0.0,,,,0.0,,,,Pass,,,,,
208.0,2.0,wc_2,wc_7,0.0,"[('wc_7', 0.3400000000000002), ('wc_2', 0.31000000000000016), ('wc_6', 0.4800000000000003)]",0.7631920000000003,,,26.0,0.007588,['Pass'],Pass,0.3400000000000002,-0.006666666666666876,1.0,3.0,0.3
208.0,2.0,wc_2,,0.0,,,,162.0,,,,Pass,,,,,
208.0,2.0,wc_2,wc_13,1.0,"[('wc_13', 0.7000000000000005), ('wc_2', 0.31000000000000016), ('wc_6', 0.4800000000000003), ('wc_7', 0.3400000000000002)]",0.9289576000000002,,,37.0,0.06695699999999999,['Pass'],Pass,0.7000000000000005,-0.7000000000000005,0.0,0.0,0.8
226.0,3.0,wc_3,,0.0,,,,341.0,,,,Pass,,,,,
226.0,3.0,wc_3,,0.0,,,70.0,,,,,Pass,,,,,
226.0,3.0,wc_3,,0.0,,,,0.0,,,,Pass,,,,,
226.0,3.0,wc_3,wc_3,0.0,"[('wc_3', 0.39000000000000024)]",0.39000000000000024,,,29.0,0.002197,['Pass'],Pass,0.39000000000000024,-0.14000000000000024,1.0,4.0,0.4
226.0,3.0,wc_3,,0.0,,,,202.0,,,,Pass,,,,,
226.0,3.0,wc_3,wc_15,0.0,"[('wc_15', 0.5500000000000004), ('wc_3', 0.39000000000000024)]",0.7255000000000003,,,20.0,0.004118,['Pass'],Pass,0.5500000000000004,-0.3000000000000004,0.0,0.0,0.6
226.0,3.0,wc_3,,0.0,,,,402.0,,,,Pass,,,,,
226.0,3.0,wc_3,wc_11,0.0,"[('wc_11', 0.6200000000000004), ('wc_3', 0.39000000000000024), ('wc_15', 0.5500000000000004)]",0.8956900000000002,,,35.0,0.005986,['Pass'],Pass,0.6200000000000004,-0.33428571428571474,2.0,7.0,0.6
226.0,3.0,wc_3,,0.0,,,,223.0,,,,Pass,,,,,
226.0,3.0,wc_3,wc_2,0.0,"[('wc_3', 0.39000000000000024), ('wc_15', 0.5500000000000004), ('wc_11', 0.6200000000000004)]",0.8956900000000002,,,20.0,0.008098,['Pass'],Pass,0.31000000000000016,-0.060000000000000164,1.0,4.0,0.2
226.0,3.0,wc_3,,0.0,,,,182.0,,,,Pass,,,,,
226.0,3.0,wc_3,wc_13,1.0,"[('wc_13', 0.7000000000000005), ('wc_3', 0.39000000000000024), ('wc_15', 0.5500000000000004), ('wc_11', 0.6200000000000004)]",0.9687070000000001,,,33.0,0.042210000000000004,['Pass'],Pass,0.7100000000000005,0.2899999999999995,1.0,1.0,0.8
235.0,5.0,wc_5,,0.0,,,,381.0,,,,Fail,,,,,
235.0,5.0,wc_5,,0.0,,,59.0,,,,,Fail,,,,,
235.0,5.0,wc_5,,0.0,,,,0.0,,,,Fail,,,,,
235.0,5.0,wc_5,wc_5,0.0,"[('wc_5', 0.19000000000000006)]",0.19000000000000006,,,36.0,0.002294,['Pass'],Fail,0.19000000000000006,-0.19000000000000006,0.0,5.0,0.2
235.0,5.0,wc_5,,0.0,,,,101.0,,,,Fail,,,,,
235.0,5.0,wc_5,wc_8,0.0,"[('wc_5', 0.19000000000000006)]",0.19000000000000006,,,37.0,0.004044,['Pass'],Fail,0.11000000000000001,-0.11000000000000001,0.0,0.0,0.2
235.0,5.0,wc_5,,0.0,,,,142.0,,,,Fail,,,,,
235.0,5.0,wc_5,wc_13,0.0,"[('wc_13', 0.7100000000000005), ('wc_8', 0.11000000000000001)]",0.7419000000000004,,,20.0,0.005885,['Fail'],Fail,0.7100000000000005,0.2899999999999995,1.0,1.0,0.8
235.0,5.0,wc_5,,0.0,,,,341.0,,,,Fail,,,,,
235.0,5.0,wc_5,wc_3,0.0,"[('wc_8', 0.11000000000000001), ('wc_13', 0.7100000000000005)]",0.7419000000000004,,,37.0,0.008230000000000001,['Fail'],Fail,0.39000000000000024,0.009999999999999787,2.0,5.0,0.4
235.0,5.0,wc_5,,0.0,,,,242.0,,,,Fail,,,,,
235.0,5.0,wc_5,wc_17,0.0,"[('wc_17', 0.6000000000000004), ('wc_5', 0.19000000000000006), ('wc_3', 0.39000000000000024)]",0.8023600000000003,,,27.0,0.010176999999999999,['Pass'],Fail,0.6000000000000004,-0.3777777777777782,2.0,9.0,0.5
235.0,5.0,wc_5,,0.0,,,,203.0,,,,Fail,,,,,
235.0,5.0,wc_5,wc_7,0.0,"[('wc_7', 0.3500000000000002), ('wc_5', 0.19000000000000006), ('wc_3', 0.39000000000000024), ('wc_17', 0.6000000000000004)]",0.8715340000000003,,,29.0,0.011944999999999999,['Pass'],Fail,0.3500000000000002,0.04999999999999982,2.0,5.0,0.3
235.0,5.0,wc_5,,0.0,,,,142.0,,,,Fail,,,,,
235.0,5.0,wc_5,wc_12,0.0,"[('wc_12', 0.5600000000000004), ('wc_8', 0.11000000000000001), ('wc_13', 0.7100000000000005)]",0.8864360000000003,,,20.0,0.013877,['Fail'],Fail,0.5600000000000004,-0.3600000000000004,0.0,0.0,0.6
235.0,5.0,wc_5,,0.0,,,,262.0,,,,Fail,,,,,
235.0,5.0,wc_5,wc_2,1.0,"[('wc_2', 0.30000000000000016), ('wc_8', 0.11000000000000001), ('wc_13', 0.7100000000000005), ('wc_12', 0.5600000000000004)]",0.9205052000000002,,,24.0,0.046306999999999994,['Fail'],Fail,0.31000000000000016,0.02333333333333315,2.0,6.0,0.2
297.0,5.0,wc_5,,0.0,,,,0.0,,,,Fail,,,,,
297.0,5.0,wc_5,,0.0,,,79.0,,,,,Fail,,,,,
297.0,5.0,wc_5,,0.0,,,,0.0,,,,Fail,,,,,
297.0,5.0,wc_5,wc_5,0.0,"[('wc_5', 0.18000000000000005)]",0.18000000000000005,,,26.0,0.001995,['Pass'],Fail,0.18000000000000005,-0.18000000000000005,0.0,6.0,0.2
297.0,5.0,wc_5,,0.0,,,,182.0,,,,Fail,,,,,
297.0,5.0,wc_5,wc_16,0.0,"[('wc_16', 0.7200000000000005)]",0.7200000000000005,,,36.0,0.003992,['Fail'],Fail,0.7200000000000005,-0.4472727272727278,0.0,0.0,0.8
297.0,5.0,wc_5,,0.0,,,,402.0,,,,Fail,,,,,
297.0,5.0,wc_5,wc_4,0.0,"[('wc_4', 0.6300000000000004), ('wc_16', 0.7200000000000005)]",0.8964000000000003,,,31.0,0.007044,['Fail'],Fail,0.6300000000000004,-0.5188888888888894,1.0,9.0,0.6
297.0,5.0,wc_5,,0.0,,,,121.0,,,,Fail,,,,,
297.0,5.0,wc_5,wc_12,1.0,"[('wc_12', 0.5700000000000004), ('wc_16', 0.7200000000000005), ('wc_4', 0.6300000000000004)]",0.9554520000000002,,,26.0,0.039410999999999995,['Fail'],Fail,0.5800000000000004,0.4199999999999996,2.0,2.0,0.6
373.0,5.0,wc_5,,0.0,,,,401.0,,,,Pass,,,,,
373.0,5.0,wc_5,,0.0,,,61.0,,,,,Pass,,,,,
373.0,5.0,wc_5,,0.0,,,,0.0,,,,Pass,,,,,
373.0,5.0,wc_5,wc_5,0.0,"[('wc_5', 0.17000000000000004)]",0.17000000000000004,,,35.0,0.002317,['Fail'],Pass,0.17000000000000004,-0.17000000000000004,0.0,7.0,0.2
373.0,5.0,wc_5,,0.0,,,,142.0,,,,Pass,,,,,
373.0,5.0,wc_5,wc_10,0.0,"[('wc_10', 0.7000000000000005)]",0.7000000000000005,,,25.0,0.004337,['Pass'],Pass,0.7000000000000005,-0.7000000000000005,0.0,0.0,0.5
373.0,5.0,wc_5,,0.0,,,,362.0,,,,Pass,,,,,
373.0,5.0,wc_5,wc_4,0.0,"[('wc_10', 0.7000000000000005)]",0.7000000000000005,,,38.0,0.006176,['Pass'],Pass,0.6300000000000004,-0.6300000000000004,0.0,0.0,0.6
373.0,5.0,wc_5,,0.0,,,,182.0,,,,Pass,,,,,
373.0,5.0,wc_5,wc_15,0.0,"[('wc_15', 0.5600000000000004), ('wc_5', 0.17000000000000004), ('wc_4', 0.6300000000000004)]",0.8648760000000003,,,29.0,0.008664,['Fail'],Pass,0.5600000000000004,-0.22666666666666707,1.0,3.0,0.6
373.0,5.0,wc_5,,0.0,,,,402.0,,,,Pass,,,,,
373.0,5.0,wc_5,wc_11,0.0,"[('wc_11', 0.6200000000000004), ('wc_10', 0.7000000000000005)]",0.8860000000000003,,,27.0,0.010577,['Pass'],Pass,0.6200000000000004,-0.32000000000000045,0.0,0.0,0.6
373.0,5.0,wc_5,,0.0,,,,61.0,,,,Pass,,,,,
373.0,5.0,wc_5,wc_12,1.0,"[('wc_12', 0.5800000000000004), ('wc_10', 0.7000000000000005), ('wc_11', 0.6200000000000004)]",0.9521200000000002,,,21.0,0.048443,['Pass'],Pass,0.5900000000000004,0.4099999999999996,3.0,3.0,0.6
380.0,6.0,wc_6,,0.0,,,,182.0,,,,Fail,,,,,
380.0,6.0,wc_6,,0.0,,,73.0,,,,,Fail,,,,,
380.0,6.0,wc_6,,0.0,,,,0.0,,,,Fail,,,,,
380.0,6.0,wc_6,wc_6,0.0,"[('wc_6', 0.4900000000000003)]",0.4900000000000003,,,27.0,0.002185,['Fail'],Fail,0.4900000000000003,-0.156666666666667,3.0,9.0,0.4
380.0,6.0,wc_6,,0.0,,,,202.0,,,,Fail,,,,,
380.0,6.0,wc_6,wc_14,0.0,"[('wc_14', 0.7000000000000005), ('wc_6', 0.4900000000000003)]",0.8470000000000004,,,27.0,0.003946,['Fail'],Fail,0.7000000000000005,-0.3923076923076928,0.0,0.0,1.0
380.0,6.0,wc_6,,0.0,,,,301.0,,,,Fail,,,,,
380.0,6.0,wc_6,wc_10,1.0,"[('wc_10', 0.7100000000000005), ('wc_6', 0.4900000000000003), ('wc_14', 0.7000000000000005)]",0.9556300000000002,,,38.0,0.038276,['Fail'],Fail,0.7200000000000005,0.27999999999999947,2.0,2.0,0.5
389.0,6.0,wc_6,,0.0,,,,41.0,,,,Fail,,,,,
389.0,6.0,wc_6,,0.0,,,72.0,,,,,Fail,,,,,
389.0,6.0,wc_6,,0.0,,,,0.0,,,,Fail,,,,,
389.0,6.0,wc_6,wc_6,0.0,"[('wc_6', 0.4900000000000003)]",0.4900000000000003,,,32.0,0.001957,['Fail'],Fail,0.4900000000000003,-0.4900000000000003,0.0,0.0,0.4
389.0,6.0,wc_6,,0.0,,,,0.0,,,,Fail,,,,,
389.0,6.0,wc_6,wc_7,0.0,"[('wc_7', 0.3400000000000002), ('wc_6', 0.4900000000000003)]",0.6634000000000003,,,36.0,0.0044150000000000005,['Fail'],Fail,0.3400000000000002,-0.11777777777777798,2.0,9.0,0.3
389.0,6.0,wc_6,,0.0,,,,0.0,,,,Fail,,,,,
389.0,6.0,wc_6,wc_9,1.0,"[('wc_9', 0.8100000000000006), ('wc_6', 0.4900000000000003), ('wc_7', 0.3400000000000002)]",0.9360460000000003,,,20.0,0.04323199999999999,['Fail'],Fail,0.8100000000000006,-0.8100000000000006,0.0,0.0,1.0
398.0,6.0,wc_6,,0.0,,,,61.0,,,,Fail,,,,,
398.0,6.0,wc_6,,0.0,,,73.0,,,,,Fail,,,,,
398.0,6.0,wc_6,,0.0,,,,0.0,,,,Fail,,,,,
398.0,6.0,wc_6,wc_6,0.0,"[('wc_6', 0.5000000000000003)]",0.5000000000000003,,,37.0,0.002141,['Pass'],Fail,0.5000000000000003,0.49999999999999967,1.0,1.0,0.4
398.0,6.0,wc_6,,0.0,,,,263.0,,,,Fail,,,,,
398.0,6.0,wc_6,wc_17,0.0,"[('wc_17', 0.5900000000000004)]",0.5900000000000004,,,24.0,0.004396000000000001,['Fail'],Fail,0.5900000000000004,-0.5900000000000004,0.0,4.0,0.5
398.0,6.0,wc_6,,0.0,,,,362.0,,,,Fail,,,,,
398.0,6.0,wc_6,wc_11,0.0,"[('wc_11', 0.6300000000000004), ('wc_17', 0.5900000000000004)]",0.8483000000000003,,,24.0,0.0056619999999999995,['Fail'],Fail,0.6300000000000004,-0.29666666666666713,1.0,3.0,0.6
398.0,6.0,wc_6,,0.0,,,,101.0,,,,Fail,,,,,
398.0,6.0,wc_6,wc_14,1.0,"[('wc_14', 0.7100000000000005), ('wc_17', 0.5900000000000004), ('wc_11', 0.6300000000000004)]",0.9560070000000002,,,21.0,0.042368,['Fail'],Fail,0.7100000000000005,-0.04333333333333389,2.0,3.0,1.0
404.0,6.0,wc_6,,0.0,,,,142.0,,,,Fail,,,,,
404.0,6.0,wc_6,,0.0,,,54.0,,,,,Fail,,,,,
404.0,6.0,wc_6,,0.0,,,,0.0,,,,Fail,,,,,
404.0,6.0,wc_6,wc_6,0.0,"[('wc_6', 0.5000000000000003)]",0.5000000000000003,,,34.0,0.00224,['Fail'],Fail,0.5000000000000003,-3.3306690738754696e-16,1.0,2.0,0.4
404.0,6.0,wc_6,,0.0,,,,222.0,,,,Fail,,,,,
404.0,6.0,wc_6,wc_2,0.0,"[('wc_6', 0.5000000000000003)]",0.5000000000000003,,,33.0,0.004216,['Fail'],Fail,0.31000000000000016,-0.12818181818181834,0.0,0.0,0.2
404.0,6.0,wc_6,,0.0,,,,202.0,,,,Fail,,,,,
404.0,6.0,wc_6,wc_14,0.0,"[('wc_14', 0.7100000000000005), ('wc_6', 0.5000000000000003)]",0.8550000000000003,,,27.0,0.007089,['Fail'],Fail,0.7100000000000005,-0.04333333333333389,2.0,3.0,1.0
404.0,6.0,wc_6,,0.0,,,,202.0,,,,Fail,,,,,
404.0,6.0,wc_6,wc_1,1.0,"[('wc_1', 0.4800000000000003), ('wc_6', 0.5000000000000003), ('wc_14', 0.7100000000000005)]",0.9246000000000002,,,40.0,0.044637,['Fail'],Fail,0.4800000000000003,-0.4800000000000003,0.0,0.0,0.5
420.0,6.0,wc_6,,0.0,,,,142.0,,,,Pass,,,,,
420.0,6.0,wc_6,,0.0,,,57.0,,,,,Pass,,,,,
420.0,6.0,wc_6,,0.0,,,,0.0,,,,Pass,,,,,
420.0,6.0,wc_6,wc_6,0.0,"[('wc_6', 0.5100000000000003)]",0.5100000000000003,,,32.0,0.002375,['Pass'],Pass,0.5100000000000003,0.1566666666666663,2.0,3.0,0.4
420.0,6.0,wc_6,,0.0,,,,223.0,,,,Pass,,,,,
420.0,6.0,wc_6,wc_15,0.0,"[('wc_15', 0.5500000000000004)]",0.5500000000000004,,,26.0,0.003713,['Fail'],Pass,0.5500000000000004,-0.4250000000000004,1.0,8.0,0.6
420.0,6.0,wc_6,,0.0,,,,61.0,,,,Pass,,,,,
420.0,6.0,wc_6,wc_12,0.0,"[('wc_12', 0.5900000000000004), ('wc_6', 0.5100000000000003)]",0.7991000000000004,,,28.0,0.005929,['Pass'],Pass,0.5900000000000004,-0.16142857142857187,3.0,7.0,0.6
420.0,6.0,wc_6,,0.0,,,,321.0,,,,Pass,,,,,
420.0,6.0,wc_6,wc_9,1.0,"[('wc_9', 0.8100000000000006), ('wc_6', 0.5100000000000003), ('wc_12', 0.5900000000000004)]",0.9618290000000002,,,38.0,0.044553999999999996,['Pass'],Pass,0.8100000000000006,-0.4766666666666673,1.0,3.0,1.0
424.0,10.0,wc_10,,0.0,,,,0.0,,,,Pass,,,,,
424.0,10.0,wc_10,,0.0,,,50.0,,,,,Pass,,,,,
424.0,10.0,wc_10,,0.0,,,,0.0,,,,Pass,,,,,
424.0,10.0,wc_10,wc_10,0.0,"[('wc_10', 0.7200000000000005)]",0.7200000000000005,,,20.0,0.001942,['Pass'],Pass,0.7200000000000005,-0.3866666666666672,2.0,6.0,0.5
424.0,10.0,wc_10,,0.0,,,,81.0,,,,Pass,,,,,
424.0,10.0,wc_10,wc_8,0.0,"[('wc_8', 0.12000000000000001), ('wc_10', 0.7200000000000005)]",0.7536000000000005,,,31.0,0.00437,['Pass'],Pass,0.12000000000000001,0.0049999999999999906,1.0,8.0,0.2
424.0,10.0,wc_10,,0.0,,,,321.0,,,,Pass,,,,,
424.0,10.0,wc_10,wc_5,0.0,"[('wc_5', 0.16000000000000003), ('wc_10', 0.7200000000000005), ('wc_8', 0.12000000000000001)]",0.7930240000000004,,,22.0,0.005696,['Pass'],Pass,0.16000000000000003,-0.16000000000000003,0.0,0.0,0.2
424.0,10.0,wc_10,,0.0,,,,61.0,,,,Pass,,,,,
424.0,10.0,wc_10,wc_6,0.0,"[('wc_10', 0.7200000000000005), ('wc_8', 0.12000000000000001), ('wc_5', 0.16000000000000003)]",0.7930240000000004,,,25.0,0.008639,['Pass'],Pass,0.5200000000000004,0.22999999999999965,3.0,4.0,0.4
424.0,10.0,wc_10,,0.0,,,,243.0,,,,Pass,,,,,
424.0,10.0,wc_10,wc_16,1.0,"[('wc_16', 0.7300000000000005), ('wc_10', 0.7200000000000005), ('wc_8', 0.12000000000000001), ('wc_5', 0.16000000000000003)]",0.9441164800000003,,,22.0,0.047030999999999996,['Pass'],Pass,0.7300000000000005,-0.48000000000000054,2.0,8.0,0.8
431.0,11.0,wc_11,,0.0,,,,382.0,,,,Fail,,,,,
431.0,11.0,wc_11,,0.0,,,61.0,,,,,Fail,,,,,
431.0,11.0,wc_11,,0.0,,,,0.0,,,,Fail,,,,,
431.0,11.0,wc_11,wc_11,0.0,"[('wc_11', 0.6300000000000004)]",0.6300000000000004,,,31.0,0.00199,['Fail'],Fail,0.6300000000000004,-0.34428571428571475,2.0,7.0,0.6
431.0,11.0,wc_11,,0.0,,,,322.0,,,,Fail,,,,,
431.0,11.0,wc_11,wc_3,0.0,"[('wc_11', 0.6300000000000004)]",0.6300000000000004,,,31.0,0.003913,['Fail'],Fail,0.3800000000000002,-0.23714285714285738,0.0,0.0,0.4
431.0,11.0,wc_11,,0.0,,,,182.0,,,,Fail,,,,,
431.0,11.0,wc_11,wc_10,0.0,"[('wc_10', 0.7200000000000005), ('wc_3', 0.3800000000000002)]",0.8264000000000004,,,22.0,0.005706,['Pass'],Fail,0.7200000000000005,-0.291428571428572,3.0,7.0,0.5
431.0,11.0,wc_11,,0.0,,,,61.0,,,,Fail,,,,,
431.0,11.0,wc_11,wc_7,0.0,"[('wc_3', 0.3800000000000002), ('wc_10', 0.7200000000000005)]",0.8264000000000004,,,24.0,0.007588,['Pass'],Fail,0.3400000000000002,-0.3400000000000002,0.0,4.0,0.3
431.0,11.0,wc_11,,0.0,,,,321.0,,,,Fail,,,,,
431.0,11.0,wc_11,wc_4,1.0,"[('wc_4', 0.6200000000000004), ('wc_3', 0.3800000000000002), ('wc_10', 0.7200000000000005)]",0.9340320000000002,,,39.0,0.042481,['Pass'],Fail,0.6200000000000004,-0.49500000000000044,1.0,8.0,0.6
436.0,7.0,wc_7,,0.0,,,,101.0,,,,Fail,,,,,
436.0,7.0,wc_7,,0.0,,,50.0,,,,,Fail,,,,,
436.0,7.0,wc_7,,0.0,,,,0.0,,,,Fail,,,,,
436.0,7.0,wc_7,wc_7,0.0,"[('wc_7', 0.3300000000000002)]",0.3300000000000002,,,38.0,0.002288,['Fail'],Fail,0.3300000000000002,-0.3300000000000002,0.0,5.0,0.3
436.0,7.0,wc_7,,0.0,,,,321.0,,,,Fail,,,,,
436.0,7.0,wc_7,wc_4,0.0,"[('wc_4', 0.6200000000000004), ('wc_7', 0.3300000000000002)]",0.7454000000000003,,,26.0,0.004253,['Fail'],Fail,0.6200000000000004,-0.49500000000000044,1.0,8.0,0.6
436.0,7.0,wc_7,,0.0,,,,222.0,,,,Fail,,,,,
436.0,7.0,wc_7,wc_17,0.0,"[('wc_7', 0.3300000000000002), ('wc_4', 0.6200000000000004)]",0.7454000000000003,,,30.0,0.006336,['Fail'],Fail,0.5900000000000004,-0.4788888888888893,1.0,9.0,0.5
436.0,7.0,wc_7,,0.0,,,,21.0,,,,Fail,,,,,
436.0,7.0,wc_7,wc_12,0.0,"[('wc_12', 0.5900000000000004), ('wc_17', 0.5900000000000004)]",0.8319000000000003,,,40.0,0.008052,['Pass'],Fail,0.5900000000000004,-0.1900000000000004,0.0,0.0,0.6
436.0,7.0,wc_7,,0.0,,,,0.0,,,,Fail,,,,,
436.0,7.0,wc_7,wc_13,1.0,"[('wc_13', 0.7200000000000005), ('wc_7', 0.3300000000000002), ('wc_4', 0.6200000000000004)]",0.9287120000000002,,,26.0,0.046928,['Fail'],Fail,0.7200000000000005,-0.7200000000000005,0.0,0.0,0.8
443.0,11.0,wc_11,,0.0,,,,341.0,,,,Fail,,,,,
443.0,11.0,wc_11,,0.0,,,54.0,,,,,Fail,,,,,
443.0,11.0,wc_11,,0.0,,,,0.0,,,,Fail,,,,,
443.0,11.0,wc_11,wc_11,0.0,"[('wc_11', 0.6200000000000004)]",0.6200000000000004,,,29.0,0.002109,['Fail'],Fail,0.6200000000000004,-0.39777777777777823,2.0,9.0,0.6
443.0,11.0,wc_11,,0.0,,,,162.0,,,,Fail,,,,,
443.0,11.0,wc_11,wc_17,0.0,"[('wc_17', 0.5800000000000004), ('wc_11', 0.6200000000000004)]",0.8404000000000004,,,23.0,0.004002,['Fail'],Fail,0.5800000000000004,-0.5800000000000004,0.0,0.0,0.5
443.0,11.0,wc_11,,0.0,,,,83.0,,,,Fail,,,,,
443.0,11.0,wc_11,wc_15,1.0,"[('wc_15', 0.5400000000000004), ('wc_11', 0.6200000000000004), ('wc_17', 0.5800000000000004)]",0.9265840000000002,,,23.0,0.043952000000000005,['Fail'],Fail,0.5400000000000004,-0.5400000000000004,0.0,0.0,0.6
448.0,9.0,wc_9,,0.0,,,,362.0,,,,Pass,,,,,
448.0,9.0,wc_9,,0.0,,,52.0,,,,,Pass,,,,,
448.0,9.0,wc_9,,0.0,,,,0.0,,,,Pass,,,,,
448.0,9.0,wc_9,wc_9,0.0,"[('wc_9', 0.8100000000000006)]",0.8100000000000006,,,23.0,0.00227,['Pass'],Pass,0.8100000000000006,-0.6671428571428577,1.0,7.0,1.0
448.0,9.0,wc_9,,0.0,,,,81.0,,,,Pass,,,,,
448.0,9.0,wc_9,wc_7,0.0,"[('wc_7', 0.3300000000000002), ('wc_9', 0.8100000000000006)]",0.8727000000000005,,,30.0,0.004168,['Pass'],Pass,0.3300000000000002,-0.18714285714285733,1.0,7.0,0.3
448.0,9.0,wc_9,,0.0,,,,203.0,,,,Pass,,,,,
448.0,9.0,wc_9,wc_15,1.0,"[('wc_15', 0.5400000000000004), ('wc_9', 0.8100000000000006), ('wc_7', 0.3300000000000002)]",0.9414420000000002,,,21.0,0.040624999999999994,['Pass'],Pass,0.5500000000000004,0.4499999999999996,1.0,1.0,0.6
455.0,7.0,wc_7,,0.0,,,,243.0,,,,Pass,,,,,
455.0,7.0,wc_7,,0.0,,,57.0,,,,,Pass,,,,,
455.0,7.0,wc_7,,0.0,,,,0.0,,,,Pass,,,,,
455.0,7.0,wc_7,wc_7,0.0,"[('wc_7', 0.3300000000000002)]",0.3300000000000002,,,22.0,0.002472,['Pass'],Pass,0.3300000000000002,-0.08000000000000018,2.0,8.0,0.3
455.0,7.0,wc_7,,0.0,,,,202.0,,,,Pass,,,,,
455.0,7.0,wc_7,wc_2,0.0,"[('wc_7', 0.3300000000000002)]",0.3300000000000002,,,20.0,0.003781,['Pass'],Pass,0.30000000000000016,-0.30000000000000016,0.0,7.0,0.2
455.0,7.0,wc_7,,0.0,,,,162.0,,,,Pass,,,,,
455.0,7.0,wc_7,wc_8,0.0,"[('wc_8', 0.13), ('wc_7', 0.3300000000000002)]",0.41710000000000014,,,38.0,0.006357999999999999,['Pass'],Pass,0.13,0.02384615384615385,0.0,0.0,0.2
455.0,7.0,wc_7,,0.0,,,,281.0,,,,Pass,,,,,
455.0,7.0,wc_7,wc_3,0.0,"[('wc_3', 0.39000000000000024), ('wc_7', 0.3300000000000002), ('wc_8', 0.13)]",0.6444310000000002,,,21.0,0.007783,['Pass'],Pass,0.39000000000000024,-0.14000000000000024,1.0,4.0,0.4
455.0,7.0,wc_7,,0.0,,,,0.0,,,,Pass,,,,,
455.0,7.0,wc_7,wc_4,0.0,"[('wc_4', 0.6200000000000004), ('wc_7', 0.3300000000000002), ('wc_8', 0.13), ('wc_3', 0.39000000000000024)]",0.8648837800000002,,,33.0,0.01149,['Pass'],Pass,0.6200000000000004,-0.4381818181818186,0.0,0.0,0.6
455.0,7.0,wc_7,,0.0,,,,121.0,,,,Pass,,,,,
455.0,7.0,wc_7,wc_12,1.0,"[('wc_12', 0.5800000000000004), ('wc_7', 0.3300000000000002), ('wc_8', 0.13), ('wc_3', 0.39000000000000024), ('wc_4', 0.6200000000000004)]",0.9432511876000002,,,36.0,0.046237999999999994,['Pass'],Pass,0.5800000000000004,-0.3300000000000004,1.0,4.0,0.6
463.0,8.0,wc_8,,0.0,,,,222.0,,,,Fail,,,,,
463.0,8.0,wc_8,,0.0,,,52.0,,,,,Fail,,,,,
463.0,8.0,wc_8,,0.0,,,,0.0,,,,Fail,,,,,
463.0,8.0,wc_8,wc_8,0.0,"[('wc_8', 0.14)]",0.14,,,22.0,0.002148,['Pass'],Fail,0.14,0.86,1.0,1.0,0.2
463.0,8.0,wc_8,,0.0,,,,183.0,,,,Fail,,,,,
463.0,8.0,wc_8,wc_15,0.0,"[('wc_15', 0.5500000000000004)]",0.5500000000000004,,,32.0,0.005323,['Fail'],Fail,0.5500000000000004,-0.05000000000000038,1.0,2.0,0.6
463.0,8.0,wc_8,,0.0,,,,81.0,,,,Fail,,,,,
463.0,8.0,wc_8,wc_13,0.0,"[('wc_13', 0.7200000000000005), ('wc_15', 0.5500000000000004)]",0.8740000000000003,,,28.0,0.007744000000000001,['Fail'],Fail,0.7200000000000005,-0.7200000000000005,0.0,3.0,0.8
463.0,8.0,wc_8,,0.0,,,,361.0,,,,Fail,,,,,
463.0,8.0,wc_8,wc_4,1.0,"[('wc_4', 0.6300000000000004), ('wc_15', 0.5500000000000004), ('wc_13', 0.7200000000000005)]",0.9533800000000002,,,37.0,0.041269,['Fail'],Fail,0.6400000000000005,0.35999999999999954,2.0,2.0,0.6
473.0,8.0,wc_8,,0.0,,,,121.0,,,,Fail,,,,,
473.0,8.0,wc_8,,0.0,,,77.0,,,,,Fail,,,,,
473.0,8.0,wc_8,,0.0,,,,0.0,,,,Fail,,,,,
473.0,8.0,wc_8,wc_8,0.0,"[('wc_8', 0.14)]",0.14,,,40.0,0.00224,['Pass'],Fail,0.14,0.36,1.0,2.0,0.2
473.0,8.0,wc_8,,0.0,,,,301.0,,,,Fail,,,,,
473.0,8.0,wc_8,wc_4,0.0,"[('wc_4', 0.6400000000000005)]",0.6400000000000005,,,32.0,0.0044139999999999995,['Fail'],Fail,0.6400000000000005,0.35999999999999954,2.0,2.0,0.6
473.0,8.0,wc_8,,0.0,,,,121.0,,,,Fail,,,,,
473.0,8.0,wc_8,wc_12,0.0,"[('wc_12', 0.5800000000000004), ('wc_4', 0.6400000000000005)]",0.8488000000000003,,,33.0,0.006510999999999999,['Fail'],Fail,0.5800000000000004,-0.3800000000000004,1.0,5.0,0.6
473.0,8.0,wc_8,,0.0,,,,401.0,,,,Fail,,,,,
473.0,8.0,wc_8,wc_5,0.0,"[('wc_5', 0.17000000000000004), ('wc_4', 0.6400000000000005), ('wc_12', 0.5800000000000004)]",0.8745040000000003,,,37.0,0.007897000000000001,['Fail'],Fail,0.17000000000000004,-0.02714285714285719,1.0,7.0,0.2
473.0,8.0,wc_8,,0.0,,,,83.0,,,,Fail,,,,,
473.0,8.0,wc_8,wc_3,1.0,"[('wc_3', 0.39000000000000024), ('wc_4', 0.6400000000000005), ('wc_12', 0.5800000000000004), ('wc_5', 0.17000000000000004)]",0.9234474400000002,,,33.0,0.05506,['Fail'],Fail,0.40000000000000024,0.028571428571428303,3.0,7.0,0.4
489.0,11.0,wc_11,,0.0,,,,202.0,,,,Fail,,,,,
489.0,11.0,wc_11,,0.0,,,53.0,,,,,Fail,,,,,
489.0,11.0,wc_11,,0.0,,,,0.0,,,,Fail,,,,,
489.0,11.0,wc_11,wc_11,0.0,"[('wc_11', 0.6200000000000004)]",0.6200000000000004,,,25.0,0.002231,['Fail'],Fail,0.6200000000000004,-0.6200000000000004,0.0,4.0,0.6
489.0,11.0,wc_11,,0.0,,,,61.0,,,,Fail,,,,,
489.0,11.0,wc_11,wc_8,0.0,"[('wc_8', 0.14), ('wc_11', 0.6200000000000004)]",0.6732000000000005,,,23.0,0.004141,['Fail'],Fail,0.14,0.1933333333333333,1.0,3.0,0.2
489.0,11.0,wc_11,,0.0,,,,281.0,,,,Fail,,,,,
489.0,11.0,wc_11,wc_3,0.0,"[('wc_3', 0.40000000000000024), ('wc_11', 0.6200000000000004), ('wc_8', 0.14)]",0.8039200000000003,,,35.0,0.007171,['Fail'],Fail,0.40000000000000024,0.028571428571428303,3.0,7.0,0.4
489.0,11.0,wc_11,,0.0,,,,222.0,,,,Fail,,,,,
489.0,11.0,wc_11,wc_16,1.0,"[('wc_16', 0.7300000000000005), ('wc_11', 0.6200000000000004), ('wc_8', 0.14), ('wc_3', 0.40000000000000024)]",0.9470584000000002,,,24.0,0.043236,['Fail'],Fail,0.7300000000000005,-0.7300000000000005,0.0,0.0,0.8
500.0,11.0,wc_11,,0.0,,,,382.0,,,,Pass,,,,,
500.0,11.0,wc_11,,0.0,,,66.0,,,,,Pass,,,,,
500.0,11.0,wc_11,,0.0,,,,0.0,,,,Pass,,,,,
500.0,11.0,wc_11,wc_11,0.0,"[('wc_11', 0.6200000000000004)]",0.6200000000000004,,,20.0,0.002143,['Fail'],Pass,0.6200000000000004,-0.42000000000000043,1.0,5.0,0.6
500.0,11.0,wc_11,,0.0,,,,61.0,,,,Pass,,,,,
500.0,11.0,wc_11,wc_8,0.0,"[('wc_11', 0.6200000000000004)]",0.6200000000000004,,,32.0,0.004108,['Fail'],Pass,0.15000000000000002,0.35,2.0,4.0,0.2
500.0,11.0,wc_11,,0.0,,,,102.0,,,,Pass,,,,,
500.0,11.0,wc_11,wc_7,0.0,"[('wc_7', 0.3300000000000002), ('wc_11', 0.6200000000000004)]",0.7454000000000003,,,21.0,0.006555,['Fail'],Pass,0.3300000000000002,-0.08000000000000018,0.0,0.0,0.3
500.0,11.0,wc_11,,0.0,,,,162.0,,,,Pass,,,,,
500.0,11.0,wc_11,wc_13,0.0,"[('wc_13', 0.7200000000000005), ('wc_8', 0.15000000000000002)]",0.7620000000000005,,,21.0,0.008485,['Pass'],Pass,0.7200000000000005,-0.5533333333333339,1.0,6.0,0.8
500.0,11.0,wc_11,,0.0,,,,0.0,,,,Pass,,,,,
500.0,11.0,wc_11,wc_14,1.0,"[('wc_14', 0.7200000000000005), ('wc_11', 0.6200000000000004), ('wc_7', 0.3300000000000002)]",0.9287120000000002,,,35.0,0.046143,['Fail'],Pass,0.7200000000000005,-0.7200000000000005,0.0,0.0,1.0
516.0,8.0,wc_8,,0.0,,,,182.0,,,,Fail,,,,,
516.0,8.0,wc_8,,0.0,,,71.0,,,,,Fail,,,,,
516.0,8.0,wc_8,,0.0,,,,0.0,,,,Fail,,,,,
516.0,8.0,wc_8,wc_8,0.0,"[('wc_8', 0.15000000000000002)]",0.15000000000000002,,,33.0,0.00208,['Pass'],Fail,0.15000000000000002,0.25,2.0,5.0,0.2
516.0,8.0,wc_8,,0.0,,,,321.0,,,,Fail,,,,,
516.0,8.0,wc_8,wc_5,0.0,"[('wc_5', 0.18000000000000005)]",0.18000000000000005,,,20.0,0.004414,['Fail'],Fail,0.18000000000000005,0.019999999999999962,0.0,0.0,0.2
516.0,8.0,wc_8,,0.0,,,,121.0,,,,Fail,,,,,
516.0,8.0,wc_8,wc_13,0.0,"[('wc_13', 0.7100000000000005), ('wc_5', 0.18000000000000005)]",0.7622000000000004,,,37.0,0.005868,['Fail'],Fail,0.7100000000000005,-0.5671428571428576,1.0,7.0,0.8
516.0,8.0,wc_8,,0.0,,,,0.0,,,,Fail,,,,,
516.0,8.0,wc_8,wc_14,1.0,"[('wc_14', 0.7200000000000005), ('wc_5', 0.18000000000000005), ('wc_13', 0.7100000000000005)]",0.9334160000000002,,,22.0,0.041929999999999995,['Fail'],Fail,0.7300000000000005,0.26999999999999946,1.0,1.0,1.0
523.0,8.0,wc_8,,0.0,,,,182.0,,,,Pass,,,,,
523.0,8.0,wc_8,,0.0,,,53.0,,,,,Pass,,,,,
523.0,8.0,wc_8,,0.0,,,,0.0,,,,Pass,,,,,
523.0,8.0,wc_8,wc_8,0.0,"[('wc_8', 0.15000000000000002)]",0.15000000000000002,,,29.0,0.002266,['Pass'],Pass,0.15000000000000002,0.1833333333333333,2.0,6.0,0.2
523.0,8.0,wc_8,,0.0,,,,301.0,,,,Pass,,,,,
523.0,8.0,wc_8,wc_4,0.0,"[('wc_4', 0.6500000000000005), ('wc_8', 0.15000000000000002)]",0.7025000000000003,,,28.0,0.0038130000000000004,['Pass'],Pass,0.6500000000000005,-0.15000000000000047,3.0,6.0,0.6
523.0,8.0,wc_8,,0.0,,,,81.0,,,,Pass,,,,,
523.0,8.0,wc_8,wc_6,0.0,"[('wc_6', 0.5200000000000004), ('wc_8', 0.15000000000000002), ('wc_4', 0.6500000000000005)]",0.8572000000000003,,,27.0,0.00622,['Pass'],Pass,0.5200000000000004,-0.32000000000000034,0.0,0.0,0.4
523.0,8.0,wc_8,,0.0,,,,162.0,,,,Pass,,,,,
523.0,8.0,wc_8,wc_12,1.0,"[('wc_12', 0.5800000000000004), ('wc_8', 0.15000000000000002), ('wc_4', 0.6500000000000005), ('wc_6', 0.5200000000000004)]",0.9400240000000002,,,29.0,0.044355,['Pass'],Pass,0.5800000000000004,-0.5800000000000004,0.0,0.0,0.6
531.0,12.0,wc_12,,0.0,,,,0.0,,,,Fail,,,,,
531.0,12.0,wc_12,,0.0,,,54.0,,,,,Fail,,,,,
531.0,12.0,wc_12,,0.0,,,,0.0,,,,Fail,,,,,
531.0,12.0,wc_12,wc_12,0.0,"[('wc_12', 0.5800000000000004)]",0.5800000000000004,,,40.0,0.001927,['Pass'],Fail,0.5800000000000004,-0.5800000000000004,0.0,0.0,0.6
531.0,12.0,wc_12,,0.0,,,,182.0,,,,Fail,,,,,
531.0,12.0,wc_12,wc_6,0.0,"[('wc_6', 0.5300000000000004), ('wc_12', 0.5800000000000004)]",0.8026000000000003,,,23.0,0.0043549999999999995,['Pass'],Fail,0.5300000000000004,0.46999999999999964,1.0,1.0,0.4
531.0,12.0,wc_12,,0.0,,,,0.0,,,,Fail,,,,,
531.0,12.0,wc_12,wc_11,0.0,"[('wc_12', 0.5800000000000004), ('wc_6', 0.5300000000000004)]",0.8026000000000003,,,37.0,0.006075,['Pass'],Fail,0.6200000000000004,-0.37000000000000044,2.0,8.0,0.6
531.0,12.0,wc_12,,0.0,,,,103.0,,,,Fail,,,,,
531.0,12.0,wc_12,wc_10,0.0,"[('wc_10', 0.7200000000000005), ('wc_11', 0.6200000000000004)]",0.8936000000000003,,,34.0,0.008112,['Fail'],Fail,0.7200000000000005,-0.4977777777777783,0.0,0.0,0.5
531.0,12.0,wc_12,,0.0,,,,121.0,,,,Fail,,,,,
531.0,12.0,wc_12,wc_14,1.0,"[('wc_14', 0.7300000000000005), ('wc_11', 0.6200000000000004), ('wc_10', 0.7200000000000005)]",0.9712720000000001,,,32.0,0.045866,['Fail'],Fail,0.7300000000000005,-0.06333333333333391,2.0,3.0,1.0
541.0,12.0,wc_12,,0.0,,,,82.0,,,,Pass,,,,,
541.0,12.0,wc_12,,0.0,,,73.0,,,,,Pass,,,,,
541.0,12.0,wc_12,,0.0,,,,0.0,,,,Pass,,,,,
541.0,12.0,wc_12,wc_12,0.0,"[('wc_12', 0.5700000000000004)]",0.5700000000000004,,,31.0,0.003184,['Pass'],Pass,0.5700000000000004,-0.5700000000000004,0.0,1.0,0.6
541.0,12.0,wc_12,,0.0,,,,0.0,,,,Pass,,,,,
541.0,12.0,wc_12,wc_14,0.0,"[('wc_14', 0.7300000000000005), ('wc_12', 0.5700000000000004)]",0.8839000000000004,,,27.0,0.006148000000000001,['Pass'],Pass,0.7300000000000005,-0.06333333333333391,2.0,3.0,1.0
541.0,12.0,wc_12,,0.0,,,,0.0,,,,Pass,,,,,
541.0,12.0,wc_12,wc_15,1.0,"[('wc_15', 0.5600000000000004), ('wc_12', 0.5700000000000004), ('wc_14', 0.7300000000000005)]",0.9489160000000002,,,28.0,0.040795,['Pass'],Pass,0.5600000000000004,-0.5600000000000004,0.0,0.0,0.6
557.0,13.0,wc_13,,0.0,,,,81.0,,,,Pass,,,,,
557.0,13.0,wc_13,,0.0,,,71.0,,,,,Pass,,,,,
557.0,13.0,wc_13,,0.0,,,,0.0,,,,Pass,,,,,
557.0,13.0,wc_13,wc_13,0.0,"[('wc_13', 0.7100000000000005)]",0.7100000000000005,,,29.0,0.002656,['Pass'],Pass,0.7100000000000005,-0.5281818181818188,0.0,0.0,0.8
557.0,13.0,wc_13,,0.0,,,,361.0,,,,Pass,,,,,
557.0,13.0,wc_13,wc_4,0.0,"[('wc_13', 0.7100000000000005)]",0.7100000000000005,,,20.0,0.003982,['Pass'],Pass,0.6500000000000005,-0.20555555555555605,4.0,9.0,0.6
557.0,13.0,wc_13,,0.0,,,,81.0,,,,Pass,,,,,
557.0,13.0,wc_13,wc_2,0.0,"[('wc_2', 0.29000000000000015), ('wc_4', 0.6500000000000005)]",0.7515000000000004,,,31.0,0.006723,['Fail'],Pass,0.29000000000000015,-0.29000000000000015,0.0,0.0,0.2
557.0,13.0,wc_13,,0.0,,,,202.0,,,,Pass,,,,,
557.0,13.0,wc_13,wc_14,0.0,"[('wc_14', 0.7400000000000005), ('wc_13', 0.7100000000000005)]",0.9246000000000003,,,37.0,0.007801,['Pass'],Pass,0.7400000000000005,0.009999999999999454,3.0,4.0,1.0
557.0,13.0,wc_13,,0.0,,,,202.0,,,,Pass,,,,,
557.0,13.0,wc_13,wc_1,1.0,"[('wc_1', 0.4800000000000003), ('wc_13', 0.7100000000000005), ('wc_14', 0.7400000000000005)]",0.9607920000000002,,,26.0,0.04646199999999999,['Pass'],Pass,0.4800000000000003,-0.4800000000000003,0.0,0.0,0.5
566.0,14.0,wc_14,,0.0,,,,222.0,,,,Fail,,,,,
566.0,14.0,wc_14,,0.0,,,79.0,,,,,Fail,,,,,
566.0,14.0,wc_14,,0.0,,,,0.0,,,,Fail,,,,,
566.0,14.0,wc_14,wc_14,0.0,"[('wc_14', 0.7500000000000006)]",0.7500000000000006,,,23.0,0.002373,['Fail'],Fail,0.7500000000000006,0.04999999999999949,4.0,5.0,1.0
566.0,14.0,wc_14,,0.0,,,,0.0,,,,Fail,,,,,
566.0,14.0,wc_14,wc_16,0.0,"[('wc_14', 0.7500000000000006)]",0.7500000000000006,,,24.0,0.0046029999999999995,['Fail'],Fail,0.7300000000000005,-0.7300000000000005,0.0,6.0,0.8
566.0,14.0,wc_14,,0.0,,,,342.0,,,,Fail,,,,,
566.0,14.0,wc_14,wc_9,0.0,"[('wc_9', 0.8100000000000006), ('wc_14', 0.7500000000000006)]",0.9525000000000002,,,39.0,0.00592,['Fail'],Fail,0.8100000000000006,-0.6988888888888896,0.0,0.0,1.0
566.0,14.0,wc_14,,0.0,,,,263.0,,,,Fail,,,,,
566.0,14.0,wc_14,wc_2,1.0,"[('wc_2', 0.28000000000000014), ('wc_14', 0.7500000000000006), ('wc_9', 0.8100000000000006)]",0.9658000000000002,,,22.0,0.044464000000000004,['Fail'],Fail,0.29000000000000015,0.20999999999999985,1.0,2.0,0.2
575.0,14.0,wc_14,,0.0,,,,202.0,,,,Pass,,,,,
575.0,14.0,wc_14,,0.0,,,77.0,,,,,Pass,,,,,
575.0,14.0,wc_14,,0.0,,,,0.0,,,,Pass,,,,,
575.0,14.0,wc_14,wc_14,0.0,"[('wc_14', 0.7600000000000006)]",0.7600000000000006,,,24.0,0.002281,['Pass'],Pass,0.7600000000000006,0.0733333333333328,5.0,6.0,1.0
575.0,14.0,wc_14,,0.0,,,,321.0,,,,Pass,,,,,
575.0,14.0,wc_14,wc_11,0.0,"[('wc_14', 0.7600000000000006)]",0.7600000000000006,,,32.0,0.003945000000000001,['Pass'],Pass,0.6200000000000004,-0.37000000000000044,0.0,0.0,0.6
575.0,14.0,wc_14,,0.0,,,,41.0,,,,Pass,,,,,
575.0,14.0,wc_14,wc_7,0.0,"[('wc_7', 0.3400000000000002), ('wc_14', 0.7600000000000006)]",0.8416000000000005,,,36.0,0.005802,['Pass'],Pass,0.3400000000000002,-0.19714285714285734,1.0,7.0,0.3
575.0,14.0,wc_14,,0.0,,,,243.0,,,,Pass,,,,,
575.0,14.0,wc_14,wc_17,1.0,"[('wc_17', 0.5900000000000004), ('wc_14', 0.7600000000000006), ('wc_7', 0.3400000000000002)]",0.9350560000000002,,,25.0,0.046943,['Pass'],Pass,0.5900000000000004,-0.5900000000000004,0.0,0.0,0.5
588.0,15.0,wc_15,,0.0,,,,83.0,,,,Pass,,,,,
588.0,15.0,wc_15,,0.0,,,65.0,,,,,Pass,,,,,
588.0,15.0,wc_15,,0.0,,,,0.0,,,,Pass,,,,,
588.0,15.0,wc_15,wc_15,0.0,"[('wc_15', 0.5600000000000004)]",0.5600000000000004,,,37.0,0.002324,['Pass'],Pass,0.5600000000000004,-0.5600000000000004,0.0,3.0,0.6
588.0,15.0,wc_15,,0.0,,,,0.0,,,,Pass,,,,,
588.0,15.0,wc_15,wc_17,0.0,"[('wc_17', 0.5900000000000004), ('wc_15', 0.5600000000000004)]",0.8196000000000003,,,34.0,0.004103000000000001,['Pass'],Pass,0.5900000000000004,-0.5900000000000004,0.0,0.0,0.5
588.0,15.0,wc_15,,0.0,,,,362.0,,,,Pass,,,,,
588.0,15.0,wc_15,wc_11,1.0,"[('wc_11', 0.6100000000000004), ('wc_15', 0.5600000000000004), ('wc_17', 0.5900000000000004)]",0.9296440000000002,,,31.0,0.047108,['Pass'],Pass,0.6100000000000004,-0.11000000000000043,1.0,2.0,0.6
603.0,16.0,wc_16,,0.0,,,,142.0,,,,Pass,,,,,
603.0,16.0,wc_16,,0.0,,,69.0,,,,,Pass,,,,,
603.0,16.0,wc_16,,0.0,,,,0.0,,,,Pass,,,,,
603.0,16.0,wc_16,wc_16,0.0,"[('wc_16', 0.7200000000000005)]",0.7200000000000005,,,26.0,0.002256,['Pass'],Pass,0.7200000000000005,-0.7200000000000005,0.0,9.0,0.8
603.0,16.0,wc_16,,0.0,,,,382.0,,,,Pass,,,,,
603.0,16.0,wc_16,wc_11,0.0,"[('wc_16', 0.7200000000000005)]",0.7200000000000005,,,32.0,0.004031,['Pass'],Pass,0.6100000000000004,-0.11000000000000043,1.0,2.0,0.6
603.0,16.0,wc_16,,0.0,,,,81.0,,,,Pass,,,,,
603.0,16.0,wc_16,wc_13,0.0,"[('wc_13', 0.7200000000000005), ('wc_16', 0.7200000000000005)]",0.9216000000000003,,,31.0,0.00608,['Pass'],Pass,0.7200000000000005,-0.47000000000000053,1.0,4.0,0.8
603.0,16.0,wc_16,,0.0,,,,222.0,,,,Pass,,,,,
603.0,16.0,wc_16,wc_1,1.0,"[('wc_1', 0.4800000000000003), ('wc_16', 0.7200000000000005), ('wc_13', 0.7200000000000005)]",0.9592320000000002,,,32.0,0.047951,['Pass'],Pass,0.4800000000000003,-0.23000000000000032,1.0,4.0,0.5
613.0,17.0,wc_17,,0.0,,,,283.0,,,,Fail,,,,,
613.0,17.0,wc_17,,0.0,,,75.0,,,,,Fail,,,,,
613.0,17.0,wc_17,,0.0,,,,0.0,,,,Fail,,,,,
613.0,17.0,wc_17,wc_17,0.0,"[('wc_17', 0.6000000000000004)]",0.6000000000000004,,,34.0,0.002283,['Pass'],Fail,0.6000000000000004,-0.10000000000000042,1.0,2.0,0.5
613.0,17.0,wc_17,,0.0,,,,322.0,,,,Fail,,,,,
613.0,17.0,wc_17,wc_9,0.0,"[('wc_9', 0.8200000000000006)]",0.8200000000000006,,,25.0,0.0045590000000000006,['Fail'],Fail,0.8200000000000006,-0.5700000000000006,1.0,4.0,1.0
613.0,17.0,wc_17,,0.0,,,,101.0,,,,Fail,,,,,
613.0,17.0,wc_17,wc_12,0.0,"[('wc_12', 0.5700000000000004), ('wc_17', 0.6000000000000004)]",0.8280000000000003,,,36.0,0.006118,['Pass'],Fail,0.5700000000000004,-0.42714285714285755,1.0,7.0,0.6
613.0,17.0,wc_17,,0.0,,,,361.0,,,,Fail,,,,,
613.0,17.0,wc_17,wc_3,0.0,"[('wc_3', 0.41000000000000025), ('wc_9', 0.8200000000000006)]",0.8938000000000004,,,28.0,0.009193,['Fail'],Fail,0.41000000000000025,-0.18777777777777804,0.0,0.0,0.4
613.0,17.0,wc_17,,0.0,,,,161.0,,,,Fail,,,,,
613.0,17.0,wc_17,wc_13,1.0,"[('wc_13', 0.7200000000000005), ('wc_9', 0.8200000000000006), ('wc_3', 0.41000000000000025)]",0.9702640000000001,,,30.0,0.050881,['Fail'],Fail,0.7200000000000005,-0.22000000000000053,3.0,6.0,0.8
621.0,17.0,wc_17,,0.0,,,,0.0,,,,Fail,,,,,
621.0,17.0,wc_17,,0.0,,,79.0,,,,,Fail,,,,,
621.0,17.0,wc_17,,0.0,,,,0.0,,,,Fail,,,,,
621.0,17.0,wc_17,wc_17,0.0,"[('wc_17', 0.5900000000000004)]",0.5900000000000004,,,34.0,0.002262,['Fail'],Fail,0.5900000000000004,-0.2566666666666671,1.0,3.0,0.5
621.0,17.0,wc_17,,0.0,,,,402.0,,,,Fail,,,,,
621.0,17.0,wc_17,wc_5,0.0,"[('wc_5', 0.19000000000000006), ('wc_17', 0.5900000000000004)]",0.6679000000000004,,,25.0,0.003801,['Fail'],Fail,0.19000000000000006,-0.09000000000000005,0.0,0.0,0.2
621.0,17.0,wc_17,,0.0,,,,101.0,,,,Fail,,,,,
621.0,17.0,wc_17,wc_12,0.0,"[('wc_12', 0.5600000000000004), ('wc_17', 0.5900000000000004), ('wc_5', 0.19000000000000006)]",0.8538760000000003,,,25.0,0.006031999999999999,['Fail'],Fail,0.5600000000000004,-0.4350000000000004,1.0,8.0,0.6
621.0,17.0,wc_17,,0.0,,,,321.0,,,,Fail,,,,,
621.0,17.0,wc_17,wc_9,1.0,"[('wc_9', 0.8200000000000006), ('wc_17', 0.5900000000000004), ('wc_5', 0.19000000000000006), ('wc_12', 0.5600000000000004)]",0.9736976800000001,,,36.0,0.04593900000000001,['Fail'],Fail,0.8200000000000006,-0.3200000000000006,3.0,6.0,1.0
631.0,17.0,wc_17,,0.0,,,,202.0,,,,Pass,,,,,
631.0,17.0,wc_17,,0.0,,,72.0,,,,,Pass,,,,,
631.0,17.0,wc_17,,0.0,,,,0.0,,,,Pass,,,,,
631.0,17.0,wc_17,wc_17,0.0,"[('wc_17', 0.5900000000000004)]",0.5900000000000004,,,34.0,0.002203,['Pass'],Pass,0.5900000000000004,-0.09000000000000041,2.0,4.0,0.5
631.0,17.0,wc_17,,0.0,,,,402.0,,,,Pass,,,,,
631.0,17.0,wc_17,wc_5,0.0,"[('wc_5', 0.20000000000000007), ('wc_17', 0.5900000000000004)]",0.6720000000000004,,,29.0,0.004085,['Pass'],Pass,0.20000000000000007,0.7999999999999999,1.0,1.0,0.2
631.0,17.0,wc_17,,0.0,,,,141.0,,,,Pass,,,,,
631.0,17.0,wc_17,wc_14,1.0,"[('wc_14', 0.7700000000000006), ('wc_17', 0.5900000000000004), ('wc_5', 0.20000000000000007)]",0.9245600000000003,,,39.0,0.046737,['Pass'],Pass,0.7700000000000006,-0.7700000000000006,0.0,0.0,1.0
