mpecck/BCQC/bcqc_with_qdt/results/raw/input_8/independent_qc/training/20_workpiece/20200429_084420/wp_7_qc_majority_0.9.csv
production_index,step_idx,production_workcell,qc,consent,winner_qc_list,score,production_time,transport_time,inspection_time,network_time,qc_results,actual_quality,qc_score,score_error,in_winner_counter,in_qc_counter,qc_capability
12.0,1.0,wc_1,,0.0,,,53.0,,,,,Pass,,,,,
12.0,1.0,wc_1,,0.0,,,,0.0,,,,Pass,,,,,
12.0,1.0,wc_1,wc_1,0.0,"[('wc_1', 0.4600000000000003)]",0.4600000000000003,,,29.0,0.00234,['Pass'],Pass,0.4600000000000003,-0.3488888888888892,0.0,0.0,0.5
12.0,1.0,wc_1,,0.0,,,,162.0,,,,Pass,,,,,
12.0,1.0,wc_1,wc_7,0.0,"[('wc_7', 0.3500000000000002), ('wc_1', 0.4600000000000003)]",0.6490000000000002,,,38.0,0.003991,['Pass'],Pass,0.3500000000000002,-0.18333333333333354,0.0,0.0,0.3
12.0,1.0,wc_1,,0.0,,,,102.0,,,,Pass,,,,,
12.0,1.0,wc_1,wc_6,0.0,"[('wc_1', 0.4600000000000003), ('wc_7', 0.3500000000000002)]",0.6490000000000002,,,35.0,0.0063430000000000005,['Pass'],Pass,0.4900000000000003,-0.4900000000000003,0.0,0.0,0.4
12.0,1.0,wc_1,,0.0,,,,0.0,,,,Pass,,,,,
12.0,1.0,wc_1,wc_10,0.0,"[('wc_10', 0.6300000000000004), ('wc_6', 0.4900000000000003)]",0.8113000000000004,,,22.0,0.008539999999999999,['Fail'],Pass,0.6300000000000004,0.36999999999999955,2.0,2.0,0.5
12.0,1.0,wc_1,,0.0,,,,362.0,,,,Pass,,,,,
12.0,1.0,wc_1,wc_4,0.0,"[('wc_4', 0.5300000000000004), ('wc_1', 0.4600000000000003), ('wc_7', 0.3500000000000002)]",0.8350300000000003,,,20.0,0.011039,['Pass'],Pass,0.5300000000000004,-0.03000000000000036,3.0,6.0,0.6
12.0,1.0,wc_1,,0.0,,,,182.0,,,,Pass,,,,,
12.0,1.0,wc_1,wc_15,1.0,"[('wc_15', 0.5500000000000004), ('wc_1', 0.4600000000000003), ('wc_7', 0.3500000000000002), ('wc_4', 0.5300000000000004)]",0.9257635000000002,,,23.0,0.041521,['Pass'],Pass,0.5500000000000004,-0.5500000000000004,0.0,0.0,0.6
16.0,3.0,wc_3,,0.0,,,,402.0,,,,Pass,,,,,
16.0,3.0,wc_3,,0.0,,,60.0,,,,,Pass,,,,,
16.0,3.0,wc_3,,0.0,,,,0.0,,,,Pass,,,,,
16.0,3.0,wc_3,wc_3,0.0,"[('wc_3', 0.3400000000000002)]",0.3400000000000002,,,23.0,0.002468,['Fail'],Pass,0.3400000000000002,-0.006666666666666876,1.0,3.0,0.4
16.0,3.0,wc_3,,0.0,,,,162.0,,,,Pass,,,,,
16.0,3.0,wc_3,wc_9,0.0,"[('wc_9', 0.6900000000000005), ('wc_3', 0.3400000000000002)]",0.7954000000000003,,,24.0,0.0052899999999999996,['Fail'],Pass,0.6900000000000005,-0.2900000000000005,2.0,5.0,1.0
16.0,3.0,wc_3,,0.0,,,,202.0,,,,Pass,,,,,
16.0,3.0,wc_3,wc_17,1.0,"[('wc_17', 0.5400000000000004), ('wc_3', 0.3400000000000002), ('wc_9', 0.6900000000000005)]",0.9058840000000002,,,31.0,0.036926999999999995,['Fail'],Pass,0.5500000000000004,0.16428571428571392,5.0,7.0,0.5
21.0,4.0,wc_4,,0.0,,,,382.0,,,,Fail,,,,,
21.0,4.0,wc_4,,0.0,,,65.0,,,,,Fail,,,,,
21.0,4.0,wc_4,,0.0,,,,0.0,,,,Fail,,,,,
21.0,4.0,wc_4,wc_4,0.0,"[('wc_4', 0.5400000000000004)]",0.5400000000000004,,,30.0,0.00229,['Fail'],Fail,0.5400000000000004,-0.04000000000000037,4.0,8.0,0.6
21.0,4.0,wc_4,,0.0,,,,81.0,,,,Fail,,,,,
21.0,4.0,wc_4,wc_2,0.0,"[('wc_4', 0.5400000000000004)]",0.5400000000000004,,,29.0,0.003817,['Fail'],Fail,0.17000000000000004,-0.11117647058823533,0.0,0.0,0.2
21.0,4.0,wc_4,,0.0,,,,0.0,,,,Fail,,,,,
21.0,4.0,wc_4,wc_5,0.0,"[('wc_4', 0.5400000000000004)]",0.5400000000000004,,,33.0,0.006251,['Fail'],Fail,0.2400000000000001,-0.2400000000000001,0.0,3.0,0.2
21.0,4.0,wc_4,,0.0,,,,101.0,,,,Fail,,,,,
21.0,4.0,wc_4,wc_12,0.0,"[('wc_12', 0.4900000000000003), ('wc_4', 0.5400000000000004)]",0.7654000000000003,,,21.0,0.007712999999999999,['Fail'],Fail,0.4900000000000003,-0.4900000000000003,0.0,0.0,0.6
21.0,4.0,wc_4,,0.0,,,,0.0,,,,Fail,,,,,
21.0,4.0,wc_4,wc_15,0.0,"[('wc_15', 0.5500000000000004), ('wc_4', 0.5400000000000004), ('wc_12', 0.4900000000000003)]",0.8944300000000003,,,24.0,0.009658,['Fail'],Fail,0.5500000000000004,-0.5500000000000004,0.0,1.0,0.6
21.0,4.0,wc_4,,0.0,,,,243.0,,,,Fail,,,,,
21.0,4.0,wc_4,wc_7,0.0,"[('wc_4', 0.5400000000000004), ('wc_12', 0.4900000000000003), ('wc_15', 0.5500000000000004)]",0.8944300000000003,,,39.0,0.011893,['Fail'],Fail,0.3600000000000002,0.1399999999999998,1.0,2.0,0.3
21.0,4.0,wc_4,,0.0,,,,182.0,,,,Fail,,,,,
21.0,4.0,wc_4,wc_14,1.0,"[('wc_14', 0.5900000000000004), ('wc_4', 0.5400000000000004), ('wc_12', 0.4900000000000003), ('wc_15', 0.5500000000000004)]",0.9567163000000002,,,26.0,0.04370999999999999,['Fail'],Fail,0.5900000000000004,-0.3400000000000004,1.0,4.0,1.0
26.0,4.0,wc_4,,0.0,,,,341.0,,,,Fail,,,,,
26.0,4.0,wc_4,,0.0,,,68.0,,,,,Fail,,,,,
26.0,4.0,wc_4,,0.0,,,,0.0,,,,Fail,,,,,
26.0,4.0,wc_4,wc_4,0.0,"[('wc_4', 0.5500000000000004)]",0.5500000000000004,,,21.0,0.002344,['Pass'],Fail,0.5500000000000004,0.005555555555555203,5.0,9.0,0.6
26.0,4.0,wc_4,,0.0,,,,161.0,,,,Fail,,,,,
26.0,4.0,wc_4,wc_14,0.0,"[('wc_14', 0.5900000000000004)]",0.5900000000000004,,,27.0,0.004287,['Fail'],Fail,0.5900000000000004,-0.3400000000000004,1.0,4.0,1.0
26.0,4.0,wc_4,,0.0,,,,321.0,,,,Fail,,,,,
26.0,4.0,wc_4,wc_3,0.0,"[('wc_3', 0.3500000000000002), ('wc_4', 0.5500000000000004)]",0.7075000000000004,,,40.0,0.0061340000000000006,['Pass'],Fail,0.3500000000000002,0.04999999999999982,2.0,5.0,0.4
26.0,4.0,wc_4,,0.0,,,,162.0,,,,Fail,,,,,
26.0,4.0,wc_4,wc_9,1.0,"[('wc_9', 0.6900000000000005), ('wc_4', 0.5500000000000004), ('wc_3', 0.3500000000000002)]",0.9093250000000003,,,22.0,0.037899,['Pass'],Fail,0.6900000000000005,-0.1900000000000005,4.0,8.0,1.0
32.0,4.0,wc_4,,0.0,,,,382.0,,,,Fail,,,,,
32.0,4.0,wc_4,,0.0,,,68.0,,,,,Fail,,,,,
32.0,4.0,wc_4,,0.0,,,,0.0,,,,Fail,,,,,
32.0,4.0,wc_4,wc_4,0.0,"[('wc_4', 0.5600000000000004)]",0.5600000000000004,,,40.0,0.002066,['Fail'],Fail,0.5600000000000004,-0.5600000000000004,0.0,0.0,0.6
32.0,4.0,wc_4,,0.0,,,,103.0,,,,Fail,,,,,
32.0,4.0,wc_4,wc_3,0.0,"[('wc_3', 0.3600000000000002), ('wc_4', 0.5600000000000004)]",0.7184000000000004,,,37.0,0.003961,['Fail'],Fail,0.3600000000000002,0.1399999999999998,3.0,6.0,0.4
32.0,4.0,wc_4,,0.0,,,,101.0,,,,Fail,,,,,
32.0,4.0,wc_4,wc_6,0.0,"[('wc_6', 0.4800000000000003), ('wc_4', 0.5600000000000004), ('wc_3', 0.3600000000000002)]",0.8535680000000003,,,24.0,0.006105,['Fail'],Fail,0.4800000000000003,-0.4800000000000003,0.0,4.0,0.4
32.0,4.0,wc_4,,0.0,,,,0.0,,,,Fail,,,,,
32.0,4.0,wc_4,wc_7,0.0,"[('wc_4', 0.5600000000000004), ('wc_3', 0.3600000000000002), ('wc_6', 0.4800000000000003)]",0.8535680000000002,,,30.0,0.007557,['Fail'],Fail,0.3500000000000002,-0.1000000000000002,1.0,4.0,0.3
32.0,4.0,wc_4,,0.0,,,,182.0,,,,Fail,,,,,
32.0,4.0,wc_4,wc_14,1.0,"[('wc_14', 0.5800000000000004), ('wc_4', 0.5600000000000004), ('wc_3', 0.3600000000000002), ('wc_6', 0.4800000000000003)]",0.9384985600000002,,,26.0,0.040344,['Fail'],Fail,0.5800000000000004,-0.2466666666666671,2.0,6.0,1.0
47.0,3.0,wc_3,,0.0,,,,321.0,,,,Fail,,,,,
47.0,3.0,wc_3,,0.0,,,60.0,,,,,Fail,,,,,
47.0,3.0,wc_3,,0.0,,,,0.0,,,,Fail,,,,,
47.0,3.0,wc_3,wc_3,0.0,"[('wc_3', 0.3700000000000002)]",0.3700000000000002,,,34.0,0.002273,['Pass'],Fail,0.3700000000000002,0.20142857142857118,4.0,7.0,0.4
47.0,3.0,wc_3,,0.0,,,,101.0,,,,Fail,,,,,
47.0,3.0,wc_3,wc_2,0.0,"[('wc_2', 0.16000000000000003), ('wc_3', 0.3700000000000002)]",0.4708000000000002,,,29.0,0.00454,['Pass'],Fail,0.16000000000000003,-0.16000000000000003,0.0,3.0,0.2
47.0,3.0,wc_3,,0.0,,,,223.0,,,,Fail,,,,,
47.0,3.0,wc_3,wc_11,0.0,"[('wc_11', 0.4900000000000003)]",0.4900000000000003,,,37.0,0.006125,['Fail'],Fail,0.4900000000000003,-0.3471428571428575,0.0,0.0,0.6
47.0,3.0,wc_3,,0.0,,,,122.0,,,,Fail,,,,,
47.0,3.0,wc_3,wc_15,0.0,"[('wc_15', 0.5500000000000004), ('wc_11', 0.4900000000000003)]",0.7705000000000004,,,37.0,0.00771,['Fail'],Fail,0.5500000000000004,-0.3000000000000004,1.0,4.0,0.6
47.0,3.0,wc_3,,0.0,,,,283.0,,,,Fail,,,,,
47.0,3.0,wc_3,wc_1,0.0,"[('wc_11', 0.4900000000000003), ('wc_15', 0.5500000000000004)]",0.7705000000000004,,,37.0,0.009099,['Fail'],Fail,0.4700000000000003,-0.2700000000000003,1.0,5.0,0.5
47.0,3.0,wc_3,,0.0,,,,223.0,,,,Fail,,,,,
47.0,3.0,wc_3,wc_10,1.0,"[('wc_10', 0.6300000000000004), ('wc_11', 0.4900000000000003), ('wc_15', 0.5500000000000004)]",0.9150850000000003,,,33.0,0.040019,['Fail'],Fail,0.6300000000000004,-0.25500000000000045,3.0,8.0,0.5
67.0,4.0,wc_4,,0.0,,,,362.0,,,,Fail,,,,,
67.0,4.0,wc_4,,0.0,,,59.0,,,,,Fail,,,,,
67.0,4.0,wc_4,,0.0,,,,0.0,,,,Fail,,,,,
67.0,4.0,wc_4,wc_4,0.0,"[('wc_4', 0.5700000000000004)]",0.5700000000000004,,,20.0,0.002452,['Fail'],Fail,0.5700000000000004,-0.0700000000000004,1.0,2.0,0.6
67.0,4.0,wc_4,,0.0,,,,81.0,,,,Fail,,,,,
67.0,4.0,wc_4,wc_6,0.0,"[('wc_6', 0.4800000000000003), ('wc_4', 0.5700000000000004)]",0.7764000000000003,,,25.0,0.0049239999999999996,['Fail'],Fail,0.4800000000000003,-0.3133333333333337,1.0,6.0,0.4
67.0,4.0,wc_4,,0.0,,,,263.0,,,,Fail,,,,,
67.0,4.0,wc_4,wc_17,0.0,"[('wc_4', 0.5700000000000004), ('wc_6', 0.4800000000000003)]",0.7764000000000003,,,24.0,0.00817,['Fail'],Fail,0.5500000000000004,-0.09545454545454585,0.0,0.0,0.5
67.0,4.0,wc_4,,0.0,,,,103.0,,,,Fail,,,,,
67.0,4.0,wc_4,wc_16,1.0,"[('wc_16', 0.6200000000000004), ('wc_4', 0.5700000000000004), ('wc_6', 0.4800000000000003)]",0.9150320000000003,,,24.0,0.041084999999999997,['Fail'],Fail,0.6200000000000004,-0.5088888888888894,1.0,9.0,0.8
100.0,3.0,wc_3,,0.0,,,,382.0,,,,Pass,,,,,
100.0,3.0,wc_3,,0.0,,,50.0,,,,,Pass,,,,,
100.0,3.0,wc_3,,0.0,,,,0.0,,,,Pass,,,,,
100.0,3.0,wc_3,wc_3,0.0,"[('wc_3', 0.3700000000000002)]",0.3700000000000002,,,33.0,0.002188,['Pass'],Pass,0.3700000000000002,0.0744444444444442,4.0,9.0,0.4
100.0,3.0,wc_3,,0.0,,,,0.0,,,,Pass,,,,,
100.0,3.0,wc_3,wc_5,0.0,"[('wc_3', 0.3700000000000002)]",0.3700000000000002,,,30.0,0.004291,['Pass'],Pass,0.2300000000000001,-0.2300000000000001,0.0,8.0,0.2
100.0,3.0,wc_3,,0.0,,,,162.0,,,,Pass,,,,,
100.0,3.0,wc_3,wc_15,0.0,"[('wc_15', 0.5500000000000004), ('wc_5', 0.2300000000000001)]",0.6535000000000004,,,37.0,0.006904,['Fail'],Pass,0.5500000000000004,-0.21666666666666706,2.0,6.0,0.6
100.0,3.0,wc_3,,0.0,,,,81.0,,,,Pass,,,,,
100.0,3.0,wc_3,wc_13,0.0,"[('wc_13', 0.5100000000000003), ('wc_3', 0.3700000000000002)]",0.6913000000000002,,,38.0,0.008371,['Pass'],Pass,0.5100000000000003,-0.5100000000000003,0.0,0.0,0.8
100.0,3.0,wc_3,,0.0,,,,0.0,,,,Pass,,,,,
100.0,3.0,wc_3,wc_17,0.0,"[('wc_17', 0.5400000000000004), ('wc_3', 0.3700000000000002), ('wc_13', 0.5100000000000003)]",0.8579980000000003,,,23.0,0.010041999999999999,['Pass'],Pass,0.5400000000000004,-0.5400000000000004,0.0,1.0,0.5
100.0,3.0,wc_3,,0.0,,,,103.0,,,,Pass,,,,,
100.0,3.0,wc_3,wc_16,1.0,"[('wc_16', 0.6200000000000004), ('wc_3', 0.3700000000000002), ('wc_13', 0.5100000000000003), ('wc_17', 0.5400000000000004)]",0.9460392400000002,,,39.0,0.052092,['Pass'],Pass,0.6200000000000004,-0.6200000000000004,0.0,0.0,0.8
124.0,2.0,wc_2,,0.0,,,,283.0,,,,Pass,,,,,
124.0,2.0,wc_2,,0.0,,,54.0,,,,,Pass,,,,,
124.0,2.0,wc_2,,0.0,,,,0.0,,,,Pass,,,,,
124.0,2.0,wc_2,wc_2,0.0,"[('wc_2', 0.15000000000000002)]",0.15000000000000002,,,31.0,0.002586,['Pass'],Pass,0.15000000000000002,-0.15000000000000002,0.0,6.0,0.2
124.0,2.0,wc_2,,0.0,,,,203.0,,,,Pass,,,,,
124.0,2.0,wc_2,wc_10,0.0,"[('wc_10', 0.6300000000000004), ('wc_2', 0.15000000000000002)]",0.6855000000000004,,,21.0,0.0048590000000000005,['Pass'],Pass,0.6300000000000004,-0.33000000000000046,0.0,0.0,0.5
124.0,2.0,wc_2,,0.0,,,,61.0,,,,Pass,,,,,
124.0,2.0,wc_2,wc_7,0.0,"[('wc_2', 0.15000000000000002), ('wc_10', 0.6300000000000004)]",0.6855000000000004,,,22.0,0.005648,['Pass'],Pass,0.3400000000000002,-0.2150000000000002,1.0,8.0,0.3
124.0,2.0,wc_2,,0.0,,,,341.0,,,,Pass,,,,,
124.0,2.0,wc_2,wc_5,0.0,"[('wc_5', 0.22000000000000008), ('wc_2', 0.15000000000000002), ('wc_10', 0.6300000000000004)]",0.7546900000000003,,,28.0,0.007591,['Pass'],Pass,0.22000000000000008,-0.22000000000000008,0.0,9.0,0.2
124.0,2.0,wc_2,,0.0,,,,122.0,,,,Pass,,,,,
124.0,2.0,wc_2,wc_9,1.0,"[('wc_9', 0.6900000000000005), ('wc_2', 0.15000000000000002), ('wc_10', 0.6300000000000004), ('wc_5', 0.22000000000000008)]",0.9239539000000002,,,20.0,0.04410699999999999,['Pass'],Pass,0.6900000000000005,-0.6900000000000005,0.0,0.0,1.0
133.0,4.0,wc_4,,0.0,,,,382.0,,,,Pass,,,,,
133.0,4.0,wc_4,,0.0,,,64.0,,,,,Pass,,,,,
133.0,4.0,wc_4,,0.0,,,,0.0,,,,Pass,,,,,
133.0,4.0,wc_4,wc_4,0.0,"[('wc_4', 0.5800000000000004)]",0.5800000000000004,,,40.0,0.002234,['Pass'],Pass,0.5800000000000004,-0.18000000000000038,2.0,5.0,0.6
133.0,4.0,wc_4,,0.0,,,,182.0,,,,Pass,,,,,
133.0,4.0,wc_4,wc_11,0.0,"[('wc_11', 0.5000000000000003), ('wc_4', 0.5800000000000004)]",0.7900000000000004,,,35.0,0.0037530000000000003,['Pass'],Pass,0.5000000000000003,-0.25000000000000033,1.0,4.0,0.6
133.0,4.0,wc_4,,0.0,,,,103.0,,,,Pass,,,,,
133.0,4.0,wc_4,wc_10,1.0,"[('wc_10', 0.6400000000000005), ('wc_4', 0.5800000000000004), ('wc_11', 0.5000000000000003)]",0.9244000000000002,,,27.0,0.038280999999999996,['Pass'],Pass,0.6500000000000005,0.34999999999999953,2.0,2.0,0.5
201.0,2.0,wc_2,,0.0,,,,243.0,,,,Fail,,,,,
201.0,2.0,wc_2,,0.0,,,55.0,,,,,Fail,,,,,
201.0,2.0,wc_2,,0.0,,,,0.0,,,,Fail,,,,,
201.0,2.0,wc_2,wc_2,0.0,"[('wc_2', 0.15000000000000002)]",0.15000000000000002,,,25.0,0.002017,['Pass'],Fail,0.15000000000000002,-0.025000000000000022,1.0,8.0,0.2
201.0,2.0,wc_2,,0.0,,,,203.0,,,,Fail,,,,,
201.0,2.0,wc_2,wc_10,0.0,"[('wc_10', 0.6500000000000005), ('wc_2', 0.15000000000000002)]",0.7025000000000003,,,24.0,0.0041259999999999995,['Pass'],Fail,0.6500000000000005,0.34999999999999953,2.0,2.0,0.5
201.0,2.0,wc_2,,0.0,,,,362.0,,,,Fail,,,,,
201.0,2.0,wc_2,wc_4,0.0,"[('wc_4', 0.5800000000000004), ('wc_2', 0.15000000000000002), ('wc_10', 0.6500000000000005)]",0.8750500000000003,,,33.0,0.005939000000000001,['Pass'],Fail,0.5800000000000004,-0.0800000000000004,3.0,6.0,0.6
201.0,2.0,wc_2,,0.0,,,,61.0,,,,Fail,,,,,
201.0,2.0,wc_2,wc_1,0.0,"[('wc_2', 0.15000000000000002), ('wc_10', 0.6500000000000005), ('wc_4', 0.5800000000000004)]",0.8750500000000003,,,26.0,0.0076950000000000005,['Pass'],Fail,0.4600000000000003,-0.3600000000000003,0.0,0.0,0.5
201.0,2.0,wc_2,,0.0,,,,182.0,,,,Fail,,,,,
201.0,2.0,wc_2,wc_12,1.0,"[('wc_12', 0.5000000000000003), ('wc_2', 0.15000000000000002), ('wc_10', 0.6500000000000005), ('wc_4', 0.5800000000000004)]",0.9375250000000002,,,30.0,0.040408,['Pass'],Fail,0.5000000000000003,-0.2777777777777781,2.0,9.0,0.6
258.0,2.0,wc_2,,0.0,,,,262.0,,,,Pass,,,,,
258.0,2.0,wc_2,,0.0,,,52.0,,,,,Pass,,,,,
258.0,2.0,wc_2,,0.0,,,,0.0,,,,Pass,,,,,
258.0,2.0,wc_2,wc_2,0.0,"[('wc_2', 0.16000000000000003)]",0.16000000000000003,,,29.0,0.002115,['Pass'],Pass,0.16000000000000003,0.06222222222222218,2.0,9.0,0.2
258.0,2.0,wc_2,,0.0,,,,202.0,,,,Pass,,,,,
258.0,2.0,wc_2,wc_14,0.0,"[('wc_14', 0.5800000000000004), ('wc_2', 0.16000000000000003)]",0.6472000000000003,,,38.0,0.004383,['Pass'],Pass,0.5800000000000004,-0.4133333333333338,0.0,0.0,1.0
258.0,2.0,wc_2,,0.0,,,,142.0,,,,Pass,,,,,
258.0,2.0,wc_2,wc_6,0.0,"[('wc_6', 0.4800000000000003), ('wc_2', 0.16000000000000003), ('wc_14', 0.5800000000000004)]",0.8165440000000003,,,40.0,0.005730000000000001,['Pass'],Pass,0.4800000000000003,-0.2981818181818185,0.0,0.0,0.4
258.0,2.0,wc_2,,0.0,,,,162.0,,,,Pass,,,,,
258.0,2.0,wc_2,wc_12,1.0,"[('wc_12', 0.5000000000000003), ('wc_2', 0.16000000000000003), ('wc_14', 0.5800000000000004), ('wc_6', 0.4800000000000003)]",0.9082720000000002,,,35.0,0.038564,['Pass'],Pass,0.5000000000000003,-0.5000000000000003,0.0,0.0,0.6
271.0,5.0,wc_5,,0.0,,,,401.0,,,,Pass,,,,,
271.0,5.0,wc_5,,0.0,,,51.0,,,,,Pass,,,,,
271.0,5.0,wc_5,,0.0,,,,0.0,,,,Pass,,,,,
271.0,5.0,wc_5,wc_5,0.0,"[('wc_5', 0.22000000000000008)]",0.22000000000000008,,,27.0,0.002168,['Pass'],Pass,0.22000000000000008,-0.22000000000000008,0.0,3.0,0.2
271.0,5.0,wc_5,,0.0,,,,162.0,,,,Pass,,,,,
271.0,5.0,wc_5,wc_11,0.0,"[('wc_11', 0.5000000000000003), ('wc_5', 0.22000000000000008)]",0.6100000000000003,,,37.0,0.003908,['Pass'],Pass,0.5000000000000003,-0.21428571428571463,2.0,7.0,0.6
271.0,5.0,wc_5,,0.0,,,,61.0,,,,Pass,,,,,
271.0,5.0,wc_5,wc_12,0.0,"[('wc_12', 0.5000000000000003), ('wc_5', 0.22000000000000008), ('wc_11', 0.5000000000000003)]",0.8050000000000003,,,38.0,0.007833,['Pass'],Pass,0.5000000000000003,-0.5000000000000003,0.0,0.0,0.6
271.0,5.0,wc_5,,0.0,,,,222.0,,,,Pass,,,,,
271.0,5.0,wc_5,wc_8,0.0,"[('wc_5', 0.22000000000000008), ('wc_11', 0.5000000000000003), ('wc_12', 0.5000000000000003)]",0.8050000000000003,,,24.0,0.008129,['Pass'],Pass,0.2300000000000001,-0.09956521739130444,0.0,0.0,0.2
271.0,5.0,wc_5,,0.0,,,,183.0,,,,Pass,,,,,
271.0,5.0,wc_5,wc_15,0.0,"[('wc_5', 0.22000000000000008), ('wc_11', 0.5000000000000003), ('wc_12', 0.5000000000000003)]",0.8050000000000003,,,36.0,0.009779,['Pass'],Pass,0.5400000000000004,-0.35818181818181855,0.0,0.0,0.6
271.0,5.0,wc_5,,0.0,,,,382.0,,,,Pass,,,,,
271.0,5.0,wc_5,wc_10,1.0,"[('wc_10', 0.6600000000000005), ('wc_5', 0.22000000000000008), ('wc_11', 0.5000000000000003), ('wc_12', 0.5000000000000003)]",0.9337000000000002,,,28.0,0.045744,['Pass'],Pass,0.6700000000000005,0.12999999999999956,4.0,5.0,0.5
354.0,5.0,wc_5,,0.0,,,,382.0,,,,Pass,,,,,
354.0,5.0,wc_5,,0.0,,,58.0,,,,,Pass,,,,,
354.0,5.0,wc_5,,0.0,,,,0.0,,,,Pass,,,,,
354.0,5.0,wc_5,wc_5,0.0,"[('wc_5', 0.2300000000000001)]",0.2300000000000001,,,40.0,0.002103,['Fail'],Pass,0.2300000000000001,0.019999999999999907,1.0,4.0,0.2
354.0,5.0,wc_5,,0.0,,,,121.0,,,,Pass,,,,,
354.0,5.0,wc_5,wc_13,0.0,"[('wc_13', 0.5200000000000004)]",0.5200000000000004,,,30.0,0.003783,['Pass'],Pass,0.5200000000000004,-0.3533333333333337,1.0,6.0,0.8
354.0,5.0,wc_5,,0.0,,,,0.0,,,,Pass,,,,,
354.0,5.0,wc_5,wc_16,0.0,"[('wc_16', 0.6200000000000004), ('wc_5', 0.2300000000000001)]",0.7074000000000004,,,29.0,0.006284999999999999,['Fail'],Pass,0.6200000000000004,-0.6200000000000004,0.0,5.0,0.8
354.0,5.0,wc_5,,0.0,,,,263.0,,,,Pass,,,,,
354.0,5.0,wc_5,wc_1,0.0,"[('wc_1', 0.4500000000000003), ('wc_13', 0.5200000000000004)]",0.7360000000000003,,,40.0,0.007672000000000001,['Pass'],Pass,0.4500000000000003,-0.4500000000000003,0.0,3.0,0.5
354.0,5.0,wc_5,,0.0,,,,0.0,,,,Pass,,,,,
354.0,5.0,wc_5,wc_2,0.0,"[('wc_2', 0.17000000000000004), ('wc_13', 0.5200000000000004), ('wc_1', 0.4500000000000003)]",0.7808800000000002,,,22.0,0.009835,['Pass'],Pass,0.17000000000000004,-0.17000000000000004,0.0,1.0,0.2
354.0,5.0,wc_5,,0.0,,,,142.0,,,,Pass,,,,,
354.0,5.0,wc_5,wc_7,0.0,"[('wc_7', 0.3300000000000002), ('wc_5', 0.2300000000000001), ('wc_16', 0.6200000000000004)]",0.8039580000000003,,,32.0,0.010928,['Fail'],Pass,0.3300000000000002,-0.25307692307692325,0.0,0.0,0.3
354.0,5.0,wc_5,,0.0,,,,243.0,,,,Pass,,,,,
354.0,5.0,wc_5,wc_17,0.0,"[('wc_17', 0.5400000000000004), ('wc_13', 0.5200000000000004), ('wc_1', 0.4500000000000003), ('wc_2', 0.17000000000000004)]",0.8992048000000002,,,33.0,0.012976,['Pass'],Pass,0.5400000000000004,-0.3971428571428575,1.0,7.0,0.5
354.0,5.0,wc_5,,0.0,,,,61.0,,,,Pass,,,,,
354.0,5.0,wc_5,wc_14,1.0,"[('wc_14', 0.5900000000000004), ('wc_13', 0.5200000000000004), ('wc_1', 0.4500000000000003), ('wc_2', 0.17000000000000004), ('wc_17', 0.5400000000000004)]",0.9586739680000002,,,39.0,0.051192,['Pass'],Pass,0.6000000000000004,0.06666666666666621,2.0,3.0,1.0
359.0,6.0,wc_6,,0.0,,,,142.0,,,,Fail,,,,,
359.0,6.0,wc_6,,0.0,,,64.0,,,,,Fail,,,,,
359.0,6.0,wc_6,,0.0,,,,0.0,,,,Fail,,,,,
359.0,6.0,wc_6,wc_6,0.0,"[('wc_6', 0.4900000000000003)]",0.4900000000000003,,,22.0,0.002046,['Fail'],Fail,0.4900000000000003,-0.156666666666667,1.0,3.0,0.4
359.0,6.0,wc_6,,0.0,,,,243.0,,,,Fail,,,,,
359.0,6.0,wc_6,wc_16,0.0,"[('wc_16', 0.6100000000000004), ('wc_6', 0.4900000000000003)]",0.8011000000000004,,,28.0,0.003971000000000001,['Fail'],Fail,0.6100000000000004,-0.6100000000000004,0.0,6.0,0.8
359.0,6.0,wc_6,,0.0,,,,41.0,,,,Fail,,,,,
359.0,6.0,wc_6,wc_12,1.0,"[('wc_12', 0.5100000000000003), ('wc_6', 0.4900000000000003), ('wc_16', 0.6100000000000004)]",0.9025390000000002,,,23.0,0.040097999999999995,['Fail'],Fail,0.5200000000000004,0.14666666666666628,2.0,3.0,0.6
365.0,6.0,wc_6,,0.0,,,,182.0,,,,Pass,,,,,
365.0,6.0,wc_6,,0.0,,,64.0,,,,,Pass,,,,,
365.0,6.0,wc_6,,0.0,,,,0.0,,,,Pass,,,,,
365.0,6.0,wc_6,wc_6,0.0,"[('wc_6', 0.4900000000000003)]",0.4900000000000003,,,23.0,0.00213,['Fail'],Pass,0.4900000000000003,0.009999999999999676,2.0,4.0,0.4
365.0,6.0,wc_6,,0.0,,,,263.0,,,,Pass,,,,,
365.0,6.0,wc_6,wc_17,0.0,"[('wc_17', 0.5400000000000004), ('wc_6', 0.4900000000000003)]",0.7654000000000003,,,32.0,0.003753,['Fail'],Pass,0.5400000000000004,-0.31777777777777816,2.0,9.0,0.5
365.0,6.0,wc_6,,0.0,,,,263.0,,,,Pass,,,,,
365.0,6.0,wc_6,wc_2,0.0,"[('wc_2', 0.18000000000000005), ('wc_6', 0.4900000000000003), ('wc_17', 0.5400000000000004)]",0.8076280000000002,,,21.0,0.005919,['Fail'],Pass,0.18000000000000005,0.15333333333333327,1.0,3.0,0.2
365.0,6.0,wc_6,,0.0,,,,223.0,,,,Pass,,,,,
365.0,6.0,wc_6,wc_15,0.0,"[('wc_6', 0.4900000000000003), ('wc_17', 0.5400000000000004), ('wc_2', 0.18000000000000005)]",0.8076280000000002,,,40.0,0.008398999999999998,['Fail'],Pass,0.5300000000000004,-0.5300000000000004,0.0,3.0,0.6
365.0,6.0,wc_6,,0.0,,,,283.0,,,,Pass,,,,,
365.0,6.0,wc_6,wc_1,0.0,"[('wc_1', 0.4500000000000003), ('wc_6', 0.4900000000000003), ('wc_17', 0.5400000000000004), ('wc_2', 0.18000000000000005)]",0.8941954000000002,,,24.0,0.010303,['Fail'],Pass,0.4500000000000003,-0.2500000000000003,1.0,5.0,0.5
365.0,6.0,wc_6,,0.0,,,,202.0,,,,Pass,,,,,
365.0,6.0,wc_6,wc_13,0.0,"[('wc_6', 0.4900000000000003), ('wc_17', 0.5400000000000004), ('wc_2', 0.18000000000000005), ('wc_1', 0.4500000000000003)]",0.8941954000000002,,,20.0,0.011746,['Fail'],Pass,0.5200000000000004,-0.27000000000000035,2.0,8.0,0.8
365.0,6.0,wc_6,,0.0,,,,0.0,,,,Pass,,,,,
365.0,6.0,wc_6,wc_16,1.0,"[('wc_16', 0.6100000000000004), ('wc_15', 0.5300000000000004), ('wc_13', 0.5200000000000004)]",0.9120160000000003,,,28.0,0.044672,['Pass'],Pass,0.6100000000000004,-0.36000000000000043,2.0,8.0,0.8
372.0,11.0,wc_11,,0.0,,,,382.0,,,,Fail,,,,,
372.0,11.0,wc_11,,0.0,,,75.0,,,,,Fail,,,,,
372.0,11.0,wc_11,,0.0,,,,0.0,,,,Fail,,,,,
372.0,11.0,wc_11,wc_11,0.0,"[('wc_11', 0.5000000000000003)]",0.5000000000000003,,,21.0,0.002134,['Fail'],Fail,0.5000000000000003,-0.22727272727272763,0.0,0.0,0.6
372.0,11.0,wc_11,,0.0,,,,162.0,,,,Fail,,,,,
372.0,11.0,wc_11,wc_17,0.0,"[('wc_17', 0.5300000000000004), ('wc_11', 0.5000000000000003)]",0.7650000000000003,,,36.0,0.00408,['Fail'],Fail,0.5300000000000004,-0.5300000000000004,0.0,0.0,0.5
372.0,11.0,wc_11,,0.0,,,,61.0,,,,Fail,,,,,
372.0,11.0,wc_11,wc_14,1.0,"[('wc_14', 0.6000000000000004), ('wc_11', 0.5000000000000003), ('wc_17', 0.5300000000000004)]",0.9060000000000002,,,31.0,0.036583000000000004,['Fail'],Fail,0.6000000000000004,-0.10000000000000042,3.0,6.0,1.0
379.0,8.0,wc_8,,0.0,,,,182.0,,,,Pass,,,,,
379.0,8.0,wc_8,,0.0,,,68.0,,,,,Pass,,,,,
379.0,8.0,wc_8,,0.0,,,,0.0,,,,Pass,,,,,
379.0,8.0,wc_8,wc_8,0.0,"[('wc_8', 0.22000000000000008)]",0.22000000000000008,,,35.0,0.002086,['Fail'],Pass,0.22000000000000008,-0.22000000000000008,0.0,5.0,0.2
379.0,8.0,wc_8,,0.0,,,,183.0,,,,Pass,,,,,
379.0,8.0,wc_8,wc_15,0.0,"[('wc_15', 0.5300000000000004)]",0.5300000000000004,,,23.0,0.004366,['Pass'],Pass,0.5300000000000004,-0.33000000000000035,1.0,5.0,0.6
379.0,8.0,wc_8,,0.0,,,,0.0,,,,Pass,,,,,
379.0,8.0,wc_8,wc_16,0.0,"[('wc_16', 0.6100000000000004), ('wc_8', 0.22000000000000008)]",0.6958000000000004,,,31.0,0.006547,['Fail'],Pass,0.6100000000000004,-0.3877777777777782,2.0,9.0,0.8
379.0,8.0,wc_8,,0.0,,,,0.0,,,,Pass,,,,,
379.0,8.0,wc_8,wc_17,0.0,"[('wc_17', 0.5400000000000004), ('wc_15', 0.5300000000000004)]",0.7838000000000003,,,37.0,0.007818,['Pass'],Pass,0.5400000000000004,0.45999999999999963,1.0,1.0,0.5
379.0,8.0,wc_8,,0.0,,,,402.0,,,,Pass,,,,,
379.0,8.0,wc_8,wc_5,0.0,"[('wc_15', 0.5300000000000004), ('wc_17', 0.5400000000000004)]",0.7838000000000003,,,31.0,0.010352,['Pass'],Pass,0.22000000000000008,-0.09500000000000008,1.0,8.0,0.2
379.0,8.0,wc_8,,0.0,,,,162.0,,,,Pass,,,,,
379.0,8.0,wc_8,wc_11,0.0,"[('wc_11', 0.5100000000000003), ('wc_15', 0.5300000000000004), ('wc_17', 0.5400000000000004)]",0.8940620000000002,,,33.0,0.011478,['Pass'],Pass,0.5100000000000003,0.48999999999999966,1.0,1.0,0.6
379.0,8.0,wc_8,,0.0,,,,342.0,,,,Pass,,,,,
379.0,8.0,wc_8,wc_4,1.0,"[('wc_4', 0.5800000000000004), ('wc_15', 0.5300000000000004), ('wc_17', 0.5400000000000004), ('wc_11', 0.5100000000000003)]",0.9555060400000002,,,21.0,0.052003999999999995,['Pass'],Pass,0.5800000000000004,-0.5800000000000004,0.0,0.0,0.6
386.0,9.0,wc_9,,0.0,,,,142.0,,,,Fail,,,,,
386.0,9.0,wc_9,,0.0,,,57.0,,,,,Fail,,,,,
386.0,9.0,wc_9,,0.0,,,,0.0,,,,Fail,,,,,
386.0,9.0,wc_9,wc_9,0.0,"[('wc_9', 0.6900000000000005)]",0.6900000000000005,,,21.0,0.002273,['Fail'],Fail,0.6900000000000005,-0.6900000000000005,0.0,9.0,1.0
386.0,9.0,wc_9,,0.0,,,,243.0,,,,Fail,,,,,
386.0,9.0,wc_9,wc_1,0.0,"[('wc_1', 0.4400000000000003), ('wc_9', 0.6900000000000005)]",0.8264000000000004,,,30.0,0.003983,['Fail'],Fail,0.4400000000000003,-0.3150000000000003,1.0,8.0,0.5
386.0,9.0,wc_9,,0.0,,,,142.0,,,,Fail,,,,,
386.0,9.0,wc_9,wc_6,1.0,"[('wc_6', 0.4800000000000003), ('wc_9', 0.6900000000000005), ('wc_1', 0.4400000000000003)]",0.9097280000000002,,,36.0,0.04184500000000001,['Fail'],Fail,0.4800000000000003,-0.10500000000000032,3.0,8.0,0.4
395.0,9.0,wc_9,,0.0,,,,0.0,,,,Fail,,,,,
395.0,9.0,wc_9,,0.0,,,72.0,,,,,Fail,,,,,
395.0,9.0,wc_9,,0.0,,,,0.0,,,,Fail,,,,,
395.0,9.0,wc_9,wc_9,0.0,"[('wc_9', 0.6900000000000005)]",0.6900000000000005,,,22.0,0.002171,['Fail'],Fail,0.6900000000000005,-0.6900000000000005,0.0,0.0,1.0
395.0,9.0,wc_9,,0.0,,,,263.0,,,,Fail,,,,,
395.0,9.0,wc_9,wc_2,0.0,"[('wc_9', 0.6900000000000005)]",0.6900000000000005,,,34.0,0.004377,['Fail'],Fail,0.18000000000000005,-0.0371428571428572,1.0,7.0,0.2
395.0,9.0,wc_9,,0.0,,,,182.0,,,,Fail,,,,,
395.0,9.0,wc_9,wc_13,0.0,"[('wc_13', 0.5200000000000004), ('wc_9', 0.6900000000000005)]",0.8512000000000004,,,22.0,0.006399,['Fail'],Fail,0.5200000000000004,-0.27000000000000035,0.0,0.0,0.8
395.0,9.0,wc_9,,0.0,,,,341.0,,,,Fail,,,,,
395.0,9.0,wc_9,wc_11,1.0,"[('wc_11', 0.5200000000000004), ('wc_9', 0.6900000000000005), ('wc_13', 0.5200000000000004)]",0.9285760000000002,,,25.0,0.050682000000000005,['Fail'],Fail,0.5300000000000004,0.21999999999999964,3.0,4.0,0.6
402.0,11.0,wc_11,,0.0,,,,0.0,,,,Pass,,,,,
402.0,11.0,wc_11,,0.0,,,57.0,,,,,Pass,,,,,
402.0,11.0,wc_11,,0.0,,,,0.0,,,,Pass,,,,,
402.0,11.0,wc_11,wc_11,0.0,"[('wc_11', 0.5300000000000004)]",0.5300000000000004,,,26.0,0.002064,['Pass'],Pass,0.5300000000000004,0.21999999999999964,3.0,4.0,0.6
402.0,11.0,wc_11,,0.0,,,,81.0,,,,Pass,,,,,
402.0,11.0,wc_11,wc_13,0.0,"[('wc_13', 0.5300000000000004), ('wc_11', 0.5300000000000004)]",0.7791000000000003,,,37.0,0.004465,['Pass'],Pass,0.5300000000000004,0.46999999999999964,1.0,1.0,0.8
402.0,11.0,wc_11,,0.0,,,,0.0,,,,Pass,,,,,
402.0,11.0,wc_11,wc_15,0.0,"[('wc_15', 0.5300000000000004), ('wc_11', 0.5300000000000004), ('wc_13', 0.5300000000000004)]",0.8961770000000002,,,26.0,0.006211,['Pass'],Pass,0.5300000000000004,-0.28000000000000036,2.0,8.0,0.6
402.0,11.0,wc_11,,0.0,,,,0.0,,,,Pass,,,,,
402.0,11.0,wc_11,wc_17,1.0,"[('wc_17', 0.5500000000000004), ('wc_11', 0.5300000000000004), ('wc_13', 0.5300000000000004), ('wc_15', 0.5300000000000004)]",0.9532796500000001,,,31.0,0.044596000000000004,['Pass'],Pass,0.5600000000000004,0.03999999999999959,3.0,5.0,0.5
407.0,9.0,wc_9,,0.0,,,,322.0,,,,Fail,,,,,
407.0,9.0,wc_9,,0.0,,,64.0,,,,,Fail,,,,,
407.0,9.0,wc_9,,0.0,,,,0.0,,,,Fail,,,,,
407.0,9.0,wc_9,wc_9,0.0,"[('wc_9', 0.7000000000000005)]",0.7000000000000005,,,28.0,0.002049,['Fail'],Fail,0.7000000000000005,-0.2000000000000005,1.0,2.0,1.0
407.0,9.0,wc_9,,0.0,,,,0.0,,,,Fail,,,,,
407.0,9.0,wc_9,wc_11,0.0,"[('wc_11', 0.5400000000000004), ('wc_9', 0.7000000000000005)]",0.8620000000000003,,,30.0,0.003699,['Fail'],Fail,0.5400000000000004,0.2599999999999997,4.0,5.0,0.6
407.0,9.0,wc_9,,0.0,,,,142.0,,,,Fail,,,,,
407.0,9.0,wc_9,wc_16,1.0,"[('wc_16', 0.6000000000000004), ('wc_9', 0.7000000000000005), ('wc_11', 0.5400000000000004)]",0.9448000000000002,,,28.0,0.04353599999999999,['Fail'],Fail,0.6000000000000004,-0.3500000000000004,1.0,4.0,0.8
416.0,7.0,wc_7,,0.0,,,,223.0,,,,Pass,,,,,
416.0,7.0,wc_7,,0.0,,,75.0,,,,,Pass,,,,,
416.0,7.0,wc_7,,0.0,,,,0.0,,,,Pass,,,,,
416.0,7.0,wc_7,wc_7,0.0,"[('wc_7', 0.3200000000000002)]",0.3200000000000002,,,26.0,0.002283,['Fail'],Pass,0.3200000000000002,-0.3200000000000002,0.0,9.0,0.3
416.0,7.0,wc_7,,0.0,,,,182.0,,,,Pass,,,,,
416.0,7.0,wc_7,wc_14,0.0,"[('wc_14', 0.6000000000000004)]",0.6000000000000004,,,39.0,0.003674,['Pass'],Pass,0.6000000000000004,-0.3272727272727277,0.0,0.0,1.0
416.0,7.0,wc_7,,0.0,,,,0.0,,,,Pass,,,,,
416.0,7.0,wc_7,wc_16,0.0,"[('wc_16', 0.6000000000000004), ('wc_14', 0.6000000000000004)]",0.8400000000000003,,,26.0,0.006687,['Pass'],Pass,0.6000000000000004,-0.3500000000000004,1.0,4.0,0.8
416.0,7.0,wc_7,,0.0,,,,342.0,,,,Pass,,,,,
416.0,7.0,wc_7,wc_9,1.0,"[('wc_9', 0.7000000000000005), ('wc_14', 0.6000000000000004), ('wc_16', 0.6000000000000004)]",0.9520000000000002,,,32.0,0.042047,['Pass'],Pass,0.7100000000000005,0.03999999999999948,3.0,4.0,1.0
422.0,9.0,wc_9,,0.0,,,,0.0,,,,Fail,,,,,
422.0,9.0,wc_9,,0.0,,,59.0,,,,,Fail,,,,,
422.0,9.0,wc_9,,0.0,,,,0.0,,,,Fail,,,,,
422.0,9.0,wc_9,wc_9,0.0,"[('wc_9', 0.7100000000000005)]",0.7100000000000005,,,40.0,0.002207,['Fail'],Fail,0.7100000000000005,0.03999999999999948,3.0,4.0,1.0
422.0,9.0,wc_9,,0.0,,,,202.0,,,,Fail,,,,,
422.0,9.0,wc_9,wc_17,0.0,"[('wc_9', 0.7100000000000005)]",0.7100000000000005,,,28.0,0.004779,['Fail'],Fail,0.5600000000000004,-0.13142857142857184,3.0,7.0,0.5
422.0,9.0,wc_9,,0.0,,,,103.0,,,,Fail,,,,,
422.0,9.0,wc_9,wc_16,0.0,"[('wc_16', 0.6000000000000004), ('wc_9', 0.7100000000000005)]",0.8840000000000003,,,34.0,0.005877,['Fail'],Fail,0.6000000000000004,-0.2000000000000004,2.0,5.0,0.8
422.0,9.0,wc_9,,0.0,,,,402.0,,,,Fail,,,,,
422.0,9.0,wc_9,wc_4,1.0,"[('wc_4', 0.5800000000000004), ('wc_9', 0.7100000000000005), ('wc_16', 0.6000000000000004)]",0.9512800000000002,,,29.0,0.045323,['Fail'],Fail,0.5800000000000004,-0.4133333333333338,1.0,6.0,0.6
432.0,9.0,wc_9,,0.0,,,,142.0,,,,Fail,,,,,
432.0,9.0,wc_9,,0.0,,,74.0,,,,,Fail,,,,,
432.0,9.0,wc_9,,0.0,,,,0.0,,,,Fail,,,,,
432.0,9.0,wc_9,wc_9,0.0,"[('wc_9', 0.7200000000000005)]",0.7200000000000005,,,34.0,0.002082,['Fail'],Fail,0.7200000000000005,0.07999999999999952,4.0,5.0,1.0
432.0,9.0,wc_9,,0.0,,,,243.0,,,,Fail,,,,,
432.0,9.0,wc_9,wc_1,0.0,"[('wc_1', 0.4400000000000003), ('wc_9', 0.7200000000000005)]",0.8432000000000004,,,33.0,0.004057,['Fail'],Fail,0.4400000000000003,-0.29714285714285743,0.0,0.0,0.5
432.0,9.0,wc_9,,0.0,,,,223.0,,,,Fail,,,,,
432.0,9.0,wc_9,wc_10,1.0,"[('wc_10', 0.6700000000000005), ('wc_9', 0.7200000000000005), ('wc_1', 0.4400000000000003)]",0.9482560000000002,,,23.0,0.040173,['Fail'],Fail,0.6700000000000005,-0.6700000000000005,0.0,0.0,0.5
439.0,10.0,wc_10,,0.0,,,,0.0,,,,Fail,,,,,
439.0,10.0,wc_10,,0.0,,,65.0,,,,,Fail,,,,,
439.0,10.0,wc_10,,0.0,,,,0.0,,,,Fail,,,,,
439.0,10.0,wc_10,wc_10,0.0,"[('wc_10', 0.6700000000000005)]",0.6700000000000005,,,21.0,0.002112,['Fail'],Fail,0.6700000000000005,-0.6700000000000005,0.0,0.0,0.5
439.0,10.0,wc_10,,0.0,,,,182.0,,,,Fail,,,,,
439.0,10.0,wc_10,wc_17,0.0,"[('wc_17', 0.5500000000000004), ('wc_10', 0.6700000000000005)]",0.8515000000000004,,,40.0,0.004157,['Fail'],Fail,0.5500000000000004,-0.21666666666666706,3.0,9.0,0.5
439.0,10.0,wc_10,,0.0,,,,263.0,,,,Fail,,,,,
439.0,10.0,wc_10,wc_2,0.0,"[('wc_10', 0.6700000000000005), ('wc_17', 0.5500000000000004)]",0.8515000000000004,,,29.0,0.006191,['Fail'],Fail,0.17000000000000004,-0.09307692307692311,0.0,0.0,0.2
439.0,10.0,wc_10,,0.0,,,,122.0,,,,Fail,,,,,
439.0,10.0,wc_10,wc_6,0.0,"[('wc_10', 0.6700000000000005), ('wc_17', 0.5500000000000004)]",0.8515000000000004,,,32.0,0.008088,['Fail'],Fail,0.4800000000000003,-0.265714285714286,0.0,0.0,0.4
439.0,10.0,wc_10,,0.0,,,,202.0,,,,Fail,,,,,
439.0,10.0,wc_10,wc_1,0.0,"[('wc_10', 0.6700000000000005), ('wc_17', 0.5500000000000004)]",0.8515000000000004,,,20.0,0.009936,['Fail'],Fail,0.4500000000000003,0.5499999999999997,1.0,1.0,0.5
439.0,10.0,wc_10,,0.0,,,,243.0,,,,Fail,,,,,
439.0,10.0,wc_10,wc_11,1.0,"[('wc_11', 0.5500000000000004), ('wc_10', 0.6700000000000005), ('wc_17', 0.5500000000000004)]",0.9331750000000002,,,26.0,0.049624,['Fail'],Fail,0.5600000000000004,-0.5600000000000004,0.0,0.0,0.6
446.0,10.0,wc_10,,0.0,,,,103.0,,,,Pass,,,,,
446.0,10.0,wc_10,,0.0,,,68.0,,,,,Pass,,,,,
446.0,10.0,wc_10,,0.0,,,,0.0,,,,Pass,,,,,
446.0,10.0,wc_10,wc_10,0.0,"[('wc_10', 0.6800000000000005)]",0.6800000000000005,,,29.0,0.002364,['Pass'],Pass,0.6800000000000005,0.3199999999999995,1.0,1.0,0.5
446.0,10.0,wc_10,,0.0,,,,61.0,,,,Pass,,,,,
446.0,10.0,wc_10,wc_7,0.0,"[('wc_10', 0.6800000000000005)]",0.6800000000000005,,,38.0,0.003928,['Pass'],Pass,0.31000000000000016,-0.31000000000000016,0.0,3.0,0.3
446.0,10.0,wc_10,,0.0,,,,0.0,,,,Pass,,,,,
446.0,10.0,wc_10,wc_11,0.0,"[('wc_11', 0.5600000000000004), ('wc_10', 0.6800000000000005)]",0.8592000000000004,,,32.0,0.007651,['Pass'],Pass,0.5600000000000004,-0.5600000000000004,0.0,0.0,0.6
446.0,10.0,wc_10,,0.0,,,,142.0,,,,Pass,,,,,
446.0,10.0,wc_10,wc_16,1.0,"[('wc_16', 0.6000000000000004), ('wc_10', 0.6800000000000005), ('wc_11', 0.5600000000000004)]",0.9436800000000002,,,28.0,0.041824,['Pass'],Pass,0.6000000000000004,-0.155555555555556,4.0,9.0,0.8
457.0,9.0,wc_9,,0.0,,,,342.0,,,,Fail,,,,,
457.0,9.0,wc_9,,0.0,,,80.0,,,,,Fail,,,,,
457.0,9.0,wc_9,,0.0,,,,0.0,,,,Fail,,,,,
457.0,9.0,wc_9,wc_9,0.0,"[('wc_9', 0.7300000000000005)]",0.7300000000000005,,,28.0,0.002094,['Fail'],Fail,0.7300000000000005,-0.10500000000000054,5.0,8.0,1.0
457.0,9.0,wc_9,,0.0,,,,362.0,,,,Fail,,,,,
457.0,9.0,wc_9,wc_3,0.0,"[('wc_3', 0.3800000000000002), ('wc_9', 0.7300000000000005)]",0.8326000000000005,,,29.0,0.0040809999999999996,['Fail'],Fail,0.3800000000000002,-0.3800000000000002,0.0,0.0,0.4
457.0,9.0,wc_9,,0.0,,,,242.0,,,,Fail,,,,,
457.0,9.0,wc_9,wc_17,1.0,"[('wc_17', 0.5500000000000004), ('wc_9', 0.7300000000000005), ('wc_3', 0.3800000000000002)]",0.9246700000000002,,,39.0,0.045806,['Fail'],Fail,0.5500000000000004,-0.05000000000000038,1.0,2.0,0.5
465.0,9.0,wc_9,,0.0,,,,322.0,,,,Fail,,,,,
465.0,9.0,wc_9,,0.0,,,56.0,,,,,Fail,,,,,
465.0,9.0,wc_9,,0.0,,,,0.0,,,,Fail,,,,,
465.0,9.0,wc_9,wc_9,0.0,"[('wc_9', 0.7300000000000005)]",0.7300000000000005,,,37.0,0.002257,['Pass'],Fail,0.7300000000000005,-0.06333333333333391,6.0,9.0,1.0
465.0,9.0,wc_9,,0.0,,,,382.0,,,,Fail,,,,,
465.0,9.0,wc_9,wc_4,0.0,"[('wc_4', 0.5800000000000004), ('wc_9', 0.7300000000000005)]",0.8866000000000003,,,31.0,0.004248999999999999,['Pass'],Fail,0.5800000000000004,-0.4800000000000004,0.0,0.0,0.6
465.0,9.0,wc_9,,0.0,,,,182.0,,,,Fail,,,,,
465.0,9.0,wc_9,wc_11,0.0,"[('wc_9', 0.7300000000000005), ('wc_4', 0.5800000000000004)]",0.8866000000000003,,,40.0,0.006918,['Pass'],Fail,0.5700000000000004,-0.0700000000000004,1.0,2.0,0.6
465.0,9.0,wc_9,,0.0,,,,362.0,,,,Fail,,,,,
465.0,9.0,wc_9,wc_5,1.0,"[('wc_5', 0.21000000000000008), ('wc_9', 0.7300000000000005), ('wc_4', 0.5800000000000004)]",0.9104140000000003,,,29.0,0.043242,['Pass'],Fail,0.21000000000000008,-0.21000000000000008,0.0,0.0,0.2
475.0,9.0,wc_9,,0.0,,,,122.0,,,,Pass,,,,,
475.0,9.0,wc_9,,0.0,,,62.0,,,,,Pass,,,,,
475.0,9.0,wc_9,,0.0,,,,0.0,,,,Pass,,,,,
475.0,9.0,wc_9,wc_9,0.0,"[('wc_9', 0.7300000000000005)]",0.7300000000000005,,,40.0,0.002401,['Pass'],Pass,0.7300000000000005,-0.7300000000000005,0.0,0.0,1.0
475.0,9.0,wc_9,,0.0,,,,362.0,,,,Pass,,,,,
475.0,9.0,wc_9,wc_3,0.0,"[('wc_3', 0.39000000000000024), ('wc_9', 0.7300000000000005)]",0.8353000000000004,,,20.0,0.0052309999999999995,['Pass'],Pass,0.39000000000000024,0.10999999999999976,1.0,2.0,0.4
475.0,9.0,wc_9,,0.0,,,,0.0,,,,Pass,,,,,
475.0,9.0,wc_9,wc_4,1.0,"[('wc_4', 0.5900000000000004), ('wc_9', 0.7300000000000005), ('wc_3', 0.39000000000000024)]",0.9324730000000002,,,32.0,0.04441799999999999,['Pass'],Pass,0.6000000000000004,0.3999999999999996,2.0,2.0,0.6
493.0,12.0,wc_12,,0.0,,,,121.0,,,,Pass,,,,,
493.0,12.0,wc_12,,0.0,,,76.0,,,,,Pass,,,,,
493.0,12.0,wc_12,,0.0,,,,0.0,,,,Pass,,,,,
493.0,12.0,wc_12,wc_12,0.0,"[('wc_12', 0.5200000000000004)]",0.5200000000000004,,,34.0,0.002134,['Pass'],Pass,0.5200000000000004,-0.40888888888888925,0.0,0.0,0.6
493.0,12.0,wc_12,,0.0,,,,182.0,,,,Pass,,,,,
493.0,12.0,wc_12,wc_6,0.0,"[('wc_6', 0.4700000000000003), ('wc_12', 0.5200000000000004)]",0.7456000000000003,,,39.0,0.005215,['Pass'],Pass,0.4700000000000003,-0.4700000000000003,0.0,5.0,0.4
493.0,12.0,wc_12,,0.0,,,,0.0,,,,Pass,,,,,
493.0,12.0,wc_12,wc_10,1.0,"[('wc_10', 0.6900000000000005), ('wc_12', 0.5200000000000004), ('wc_6', 0.4700000000000003)]",0.9211360000000002,,,21.0,0.042242,['Pass'],Pass,0.6900000000000005,-0.1900000000000005,3.0,6.0,0.5
509.0,13.0,wc_13,,0.0,,,,101.0,,,,Fail,,,,,
509.0,13.0,wc_13,,0.0,,,53.0,,,,,Fail,,,,,
509.0,13.0,wc_13,,0.0,,,,0.0,,,,Fail,,,,,
509.0,13.0,wc_13,wc_13,0.0,"[('wc_13', 0.5400000000000004)]",0.5400000000000004,,,31.0,0.00197,['Fail'],Fail,0.5400000000000004,-0.37333333333333374,0.0,0.0,0.8
509.0,13.0,wc_13,,0.0,,,,301.0,,,,Fail,,,,,
509.0,13.0,wc_13,wc_9,0.0,"[('wc_9', 0.7400000000000005), ('wc_13', 0.5400000000000004)]",0.8804000000000003,,,27.0,0.0041659999999999996,['Fail'],Fail,0.7400000000000005,-0.24000000000000055,1.0,2.0,1.0
509.0,13.0,wc_13,,0.0,,,,402.0,,,,Fail,,,,,
509.0,13.0,wc_13,wc_5,0.0,"[('wc_13', 0.5400000000000004), ('wc_9', 0.7400000000000005)]",0.8804000000000003,,,26.0,0.0058920000000000005,['Fail'],Fail,0.21000000000000008,-0.21000000000000008,0.0,2.0,0.2
509.0,13.0,wc_13,,0.0,,,,101.0,,,,Fail,,,,,
509.0,13.0,wc_13,wc_12,0.0,"[('wc_13', 0.5400000000000004), ('wc_9', 0.7400000000000005)]",0.8804000000000003,,,25.0,0.007831,['Fail'],Fail,0.5300000000000004,0.46999999999999964,1.0,1.0,0.6
509.0,13.0,wc_13,,0.0,,,,361.0,,,,Fail,,,,,
509.0,13.0,wc_13,wc_11,0.0,"[('wc_13', 0.5400000000000004), ('wc_9', 0.7400000000000005)]",0.8804000000000003,,,26.0,0.012792,['Fail'],Fail,0.5600000000000004,-0.3600000000000004,1.0,5.0,0.6
509.0,13.0,wc_13,,0.0,,,,223.0,,,,Fail,,,,,
509.0,13.0,wc_13,wc_2,0.0,"[('wc_2', 0.16000000000000003), ('wc_13', 0.5400000000000004), ('wc_9', 0.7400000000000005)]",0.8995360000000003,,,34.0,0.011539,['Fail'],Fail,0.16000000000000003,-0.16000000000000003,0.0,6.0,0.2
509.0,13.0,wc_13,,0.0,,,,162.0,,,,Fail,,,,,
509.0,13.0,wc_13,wc_8,1.0,"[('wc_8', 0.21000000000000008), ('wc_13', 0.5400000000000004), ('wc_9', 0.7400000000000005), ('wc_2', 0.16000000000000003)]",0.9206334400000002,,,28.0,0.049444,['Fail'],Fail,0.21000000000000008,-0.21000000000000008,0.0,0.0,0.2
525.0,13.0,wc_13,,0.0,,,,142.0,,,,Fail,,,,,
525.0,13.0,wc_13,,0.0,,,54.0,,,,,Fail,,,,,
525.0,13.0,wc_13,,0.0,,,,0.0,,,,Fail,,,,,
525.0,13.0,wc_13,wc_13,0.0,"[('wc_13', 0.5500000000000004)]",0.5500000000000004,,,34.0,0.002105,['Fail'],Fail,0.5500000000000004,0.4499999999999996,1.0,1.0,0.8
525.0,13.0,wc_13,,0.0,,,,361.0,,,,Fail,,,,,
525.0,13.0,wc_13,wc_4,0.0,"[('wc_4', 0.6000000000000004), ('wc_13', 0.5500000000000004)]",0.8200000000000003,,,37.0,0.003972,['Fail'],Fail,0.6000000000000004,-0.10000000000000042,2.0,4.0,0.6
525.0,13.0,wc_13,,0.0,,,,182.0,,,,Fail,,,,,
525.0,13.0,wc_13,wc_15,1.0,"[('wc_15', 0.5300000000000004), ('wc_13', 0.5500000000000004), ('wc_4', 0.6000000000000004)]",0.9154000000000002,,,23.0,0.042495,['Fail'],Fail,0.5300000000000004,-0.5300000000000004,0.0,0.0,0.6
551.0,13.0,wc_13,,0.0,,,,81.0,,,,Pass,,,,,
551.0,13.0,wc_13,,0.0,,,57.0,,,,,Pass,,,,,
551.0,13.0,wc_13,,0.0,,,,0.0,,,,Pass,,,,,
551.0,13.0,wc_13,wc_13,0.0,"[('wc_13', 0.5600000000000004)]",0.5600000000000004,,,34.0,0.002259,['Pass'],Pass,0.5600000000000004,0.4399999999999996,2.0,2.0,0.8
551.0,13.0,wc_13,,0.0,,,,0.0,,,,Pass,,,,,
551.0,13.0,wc_13,wc_14,0.0,"[('wc_14', 0.6100000000000004), ('wc_13', 0.5600000000000004)]",0.8284000000000004,,,40.0,0.004302,['Pass'],Pass,0.6100000000000004,-0.5190909090909095,0.0,0.0,1.0
551.0,13.0,wc_13,,0.0,,,,361.0,,,,Pass,,,,,
551.0,13.0,wc_13,wc_5,0.0,"[('wc_5', 0.20000000000000007), ('wc_13', 0.5600000000000004), ('wc_14', 0.6100000000000004)]",0.8627200000000003,,,22.0,0.005520000000000001,['Pass'],Pass,0.20000000000000007,-0.20000000000000007,0.0,4.0,0.2
551.0,13.0,wc_13,,0.0,,,,83.0,,,,Pass,,,,,
551.0,13.0,wc_13,wc_3,1.0,"[('wc_3', 0.40000000000000024), ('wc_13', 0.5600000000000004), ('wc_14', 0.6100000000000004), ('wc_5', 0.20000000000000007)]",0.9176320000000002,,,35.0,0.04610999999999999,['Pass'],Pass,0.41000000000000025,0.018571428571428295,3.0,7.0,0.4
558.0,15.0,wc_15,,0.0,,,,202.0,,,,Fail,,,,,
558.0,15.0,wc_15,,0.0,,,80.0,,,,,Fail,,,,,
558.0,15.0,wc_15,,0.0,,,,0.0,,,,Fail,,,,,
558.0,15.0,wc_15,wc_15,0.0,"[('wc_15', 0.5300000000000004)]",0.5300000000000004,,,27.0,0.002227,['Fail'],Fail,0.5300000000000004,-0.5300000000000004,0.0,1.0,0.6
558.0,15.0,wc_15,,0.0,,,,422.0,,,,Fail,,,,,
558.0,15.0,wc_15,wc_4,0.0,"[('wc_4', 0.6000000000000004), ('wc_15', 0.5300000000000004)]",0.8120000000000003,,,33.0,0.004588999999999999,['Fail'],Fail,0.6000000000000004,-0.10000000000000042,3.0,6.0,0.6
558.0,15.0,wc_15,,0.0,,,,141.0,,,,Fail,,,,,
558.0,15.0,wc_15,wc_13,0.0,"[('wc_15', 0.5300000000000004), ('wc_4', 0.6000000000000004)]",0.8120000000000003,,,21.0,0.005928999999999999,['Fail'],Fail,0.5700000000000004,0.4299999999999996,3.0,3.0,0.8
558.0,15.0,wc_15,,0.0,,,,301.0,,,,Fail,,,,,
558.0,15.0,wc_15,wc_9,1.0,"[('wc_9', 0.7400000000000005), ('wc_15', 0.5300000000000004), ('wc_4', 0.6000000000000004)]",0.9511200000000002,,,22.0,0.047141,['Fail'],Fail,0.7400000000000005,-0.24000000000000055,3.0,6.0,1.0
565.0,16.0,wc_16,,0.0,,,,182.0,,,,Fail,,,,,
565.0,16.0,wc_16,,0.0,,,62.0,,,,,Fail,,,,,
565.0,16.0,wc_16,,0.0,,,,0.0,,,,Fail,,,,,
565.0,16.0,wc_16,wc_16,0.0,"[('wc_16', 0.6000000000000004)]",0.6000000000000004,,,37.0,0.002105,['Fail'],Fail,0.6000000000000004,-0.3647058823529416,0.0,0.0,0.8
565.0,16.0,wc_16,,0.0,,,,342.0,,,,Fail,,,,,
565.0,16.0,wc_16,wc_9,0.0,"[('wc_9', 0.7400000000000005), ('wc_16', 0.6000000000000004)]",0.8960000000000004,,,40.0,0.003968,['Fail'],Fail,0.7400000000000005,-0.24000000000000055,3.0,6.0,1.0
565.0,16.0,wc_16,,0.0,,,,162.0,,,,Fail,,,,,
565.0,16.0,wc_16,wc_15,1.0,"[('wc_15', 0.5300000000000004), ('wc_16', 0.6000000000000004), ('wc_9', 0.7400000000000005)]",0.9511200000000002,,,36.0,0.045674000000000006,['Fail'],Fail,0.5400000000000004,0.12666666666666626,2.0,3.0,0.6
573.0,16.0,wc_16,,0.0,,,,0.0,,,,Fail,,,,,
573.0,16.0,wc_16,,0.0,,,73.0,,,,,Fail,,,,,
573.0,16.0,wc_16,,0.0,,,,0.0,,,,Fail,,,,,
573.0,16.0,wc_16,wc_16,0.0,"[('wc_16', 0.6100000000000004)]",0.6100000000000004,,,27.0,0.002191,['Fail'],Fail,0.6100000000000004,0.38999999999999957,1.0,1.0,0.8
573.0,16.0,wc_16,,0.0,,,,382.0,,,,Fail,,,,,
573.0,16.0,wc_16,wc_3,0.0,"[('wc_3', 0.41000000000000025), ('wc_16', 0.6100000000000004)]",0.7699000000000004,,,33.0,0.0040750000000000005,['Fail'],Fail,0.41000000000000025,-0.07666666666666694,3.0,9.0,0.4
573.0,16.0,wc_16,,0.0,,,,161.0,,,,Fail,,,,,
573.0,16.0,wc_16,wc_13,1.0,"[('wc_13', 0.5700000000000004), ('wc_16', 0.6100000000000004), ('wc_3', 0.41000000000000025)]",0.9010570000000002,,,32.0,0.04238700000000001,['Fail'],Fail,0.5800000000000004,0.08666666666666623,4.0,6.0,0.8
584.0,14.0,wc_14,,0.0,,,,0.0,,,,Fail,,,,,
584.0,14.0,wc_14,,0.0,,,56.0,,,,,Fail,,,,,
584.0,14.0,wc_14,,0.0,,,,0.0,,,,Fail,,,,,
584.0,14.0,wc_14,wc_14,0.0,"[('wc_14', 0.6200000000000004)]",0.6200000000000004,,,32.0,0.002157,['Fail'],Fail,0.6200000000000004,-0.37000000000000044,1.0,4.0,1.0
584.0,14.0,wc_14,,0.0,,,,162.0,,,,Fail,,,,,
584.0,14.0,wc_14,wc_7,0.0,"[('wc_14', 0.6200000000000004)]",0.6200000000000004,,,38.0,0.0039629999999999995,['Fail'],Fail,0.30000000000000016,-0.30000000000000016,0.0,0.0,0.3
584.0,14.0,wc_14,,0.0,,,,321.0,,,,Fail,,,,,
584.0,14.0,wc_14,wc_4,0.0,"[('wc_4', 0.6000000000000004), ('wc_14', 0.6200000000000004)]",0.8480000000000003,,,25.0,0.0057150000000000005,['Fail'],Fail,0.6000000000000004,-0.155555555555556,4.0,9.0,0.6
584.0,14.0,wc_14,,0.0,,,,103.0,,,,Fail,,,,,
584.0,14.0,wc_14,wc_3,0.0,"[('wc_14', 0.6200000000000004), ('wc_4', 0.6000000000000004)]",0.8480000000000003,,,36.0,0.008351,['Fail'],Fail,0.41000000000000025,-0.41000000000000025,0.0,0.0,0.4
584.0,14.0,wc_14,,0.0,,,,101.0,,,,Fail,,,,,
584.0,14.0,wc_14,wc_2,0.0,"[('wc_14', 0.6200000000000004), ('wc_4', 0.6000000000000004)]",0.8480000000000003,,,39.0,0.009566,['Fail'],Fail,0.16000000000000003,-0.0766666666666667,0.0,0.0,0.2
584.0,14.0,wc_14,,0.0,,,,182.0,,,,Fail,,,,,
584.0,14.0,wc_14,wc_13,1.0,"[('wc_13', 0.5800000000000004), ('wc_14', 0.6200000000000004), ('wc_4', 0.6000000000000004)]",0.9361600000000002,,,31.0,0.04947,['Fail'],Fail,0.5900000000000004,0.12428571428571389,5.0,7.0,0.8
595.0,16.0,wc_16,,0.0,,,,0.0,,,,Pass,,,,,
595.0,16.0,wc_16,,0.0,,,50.0,,,,,Pass,,,,,
595.0,16.0,wc_16,,0.0,,,,0.0,,,,Pass,,,,,
595.0,16.0,wc_16,wc_16,0.0,"[('wc_16', 0.6200000000000004)]",0.6200000000000004,,,40.0,0.002035,['Pass'],Pass,0.6200000000000004,0.04666666666666619,2.0,3.0,0.8
595.0,16.0,wc_16,,0.0,,,,382.0,,,,Pass,,,,,
595.0,16.0,wc_16,wc_11,0.0,"[('wc_11', 0.5500000000000004), ('wc_16', 0.6200000000000004)]",0.8290000000000004,,,36.0,0.0043219999999999995,['Pass'],Pass,0.5500000000000004,-0.46666666666666706,0.0,0.0,0.6
595.0,16.0,wc_16,,0.0,,,,342.0,,,,Pass,,,,,
595.0,16.0,wc_16,wc_4,1.0,"[('wc_4', 0.6000000000000004), ('wc_16', 0.6200000000000004), ('wc_11', 0.5500000000000004)]",0.9316000000000002,,,20.0,0.044701000000000005,['Pass'],Pass,0.6100000000000004,0.38999999999999957,1.0,1.0,0.6
602.0,15.0,wc_15,,0.0,,,,182.0,,,,Fail,,,,,
602.0,15.0,wc_15,,0.0,,,56.0,,,,,Fail,,,,,
602.0,15.0,wc_15,,0.0,,,,0.0,,,,Fail,,,,,
602.0,15.0,wc_15,wc_15,0.0,"[('wc_15', 0.5400000000000004)]",0.5400000000000004,,,26.0,0.002061,['Fail'],Fail,0.5400000000000004,-0.20666666666666705,2.0,6.0,0.6
602.0,15.0,wc_15,,0.0,,,,0.0,,,,Fail,,,,,
602.0,15.0,wc_15,wc_17,0.0,"[('wc_17', 0.5500000000000004), ('wc_15', 0.5400000000000004)]",0.7930000000000004,,,36.0,0.004059999999999999,['Fail'],Fail,0.5500000000000004,-0.47307692307692345,0.0,0.0,0.5
602.0,15.0,wc_15,,0.0,,,,203.0,,,,Fail,,,,,
602.0,15.0,wc_15,wc_7,0.0,"[('wc_7', 0.29000000000000015), ('wc_15', 0.5400000000000004), ('wc_17', 0.5500000000000004)]",0.8530300000000003,,,31.0,0.006332,['Fail'],Fail,0.29000000000000015,-0.29000000000000015,0.0,2.0,0.3
602.0,15.0,wc_15,,0.0,,,,142.0,,,,Fail,,,,,
602.0,15.0,wc_15,wc_12,1.0,"[('wc_12', 0.5200000000000004), ('wc_15', 0.5400000000000004), ('wc_17', 0.5500000000000004), ('wc_7', 0.29000000000000015)]",0.9294544000000002,,,28.0,0.04760299999999999,['Fail'],Fail,0.5200000000000004,-0.5200000000000004,0.0,0.0,0.6
612.0,14.0,wc_14,,0.0,,,,0.0,,,,Fail,,,,,
612.0,14.0,wc_14,,0.0,,,65.0,,,,,Fail,,,,,
612.0,14.0,wc_14,,0.0,,,,0.0,,,,Fail,,,,,
612.0,14.0,wc_14,wc_14,0.0,"[('wc_14', 0.6200000000000004)]",0.6200000000000004,,,40.0,0.001929,['Pass'],Fail,0.6200000000000004,-0.33428571428571474,2.0,7.0,1.0
612.0,14.0,wc_14,,0.0,,,,182.0,,,,Fail,,,,,
612.0,14.0,wc_14,wc_8,0.0,"[('wc_14', 0.6200000000000004)]",0.6200000000000004,,,28.0,0.005018,['Pass'],Fail,0.21000000000000008,-0.21000000000000008,0.0,8.0,0.2
612.0,14.0,wc_14,,0.0,,,,321.0,,,,Fail,,,,,
612.0,14.0,wc_14,wc_5,0.0,"[('wc_5', 0.20000000000000007), ('wc_14', 0.6200000000000004)]",0.6960000000000004,,,40.0,0.007705999999999999,['Pass'],Fail,0.20000000000000007,-0.10909090909090915,0.0,0.0,0.2
612.0,14.0,wc_14,,0.0,,,,162.0,,,,Fail,,,,,
612.0,14.0,wc_14,wc_15,0.0,"[('wc_14', 0.6200000000000004), ('wc_5', 0.20000000000000007)]",0.6960000000000004,,,29.0,0.008117,['Pass'],Fail,0.5400000000000004,-0.11142857142857182,3.0,7.0,0.6
612.0,14.0,wc_14,,0.0,,,,422.0,,,,Fail,,,,,
612.0,14.0,wc_14,wc_4,0.0,"[('wc_4', 0.6100000000000004), ('wc_14', 0.6200000000000004), ('wc_5', 0.20000000000000007)]",0.8814400000000002,,,21.0,0.009685,['Pass'],Fail,0.6100000000000004,-0.11000000000000043,1.0,2.0,0.6
612.0,14.0,wc_14,,0.0,,,,81.0,,,,Fail,,,,,
612.0,14.0,wc_14,wc_2,0.0,"[('wc_2', 0.15000000000000002), ('wc_14', 0.6200000000000004), ('wc_5', 0.20000000000000007), ('wc_4', 0.6100000000000004)]",0.8992240000000002,,,36.0,0.011268,['Pass'],Fail,0.15000000000000002,-0.15000000000000002,0.0,3.0,0.2
612.0,14.0,wc_14,,0.0,,,,263.0,,,,Fail,,,,,
612.0,14.0,wc_14,wc_17,0.0,"[('wc_14', 0.6200000000000004), ('wc_5', 0.20000000000000007), ('wc_4', 0.6100000000000004), ('wc_2', 0.15000000000000002)]",0.8992240000000002,,,30.0,0.014228999999999999,['Pass'],Fail,0.5600000000000004,0.4399999999999996,1.0,1.0,0.5
612.0,14.0,wc_14,,0.0,,,,322.0,,,,Fail,,,,,
612.0,14.0,wc_14,wc_9,1.0,"[('wc_9', 0.7400000000000005), ('wc_14', 0.6200000000000004), ('wc_5', 0.20000000000000007), ('wc_4', 0.6100000000000004), ('wc_2', 0.15000000000000002)]",0.9737982400000001,,,21.0,0.051613,['Pass'],Fail,0.7400000000000005,-0.7400000000000005,0.0,0.0,1.0
629.0,15.0,wc_15,,0.0,,,,162.0,,,,Fail,,,,,
629.0,15.0,wc_15,,0.0,,,61.0,,,,,Fail,,,,,
629.0,15.0,wc_15,,0.0,,,,0.0,,,,Fail,,,,,
629.0,15.0,wc_15,wc_15,0.0,"[('wc_15', 0.5300000000000004)]",0.5300000000000004,,,28.0,0.00231,['Pass'],Fail,0.5300000000000004,-0.15500000000000036,3.0,8.0,0.6
629.0,15.0,wc_15,,0.0,,,,61.0,,,,Fail,,,,,
629.0,15.0,wc_15,wc_12,0.0,"[('wc_15', 0.5300000000000004)]",0.5300000000000004,,,20.0,0.003981,['Pass'],Fail,0.5200000000000004,-0.5200000000000004,0.0,1.0,0.6
629.0,15.0,wc_15,,0.0,,,,0.0,,,,Fail,,,,,
629.0,15.0,wc_15,wc_16,0.0,"[('wc_16', 0.6300000000000004), ('wc_15', 0.5300000000000004)]",0.8261000000000003,,,31.0,0.007769,['Pass'],Fail,0.6300000000000004,-0.13000000000000045,3.0,6.0,0.8
629.0,15.0,wc_15,,0.0,,,,203.0,,,,Fail,,,,,
629.0,15.0,wc_15,wc_6,0.0,"[('wc_15', 0.5300000000000004), ('wc_16', 0.6300000000000004)]",0.8261000000000003,,,25.0,0.009885999999999999,['Pass'],Fail,0.4700000000000003,-0.4075000000000003,0.0,0.0,0.4
629.0,15.0,wc_15,,0.0,,,,321.0,,,,Fail,,,,,
629.0,15.0,wc_15,wc_3,0.0,"[('wc_3', 0.40000000000000024), ('wc_15', 0.5300000000000004), ('wc_16', 0.6300000000000004)]",0.8956600000000002,,,37.0,0.011442,['Pass'],Fail,0.40000000000000024,-0.40000000000000024,0.0,4.0,0.4
629.0,15.0,wc_15,,0.0,,,,101.0,,,,Fail,,,,,
629.0,15.0,wc_15,wc_2,1.0,"[('wc_2', 0.16000000000000003), ('wc_15', 0.5300000000000004), ('wc_16', 0.6300000000000004), ('wc_3', 0.40000000000000024)]",0.9123544000000002,,,30.0,0.053100999999999995,['Pass'],Fail,0.17000000000000004,0.22999999999999998,2.0,5.0,0.2
643.0,15.0,wc_15,,0.0,,,,223.0,,,,Pass,,,,,
643.0,15.0,wc_15,,0.0,,,61.0,,,,,Pass,,,,,
643.0,15.0,wc_15,,0.0,,,,0.0,,,,Pass,,,,,
643.0,15.0,wc_15,wc_15,0.0,"[('wc_15', 0.5300000000000004)]",0.5300000000000004,,,39.0,0.002459,['Pass'],Pass,0.5300000000000004,-0.08555555555555594,4.0,9.0,0.6
643.0,15.0,wc_15,,0.0,,,,402.0,,,,Pass,,,,,
643.0,15.0,wc_15,wc_11,0.0,"[('wc_11', 0.5600000000000004), ('wc_15', 0.5300000000000004)]",0.7932000000000003,,,25.0,0.004579,['Pass'],Pass,0.5600000000000004,-0.3100000000000004,1.0,4.0,0.6
643.0,15.0,wc_15,,0.0,,,,342.0,,,,Pass,,,,,
643.0,15.0,wc_15,wc_4,1.0,"[('wc_4', 0.6200000000000004), ('wc_15', 0.5300000000000004), ('wc_11', 0.5600000000000004)]",0.9214160000000002,,,38.0,0.056491000000000006,['Pass'],Pass,0.6200000000000004,-0.020000000000000462,3.0,5.0,0.6
655.0,14.0,wc_14,,0.0,,,,161.0,,,,Pass,,,,,
655.0,14.0,wc_14,,0.0,,,69.0,,,,,Pass,,,,,
655.0,14.0,wc_14,,0.0,,,,0.0,,,,Pass,,,,,
655.0,14.0,wc_14,wc_14,0.0,"[('wc_14', 0.6200000000000004)]",0.6200000000000004,,,25.0,0.001992,['Pass'],Pass,0.6200000000000004,-0.32000000000000045,0.0,0.0,1.0
655.0,14.0,wc_14,,0.0,,,,0.0,,,,Pass,,,,,
655.0,14.0,wc_14,wc_15,0.0,"[('wc_15', 0.5300000000000004), ('wc_14', 0.6200000000000004)]",0.8214000000000004,,,35.0,0.0043300000000000005,['Pass'],Pass,0.5300000000000004,-0.5300000000000004,0.0,0.0,0.6
655.0,14.0,wc_14,,0.0,,,,382.0,,,,Pass,,,,,
655.0,14.0,wc_14,wc_10,1.0,"[('wc_10', 0.6900000000000005), ('wc_14', 0.6200000000000004), ('wc_15', 0.5300000000000004)]",0.9446340000000002,,,33.0,0.056473999999999996,['Pass'],Pass,0.6900000000000005,-0.6900000000000005,0.0,0.0,0.5
662.0,17.0,wc_17,,0.0,,,,182.0,,,,Fail,,,,,
662.0,17.0,wc_17,,0.0,,,50.0,,,,,Fail,,,,,
662.0,17.0,wc_17,,0.0,,,,0.0,,,,Fail,,,,,
662.0,17.0,wc_17,wc_17,0.0,"[('wc_17', 0.5500000000000004)]",0.5500000000000004,,,34.0,0.002682,['Fail'],Fail,0.5500000000000004,-0.35000000000000037,1.0,5.0,0.5
662.0,17.0,wc_17,,0.0,,,,322.0,,,,Fail,,,,,
662.0,17.0,wc_17,wc_9,0.0,"[('wc_9', 0.7400000000000005), ('wc_17', 0.5500000000000004)]",0.8830000000000003,,,40.0,0.00473,['Fail'],Fail,0.7400000000000005,-0.7400000000000005,0.0,3.0,1.0
662.0,17.0,wc_17,,0.0,,,,243.0,,,,Fail,,,,,
662.0,17.0,wc_17,wc_1,1.0,"[('wc_1', 0.4500000000000003), ('wc_17', 0.5500000000000004), ('wc_9', 0.7400000000000005)]",0.9356500000000002,,,39.0,0.051778,['Fail'],Fail,0.4500000000000003,-0.4500000000000003,0.0,0.0,0.5
670.0,17.0,wc_17,,0.0,,,,283.0,,,,Pass,,,,,
670.0,17.0,wc_17,,0.0,,,59.0,,,,,Pass,,,,,
670.0,17.0,wc_17,,0.0,,,,0.0,,,,Pass,,,,,
670.0,17.0,wc_17,wc_17,0.0,"[('wc_17', 0.5500000000000004)]",0.5500000000000004,,,34.0,0.002381,['Pass'],Pass,0.5500000000000004,-0.21666666666666706,2.0,6.0,0.5
670.0,17.0,wc_17,,0.0,,,,263.0,,,,Pass,,,,,
670.0,17.0,wc_17,wc_2,0.0,"[('wc_17', 0.5500000000000004)]",0.5500000000000004,,,24.0,0.004292000000000001,['Pass'],Pass,0.17000000000000004,0.07999999999999996,2.0,8.0,0.2
670.0,17.0,wc_17,,0.0,,,,183.0,,,,Pass,,,,,
670.0,17.0,wc_17,wc_9,0.0,"[('wc_9', 0.7400000000000005), ('wc_17', 0.5500000000000004)]",0.8830000000000003,,,39.0,0.005692,['Pass'],Pass,0.7400000000000005,-0.49000000000000055,1.0,4.0,1.0
670.0,17.0,wc_17,,0.0,,,,121.0,,,,Pass,,,,,
670.0,17.0,wc_17,wc_13,1.0,"[('wc_13', 0.5900000000000004), ('wc_17', 0.5500000000000004), ('wc_9', 0.7400000000000005)]",0.9520300000000002,,,35.0,0.045466999999999994,['Pass'],Pass,0.5900000000000004,-0.5900000000000004,0.0,0.0,0.8
