mpecck/BCQC/bcqc_with_qdt/results/raw/input_12/independent_qc/training/20_workpiece/20200429_090307/wp_17_qc_majority_0.9.csv
production_index,step_idx,production_workcell,qc,consent,winner_qc_list,score,production_time,transport_time,inspection_time,network_time,qc_results,actual_quality,qc_score,score_error,in_winner_counter,in_qc_counter,qc_capability
69.0,1.0,wc_1,,0.0,,,53.0,,,,,Pass,,,,,
69.0,1.0,wc_1,,0.0,,,,0.0,,,,Pass,,,,,
69.0,1.0,wc_1,wc_1,0.0,"[('wc_1', 0.4400000000000003)]",0.4400000000000003,,,37.0,0.003082,['Pass'],Pass,0.4400000000000003,-0.19000000000000028,1.0,4.0,0.4
69.0,1.0,wc_1,,0.0,,,,263.0,,,,Pass,,,,,
69.0,1.0,wc_1,wc_16,0.0,"[('wc_16', 0.8300000000000006), ('wc_1', 0.4400000000000003)]",0.9048000000000004,,,29.0,0.0042769999999999996,['Pass'],Pass,0.8300000000000006,-0.5800000000000006,2.0,8.0,0.8
69.0,1.0,wc_1,,0.0,,,,41.0,,,,Pass,,,,,
69.0,1.0,wc_1,wc_12,1.0,"[('wc_12', 0.4500000000000003), ('wc_1', 0.4400000000000003), ('wc_16', 0.8300000000000006)]",0.9476400000000003,,,22.0,0.038678000000000004,['Pass'],Pass,0.4500000000000003,-0.11666666666666697,2.0,6.0,0.3
78.0,2.0,wc_2,,0.0,,,,262.0,,,,Fail,,,,,
78.0,2.0,wc_2,,0.0,,,79.0,,,,,Fail,,,,,
78.0,2.0,wc_2,,0.0,,,,0.0,,,,Fail,,,,,
78.0,2.0,wc_2,wc_2,0.0,"[('wc_2', 0.9300000000000007)]",0.9300000000000007,,,31.0,0.002299,['Fail'],Fail,0.9300000000000007,-0.7633333333333341,0.0,0.0,1.0
78.0,2.0,wc_2,,0.0,,,,0.0,,,,Fail,,,,,
78.0,2.0,wc_2,wc_3,0.0,"[('wc_3', 0.8400000000000006), ('wc_2', 0.9300000000000007)]",0.9888000000000001,,,24.0,0.004861000000000001,['Fail'],Fail,0.8400000000000006,-0.6400000000000006,1.0,5.0,0.9
78.0,2.0,wc_2,,0.0,,,,101.0,,,,Fail,,,,,
78.0,2.0,wc_2,wc_6,1.0,"[('wc_6', 0.5600000000000004), ('wc_2', 0.9300000000000007), ('wc_3', 0.8400000000000006)]",0.9950720000000001,,,23.0,0.04169500000000001,['Fail'],Fail,0.5600000000000004,-0.5600000000000004,0.0,0.0,0.5
89.0,4.0,wc_4,,0.0,,,,341.0,,,,Fail,,,,,
89.0,4.0,wc_4,,0.0,,,71.0,,,,,Fail,,,,,
89.0,4.0,wc_4,,0.0,,,,0.0,,,,Fail,,,,,
89.0,4.0,wc_4,wc_4,0.0,"[('wc_4', 0.7700000000000006)]",0.7700000000000006,,,26.0,0.002479,['Fail'],Fail,0.7700000000000006,-0.5200000000000006,0.0,0.0,0.9
89.0,4.0,wc_4,,0.0,,,,103.0,,,,Fail,,,,,
89.0,4.0,wc_4,wc_3,0.0,"[('wc_3', 0.8400000000000006), ('wc_4', 0.7700000000000006)]",0.9632000000000003,,,27.0,0.004845,['Fail'],Fail,0.8400000000000006,-0.5066666666666673,2.0,6.0,0.9
89.0,4.0,wc_4,,0.0,,,,101.0,,,,Fail,,,,,
89.0,4.0,wc_4,wc_6,1.0,"[('wc_6', 0.5600000000000004), ('wc_4', 0.7700000000000006), ('wc_3', 0.8400000000000006)]",0.9838080000000001,,,40.0,0.04354299999999999,['Fail'],Fail,0.5700000000000004,0.4299999999999996,1.0,1.0,0.5
100.0,3.0,wc_3,,0.0,,,,321.0,,,,Fail,,,,,
100.0,3.0,wc_3,,0.0,,,69.0,,,,,Fail,,,,,
100.0,3.0,wc_3,,0.0,,,,0.0,,,,Fail,,,,,
100.0,3.0,wc_3,wc_3,0.0,"[('wc_3', 0.8400000000000006)]",0.8400000000000006,,,37.0,0.002198,['Fail'],Fail,0.8400000000000006,-0.4114285714285721,3.0,7.0,0.9
100.0,3.0,wc_3,,0.0,,,,161.0,,,,Fail,,,,,
100.0,3.0,wc_3,wc_13,0.0,"[('wc_13', 0.9800000000000008), ('wc_3', 0.8400000000000006)]",0.9968000000000001,,,23.0,0.003838,['Fail'],Fail,0.9800000000000008,-0.9800000000000008,0.0,7.0,0.8
100.0,3.0,wc_3,,0.0,,,,0.0,,,,Fail,,,,,
100.0,3.0,wc_3,wc_14,0.0,"[('wc_3', 0.8400000000000006), ('wc_13', 0.9800000000000008)]",0.9968000000000001,,,35.0,0.006045,['Fail'],Fail,0.3600000000000002,-0.2830769230769233,0.0,0.0,0.2
100.0,3.0,wc_3,,0.0,,,,182.0,,,,Fail,,,,,
100.0,3.0,wc_3,wc_8,0.0,"[('wc_3', 0.8400000000000006), ('wc_13', 0.9800000000000008)]",0.9968000000000001,,,26.0,0.007597,['Fail'],Fail,0.7500000000000006,-0.5000000000000006,2.0,8.0,0.6
100.0,3.0,wc_3,,0.0,,,,301.0,,,,Fail,,,,,
100.0,3.0,wc_3,wc_4,1.0,"[('wc_4', 0.7800000000000006), ('wc_3', 0.8400000000000006), ('wc_13', 0.9800000000000008)]",0.9992960000000001,,,31.0,0.042181,['Fail'],Fail,0.7900000000000006,0.2099999999999994,2.0,2.0,0.9
110.0,2.0,wc_2,,0.0,,,,81.0,,,,Fail,,,,,
110.0,2.0,wc_2,,0.0,,,53.0,,,,,Fail,,,,,
110.0,2.0,wc_2,,0.0,,,,0.0,,,,Fail,,,,,
110.0,2.0,wc_2,wc_2,0.0,"[('wc_2', 0.9400000000000007)]",0.9400000000000007,,,22.0,0.002586,['Fail'],Fail,0.9400000000000007,-0.6066666666666674,1.0,3.0,1.0
110.0,2.0,wc_2,,0.0,,,,223.0,,,,Fail,,,,,
110.0,2.0,wc_2,wc_15,0.0,"[('wc_2', 0.9400000000000007)]",0.9400000000000007,,,36.0,0.004105,['Fail'],Fail,0.27000000000000013,-0.15235294117647072,0.0,0.0,0.1
110.0,2.0,wc_2,,0.0,,,,402.0,,,,Fail,,,,,
110.0,2.0,wc_2,wc_3,0.0,"[('wc_3', 0.8400000000000006), ('wc_2', 0.9400000000000007)]",0.9904000000000002,,,28.0,0.034809,['Fail'],Fail,0.8400000000000006,-0.34000000000000064,4.0,8.0,0.9
110.0,2.0,wc_2,,0.0,,,,0.0,,,,Fail,,,,,
110.0,2.0,wc_2,wc_5,1.0,"[('wc_5', 0.3300000000000002), ('wc_2', 0.9400000000000007), ('wc_3', 0.8400000000000006)]",0.9935680000000001,,,39.0,0.036918,['Fail'],Fail,0.3300000000000002,-0.16333333333333352,1.0,6.0,0.2
122.0,4.0,wc_4,,0.0,,,,103.0,,,,Fail,,,,,
122.0,4.0,wc_4,,0.0,,,65.0,,,,,Fail,,,,,
122.0,4.0,wc_4,,0.0,,,,0.0,,,,Fail,,,,,
122.0,4.0,wc_4,wc_4,0.0,"[('wc_4', 0.7900000000000006)]",0.7900000000000006,,,27.0,0.002711,['Fail'],Fail,0.7900000000000006,-0.12333333333333396,2.0,3.0,0.9
122.0,4.0,wc_4,,0.0,,,,141.0,,,,Fail,,,,,
122.0,4.0,wc_4,wc_13,0.0,"[('wc_13', 0.9800000000000008), ('wc_4', 0.7900000000000006)]",0.9958000000000001,,,39.0,0.00466,['Fail'],Fail,0.9800000000000008,-0.8688888888888897,1.0,9.0,0.8
122.0,4.0,wc_4,,0.0,,,,102.0,,,,Fail,,,,,
122.0,4.0,wc_4,wc_12,1.0,"[('wc_12', 0.4500000000000003), ('wc_4', 0.7900000000000006), ('wc_13', 0.9800000000000008)]",0.9976900000000001,,,29.0,0.038551999999999996,['Fail'],Fail,0.4500000000000003,-0.4500000000000003,0.0,0.0,0.3
143.0,4.0,wc_4,,0.0,,,,381.0,,,,Pass,,,,,
143.0,4.0,wc_4,,0.0,,,76.0,,,,,Pass,,,,,
143.0,4.0,wc_4,,0.0,,,,0.0,,,,Pass,,,,,
143.0,4.0,wc_4,wc_4,0.0,"[('wc_4', 0.7900000000000006)]",0.7900000000000006,,,22.0,0.003508,['Pass'],Pass,0.7900000000000006,-0.04000000000000059,3.0,4.0,0.9
143.0,4.0,wc_4,,0.0,,,,202.0,,,,Pass,,,,,
143.0,4.0,wc_4,wc_16,0.0,"[('wc_16', 0.8300000000000006), ('wc_4', 0.7900000000000006)]",0.9643000000000003,,,38.0,0.004535000000000001,['Pass'],Pass,0.8300000000000006,-0.6157142857142863,0.0,0.0,0.8
143.0,4.0,wc_4,,0.0,,,,342.0,,,,Pass,,,,,
143.0,4.0,wc_4,wc_9,1.0,"[('wc_9', 0.8300000000000006), ('wc_4', 0.7900000000000006), ('wc_16', 0.8300000000000006)]",0.993931,,,21.0,0.037658,['Pass'],Pass,0.8300000000000006,-0.8300000000000006,0.0,0.0,0.9
158.0,2.0,wc_2,,0.0,,,,263.0,,,,Fail,,,,,
158.0,2.0,wc_2,,0.0,,,60.0,,,,,Fail,,,,,
158.0,2.0,wc_2,,0.0,,,,0.0,,,,Fail,,,,,
158.0,2.0,wc_2,wc_2,0.0,"[('wc_2', 0.9400000000000007)]",0.9400000000000007,,,28.0,0.003665,['Fail'],Fail,0.9400000000000007,-0.6066666666666674,2.0,6.0,1.0
158.0,2.0,wc_2,,0.0,,,,182.0,,,,Fail,,,,,
158.0,2.0,wc_2,wc_13,0.0,"[('wc_13', 0.9800000000000008), ('wc_2', 0.9400000000000007)]",0.9988,,,37.0,0.00412,['Fail'],Fail,0.9800000000000008,-0.9800000000000008,0.0,1.0,0.8
158.0,2.0,wc_2,,0.0,,,,0.0,,,,Fail,,,,,
158.0,2.0,wc_2,wc_15,0.0,"[('wc_2', 0.9400000000000007), ('wc_13', 0.9800000000000008)]",0.9988,,,24.0,0.006353,['Fail'],Fail,0.2600000000000001,-0.2600000000000001,0.0,3.0,0.1
158.0,2.0,wc_2,,0.0,,,,382.0,,,,Fail,,,,,
158.0,2.0,wc_2,wc_10,1.0,"[('wc_10', 0.7500000000000006), ('wc_2', 0.9400000000000007), ('wc_13', 0.9800000000000008)]",0.9997,,,39.0,0.038139,['Fail'],Fail,0.7500000000000006,-0.7500000000000006,0.0,0.0,0.7
174.0,3.0,wc_3,,0.0,,,,342.0,,,,Fail,,,,,
174.0,3.0,wc_3,,0.0,,,54.0,,,,,Fail,,,,,
174.0,3.0,wc_3,,0.0,,,,0.0,,,,Fail,,,,,
174.0,3.0,wc_3,wc_3,0.0,"[('wc_3', 0.8400000000000006)]",0.8400000000000006,,,25.0,0.002374,['Fail'],Fail,0.8400000000000006,-0.42333333333333395,0.0,0.0,0.9
174.0,3.0,wc_3,,0.0,,,,182.0,,,,Fail,,,,,
174.0,3.0,wc_3,wc_10,0.0,"[('wc_10', 0.7500000000000006), ('wc_3', 0.8400000000000006)]",0.9600000000000003,,,25.0,0.0040809999999999996,['Fail'],Fail,0.7500000000000006,-0.7500000000000006,0.0,0.0,0.7
174.0,3.0,wc_3,,0.0,,,,81.0,,,,Fail,,,,,
174.0,3.0,wc_3,wc_12,1.0,"[('wc_12', 0.4500000000000003), ('wc_3', 0.8400000000000006), ('wc_10', 0.7500000000000006)]",0.9780000000000002,,,27.0,0.03735000000000001,['Fail'],Fail,0.4500000000000003,-0.11666666666666697,1.0,3.0,0.3
186.0,2.0,wc_2,,0.0,,,,262.0,,,,Fail,,,,,
186.0,2.0,wc_2,,0.0,,,62.0,,,,,Fail,,,,,
186.0,2.0,wc_2,,0.0,,,,0.0,,,,Fail,,,,,
186.0,2.0,wc_2,wc_2,0.0,"[('wc_2', 0.9400000000000007)]",0.9400000000000007,,,39.0,0.002224,['Fail'],Fail,0.9400000000000007,-0.5650000000000007,3.0,8.0,1.0
186.0,2.0,wc_2,,0.0,,,,223.0,,,,Fail,,,,,
186.0,2.0,wc_2,wc_15,0.0,"[('wc_15', 0.2500000000000001), ('wc_2', 0.9400000000000007)]",0.9550000000000005,,,27.0,0.004306,['Fail'],Fail,0.2500000000000001,-0.2500000000000001,0.0,5.0,0.1
186.0,2.0,wc_2,,0.0,,,,0.0,,,,Fail,,,,,
186.0,2.0,wc_2,wc_16,1.0,"[('wc_16', 0.8400000000000006), ('wc_2', 0.9400000000000007), ('wc_15', 0.2500000000000001)]",0.9928000000000001,,,35.0,0.03972199999999999,['Fail'],Fail,0.8400000000000006,-0.34000000000000064,2.0,4.0,0.8
201.0,4.0,wc_4,,0.0,,,,402.0,,,,Fail,,,,,
201.0,4.0,wc_4,,0.0,,,73.0,,,,,Fail,,,,,
201.0,4.0,wc_4,,0.0,,,,0.0,,,,Fail,,,,,
201.0,4.0,wc_4,wc_4,0.0,"[('wc_4', 0.7900000000000006)]",0.7900000000000006,,,39.0,0.00202,['Fail'],Fail,0.7900000000000006,-0.2900000000000006,4.0,8.0,0.9
201.0,4.0,wc_4,,0.0,,,,142.0,,,,Fail,,,,,
201.0,4.0,wc_4,wc_9,0.0,"[('wc_9', 0.8300000000000006), ('wc_4', 0.7900000000000006)]",0.9643000000000003,,,33.0,0.004647999999999999,['Fail'],Fail,0.8300000000000006,-0.8300000000000006,0.0,3.0,0.9
201.0,4.0,wc_4,,0.0,,,,0.0,,,,Fail,,,,,
201.0,4.0,wc_4,wc_10,1.0,"[('wc_10', 0.7600000000000006), ('wc_4', 0.7900000000000006), ('wc_9', 0.8300000000000006)]",0.9914320000000001,,,39.0,0.037551999999999995,['Fail'],Fail,0.7600000000000006,-0.09333333333333393,2.0,3.0,0.7
229.0,2.0,wc_2,,0.0,,,,243.0,,,,Fail,,,,,
229.0,2.0,wc_2,,0.0,,,50.0,,,,,Fail,,,,,
229.0,2.0,wc_2,,0.0,,,,0.0,,,,Fail,,,,,
229.0,2.0,wc_2,wc_2,0.0,"[('wc_2', 0.9400000000000007)]",0.9400000000000007,,,28.0,0.002682,['Fail'],Fail,0.9400000000000007,-0.5400000000000007,0.0,0.0,1.0
229.0,2.0,wc_2,,0.0,,,,162.0,,,,Fail,,,,,
229.0,2.0,wc_2,wc_12,0.0,"[('wc_12', 0.4500000000000003), ('wc_2', 0.9400000000000007)]",0.9670000000000004,,,40.0,0.004989,['Fail'],Fail,0.4500000000000003,-0.2500000000000003,1.0,5.0,0.3
229.0,2.0,wc_2,,0.0,,,,222.0,,,,Fail,,,,,
229.0,2.0,wc_2,wc_8,1.0,"[('wc_8', 0.7400000000000005), ('wc_2', 0.9400000000000007), ('wc_12', 0.4500000000000003)]",0.9914200000000001,,,29.0,0.037036,['Fail'],Fail,0.7400000000000005,-0.7400000000000005,0.0,0.0,0.6
257.0,2.0,wc_2,,0.0,,,,182.0,,,,Pass,,,,,
257.0,2.0,wc_2,,0.0,,,54.0,,,,,Pass,,,,,
257.0,2.0,wc_2,,0.0,,,,0.0,,,,Pass,,,,,
257.0,2.0,wc_2,wc_2,0.0,"[('wc_2', 0.9500000000000007)]",0.9500000000000007,,,27.0,0.003388,['Pass'],Pass,0.9500000000000007,0.04999999999999927,1.0,1.0,1.0
257.0,2.0,wc_2,,0.0,,,,122.0,,,,Pass,,,,,
257.0,2.0,wc_2,wc_6,0.0,"[('wc_6', 0.5700000000000004), ('wc_2', 0.9500000000000007)]",0.9785000000000004,,,31.0,0.004398,['Pass'],Pass,0.5700000000000004,-0.4700000000000004,0.0,0.0,0.5
257.0,2.0,wc_2,,0.0,,,,223.0,,,,Pass,,,,,
257.0,2.0,wc_2,wc_15,1.0,"[('wc_15', 0.2500000000000001), ('wc_2', 0.9500000000000007), ('wc_6', 0.5700000000000004)]",0.9838750000000003,,,38.0,0.051931000000000005,['Pass'],Pass,0.2500000000000001,-0.0277777777777779,2.0,9.0,0.1
301.0,4.0,wc_4,,0.0,,,,422.0,,,,Pass,,,,,
301.0,4.0,wc_4,,0.0,,,50.0,,,,,Pass,,,,,
301.0,4.0,wc_4,,0.0,,,,0.0,,,,Pass,,,,,
301.0,4.0,wc_4,wc_4,0.0,"[('wc_4', 0.7900000000000006)]",0.7900000000000006,,,35.0,0.003744,['Pass'],Pass,0.7900000000000006,-0.33545454545454606,0.0,0.0,0.9
301.0,4.0,wc_4,,0.0,,,,141.0,,,,Pass,,,,,
301.0,4.0,wc_4,wc_13,0.0,"[('wc_13', 0.9800000000000008), ('wc_4', 0.7900000000000006)]",0.9958000000000001,,,29.0,0.005543,['Pass'],Pass,0.9800000000000008,-0.8371428571428579,1.0,7.0,0.8
301.0,4.0,wc_4,,0.0,,,,0.0,,,,Pass,,,,,
301.0,4.0,wc_4,wc_16,1.0,"[('wc_16', 0.8400000000000006), ('wc_4', 0.7900000000000006), ('wc_13', 0.9800000000000008)]",0.999328,,,30.0,0.044539999999999996,['Pass'],Pass,0.8400000000000006,-0.46500000000000064,3.0,8.0,0.8
345.0,3.0,wc_3,,0.0,,,,382.0,,,,Fail,,,,,
345.0,3.0,wc_3,,0.0,,,66.0,,,,,Fail,,,,,
345.0,3.0,wc_3,,0.0,,,,0.0,,,,Fail,,,,,
345.0,3.0,wc_3,wc_3,0.0,"[('wc_3', 0.8500000000000006)]",0.8500000000000006,,,24.0,0.002258,['Pass'],Fail,0.8500000000000006,-0.683333333333334,1.0,6.0,0.9
345.0,3.0,wc_3,,0.0,,,,162.0,,,,Fail,,,,,
345.0,3.0,wc_3,wc_9,0.0,"[('wc_3', 0.8500000000000006)]",0.8500000000000006,,,27.0,0.003818,['Pass'],Fail,0.8300000000000006,-0.6871428571428577,1.0,7.0,0.9
345.0,3.0,wc_3,,0.0,,,,202.0,,,,Fail,,,,,
345.0,3.0,wc_3,wc_17,0.0,"[('wc_17', 0.6600000000000005), ('wc_3', 0.8500000000000006)]",0.9490000000000003,,,40.0,0.006511,['Pass'],Fail,0.6600000000000005,-0.5933333333333338,0.0,0.0,0.8
345.0,3.0,wc_3,,0.0,,,,83.0,,,,Fail,,,,,
345.0,3.0,wc_3,wc_15,1.0,"[('wc_15', 0.2500000000000001), ('wc_3', 0.8500000000000006), ('wc_17', 0.6600000000000005)]",0.9617500000000002,,,32.0,0.040844000000000005,['Pass'],Fail,0.2600000000000001,-0.2600000000000001,0.0,0.0,0.1
409.0,3.0,wc_3,,0.0,,,,402.0,,,,Pass,,,,,
409.0,3.0,wc_3,,0.0,,,61.0,,,,,Pass,,,,,
409.0,3.0,wc_3,,0.0,,,,0.0,,,,Pass,,,,,
409.0,3.0,wc_3,wc_3,0.0,"[('wc_3', 0.8500000000000006)]",0.8500000000000006,,,22.0,0.002343,['Pass'],Pass,0.8500000000000006,-0.564285714285715,2.0,7.0,0.9
409.0,3.0,wc_3,,0.0,,,,81.0,,,,Pass,,,,,
409.0,3.0,wc_3,wc_1,0.0,"[('wc_3', 0.8500000000000006)]",0.8500000000000006,,,24.0,0.005363,['Pass'],Pass,0.4400000000000003,-0.33473684210526344,0.0,0.0,0.4
409.0,3.0,wc_3,,0.0,,,,223.0,,,,Pass,,,,,
409.0,3.0,wc_3,wc_10,0.0,"[('wc_10', 0.7600000000000006), ('wc_3', 0.8500000000000006)]",0.9640000000000002,,,32.0,0.0067529999999999995,['Pass'],Pass,0.7600000000000006,-0.47428571428571487,2.0,7.0,0.7
409.0,3.0,wc_3,,0.0,,,,81.0,,,,Pass,,,,,
409.0,3.0,wc_3,wc_8,1.0,"[('wc_8', 0.7400000000000005), ('wc_3', 0.8500000000000006), ('wc_10', 0.7600000000000006)]",0.9906400000000001,,,33.0,0.048749,['Pass'],Pass,0.7400000000000005,-0.49000000000000055,1.0,4.0,0.6
443.0,5.0,wc_5,,0.0,,,,321.0,,,,Fail,,,,,
443.0,5.0,wc_5,,0.0,,,56.0,,,,,Fail,,,,,
443.0,5.0,wc_5,,0.0,,,,0.0,,,,Fail,,,,,
443.0,5.0,wc_5,wc_5,0.0,"[('wc_5', 0.3300000000000002)]",0.3300000000000002,,,30.0,0.002333,['Pass'],Fail,0.3300000000000002,-0.27117647058823546,0.0,0.0,0.2
443.0,5.0,wc_5,,0.0,,,,61.0,,,,Fail,,,,,
443.0,5.0,wc_5,wc_6,0.0,"[('wc_6', 0.5800000000000004)]",0.5800000000000004,,,30.0,0.005065,['Fail'],Fail,0.5800000000000004,-0.3300000000000004,1.0,4.0,0.5
443.0,5.0,wc_5,,0.0,,,,0.0,,,,Fail,,,,,
443.0,5.0,wc_5,wc_9,0.0,"[('wc_9', 0.8200000000000006), ('wc_6', 0.5800000000000004)]",0.9244000000000003,,,30.0,0.008537,['Fail'],Fail,0.8200000000000006,-0.7088888888888896,1.0,9.0,0.9
443.0,5.0,wc_5,,0.0,,,,243.0,,,,Fail,,,,,
443.0,5.0,wc_5,wc_1,1.0,"[('wc_1', 0.43000000000000027), ('wc_6', 0.5800000000000004), ('wc_9', 0.8200000000000006)]",0.9569080000000002,,,33.0,0.041724,['Fail'],Fail,0.4400000000000003,0.05999999999999972,1.0,2.0,0.4
481.0,5.0,wc_5,,0.0,,,,0.0,,,,Fail,,,,,
481.0,5.0,wc_5,,0.0,,,77.0,,,,,Fail,,,,,
481.0,5.0,wc_5,,0.0,,,,0.0,,,,Fail,,,,,
481.0,5.0,wc_5,wc_5,0.0,"[('wc_5', 0.3200000000000002)]",0.3200000000000002,,,35.0,0.002885,['Pass'],Fail,0.3200000000000002,-0.3200000000000002,0.0,1.0,0.2
481.0,5.0,wc_5,,0.0,,,,121.0,,,,Fail,,,,,
481.0,5.0,wc_5,wc_13,0.0,"[('wc_13', 0.9800000000000008)]",0.9800000000000008,,,27.0,0.005319,['Fail'],Fail,0.9800000000000008,-0.798181818181819,0.0,0.0,0.8
481.0,5.0,wc_5,,0.0,,,,162.0,,,,Fail,,,,,
481.0,5.0,wc_5,wc_6,0.0,"[('wc_13', 0.9800000000000008)]",0.9800000000000008,,,26.0,0.006202,['Fail'],Fail,0.5800000000000004,-0.18000000000000038,2.0,5.0,0.5
481.0,5.0,wc_5,,0.0,,,,162.0,,,,Fail,,,,,
481.0,5.0,wc_5,wc_12,0.0,"[('wc_13', 0.9800000000000008)]",0.9800000000000008,,,35.0,0.008119000000000001,['Fail'],Fail,0.4500000000000003,-0.26818181818181847,0.0,0.0,0.3
481.0,5.0,wc_5,,0.0,,,,262.0,,,,Fail,,,,,
481.0,5.0,wc_5,wc_2,0.0,"[('wc_2', 0.9600000000000007), ('wc_13', 0.9800000000000008)]",0.9992000000000001,,,33.0,0.013225,['Fail'],Fail,0.9600000000000007,-0.6266666666666674,2.0,6.0,1.0
481.0,5.0,wc_5,,0.0,,,,263.0,,,,Fail,,,,,
481.0,5.0,wc_5,wc_17,1.0,"[('wc_17', 0.6700000000000005), ('wc_13', 0.9800000000000008), ('wc_2', 0.9600000000000007)]",0.9997360000000001,,,23.0,0.049718,['Fail'],Fail,0.6700000000000005,-0.17000000000000048,2.0,4.0,0.8
509.0,5.0,wc_5,,0.0,,,,402.0,,,,Fail,,,,,
509.0,5.0,wc_5,,0.0,,,51.0,,,,,Fail,,,,,
509.0,5.0,wc_5,,0.0,,,,0.0,,,,Fail,,,,,
509.0,5.0,wc_5,wc_5,0.0,"[('wc_5', 0.31000000000000016)]",0.31000000000000016,,,31.0,0.002182,['Fail'],Fail,0.31000000000000016,-0.31000000000000016,0.0,2.0,0.2
509.0,5.0,wc_5,,0.0,,,,81.0,,,,Fail,,,,,
509.0,5.0,wc_5,wc_7,0.0,"[('wc_7', 0.40000000000000024)]",0.40000000000000024,,,31.0,0.004117,['Pass'],Fail,0.40000000000000024,-0.3130434782608698,0.0,0.0,0.3
509.0,5.0,wc_5,,0.0,,,,0.0,,,,Fail,,,,,
509.0,5.0,wc_5,wc_10,0.0,"[('wc_10', 0.7600000000000006), ('wc_7', 0.40000000000000024)]",0.8560000000000004,,,37.0,0.005808,['Pass'],Fail,0.7600000000000006,-0.4600000000000006,0.0,0.0,0.7
509.0,5.0,wc_5,,0.0,,,,101.0,,,,Fail,,,,,
509.0,5.0,wc_5,wc_13,1.0,"[('wc_13', 0.9900000000000008), ('wc_7', 0.40000000000000024), ('wc_10', 0.7600000000000006)]",0.9985600000000001,,,27.0,0.046959999999999995,['Pass'],Fail,0.9900000000000008,0.009999999999999232,2.0,2.0,0.8
520.0,5.0,wc_5,,0.0,,,,381.0,,,,Pass,,,,,
520.0,5.0,wc_5,,0.0,,,80.0,,,,,Pass,,,,,
520.0,5.0,wc_5,,0.0,,,,0.0,,,,Pass,,,,,
520.0,5.0,wc_5,wc_5,0.0,"[('wc_5', 0.30000000000000016)]",0.30000000000000016,,,38.0,0.002353,['Fail'],Pass,0.30000000000000016,-0.30000000000000016,0.0,3.0,0.2
520.0,5.0,wc_5,,0.0,,,,103.0,,,,Pass,,,,,
520.0,5.0,wc_5,wc_4,0.0,"[('wc_4', 0.8000000000000006)]",0.8000000000000006,,,36.0,0.004045,['Pass'],Pass,0.8000000000000006,-0.633333333333334,1.0,6.0,0.9
520.0,5.0,wc_5,,0.0,,,,142.0,,,,Pass,,,,,
520.0,5.0,wc_5,wc_9,0.0,"[('wc_9', 0.8200000000000006), ('wc_4', 0.8000000000000006)]",0.9640000000000002,,,38.0,0.006601000000000001,['Pass'],Pass,0.8200000000000006,-0.8200000000000006,0.0,2.0,0.9
520.0,5.0,wc_5,,0.0,,,,0.0,,,,Pass,,,,,
520.0,5.0,wc_5,wc_11,1.0,"[('wc_11', 0.15000000000000002), ('wc_4', 0.8000000000000006), ('wc_9', 0.8200000000000006)]",0.9694000000000002,,,36.0,0.046435,['Pass'],Pass,0.15000000000000002,-0.15000000000000002,0.0,0.0,0.1
528.0,6.0,wc_6,,0.0,,,,21.0,,,,Pass,,,,,
528.0,6.0,wc_6,,0.0,,,52.0,,,,,Pass,,,,,
528.0,6.0,wc_6,,0.0,,,,0.0,,,,Pass,,,,,
528.0,6.0,wc_6,wc_6,0.0,"[('wc_6', 0.5700000000000004)]",0.5700000000000004,,,28.0,0.002241,['Pass'],Pass,0.5700000000000004,-0.3200000000000004,2.0,8.0,0.5
528.0,6.0,wc_6,,0.0,,,,0.0,,,,Pass,,,,,
528.0,6.0,wc_6,wc_9,0.0,"[('wc_9', 0.8200000000000006), ('wc_6', 0.5700000000000004)]",0.9226000000000003,,,29.0,0.004121,['Pass'],Pass,0.8200000000000006,-0.4866666666666673,1.0,3.0,0.9
528.0,6.0,wc_6,,0.0,,,,101.0,,,,Pass,,,,,
528.0,6.0,wc_6,wc_8,1.0,"[('wc_8', 0.7400000000000005), ('wc_6', 0.5700000000000004), ('wc_9', 0.8200000000000006)]",0.9798760000000001,,,24.0,0.046229,['Pass'],Pass,0.7400000000000005,-0.5177777777777783,2.0,9.0,0.6
536.0,9.0,wc_9,,0.0,,,,0.0,,,,Fail,,,,,
536.0,9.0,wc_9,,0.0,,,71.0,,,,,Fail,,,,,
536.0,9.0,wc_9,,0.0,,,,0.0,,,,Fail,,,,,
536.0,9.0,wc_9,wc_9,0.0,"[('wc_9', 0.8200000000000006)]",0.8200000000000006,,,21.0,0.002269,['Fail'],Fail,0.8200000000000006,-0.3200000000000006,2.0,4.0,0.9
536.0,9.0,wc_9,,0.0,,,,202.0,,,,Fail,,,,,
536.0,9.0,wc_9,wc_17,0.0,"[('wc_9', 0.8200000000000006)]",0.8200000000000006,,,28.0,0.00423,['Fail'],Fail,0.6700000000000005,-0.3842857142857148,2.0,7.0,0.8
536.0,9.0,wc_9,,0.0,,,,342.0,,,,Fail,,,,,
536.0,9.0,wc_9,wc_10,0.0,"[('wc_10', 0.7700000000000006), ('wc_17', 0.6700000000000005)]",0.9241000000000003,,,26.0,0.006026,['Pass'],Fail,0.7700000000000006,-0.43666666666666726,1.0,3.0,0.7
536.0,9.0,wc_9,,0.0,,,,243.0,,,,Fail,,,,,
536.0,9.0,wc_9,wc_2,0.0,"[('wc_2', 0.9600000000000007), ('wc_9', 0.8200000000000006)]",0.9928000000000001,,,29.0,0.007826,['Fail'],Fail,0.9600000000000007,-0.6600000000000008,0.0,0.0,1.0
536.0,9.0,wc_9,,0.0,,,,142.0,,,,Fail,,,,,
536.0,9.0,wc_9,wc_7,0.0,"[('wc_9', 0.8200000000000006), ('wc_2', 0.9600000000000007)]",0.9928000000000001,,,39.0,0.011972,['Fail'],Fail,0.41000000000000025,-0.07666666666666694,1.0,3.0,0.3
536.0,9.0,wc_9,,0.0,,,,0.0,,,,Fail,,,,,
536.0,9.0,wc_9,wc_8,1.0,"[('wc_8', 0.7400000000000005), ('wc_9', 0.8200000000000006), ('wc_2', 0.9600000000000007)]",0.998128,,,27.0,0.059697,['Fail'],Fail,0.7400000000000005,-0.7400000000000005,0.0,0.0,0.6
544.0,7.0,wc_7,,0.0,,,,102.0,,,,Fail,,,,,
544.0,7.0,wc_7,,0.0,,,70.0,,,,,Fail,,,,,
544.0,7.0,wc_7,,0.0,,,,0.0,,,,Fail,,,,,
544.0,7.0,wc_7,wc_7,0.0,"[('wc_7', 0.40000000000000024)]",0.40000000000000024,,,23.0,0.00244,['Pass'],Fail,0.40000000000000024,-0.15000000000000024,1.0,4.0,0.3
544.0,7.0,wc_7,,0.0,,,,142.0,,,,Fail,,,,,
544.0,7.0,wc_7,wc_12,0.0,"[('wc_12', 0.4400000000000003)]",0.4400000000000003,,,30.0,0.004228,['Fail'],Fail,0.4400000000000003,-0.4400000000000003,0.0,5.0,0.3
544.0,7.0,wc_7,,0.0,,,,361.0,,,,Fail,,,,,
544.0,7.0,wc_7,wc_11,0.0,"[('wc_11', 0.15000000000000002), ('wc_7', 0.40000000000000024)]",0.4900000000000002,,,35.0,0.006408,['Pass'],Fail,0.15000000000000002,-0.15000000000000002,0.0,2.0,0.1
544.0,7.0,wc_7,,0.0,,,,362.0,,,,Fail,,,,,
544.0,7.0,wc_7,wc_5,0.0,"[('wc_5', 0.29000000000000015), ('wc_7', 0.40000000000000024), ('wc_11', 0.15000000000000002)]",0.6379000000000002,,,24.0,0.008903,['Pass'],Fail,0.29000000000000015,-0.29000000000000015,0.0,6.0,0.2
544.0,7.0,wc_7,,0.0,,,,141.0,,,,Fail,,,,,
544.0,7.0,wc_7,wc_14,0.0,"[('wc_14', 0.3500000000000002), ('wc_7', 0.40000000000000024), ('wc_11', 0.15000000000000002), ('wc_5', 0.29000000000000015)]",0.7646350000000002,,,23.0,0.016526,['Pass'],Fail,0.3500000000000002,-0.3500000000000002,0.0,0.0,0.2
544.0,7.0,wc_7,,0.0,,,,0.0,,,,Fail,,,,,
544.0,7.0,wc_7,wc_16,0.0,"[('wc_16', 0.8400000000000006), ('wc_12', 0.4400000000000003)]",0.9104000000000004,,,36.0,0.015681999999999998,['Fail'],Fail,0.8400000000000006,-0.6525000000000006,0.0,0.0,0.8
544.0,7.0,wc_7,,0.0,,,,263.0,,,,Fail,,,,,
544.0,7.0,wc_7,wc_1,0.0,"[('wc_12', 0.4400000000000003), ('wc_16', 0.8400000000000006)]",0.9104000000000004,,,32.0,0.013943,['Fail'],Fail,0.4400000000000003,-0.29714285714285743,1.0,7.0,0.4
544.0,7.0,wc_7,,0.0,,,,243.0,,,,Fail,,,,,
544.0,7.0,wc_7,wc_15,0.0,"[('wc_12', 0.4400000000000003), ('wc_16', 0.8400000000000006)]",0.9104000000000004,,,27.0,0.017567,['Fail'],Fail,0.2600000000000001,-0.2600000000000001,0.0,7.0,0.1
544.0,7.0,wc_7,,0.0,,,,223.0,,,,Fail,,,,,
544.0,7.0,wc_7,wc_6,1.0,"[('wc_6', 0.5700000000000004), ('wc_12', 0.4400000000000003), ('wc_16', 0.8400000000000006)]",0.9614720000000002,,,24.0,0.053813,['Fail'],Fail,0.5700000000000004,-0.5700000000000004,0.0,0.0,0.5
552.0,11.0,wc_11,,0.0,,,,0.0,,,,Fail,,,,,
552.0,11.0,wc_11,,0.0,,,73.0,,,,,Fail,,,,,
552.0,11.0,wc_11,,0.0,,,,0.0,,,,Fail,,,,,
552.0,11.0,wc_11,wc_11,0.0,"[('wc_11', 0.14)]",0.14,,,20.0,0.002459,['Pass'],Fail,0.14,-0.14,0.0,3.0,0.1
552.0,11.0,wc_11,,0.0,,,,342.0,,,,Fail,,,,,
552.0,11.0,wc_11,wc_4,0.0,"[('wc_4', 0.8000000000000006)]",0.8000000000000006,,,31.0,0.004845,['Fail'],Fail,0.8000000000000006,-0.6000000000000005,0.0,0.0,0.9
552.0,11.0,wc_11,,0.0,,,,61.0,,,,Fail,,,,,
552.0,11.0,wc_11,wc_1,0.0,"[('wc_4', 0.8000000000000006)]",0.8000000000000006,,,25.0,0.006551,['Fail'],Fail,0.43000000000000027,-0.30500000000000027,1.0,8.0,0.4
552.0,11.0,wc_11,,0.0,,,,162.0,,,,Fail,,,,,
552.0,11.0,wc_11,wc_7,0.0,"[('wc_7', 0.39000000000000024), ('wc_4', 0.8000000000000006)]",0.8780000000000004,,,39.0,0.008972,['Fail'],Fail,0.39000000000000024,-0.19000000000000022,1.0,5.0,0.3
552.0,11.0,wc_11,,0.0,,,,0.0,,,,Fail,,,,,
552.0,11.0,wc_11,wc_8,1.0,"[('wc_8', 0.7400000000000005), ('wc_4', 0.8000000000000006), ('wc_7', 0.39000000000000024)]",0.9682800000000001,,,32.0,0.04883600000000001,['Fail'],Fail,0.7400000000000005,-0.24000000000000055,1.0,2.0,0.6
558.0,8.0,wc_8,,0.0,,,,0.0,,,,Fail,,,,,
558.0,8.0,wc_8,,0.0,,,63.0,,,,,Fail,,,,,
558.0,8.0,wc_8,,0.0,,,,0.0,,,,Fail,,,,,
558.0,8.0,wc_8,wc_8,0.0,"[('wc_8', 0.7400000000000005)]",0.7400000000000005,,,30.0,0.002365,['Fail'],Fail,0.7400000000000005,-0.24000000000000055,1.0,2.0,0.6
558.0,8.0,wc_8,,0.0,,,,0.0,,,,Fail,,,,,
558.0,8.0,wc_8,wc_10,0.0,"[('wc_10', 0.7600000000000006), ('wc_8', 0.7400000000000005)]",0.9376000000000003,,,21.0,0.004030000000000001,['Fail'],Fail,0.7600000000000006,-0.5933333333333339,1.0,6.0,0.7
558.0,8.0,wc_8,,0.0,,,,121.0,,,,Fail,,,,,
558.0,8.0,wc_8,wc_14,0.0,"[('wc_8', 0.7400000000000005), ('wc_10', 0.7600000000000006)]",0.9376000000000003,,,36.0,0.007112,['Fail'],Fail,0.3400000000000002,-0.3400000000000002,0.0,2.0,0.2
558.0,8.0,wc_8,,0.0,,,,321.0,,,,Fail,,,,,
558.0,8.0,wc_8,wc_3,0.0,"[('wc_8', 0.7400000000000005), ('wc_10', 0.7600000000000006)]",0.9376000000000003,,,35.0,0.009653,['Fail'],Fail,0.8500000000000006,-0.6625000000000006,0.0,0.0,0.9
558.0,8.0,wc_8,,0.0,,,,101.0,,,,Fail,,,,,
558.0,8.0,wc_8,wc_6,1.0,"[('wc_6', 0.5700000000000004), ('wc_8', 0.7400000000000005), ('wc_10', 0.7600000000000006)]",0.9731680000000001,,,36.0,0.047362,['Fail'],Fail,0.5700000000000004,-0.0700000000000004,1.0,2.0,0.5
563.0,11.0,wc_11,,0.0,,,,0.0,,,,Pass,,,,,
563.0,11.0,wc_11,,0.0,,,77.0,,,,,Pass,,,,,
563.0,11.0,wc_11,,0.0,,,,0.0,,,,Pass,,,,,
563.0,11.0,wc_11,wc_11,0.0,"[('wc_11', 0.13)]",0.13,,,30.0,0.002318,['Fail'],Pass,0.13,-0.13,0.0,5.0,0.1
563.0,11.0,wc_11,,0.0,,,,122.0,,,,Pass,,,,,
563.0,11.0,wc_11,wc_15,0.0,"[('wc_15', 0.2500000000000001), ('wc_11', 0.13)]",0.34750000000000014,,,30.0,0.003879,['Fail'],Pass,0.2500000000000001,-0.2500000000000001,0.0,0.0,0.1
563.0,11.0,wc_11,,0.0,,,,382.0,,,,Pass,,,,,
563.0,11.0,wc_11,wc_10,0.0,"[('wc_10', 0.7600000000000006)]",0.7600000000000006,,,22.0,0.006624,['Pass'],Pass,0.7600000000000006,-0.47428571428571487,2.0,7.0,0.7
563.0,11.0,wc_11,,0.0,,,,342.0,,,,Pass,,,,,
563.0,11.0,wc_11,wc_3,0.0,"[('wc_3', 0.8400000000000006), ('wc_10', 0.7600000000000006)]",0.9616000000000002,,,28.0,0.010827,['Pass'],Pass,0.8400000000000006,-0.8400000000000006,0.0,1.0,0.9
563.0,11.0,wc_11,,0.0,,,,162.0,,,,Pass,,,,,
563.0,11.0,wc_11,wc_9,1.0,"[('wc_9', 0.8200000000000006), ('wc_10', 0.7600000000000006), ('wc_3', 0.8400000000000006)]",0.9930880000000001,,,34.0,0.046854,['Pass'],Pass,0.8200000000000006,-0.3755555555555562,4.0,9.0,0.9
569.0,7.0,wc_7,,0.0,,,,81.0,,,,Fail,,,,,
569.0,7.0,wc_7,,0.0,,,77.0,,,,,Fail,,,,,
569.0,7.0,wc_7,,0.0,,,,0.0,,,,Fail,,,,,
569.0,7.0,wc_7,wc_7,0.0,"[('wc_7', 0.39000000000000024)]",0.39000000000000024,,,25.0,0.002097,['Fail'],Fail,0.39000000000000024,-0.14000000000000024,2.0,8.0,0.3
569.0,7.0,wc_7,,0.0,,,,202.0,,,,Fail,,,,,
569.0,7.0,wc_7,wc_2,0.0,"[('wc_2', 0.9700000000000008), ('wc_7', 0.39000000000000024)]",0.9817000000000005,,,34.0,0.003967999999999999,['Fail'],Fail,0.9700000000000008,-0.7700000000000007,1.0,5.0,1.0
569.0,7.0,wc_7,,0.0,,,,182.0,,,,Fail,,,,,
569.0,7.0,wc_7,wc_13,1.0,"[('wc_13', 0.9900000000000008), ('wc_7', 0.39000000000000024), ('wc_2', 0.9700000000000008)]",0.9998170000000001,,,28.0,0.047109,['Fail'],Fail,0.9900000000000008,-0.9900000000000008,0.0,0.0,0.8
574.0,8.0,wc_8,,0.0,,,,202.0,,,,Pass,,,,,
574.0,8.0,wc_8,,0.0,,,65.0,,,,,Pass,,,,,
574.0,8.0,wc_8,,0.0,,,,0.0,,,,Pass,,,,,
574.0,8.0,wc_8,wc_8,0.0,"[('wc_8', 0.7400000000000005)]",0.7400000000000005,,,23.0,0.002198,['Fail'],Pass,0.7400000000000005,-0.3400000000000005,2.0,5.0,0.6
574.0,8.0,wc_8,,0.0,,,,203.0,,,,Pass,,,,,
574.0,8.0,wc_8,wc_16,0.0,"[('wc_16', 0.8500000000000006)]",0.8500000000000006,,,20.0,0.0045579999999999996,['Pass'],Pass,0.8500000000000006,-0.6500000000000006,1.0,5.0,0.8
574.0,8.0,wc_8,,0.0,,,,402.0,,,,Pass,,,,,
574.0,8.0,wc_8,wc_4,0.0,"[('wc_4', 0.8100000000000006), ('wc_16', 0.8500000000000006)]",0.9715000000000003,,,40.0,0.006959000000000001,['Pass'],Pass,0.8100000000000006,-0.5600000000000006,1.0,4.0,0.9
574.0,8.0,wc_8,,0.0,,,,61.0,,,,Pass,,,,,
574.0,8.0,wc_8,wc_1,0.0,"[('wc_16', 0.8500000000000006), ('wc_4', 0.8100000000000006)]",0.9715000000000003,,,26.0,0.011257,['Pass'],Pass,0.42000000000000026,-0.33666666666666695,0.0,0.0,0.4
574.0,8.0,wc_8,,0.0,,,,202.0,,,,Pass,,,,,
574.0,8.0,wc_8,wc_13,1.0,"[('wc_13', 0.9900000000000008), ('wc_16', 0.8500000000000006), ('wc_4', 0.8100000000000006)]",0.999715,,,35.0,0.045691999999999997,['Pass'],Pass,0.9900000000000008,0.009999999999999232,1.0,1.0,0.8
579.0,9.0,wc_9,,0.0,,,,301.0,,,,Pass,,,,,
579.0,9.0,wc_9,,0.0,,,62.0,,,,,Pass,,,,,
579.0,9.0,wc_9,,0.0,,,,0.0,,,,Pass,,,,,
579.0,9.0,wc_9,wc_9,0.0,"[('wc_9', 0.8200000000000006)]",0.8200000000000006,,,23.0,0.002029,['Pass'],Pass,0.8200000000000006,-0.45636363636363697,0.0,0.0,0.9
579.0,9.0,wc_9,,0.0,,,,162.0,,,,Pass,,,,,
579.0,9.0,wc_9,wc_15,0.0,"[('wc_15', 0.2400000000000001), ('wc_9', 0.8200000000000006)]",0.8632000000000005,,,37.0,0.0046429999999999996,['Pass'],Pass,0.2400000000000001,-0.2400000000000001,0.0,3.0,0.1
579.0,9.0,wc_9,,0.0,,,,402.0,,,,Pass,,,,,
579.0,9.0,wc_9,wc_3,1.0,"[('wc_3', 0.8400000000000006), ('wc_9', 0.8200000000000006), ('wc_15', 0.2400000000000001)]",0.9781120000000002,,,37.0,0.042798,['Pass'],Pass,0.8400000000000006,-0.4400000000000006,2.0,5.0,0.9
585.0,10.0,wc_10,,0.0,,,,182.0,,,,Fail,,,,,
585.0,10.0,wc_10,,0.0,,,51.0,,,,,Fail,,,,,
585.0,10.0,wc_10,,0.0,,,,0.0,,,,Fail,,,,,
585.0,10.0,wc_10,wc_10,0.0,"[('wc_10', 0.7600000000000006)]",0.7600000000000006,,,27.0,0.002308,['Fail'],Fail,0.7600000000000006,-0.48727272727272786,0.0,0.0,0.7
585.0,10.0,wc_10,,0.0,,,,362.0,,,,Fail,,,,,
585.0,10.0,wc_10,wc_4,0.0,"[('wc_4', 0.8100000000000006), ('wc_10', 0.7600000000000006)]",0.9544000000000002,,,38.0,0.004061,['Fail'],Fail,0.8100000000000006,-0.4766666666666673,2.0,6.0,0.9
585.0,10.0,wc_10,,0.0,,,,202.0,,,,Fail,,,,,
585.0,10.0,wc_10,wc_16,1.0,"[('wc_16', 0.8500000000000006), ('wc_10', 0.7600000000000006), ('wc_4', 0.8100000000000006)]",0.99316,,,36.0,0.04485499999999999,['Fail'],Fail,0.8500000000000006,-0.47500000000000064,3.0,8.0,0.8
591.0,7.0,wc_7,,0.0,,,,223.0,,,,Pass,,,,,
591.0,7.0,wc_7,,0.0,,,74.0,,,,,Pass,,,,,
591.0,7.0,wc_7,,0.0,,,,0.0,,,,Pass,,,,,
591.0,7.0,wc_7,wc_7,0.0,"[('wc_7', 0.39000000000000024)]",0.39000000000000024,,,35.0,0.002402,['Fail'],Pass,0.39000000000000024,-0.14000000000000024,0.0,0.0,0.3
591.0,7.0,wc_7,,0.0,,,,202.0,,,,Pass,,,,,
591.0,7.0,wc_7,wc_2,0.0,"[('wc_2', 0.9700000000000008)]",0.9700000000000008,,,27.0,0.004553,['Pass'],Pass,0.9700000000000008,-0.7477777777777785,2.0,9.0,1.0
591.0,7.0,wc_7,,0.0,,,,162.0,,,,Pass,,,,,
591.0,7.0,wc_7,wc_8,0.0,"[('wc_2', 0.9700000000000008)]",0.9700000000000008,,,39.0,0.005475,['Pass'],Pass,0.7300000000000005,-0.48000000000000054,2.0,8.0,0.6
591.0,7.0,wc_7,,0.0,,,,0.0,,,,Pass,,,,,
591.0,7.0,wc_7,wc_9,1.0,"[('wc_9', 0.8300000000000006), ('wc_7', 0.39000000000000024), ('wc_8', 0.7300000000000005)]",0.9720010000000001,,,27.0,0.047757999999999995,['Fail'],Pass,0.8300000000000006,-0.163333333333334,2.0,3.0,0.9
596.0,10.0,wc_10,,0.0,,,,0.0,,,,Fail,,,,,
596.0,10.0,wc_10,,0.0,,,58.0,,,,,Fail,,,,,
596.0,10.0,wc_10,,0.0,,,,0.0,,,,Fail,,,,,
596.0,10.0,wc_10,wc_10,0.0,"[('wc_10', 0.7700000000000006)]",0.7700000000000006,,,31.0,0.002462,['Fail'],Fail,0.7700000000000006,-0.2700000000000006,1.0,2.0,0.7
596.0,10.0,wc_10,,0.0,,,,61.0,,,,Fail,,,,,
596.0,10.0,wc_10,wc_7,0.0,"[('wc_7', 0.40000000000000024), ('wc_10', 0.7700000000000006)]",0.8620000000000004,,,28.0,0.004628,['Fail'],Fail,0.40000000000000024,0.5999999999999998,1.0,1.0,0.3
596.0,10.0,wc_10,,0.0,,,,223.0,,,,Fail,,,,,
596.0,10.0,wc_10,wc_16,1.0,"[('wc_16', 0.8500000000000006), ('wc_10', 0.7700000000000006), ('wc_7', 0.40000000000000024)]",0.9793000000000002,,,21.0,0.049614000000000005,['Fail'],Fail,0.8500000000000006,-0.8500000000000006,0.0,0.0,0.8
602.0,10.0,wc_10,,0.0,,,,362.0,,,,Pass,,,,,
602.0,10.0,wc_10,,0.0,,,75.0,,,,,Pass,,,,,
602.0,10.0,wc_10,,0.0,,,,0.0,,,,Pass,,,,,
602.0,10.0,wc_10,wc_10,0.0,"[('wc_10', 0.7700000000000006)]",0.7700000000000006,,,23.0,0.002406,['Fail'],Pass,0.7700000000000006,-0.10333333333333394,2.0,3.0,0.7
602.0,10.0,wc_10,,0.0,,,,142.0,,,,Pass,,,,,
602.0,10.0,wc_10,wc_15,0.0,"[('wc_10', 0.7700000000000006)]",0.7700000000000006,,,38.0,0.00394,['Fail'],Pass,0.2400000000000001,-0.09714285714285725,1.0,7.0,0.1
602.0,10.0,wc_10,,0.0,,,,243.0,,,,Pass,,,,,
602.0,10.0,wc_10,wc_7,0.0,"[('wc_7', 0.41000000000000025), ('wc_10', 0.7700000000000006)]",0.8643000000000004,,,24.0,0.00759,['Fail'],Pass,0.41000000000000025,0.5899999999999997,2.0,2.0,0.3
602.0,10.0,wc_10,,0.0,,,,341.0,,,,Pass,,,,,
602.0,10.0,wc_10,wc_5,1.0,"[('wc_5', 0.28000000000000014), ('wc_10', 0.7700000000000006), ('wc_7', 0.41000000000000025)]",0.9022960000000003,,,37.0,0.048079,['Fail'],Pass,0.28000000000000014,-0.28000000000000014,0.0,0.0,0.2
609.0,12.0,wc_12,,0.0,,,,101.0,,,,Fail,,,,,
609.0,12.0,wc_12,,0.0,,,75.0,,,,,Fail,,,,,
609.0,12.0,wc_12,,0.0,,,,0.0,,,,Fail,,,,,
609.0,12.0,wc_12,wc_12,0.0,"[('wc_12', 0.4400000000000003)]",0.4400000000000003,,,32.0,0.001993,['Fail'],Fail,0.4400000000000003,-0.3775000000000003,0.0,0.0,0.3
609.0,12.0,wc_12,,0.0,,,,0.0,,,,Fail,,,,,
609.0,12.0,wc_12,wc_13,0.0,"[('wc_13', 0.9900000000000008), ('wc_12', 0.4400000000000003)]",0.9944000000000004,,,21.0,0.004403000000000001,['Fail'],Fail,0.9900000000000008,-0.8233333333333341,1.0,6.0,0.8
609.0,12.0,wc_12,,0.0,,,,202.0,,,,Fail,,,,,
609.0,12.0,wc_12,wc_8,1.0,"[('wc_8', 0.7300000000000005), ('wc_12', 0.4400000000000003), ('wc_13', 0.9900000000000008)]",0.9984880000000002,,,31.0,0.050526,['Fail'],Fail,0.7300000000000005,-0.7300000000000005,0.0,0.0,0.6
619.0,12.0,wc_12,,0.0,,,,122.0,,,,Fail,,,,,
619.0,12.0,wc_12,,0.0,,,63.0,,,,,Fail,,,,,
619.0,12.0,wc_12,,0.0,,,,0.0,,,,Fail,,,,,
619.0,12.0,wc_12,wc_12,0.0,"[('wc_12', 0.4500000000000003)]",0.4500000000000003,,,34.0,0.002445,['Pass'],Fail,0.4500000000000003,0.5499999999999997,1.0,1.0,0.3
619.0,12.0,wc_12,,0.0,,,,321.0,,,,Fail,,,,,
619.0,12.0,wc_12,wc_9,0.0,"[('wc_9', 0.8300000000000006), ('wc_12', 0.4500000000000003)]",0.9065000000000004,,,32.0,0.005531,['Pass'],Fail,0.8300000000000006,-0.4966666666666673,2.0,6.0,0.9
619.0,12.0,wc_12,,0.0,,,,101.0,,,,Fail,,,,,
619.0,12.0,wc_12,wc_8,0.0,"[('wc_12', 0.4500000000000003), ('wc_9', 0.8300000000000006)]",0.9065000000000004,,,31.0,0.006379,['Pass'],Fail,0.7300000000000005,-0.7300000000000005,0.0,0.0,0.6
619.0,12.0,wc_12,,0.0,,,,162.0,,,,Fail,,,,,
619.0,12.0,wc_12,wc_14,1.0,"[('wc_14', 0.3300000000000002), ('wc_12', 0.4500000000000003), ('wc_9', 0.8300000000000006)]",0.9373550000000003,,,32.0,0.050679999999999996,['Pass'],Fail,0.3300000000000002,-0.3300000000000002,0.0,0.0,0.2
628.0,12.0,wc_12,,0.0,,,,82.0,,,,Fail,,,,,
628.0,12.0,wc_12,,0.0,,,63.0,,,,,Fail,,,,,
628.0,12.0,wc_12,,0.0,,,,0.0,,,,Fail,,,,,
628.0,12.0,wc_12,wc_12,0.0,"[('wc_12', 0.4600000000000003)]",0.4600000000000003,,,24.0,0.002328,['Pass'],Fail,0.4600000000000003,0.5399999999999997,2.0,2.0,0.3
628.0,12.0,wc_12,,0.0,,,,0.0,,,,Fail,,,,,
628.0,12.0,wc_12,wc_13,0.0,"[('wc_13', 0.9900000000000008), ('wc_12', 0.4600000000000003)]",0.9946000000000004,,,31.0,0.004222,['Pass'],Fail,0.9900000000000008,-0.7400000000000008,2.0,8.0,0.8
628.0,12.0,wc_12,,0.0,,,,0.0,,,,Fail,,,,,
628.0,12.0,wc_12,wc_14,0.0,"[('wc_12', 0.4600000000000003), ('wc_13', 0.9900000000000008)]",0.9946000000000004,,,34.0,0.006314,['Pass'],Fail,0.3300000000000002,-0.3300000000000002,0.0,0.0,0.2
628.0,12.0,wc_12,,0.0,,,,142.0,,,,Fail,,,,,
628.0,12.0,wc_12,wc_6,0.0,"[('wc_12', 0.4600000000000003), ('wc_13', 0.9900000000000008)]",0.9946000000000004,,,22.0,0.008317,['Pass'],Fail,0.5700000000000004,-0.4866666666666671,0.0,0.0,0.5
628.0,12.0,wc_12,,0.0,,,,0.0,,,,Fail,,,,,
628.0,12.0,wc_12,wc_7,1.0,"[('wc_7', 0.42000000000000026), ('wc_12', 0.4600000000000003), ('wc_13', 0.9900000000000008)]",0.9968680000000002,,,40.0,0.047402,['Pass'],Fail,0.43000000000000027,0.23666666666666636,4.0,6.0,0.3
633.0,12.0,wc_12,,0.0,,,,142.0,,,,Fail,,,,,
633.0,12.0,wc_12,,0.0,,,58.0,,,,,Fail,,,,,
633.0,12.0,wc_12,,0.0,,,,0.0,,,,Fail,,,,,
633.0,12.0,wc_12,wc_12,0.0,"[('wc_12', 0.4700000000000003)]",0.4700000000000003,,,26.0,0.002502,['Fail'],Fail,0.4700000000000003,0.5299999999999997,3.0,3.0,0.3
633.0,12.0,wc_12,,0.0,,,,381.0,,,,Fail,,,,,
633.0,12.0,wc_12,wc_4,0.0,"[('wc_4', 0.8100000000000006), ('wc_12', 0.4700000000000003)]",0.8993000000000004,,,32.0,0.004424,['Fail'],Fail,0.8100000000000006,-0.5792307692307699,0.0,0.0,0.9
633.0,12.0,wc_12,,0.0,,,,202.0,,,,Fail,,,,,
633.0,12.0,wc_12,wc_16,1.0,"[('wc_16', 0.8500000000000006), ('wc_12', 0.4700000000000003), ('wc_4', 0.8100000000000006)]",0.9848950000000001,,,27.0,0.04425,['Fail'],Fail,0.8500000000000006,-0.6500000000000006,1.0,5.0,0.8
636.0,12.0,wc_12,,0.0,,,,41.0,,,,Fail,,,,,
636.0,12.0,wc_12,,0.0,,,53.0,,,,,Fail,,,,,
636.0,12.0,wc_12,,0.0,,,,0.0,,,,Fail,,,,,
636.0,12.0,wc_12,wc_12,0.0,"[('wc_12', 0.4800000000000003)]",0.4800000000000003,,,22.0,0.002191,['Fail'],Fail,0.4800000000000003,0.5199999999999997,4.0,4.0,0.3
636.0,12.0,wc_12,,0.0,,,,0.0,,,,Fail,,,,,
636.0,12.0,wc_12,wc_15,0.0,"[('wc_12', 0.4800000000000003)]",0.4800000000000003,,,37.0,0.00435,['Fail'],Fail,0.2300000000000001,-0.14666666666666678,0.0,0.0,0.1
636.0,12.0,wc_12,,0.0,,,,442.0,,,,Fail,,,,,
636.0,12.0,wc_12,wc_5,0.0,"[('wc_5', 0.28000000000000014), ('wc_12', 0.4800000000000003)]",0.6256000000000004,,,30.0,0.007124999999999999,['Fail'],Fail,0.28000000000000014,-0.28000000000000014,0.0,4.0,0.2
636.0,12.0,wc_12,,0.0,,,,41.0,,,,Fail,,,,,
636.0,12.0,wc_12,wc_1,0.0,"[('wc_1', 0.41000000000000025), ('wc_12', 0.4800000000000003), ('wc_5', 0.28000000000000014)]",0.7791040000000002,,,20.0,0.008565,['Fail'],Fail,0.41000000000000025,-0.41000000000000025,0.0,0.0,0.4
636.0,12.0,wc_12,,0.0,,,,222.0,,,,Fail,,,,,
636.0,12.0,wc_12,wc_14,0.0,"[('wc_14', 0.3200000000000002), ('wc_12', 0.4800000000000003), ('wc_5', 0.28000000000000014), ('wc_1', 0.41000000000000025)]",0.8497907200000002,,,34.0,0.010187,['Fail'],Fail,0.3200000000000002,-0.3200000000000002,0.0,2.0,0.2
636.0,12.0,wc_12,,0.0,,,,222.0,,,,Fail,,,,,
636.0,12.0,wc_12,wc_2,1.0,"[('wc_2', 0.9600000000000007), ('wc_12', 0.4800000000000003), ('wc_5', 0.28000000000000014), ('wc_1', 0.41000000000000025), ('wc_14', 0.3200000000000002)]",0.9939916288000001,,,40.0,0.05367999999999999,['Fail'],Fail,0.9600000000000007,-0.8171428571428578,1.0,7.0,1.0
640.0,12.0,wc_12,,0.0,,,,162.0,,,,Pass,,,,,
640.0,12.0,wc_12,,0.0,,,74.0,,,,,Pass,,,,,
640.0,12.0,wc_12,,0.0,,,,0.0,,,,Pass,,,,,
640.0,12.0,wc_12,wc_12,0.0,"[('wc_12', 0.4900000000000003)]",0.4900000000000003,,,38.0,0.002297,['Pass'],Pass,0.4900000000000003,0.5099999999999997,5.0,5.0,0.3
640.0,12.0,wc_12,,0.0,,,,0.0,,,,Pass,,,,,
640.0,12.0,wc_12,wc_13,0.0,"[('wc_13', 0.9900000000000008), ('wc_12', 0.4900000000000003)]",0.9949000000000003,,,39.0,0.004574,['Pass'],Pass,0.9900000000000008,-0.7172727272727281,0.0,0.0,0.8
640.0,12.0,wc_12,,0.0,,,,301.0,,,,Pass,,,,,
640.0,12.0,wc_12,wc_9,1.0,"[('wc_9', 0.8300000000000006), ('wc_12', 0.4900000000000003), ('wc_13', 0.9900000000000008)]",0.999133,,,21.0,0.045368000000000006,['Pass'],Pass,0.8300000000000006,-0.8300000000000006,0.0,0.0,0.9
644.0,13.0,wc_13,,0.0,,,,121.0,,,,Pass,,,,,
644.0,13.0,wc_13,,0.0,,,58.0,,,,,Pass,,,,,
644.0,13.0,wc_13,,0.0,,,,0.0,,,,Pass,,,,,
644.0,13.0,wc_13,wc_13,0.0,"[('wc_13', 0.9900000000000008)]",0.9900000000000008,,,27.0,0.002381,['Pass'],Pass,0.9900000000000008,0.009999999999999232,1.0,1.0,0.8
644.0,13.0,wc_13,,0.0,,,,321.0,,,,Pass,,,,,
644.0,13.0,wc_13,wc_10,0.0,"[('wc_10', 0.7700000000000006), ('wc_13', 0.9900000000000008)]",0.9977000000000001,,,38.0,0.004373,['Pass'],Pass,0.7700000000000006,-0.4700000000000006,0.0,0.0,0.7
644.0,13.0,wc_13,,0.0,,,,382.0,,,,Pass,,,,,
644.0,13.0,wc_13,wc_5,0.0,"[('wc_13', 0.9900000000000008), ('wc_10', 0.7700000000000006)]",0.9977000000000001,,,22.0,0.006109,['Pass'],Pass,0.28000000000000014,-0.11333333333333348,1.0,6.0,0.2
644.0,13.0,wc_13,,0.0,,,,182.0,,,,Pass,,,,,
644.0,13.0,wc_13,wc_16,1.0,"[('wc_16', 0.8500000000000006), ('wc_13', 0.9900000000000008), ('wc_10', 0.7700000000000006)]",0.9996550000000001,,,29.0,0.05418899999999999,['Pass'],Pass,0.8500000000000006,-0.6000000000000006,2.0,8.0,0.8
648.0,14.0,wc_14,,0.0,,,,81.0,,,,Fail,,,,,
648.0,14.0,wc_14,,0.0,,,57.0,,,,,Fail,,,,,
648.0,14.0,wc_14,,0.0,,,,0.0,,,,Fail,,,,,
648.0,14.0,wc_14,wc_14,0.0,"[('wc_14', 0.3300000000000002)]",0.3300000000000002,,,40.0,0.002179,['Fail'],Fail,0.3300000000000002,-0.13000000000000017,1.0,5.0,0.2
648.0,14.0,wc_14,,0.0,,,,222.0,,,,Fail,,,,,
648.0,14.0,wc_14,wc_2,0.0,"[('wc_2', 0.9600000000000007), ('wc_14', 0.3300000000000002)]",0.9732000000000005,,,35.0,0.004172,['Fail'],Fail,0.9600000000000007,-0.8488888888888897,1.0,9.0,1.0
648.0,14.0,wc_14,,0.0,,,,203.0,,,,Fail,,,,,
648.0,14.0,wc_14,wc_10,0.0,"[('wc_14', 0.3300000000000002), ('wc_2', 0.9600000000000007)]",0.9732000000000005,,,40.0,0.005839,['Fail'],Fail,0.7800000000000006,0.21999999999999942,1.0,1.0,0.7
648.0,14.0,wc_14,,0.0,,,,101.0,,,,Fail,,,,,
648.0,14.0,wc_14,wc_13,1.0,"[('wc_13', 0.9900000000000008), ('wc_14', 0.3300000000000002), ('wc_2', 0.9600000000000007)]",0.9997320000000001,,,21.0,0.046863,['Fail'],Fail,0.9900000000000008,0.009999999999999232,3.0,3.0,0.8
651.0,14.0,wc_14,,0.0,,,,0.0,,,,Pass,,,,,
651.0,14.0,wc_14,,0.0,,,64.0,,,,,Pass,,,,,
651.0,14.0,wc_14,,0.0,,,,0.0,,,,Pass,,,,,
651.0,14.0,wc_14,wc_14,0.0,"[('wc_14', 0.3300000000000002)]",0.3300000000000002,,,34.0,0.002207,['Fail'],Pass,0.3300000000000002,0.0033333333333331328,2.0,6.0,0.2
651.0,14.0,wc_14,,0.0,,,,321.0,,,,Pass,,,,,
651.0,14.0,wc_14,wc_11,0.0,"[('wc_14', 0.3300000000000002)]",0.3300000000000002,,,31.0,0.004768,['Fail'],Pass,0.12000000000000001,-0.12000000000000001,0.0,0.0,0.1
651.0,14.0,wc_14,,0.0,,,,122.0,,,,Pass,,,,,
651.0,14.0,wc_14,wc_15,0.0,"[('wc_15', 0.22000000000000008), ('wc_14', 0.3300000000000002)]",0.47740000000000016,,,25.0,0.006167000000000001,['Fail'],Pass,0.22000000000000008,-0.22000000000000008,0.0,4.0,0.1
651.0,14.0,wc_14,,0.0,,,,402.0,,,,Pass,,,,,
651.0,14.0,wc_14,wc_3,0.0,"[('wc_3', 0.8400000000000006), ('wc_11', 0.12000000000000001)]",0.8592000000000005,,,34.0,0.008095999999999999,['Pass'],Pass,0.8400000000000006,-0.7223529411764712,0.0,0.0,0.9
651.0,14.0,wc_14,,0.0,,,,101.0,,,,Pass,,,,,
651.0,14.0,wc_14,wc_2,1.0,"[('wc_2', 0.9600000000000007), ('wc_11', 0.12000000000000001), ('wc_3', 0.8400000000000006)]",0.9943680000000001,,,26.0,0.053972,['Pass'],Pass,0.9700000000000008,0.02999999999999925,1.0,1.0,1.0
654.0,16.0,wc_16,,0.0,,,,243.0,,,,Fail,,,,,
654.0,16.0,wc_16,,0.0,,,56.0,,,,,Fail,,,,,
654.0,16.0,wc_16,,0.0,,,,0.0,,,,Fail,,,,,
654.0,16.0,wc_16,wc_16,0.0,"[('wc_16', 0.8500000000000006)]",0.8500000000000006,,,25.0,0.002266,['Pass'],Fail,0.8500000000000006,-0.6500000000000006,0.0,0.0,0.8
654.0,16.0,wc_16,,0.0,,,,362.0,,,,Fail,,,,,
654.0,16.0,wc_16,wc_10,0.0,"[('wc_16', 0.8500000000000006)]",0.8500000000000006,,,23.0,0.004116,['Pass'],Fail,0.7700000000000006,-0.43666666666666726,1.0,3.0,0.7
654.0,16.0,wc_16,,0.0,,,,81.0,,,,Fail,,,,,
654.0,16.0,wc_16,wc_12,0.0,"[('wc_12', 0.5000000000000003), ('wc_16', 0.8500000000000006)]",0.9250000000000004,,,39.0,0.005797999999999999,['Pass'],Fail,0.5000000000000003,0.1666666666666663,6.0,9.0,0.3
654.0,16.0,wc_16,,0.0,,,,262.0,,,,Fail,,,,,
654.0,16.0,wc_16,wc_2,0.0,"[('wc_2', 0.9700000000000008), ('wc_10', 0.7700000000000006)]",0.9931000000000002,,,20.0,0.011278000000000002,['Fail'],Fail,0.9700000000000008,0.02999999999999925,1.0,1.0,1.0
654.0,16.0,wc_16,,0.0,,,,223.0,,,,Fail,,,,,
654.0,16.0,wc_16,wc_15,0.0,"[('wc_10', 0.7700000000000006), ('wc_2', 0.9700000000000008)]",0.9931000000000002,,,28.0,0.010793,['Fail'],Fail,0.21000000000000008,-0.21000000000000008,0.0,5.0,0.1
654.0,16.0,wc_16,,0.0,,,,0.0,,,,Fail,,,,,
654.0,16.0,wc_16,wc_17,1.0,"[('wc_17', 0.6600000000000005), ('wc_10', 0.7700000000000006), ('wc_2', 0.9700000000000008)]",0.997654,,,22.0,0.05096400000000001,['Fail'],Fail,0.6600000000000005,-0.6600000000000005,0.0,0.0,0.8
655.0,16.0,wc_16,,0.0,,,,103.0,,,,Fail,,,,,
655.0,16.0,wc_16,,0.0,,,58.0,,,,,Fail,,,,,
655.0,16.0,wc_16,,0.0,,,,0.0,,,,Fail,,,,,
655.0,16.0,wc_16,wc_16,0.0,"[('wc_16', 0.8400000000000006)]",0.8400000000000006,,,38.0,0.002166,['Fail'],Fail,0.8400000000000006,-0.8400000000000006,0.0,1.0,0.8
655.0,16.0,wc_16,,0.0,,,,41.0,,,,Fail,,,,,
655.0,16.0,wc_16,wc_12,0.0,"[('wc_12', 0.5000000000000003), ('wc_16', 0.8400000000000006)]",0.9200000000000004,,,20.0,0.004675,['Fail'],Fail,0.5000000000000003,-0.5000000000000003,0.0,0.0,0.3
655.0,16.0,wc_16,,0.0,,,,222.0,,,,Fail,,,,,
655.0,16.0,wc_16,wc_8,1.0,"[('wc_8', 0.7200000000000005), ('wc_16', 0.8400000000000006), ('wc_12', 0.5000000000000003)]",0.9776000000000001,,,30.0,0.04517000000000001,['Fail'],Fail,0.7200000000000005,-0.7200000000000005,0.0,0.0,0.6
658.0,16.0,wc_16,,0.0,,,,203.0,,,,Pass,,,,,
658.0,16.0,wc_16,,0.0,,,63.0,,,,,Pass,,,,,
658.0,16.0,wc_16,,0.0,,,,0.0,,,,Pass,,,,,
658.0,16.0,wc_16,wc_16,0.0,"[('wc_16', 0.8400000000000006)]",0.8400000000000006,,,20.0,0.002346,['Pass'],Pass,0.8400000000000006,-0.34000000000000064,1.0,2.0,0.8
658.0,16.0,wc_16,,0.0,,,,362.0,,,,Pass,,,,,
658.0,16.0,wc_16,wc_10,0.0,"[('wc_16', 0.8400000000000006)]",0.8400000000000006,,,36.0,0.004399,['Pass'],Pass,0.7700000000000006,-0.37000000000000055,2.0,5.0,0.7
658.0,16.0,wc_16,,0.0,,,,243.0,,,,Pass,,,,,
658.0,16.0,wc_16,wc_2,0.0,"[('wc_2', 0.9800000000000008), ('wc_16', 0.8400000000000006)]",0.9968000000000001,,,25.0,0.007535,['Pass'],Pass,0.9800000000000008,-0.31333333333333413,2.0,3.0,1.0
658.0,16.0,wc_16,,0.0,,,,223.0,,,,Pass,,,,,
658.0,16.0,wc_16,wc_15,0.0,"[('wc_16', 0.8400000000000006), ('wc_2', 0.9800000000000008)]",0.9968000000000001,,,39.0,0.008424000000000001,['Pass'],Pass,0.20000000000000007,-0.20000000000000007,0.0,7.0,0.1
658.0,16.0,wc_16,,0.0,,,,442.0,,,,Pass,,,,,
658.0,16.0,wc_16,wc_5,0.0,"[('wc_16', 0.8400000000000006), ('wc_2', 0.9800000000000008)]",0.9968000000000001,,,28.0,0.010028,['Pass'],Pass,0.27000000000000013,-0.17909090909090922,0.0,0.0,0.2
658.0,16.0,wc_16,,0.0,,,,122.0,,,,Pass,,,,,
658.0,16.0,wc_16,wc_9,1.0,"[('wc_9', 0.8300000000000006), ('wc_16', 0.8400000000000006), ('wc_2', 0.9800000000000008)]",0.999456,,,29.0,0.064687,['Pass'],Pass,0.8300000000000006,-0.663333333333334,1.0,6.0,0.9
663.0,15.0,wc_15,,0.0,,,,162.0,,,,Pass,,,,,
663.0,15.0,wc_15,,0.0,,,64.0,,,,,Pass,,,,,
663.0,15.0,wc_15,,0.0,,,,0.0,,,,Pass,,,,,
663.0,15.0,wc_15,wc_15,0.0,"[('wc_15', 0.19000000000000006)]",0.19000000000000006,,,21.0,0.002303,['Pass'],Pass,0.19000000000000006,-0.19000000000000006,0.0,8.0,0.1
663.0,15.0,wc_15,,0.0,,,,263.0,,,,Pass,,,,,
663.0,15.0,wc_15,wc_8,0.0,"[('wc_8', 0.7200000000000005), ('wc_15', 0.19000000000000006)]",0.7732000000000004,,,30.0,0.004928,['Pass'],Pass,0.7200000000000005,-0.7200000000000005,0.0,1.0,0.6
663.0,15.0,wc_15,,0.0,,,,281.0,,,,Pass,,,,,
663.0,15.0,wc_15,wc_3,1.0,"[('wc_3', 0.8500000000000006), ('wc_15', 0.19000000000000006), ('wc_8', 0.7200000000000005)]",0.9659800000000002,,,36.0,0.044591,['Pass'],Pass,0.8500000000000006,-0.4500000000000006,2.0,5.0,0.9
666.0,17.0,wc_17,,0.0,,,,242.0,,,,Pass,,,,,
666.0,17.0,wc_17,,0.0,,,61.0,,,,,Pass,,,,,
666.0,17.0,wc_17,,0.0,,,,0.0,,,,Pass,,,,,
666.0,17.0,wc_17,wc_17,0.0,"[('wc_17', 0.6600000000000005)]",0.6600000000000005,,,20.0,0.002446,['Pass'],Pass,0.6600000000000005,-0.6600000000000005,0.0,3.0,0.8
666.0,17.0,wc_17,,0.0,,,,103.0,,,,Pass,,,,,
666.0,17.0,wc_17,wc_16,0.0,"[('wc_16', 0.8400000000000006), ('wc_17', 0.6600000000000005)]",0.9456000000000003,,,22.0,0.004716,['Pass'],Pass,0.8400000000000006,-0.34000000000000064,2.0,4.0,0.8
666.0,17.0,wc_17,,0.0,,,,342.0,,,,Pass,,,,,
666.0,17.0,wc_17,wc_9,1.0,"[('wc_9', 0.8300000000000006), ('wc_17', 0.6600000000000005), ('wc_16', 0.8400000000000006)]",0.9907520000000001,,,32.0,0.04573000000000001,['Pass'],Pass,0.8300000000000006,-0.5800000000000006,2.0,8.0,0.9
