mpecck/BCQC/bcqc_with_qdt/results/raw/input_12/independent_qc/training/20_workpiece/20200429_090307/wp_15_qc_majority_0.9.csv
production_index,step_idx,production_workcell,qc,consent,winner_qc_list,score,production_time,transport_time,inspection_time,network_time,qc_results,actual_quality,qc_score,score_error,in_winner_counter,in_qc_counter,qc_capability
58.0,1.0,wc_1,,0.0,,,76.0,,,,,Fail,,,,,
58.0,1.0,wc_1,,0.0,,,,0.0,,,,Fail,,,,,
58.0,1.0,wc_1,wc_1,0.0,"[('wc_1', 0.4400000000000003)]",0.4400000000000003,,,38.0,0.003158,['Fail'],Fail,0.4400000000000003,-0.34909090909090934,0.0,0.0,0.4
58.0,1.0,wc_1,,0.0,,,,263.0,,,,Fail,,,,,
58.0,1.0,wc_1,wc_16,0.0,"[('wc_16', 0.7500000000000006), ('wc_1', 0.4400000000000003)]",0.8600000000000003,,,26.0,0.005084,['Fail'],Fail,0.7500000000000006,-0.5500000000000005,1.0,5.0,0.8
58.0,1.0,wc_1,,0.0,,,,223.0,,,,Fail,,,,,
58.0,1.0,wc_1,wc_7,1.0,"[('wc_7', 0.3600000000000002), ('wc_1', 0.4400000000000003), ('wc_16', 0.7500000000000006)]",0.9104000000000003,,,29.0,0.03843300000000001,['Fail'],Fail,0.3700000000000002,0.6299999999999998,4.0,4.0,0.3
184.0,1.0,wc_1,,0.0,,,,182.0,,,,Fail,,,,,
184.0,1.0,wc_1,,0.0,,,63.0,,,,,Fail,,,,,
184.0,1.0,wc_1,,0.0,,,,0.0,,,,Fail,,,,,
184.0,1.0,wc_1,wc_1,0.0,"[('wc_1', 0.4500000000000003)]",0.4500000000000003,,,36.0,0.002546,['Pass'],Fail,0.4500000000000003,0.5499999999999997,1.0,1.0,0.4
184.0,1.0,wc_1,,0.0,,,,182.0,,,,Fail,,,,,
184.0,1.0,wc_1,wc_12,0.0,"[('wc_12', 0.5000000000000003)]",0.5000000000000003,,,22.0,0.004077,['Fail'],Fail,0.5000000000000003,-0.37500000000000033,1.0,8.0,0.3
184.0,1.0,wc_1,,0.0,,,,341.0,,,,Fail,,,,,
184.0,1.0,wc_1,wc_10,0.0,"[('wc_10', 0.7400000000000005), ('wc_12', 0.5000000000000003)]",0.8700000000000003,,,25.0,0.005786,['Fail'],Fail,0.7400000000000005,-0.7400000000000005,0.0,4.0,0.7
184.0,1.0,wc_1,,0.0,,,,342.0,,,,Fail,,,,,
184.0,1.0,wc_1,wc_3,1.0,"[('wc_3', 0.7900000000000006), ('wc_12', 0.5000000000000003), ('wc_10', 0.7400000000000005)]",0.9727000000000001,,,26.0,0.046572,['Fail'],Fail,0.7900000000000006,-0.7900000000000006,0.0,0.0,0.9
221.0,1.0,wc_1,,0.0,,,,81.0,,,,Fail,,,,,
221.0,1.0,wc_1,,0.0,,,53.0,,,,,Fail,,,,,
221.0,1.0,wc_1,,0.0,,,,0.0,,,,Fail,,,,,
221.0,1.0,wc_1,wc_1,0.0,"[('wc_1', 0.4500000000000003)]",0.4500000000000003,,,33.0,0.004001,['Pass'],Fail,0.4500000000000003,0.04999999999999971,1.0,2.0,0.4
221.0,1.0,wc_1,,0.0,,,,182.0,,,,Fail,,,,,
221.0,1.0,wc_1,wc_8,0.0,"[('wc_8', 0.7000000000000005)]",0.7000000000000005,,,22.0,0.013253000000000001,['Fail'],Fail,0.7000000000000005,-0.5888888888888895,0.0,0.0,0.6
221.0,1.0,wc_1,,0.0,,,,281.0,,,,Fail,,,,,
221.0,1.0,wc_1,wc_3,0.0,"[('wc_3', 0.7900000000000006), ('wc_8', 0.7000000000000005)]",0.9370000000000003,,,20.0,0.006658,['Fail'],Fail,0.7900000000000006,-0.7900000000000006,0.0,0.0,0.9
221.0,1.0,wc_1,,0.0,,,,161.0,,,,Fail,,,,,
221.0,1.0,wc_1,wc_13,1.0,"[('wc_13', 0.9600000000000007), ('wc_8', 0.7000000000000005), ('wc_3', 0.7900000000000006)]",0.99748,,,21.0,0.045041000000000005,['Fail'],Fail,0.9600000000000007,-0.7100000000000007,2.0,8.0,0.8
241.0,1.0,wc_1,,0.0,,,,222.0,,,,Pass,,,,,
241.0,1.0,wc_1,,0.0,,,75.0,,,,,Pass,,,,,
241.0,1.0,wc_1,,0.0,,,,0.0,,,,Pass,,,,,
241.0,1.0,wc_1,wc_1,0.0,"[('wc_1', 0.4400000000000003)]",0.4400000000000003,,,20.0,0.002235,['Pass'],Pass,0.4400000000000003,-0.10666666666666696,1.0,3.0,0.4
241.0,1.0,wc_1,,0.0,,,,283.0,,,,Pass,,,,,
241.0,1.0,wc_1,wc_17,0.0,"[('wc_17', 0.6500000000000005), ('wc_1', 0.4400000000000003)]",0.8040000000000004,,,24.0,0.007039999999999999,['Pass'],Pass,0.6500000000000005,-0.31666666666666715,2.0,6.0,0.8
241.0,1.0,wc_1,,0.0,,,,21.0,,,,Pass,,,,,
241.0,1.0,wc_1,wc_12,0.0,"[('wc_1', 0.4400000000000003), ('wc_17', 0.6500000000000005)]",0.8040000000000004,,,33.0,0.007911,['Pass'],Pass,0.5000000000000003,-0.3000000000000003,0.0,0.0,0.3
241.0,1.0,wc_1,,0.0,,,,0.0,,,,Pass,,,,,
241.0,1.0,wc_1,wc_14,0.0,"[('wc_14', 0.3700000000000002), ('wc_1', 0.4400000000000003), ('wc_17', 0.6500000000000005)]",0.8765200000000003,,,31.0,0.007823,['Pass'],Pass,0.3700000000000002,-0.06230769230769251,0.0,0.0,0.2
241.0,1.0,wc_1,,0.0,,,,102.0,,,,Pass,,,,,
241.0,1.0,wc_1,wc_13,1.0,"[('wc_13', 0.9600000000000007), ('wc_1', 0.4400000000000003), ('wc_17', 0.6500000000000005), ('wc_14', 0.3700000000000002)]",0.9950608000000001,,,34.0,0.045880000000000004,['Pass'],Pass,0.9600000000000007,-0.6266666666666674,3.0,9.0,0.8
251.0,3.0,wc_3,,0.0,,,,341.0,,,,Fail,,,,,
251.0,3.0,wc_3,,0.0,,,52.0,,,,,Fail,,,,,
251.0,3.0,wc_3,,0.0,,,,0.0,,,,Fail,,,,,
251.0,3.0,wc_3,wc_3,0.0,"[('wc_3', 0.8000000000000006)]",0.8000000000000006,,,33.0,0.002226,['Fail'],Fail,0.8000000000000006,-0.3000000000000006,1.0,2.0,0.9
251.0,3.0,wc_3,,0.0,,,,0.0,,,,Fail,,,,,
251.0,3.0,wc_3,wc_5,0.0,"[('wc_5', 0.3800000000000002), ('wc_3', 0.8000000000000006)]",0.8760000000000004,,,23.0,0.005796,['Fail'],Fail,0.3800000000000002,-0.3800000000000002,0.0,0.0,0.2
251.0,3.0,wc_3,,0.0,,,,141.0,,,,Fail,,,,,
251.0,3.0,wc_3,wc_14,1.0,"[('wc_14', 0.3800000000000002), ('wc_3', 0.8000000000000006), ('wc_5', 0.3800000000000002)]",0.9231200000000003,,,22.0,0.04518499999999999,['Fail'],Fail,0.39000000000000024,0.6099999999999998,2.0,2.0,0.2
283.0,2.0,wc_2,,0.0,,,,222.0,,,,Fail,,,,,
283.0,2.0,wc_2,,0.0,,,72.0,,,,,Fail,,,,,
283.0,2.0,wc_2,,0.0,,,,0.0,,,,Fail,,,,,
283.0,2.0,wc_2,wc_2,0.0,"[('wc_2', 0.9000000000000007)]",0.9000000000000007,,,25.0,0.008463,['Fail'],Fail,0.9000000000000007,-0.9000000000000007,0.0,5.0,1.0
283.0,2.0,wc_2,,0.0,,,,0.0,,,,Fail,,,,,
283.0,2.0,wc_2,wc_3,0.0,"[('wc_3', 0.8000000000000006), ('wc_2', 0.9000000000000007)]",0.9800000000000002,,,24.0,0.005545,['Fail'],Fail,0.8000000000000006,-0.13333333333333397,2.0,3.0,0.9
283.0,2.0,wc_2,,0.0,,,,242.0,,,,Fail,,,,,
283.0,2.0,wc_2,wc_17,1.0,"[('wc_17', 0.6500000000000005), ('wc_2', 0.9000000000000007), ('wc_3', 0.8000000000000006)]",0.9930000000000001,,,20.0,0.040919000000000004,['Fail'],Fail,0.6500000000000005,-0.20555555555555605,4.0,9.0,0.8
296.0,3.0,wc_3,,0.0,,,,362.0,,,,Pass,,,,,
296.0,3.0,wc_3,,0.0,,,54.0,,,,,Pass,,,,,
296.0,3.0,wc_3,,0.0,,,,0.0,,,,Pass,,,,,
296.0,3.0,wc_3,wc_3,0.0,"[('wc_3', 0.8000000000000006)]",0.8000000000000006,,,37.0,0.003328,['Pass'],Pass,0.8000000000000006,-0.0500000000000006,3.0,4.0,0.9
296.0,3.0,wc_3,,0.0,,,,222.0,,,,Pass,,,,,
296.0,3.0,wc_3,wc_16,0.0,"[('wc_16', 0.7500000000000006), ('wc_3', 0.8000000000000006)]",0.9500000000000003,,,36.0,0.004562,['Pass'],Pass,0.7500000000000006,-0.5681818181818188,0.0,0.0,0.8
296.0,3.0,wc_3,,0.0,,,,263.0,,,,Pass,,,,,
296.0,3.0,wc_3,wc_1,1.0,"[('wc_1', 0.4500000000000003), ('wc_3', 0.8000000000000006), ('wc_16', 0.7500000000000006)]",0.9725000000000001,,,31.0,0.04649199999999999,['Pass'],Pass,0.4500000000000003,-0.02142857142857174,3.0,7.0,0.4
316.0,2.0,wc_2,,0.0,,,,0.0,,,,Pass,,,,,
316.0,2.0,wc_2,,0.0,,,65.0,,,,,Pass,,,,,
316.0,2.0,wc_2,,0.0,,,,0.0,,,,Pass,,,,,
316.0,2.0,wc_2,wc_2,0.0,"[('wc_2', 0.9000000000000007)]",0.9000000000000007,,,31.0,0.002314,['Pass'],Pass,0.9000000000000007,-0.7571428571428578,1.0,7.0,1.0
316.0,2.0,wc_2,,0.0,,,,223.0,,,,Pass,,,,,
316.0,2.0,wc_2,wc_15,0.0,"[('wc_2', 0.9000000000000007)]",0.9000000000000007,,,27.0,0.0043230000000000005,['Pass'],Pass,0.30000000000000016,-0.30000000000000016,0.0,8.0,0.1
316.0,2.0,wc_2,,0.0,,,,81.0,,,,Pass,,,,,
316.0,2.0,wc_2,wc_13,0.0,"[('wc_13', 0.9600000000000007), ('wc_2', 0.9000000000000007)]",0.9960000000000001,,,34.0,0.014512,['Pass'],Pass,0.9600000000000007,-0.7100000000000007,0.0,0.0,0.8
316.0,2.0,wc_2,,0.0,,,,0.0,,,,Pass,,,,,
316.0,2.0,wc_2,wc_16,1.0,"[('wc_16', 0.7600000000000006), ('wc_2', 0.9000000000000007), ('wc_13', 0.9600000000000007)]",0.99904,,,32.0,0.04111200000000001,['Pass'],Pass,0.7700000000000006,0.22999999999999943,2.0,2.0,0.8
351.0,4.0,wc_4,,0.0,,,,402.0,,,,Fail,,,,,
351.0,4.0,wc_4,,0.0,,,78.0,,,,,Fail,,,,,
351.0,4.0,wc_4,,0.0,,,,0.0,,,,Fail,,,,,
351.0,4.0,wc_4,wc_4,0.0,"[('wc_4', 0.6900000000000005)]",0.6900000000000005,,,40.0,0.008459,['Fail'],Fail,0.6900000000000005,-0.6900000000000005,0.0,0.0,0.9
351.0,4.0,wc_4,,0.0,,,,0.0,,,,Fail,,,,,
351.0,4.0,wc_4,wc_5,0.0,"[('wc_4', 0.6900000000000005)]",0.6900000000000005,,,25.0,0.004274,['Fail'],Fail,0.39000000000000024,-0.14000000000000024,1.0,4.0,0.2
351.0,4.0,wc_4,,0.0,,,,101.0,,,,Fail,,,,,
351.0,4.0,wc_4,wc_8,0.0,"[('wc_8', 0.7100000000000005), ('wc_4', 0.6900000000000005)]",0.9101000000000004,,,40.0,0.006352,['Fail'],Fail,0.7100000000000005,-0.5433333333333339,1.0,6.0,0.6
351.0,4.0,wc_4,,0.0,,,,102.0,,,,Fail,,,,,
351.0,4.0,wc_4,wc_7,1.0,"[('wc_7', 0.3700000000000002), ('wc_4', 0.6900000000000005), ('wc_8', 0.7100000000000005)]",0.9433630000000002,,,25.0,0.042717000000000005,['Fail'],Fail,0.3800000000000002,-0.3800000000000002,0.0,0.0,0.3
361.0,4.0,wc_4,,0.0,,,,321.0,,,,Pass,,,,,
361.0,4.0,wc_4,,0.0,,,57.0,,,,,Pass,,,,,
361.0,4.0,wc_4,,0.0,,,,0.0,,,,Pass,,,,,
361.0,4.0,wc_4,wc_4,0.0,"[('wc_4', 0.7000000000000005)]",0.7000000000000005,,,34.0,0.002267,['Pass'],Pass,0.7000000000000005,0.2999999999999995,1.0,1.0,0.9
361.0,4.0,wc_4,,0.0,,,,202.0,,,,Pass,,,,,
361.0,4.0,wc_4,wc_16,0.0,"[('wc_16', 0.7700000000000006), ('wc_4', 0.7000000000000005)]",0.9310000000000003,,,29.0,0.004002,['Pass'],Pass,0.7700000000000006,-0.10333333333333394,2.0,3.0,0.8
361.0,4.0,wc_4,,0.0,,,,103.0,,,,Pass,,,,,
361.0,4.0,wc_4,wc_15,1.0,"[('wc_15', 0.29000000000000015), ('wc_4', 0.7000000000000005), ('wc_16', 0.7700000000000006)]",0.9510100000000002,,,29.0,0.038719,['Pass'],Pass,0.29000000000000015,-0.29000000000000015,0.0,0.0,0.1
380.0,5.0,wc_5,,0.0,,,,442.0,,,,Pass,,,,,
380.0,5.0,wc_5,,0.0,,,65.0,,,,,Pass,,,,,
380.0,5.0,wc_5,,0.0,,,,0.0,,,,Pass,,,,,
380.0,5.0,wc_5,wc_5,0.0,"[('wc_5', 0.3800000000000002)]",0.3800000000000002,,,35.0,0.002619,['Pass'],Pass,0.3800000000000002,-0.21333333333333357,1.0,6.0,0.2
380.0,5.0,wc_5,,0.0,,,,122.0,,,,Pass,,,,,
380.0,5.0,wc_5,wc_9,0.0,"[('wc_9', 0.7500000000000006), ('wc_5', 0.3800000000000002)]",0.8450000000000004,,,23.0,0.004456,['Pass'],Pass,0.7500000000000006,-0.7500000000000006,0.0,0.0,0.9
380.0,5.0,wc_5,,0.0,,,,263.0,,,,Pass,,,,,
380.0,5.0,wc_5,wc_2,1.0,"[('wc_2', 0.9000000000000007), ('wc_5', 0.3800000000000002), ('wc_9', 0.7500000000000006)]",0.9845000000000002,,,21.0,0.039336,['Pass'],Pass,0.9000000000000007,-0.9000000000000007,0.0,0.0,1.0
399.0,6.0,wc_6,,0.0,,,,122.0,,,,Pass,,,,,
399.0,6.0,wc_6,,0.0,,,56.0,,,,,Pass,,,,,
399.0,6.0,wc_6,,0.0,,,,0.0,,,,Pass,,,,,
399.0,6.0,wc_6,wc_6,0.0,"[('wc_6', 0.5200000000000004)]",0.5200000000000004,,,24.0,0.002356,['Pass'],Pass,0.5200000000000004,-0.5200000000000004,0.0,0.0,0.5
399.0,6.0,wc_6,,0.0,,,,0.0,,,,Pass,,,,,
399.0,6.0,wc_6,wc_9,0.0,"[('wc_9', 0.7600000000000006), ('wc_6', 0.5200000000000004)]",0.8848000000000004,,,39.0,0.005242999999999999,['Pass'],Pass,0.7600000000000006,0.23999999999999944,1.0,1.0,0.9
399.0,6.0,wc_6,,0.0,,,,101.0,,,,Pass,,,,,
399.0,6.0,wc_6,wc_8,1.0,"[('wc_8', 0.7100000000000005), ('wc_6', 0.5200000000000004), ('wc_9', 0.7600000000000006)]",0.9665920000000001,,,28.0,0.041836000000000005,['Pass'],Pass,0.7100000000000005,-0.7100000000000005,0.0,0.0,0.6
413.0,8.0,wc_8,,0.0,,,,0.0,,,,Pass,,,,,
413.0,8.0,wc_8,,0.0,,,74.0,,,,,Pass,,,,,
413.0,8.0,wc_8,,0.0,,,,0.0,,,,Pass,,,,,
413.0,8.0,wc_8,wc_8,0.0,"[('wc_8', 0.7100000000000005)]",0.7100000000000005,,,39.0,0.002402,['Pass'],Pass,0.7100000000000005,-0.7100000000000005,0.0,0.0,0.6
413.0,8.0,wc_8,,0.0,,,,0.0,,,,Pass,,,,,
413.0,8.0,wc_8,wc_9,0.0,"[('wc_9', 0.7700000000000006), ('wc_8', 0.7100000000000005)]",0.9333000000000002,,,26.0,0.004444,['Pass'],Pass,0.7700000000000006,0.22999999999999943,2.0,2.0,0.9
413.0,8.0,wc_8,,0.0,,,,182.0,,,,Pass,,,,,
413.0,8.0,wc_8,wc_16,1.0,"[('wc_16', 0.7700000000000006), ('wc_8', 0.7100000000000005), ('wc_9', 0.7700000000000006)]",0.9846590000000001,,,25.0,0.039154999999999995,['Pass'],Pass,0.7700000000000006,-0.19857142857142918,4.0,7.0,0.8
421.0,9.0,wc_9,,0.0,,,,342.0,,,,Fail,,,,,
421.0,9.0,wc_9,,0.0,,,63.0,,,,,Fail,,,,,
421.0,9.0,wc_9,,0.0,,,,0.0,,,,Fail,,,,,
421.0,9.0,wc_9,wc_9,0.0,"[('wc_9', 0.7800000000000006)]",0.7800000000000006,,,23.0,0.002425,['Fail'],Fail,0.7800000000000006,0.21999999999999942,3.0,3.0,0.9
421.0,9.0,wc_9,,0.0,,,,162.0,,,,Fail,,,,,
421.0,9.0,wc_9,wc_15,0.0,"[('wc_9', 0.7800000000000006)]",0.7800000000000006,,,31.0,0.004934,['Fail'],Fail,0.29000000000000015,-0.29000000000000015,0.0,3.0,0.1
421.0,9.0,wc_9,,0.0,,,,81.0,,,,Fail,,,,,
421.0,9.0,wc_9,wc_13,0.0,"[('wc_13', 0.9700000000000008), ('wc_9', 0.7800000000000006)]",0.9934000000000002,,,21.0,0.0060090000000000005,['Fail'],Fail,0.9700000000000008,-0.8033333333333341,1.0,6.0,0.8
421.0,9.0,wc_9,,0.0,,,,102.0,,,,Fail,,,,,
421.0,9.0,wc_9,wc_12,1.0,"[('wc_12', 0.4900000000000003), ('wc_9', 0.7800000000000006), ('wc_13', 0.9700000000000008)]",0.9966340000000001,,,20.0,0.041636,['Fail'],Fail,0.4900000000000003,-0.4900000000000003,0.0,0.0,0.3
431.0,9.0,wc_9,,0.0,,,,321.0,,,,Fail,,,,,
431.0,9.0,wc_9,,0.0,,,58.0,,,,,Fail,,,,,
431.0,9.0,wc_9,,0.0,,,,0.0,,,,Fail,,,,,
431.0,9.0,wc_9,wc_9,0.0,"[('wc_9', 0.7900000000000006)]",0.7900000000000006,,,26.0,0.002574,['Fail'],Fail,0.7900000000000006,0.2099999999999994,4.0,4.0,0.9
431.0,9.0,wc_9,,0.0,,,,0.0,,,,Fail,,,,,
431.0,9.0,wc_9,wc_11,0.0,"[('wc_9', 0.7900000000000006)]",0.7900000000000006,,,21.0,0.004671,['Fail'],Fail,0.2300000000000001,-0.17444444444444454,0.0,0.0,0.1
431.0,9.0,wc_9,,0.0,,,,61.0,,,,Fail,,,,,
431.0,9.0,wc_9,wc_12,0.0,"[('wc_12', 0.4900000000000003), ('wc_9', 0.7900000000000006)]",0.8929000000000004,,,40.0,0.0066289999999999995,['Fail'],Fail,0.4900000000000003,-0.4900000000000003,0.0,0.0,0.3
431.0,9.0,wc_9,,0.0,,,,222.0,,,,Fail,,,,,
431.0,9.0,wc_9,wc_8,0.0,"[('wc_9', 0.7900000000000006), ('wc_12', 0.4900000000000003)]",0.8929000000000004,,,21.0,0.008838,['Fail'],Fail,0.7200000000000005,-0.22000000000000053,1.0,2.0,0.6
431.0,9.0,wc_9,,0.0,,,,162.0,,,,Fail,,,,,
431.0,9.0,wc_9,wc_14,1.0,"[('wc_14', 0.39000000000000024), ('wc_9', 0.7900000000000006), ('wc_12', 0.4900000000000003)]",0.9346690000000002,,,25.0,0.047491,['Fail'],Fail,0.39000000000000024,-0.39000000000000024,0.0,0.0,0.2
441.0,11.0,wc_11,,0.0,,,,321.0,,,,Pass,,,,,
441.0,11.0,wc_11,,0.0,,,78.0,,,,,Pass,,,,,
441.0,11.0,wc_11,,0.0,,,,0.0,,,,Pass,,,,,
441.0,11.0,wc_11,wc_11,0.0,"[('wc_11', 0.22000000000000008)]",0.22000000000000008,,,26.0,0.002452,['Fail'],Pass,0.22000000000000008,-0.22000000000000008,0.0,1.0,0.1
441.0,11.0,wc_11,,0.0,,,,81.0,,,,Pass,,,,,
441.0,11.0,wc_11,wc_13,0.0,"[('wc_13', 0.9700000000000008)]",0.9700000000000008,,,33.0,0.004548,['Pass'],Pass,0.9700000000000008,-0.7200000000000008,2.0,8.0,0.8
441.0,11.0,wc_11,,0.0,,,,202.0,,,,Pass,,,,,
441.0,11.0,wc_11,wc_8,0.0,"[('wc_8', 0.7100000000000005), ('wc_13', 0.9700000000000008)]",0.9913000000000002,,,33.0,0.006339999999999999,['Pass'],Pass,0.7100000000000005,-0.3766666666666672,1.0,3.0,0.6
441.0,11.0,wc_11,,0.0,,,,301.0,,,,Pass,,,,,
441.0,11.0,wc_11,wc_4,1.0,"[('wc_4', 0.7100000000000005), ('wc_13', 0.9700000000000008), ('wc_8', 0.7100000000000005)]",0.9974770000000001,,,20.0,0.041381,['Pass'],Pass,0.7100000000000005,-0.3350000000000005,3.0,8.0,0.9
455.0,7.0,wc_7,,0.0,,,,101.0,,,,Pass,,,,,
455.0,7.0,wc_7,,0.0,,,60.0,,,,,Pass,,,,,
455.0,7.0,wc_7,,0.0,,,,0.0,,,,Pass,,,,,
455.0,7.0,wc_7,wc_7,0.0,"[('wc_7', 0.3800000000000002)]",0.3800000000000002,,,29.0,0.002557,['Pass'],Pass,0.3800000000000002,-0.3800000000000002,0.0,7.0,0.3
455.0,7.0,wc_7,,0.0,,,,0.0,,,,Pass,,,,,
455.0,7.0,wc_7,wc_8,0.0,"[('wc_8', 0.7100000000000005)]",0.7100000000000005,,,27.0,0.004267,['Fail'],Pass,0.7100000000000005,-0.21000000000000052,2.0,4.0,0.6
455.0,7.0,wc_7,,0.0,,,,321.0,,,,Pass,,,,,
455.0,7.0,wc_7,wc_5,0.0,"[('wc_5', 0.3800000000000002), ('wc_8', 0.7100000000000005)]",0.8202000000000004,,,29.0,0.006958000000000001,['Fail'],Pass,0.3800000000000002,-0.21333333333333357,0.0,0.0,0.2
455.0,7.0,wc_7,,0.0,,,,101.0,,,,Pass,,,,,
455.0,7.0,wc_7,wc_12,1.0,"[('wc_12', 0.5000000000000003), ('wc_8', 0.7100000000000005), ('wc_5', 0.3800000000000002)]",0.9101000000000002,,,40.0,0.045647,['Fail'],Pass,0.5100000000000003,0.1566666666666663,2.0,3.0,0.3
467.0,9.0,wc_9,,0.0,,,,321.0,,,,Fail,,,,,
467.0,9.0,wc_9,,0.0,,,77.0,,,,,Fail,,,,,
467.0,9.0,wc_9,,0.0,,,,0.0,,,,Fail,,,,,
467.0,9.0,wc_9,wc_9,0.0,"[('wc_9', 0.8000000000000006)]",0.8000000000000006,,,29.0,0.00243,['Fail'],Fail,0.8000000000000006,-0.0857142857142863,5.0,7.0,0.9
467.0,9.0,wc_9,,0.0,,,,81.0,,,,Fail,,,,,
467.0,9.0,wc_9,wc_7,0.0,"[('wc_9', 0.8000000000000006)]",0.8000000000000006,,,33.0,0.004137,['Fail'],Fail,0.3700000000000002,-0.3700000000000002,0.0,8.0,0.3
467.0,9.0,wc_9,,0.0,,,,223.0,,,,Fail,,,,,
467.0,9.0,wc_9,wc_16,0.0,"[('wc_16', 0.7700000000000006), ('wc_9', 0.8000000000000006)]",0.9540000000000003,,,38.0,0.006622,['Fail'],Fail,0.7700000000000006,-0.4063636363636369,0.0,0.0,0.8
467.0,9.0,wc_9,,0.0,,,,263.0,,,,Fail,,,,,
467.0,9.0,wc_9,wc_1,1.0,"[('wc_1', 0.4500000000000003), ('wc_9', 0.8000000000000006), ('wc_16', 0.7700000000000006)]",0.9747000000000001,,,29.0,0.041181999999999996,['Fail'],Fail,0.4500000000000003,-0.4500000000000003,0.0,0.0,0.4
483.0,10.0,wc_10,,0.0,,,,223.0,,,,Pass,,,,,
483.0,10.0,wc_10,,0.0,,,61.0,,,,,Pass,,,,,
483.0,10.0,wc_10,,0.0,,,,0.0,,,,Pass,,,,,
483.0,10.0,wc_10,wc_10,0.0,"[('wc_10', 0.7400000000000005)]",0.7400000000000005,,,33.0,0.002266,['Pass'],Pass,0.7400000000000005,-0.692380952380953,0.0,0.0,0.7
483.0,10.0,wc_10,,0.0,,,,142.0,,,,Pass,,,,,
483.0,10.0,wc_10,wc_15,0.0,"[('wc_15', 0.28000000000000014), ('wc_10', 0.7400000000000005)]",0.8128000000000004,,,27.0,0.00417,['Pass'],Pass,0.28000000000000014,-0.28000000000000014,0.0,8.0,0.1
483.0,10.0,wc_10,,0.0,,,,0.0,,,,Pass,,,,,
483.0,10.0,wc_10,wc_17,1.0,"[('wc_17', 0.6500000000000005), ('wc_10', 0.7400000000000005), ('wc_15', 0.28000000000000014)]",0.9344800000000002,,,37.0,0.041267,['Pass'],Pass,0.6500000000000005,-0.6500000000000005,0.0,0.0,0.8
496.0,9.0,wc_9,,0.0,,,,322.0,,,,Fail,,,,,
496.0,9.0,wc_9,,0.0,,,62.0,,,,,Fail,,,,,
496.0,9.0,wc_9,,0.0,,,,0.0,,,,Fail,,,,,
496.0,9.0,wc_9,wc_9,0.0,"[('wc_9', 0.8000000000000006)]",0.8000000000000006,,,30.0,0.002739,['Fail'],Fail,0.8000000000000006,-0.13333333333333397,6.0,9.0,0.9
496.0,9.0,wc_9,,0.0,,,,202.0,,,,Fail,,,,,
496.0,9.0,wc_9,wc_17,0.0,"[('wc_17', 0.6500000000000005), ('wc_9', 0.8000000000000006)]",0.9300000000000003,,,25.0,0.004439,['Fail'],Fail,0.6500000000000005,-0.6500000000000005,0.0,0.0,0.8
496.0,9.0,wc_9,,0.0,,,,243.0,,,,Fail,,,,,
496.0,9.0,wc_9,wc_1,1.0,"[('wc_1', 0.4500000000000003), ('wc_9', 0.8000000000000006), ('wc_17', 0.6500000000000005)]",0.9615000000000002,,,34.0,0.047619,['Fail'],Fail,0.4600000000000003,0.0399999999999997,1.0,2.0,0.4
505.0,9.0,wc_9,,0.0,,,,203.0,,,,Pass,,,,,
505.0,9.0,wc_9,,0.0,,,72.0,,,,,Pass,,,,,
505.0,9.0,wc_9,,0.0,,,,0.0,,,,Pass,,,,,
505.0,9.0,wc_9,wc_9,0.0,"[('wc_9', 0.8000000000000006)]",0.8000000000000006,,,38.0,0.003277,['Pass'],Pass,0.8000000000000006,-0.8000000000000006,0.0,0.0,0.9
505.0,9.0,wc_9,,0.0,,,,162.0,,,,Pass,,,,,
505.0,9.0,wc_9,wc_15,0.0,"[('wc_9', 0.8000000000000006)]",0.8000000000000006,,,30.0,0.005204,['Pass'],Pass,0.28000000000000014,-0.18000000000000013,0.0,0.0,0.1
505.0,9.0,wc_9,,0.0,,,,61.0,,,,Pass,,,,,
505.0,9.0,wc_9,wc_12,0.0,"[('wc_9', 0.8000000000000006)]",0.8000000000000006,,,20.0,0.006169999999999999,['Pass'],Pass,0.5100000000000003,-0.17666666666666703,2.0,6.0,0.3
505.0,9.0,wc_9,,0.0,,,,242.0,,,,Pass,,,,,
505.0,9.0,wc_9,wc_1,0.0,"[('wc_1', 0.4600000000000003), ('wc_9', 0.8000000000000006)]",0.8920000000000003,,,35.0,0.008993,['Pass'],Pass,0.4600000000000003,0.0399999999999997,1.0,2.0,0.4
505.0,9.0,wc_9,,0.0,,,,243.0,,,,Pass,,,,,
505.0,9.0,wc_9,wc_11,0.0,"[('wc_9', 0.8000000000000006), ('wc_1', 0.4600000000000003)]",0.8920000000000003,,,28.0,0.011336,['Pass'],Pass,0.21000000000000008,-0.21000000000000008,0.0,6.0,0.1
505.0,9.0,wc_9,,0.0,,,,81.0,,,,Pass,,,,,
505.0,9.0,wc_9,wc_13,1.0,"[('wc_13', 0.9700000000000008), ('wc_9', 0.8000000000000006), ('wc_1', 0.4600000000000003)]",0.9967600000000001,,,29.0,0.045028000000000006,['Pass'],Pass,0.9700000000000008,-0.9700000000000008,0.0,0.0,0.8
516.0,12.0,wc_12,,0.0,,,,102.0,,,,Fail,,,,,
516.0,12.0,wc_12,,0.0,,,54.0,,,,,Fail,,,,,
516.0,12.0,wc_12,,0.0,,,,0.0,,,,Fail,,,,,
516.0,12.0,wc_12,wc_12,0.0,"[('wc_12', 0.5000000000000003)]",0.5000000000000003,,,25.0,0.002928,['Fail'],Fail,0.5000000000000003,-0.21428571428571463,2.0,7.0,0.3
516.0,12.0,wc_12,,0.0,,,,0.0,,,,Fail,,,,,
516.0,12.0,wc_12,wc_15,0.0,"[('wc_15', 0.27000000000000013), ('wc_12', 0.5000000000000003)]",0.6350000000000002,,,40.0,0.003955,['Fail'],Fail,0.27000000000000013,-0.27000000000000013,0.0,1.0,0.1
516.0,12.0,wc_12,,0.0,,,,422.0,,,,Fail,,,,,
516.0,12.0,wc_12,wc_4,0.0,"[('wc_4', 0.7100000000000005), ('wc_12', 0.5000000000000003), ('wc_15', 0.27000000000000013)]",0.8941500000000002,,,31.0,0.01108,['Fail'],Fail,0.7100000000000005,-0.47923076923076974,0.0,0.0,0.9
516.0,12.0,wc_12,,0.0,,,,142.0,,,,Fail,,,,,
516.0,12.0,wc_12,wc_9,1.0,"[('wc_9', 0.8100000000000006), ('wc_12', 0.5000000000000003), ('wc_15', 0.27000000000000013), ('wc_4', 0.7100000000000005)]",0.9798885000000002,,,36.0,0.04296199999999999,['Fail'],Fail,0.8200000000000006,0.17999999999999938,2.0,2.0,0.9
539.0,12.0,wc_12,,0.0,,,,101.0,,,,Pass,,,,,
539.0,12.0,wc_12,,0.0,,,55.0,,,,,Pass,,,,,
539.0,12.0,wc_12,,0.0,,,,0.0,,,,Pass,,,,,
539.0,12.0,wc_12,wc_12,0.0,"[('wc_12', 0.5000000000000003)]",0.5000000000000003,,,34.0,0.001928,['Fail'],Pass,0.5000000000000003,-0.12500000000000033,3.0,8.0,0.3
539.0,12.0,wc_12,,0.0,,,,0.0,,,,Pass,,,,,
539.0,12.0,wc_12,wc_14,0.0,"[('wc_14', 0.39000000000000024), ('wc_12', 0.5000000000000003)]",0.6950000000000003,,,39.0,0.00419,['Fail'],Pass,0.39000000000000024,-0.39000000000000024,0.0,7.0,0.2
539.0,12.0,wc_12,,0.0,,,,361.0,,,,Pass,,,,,
539.0,12.0,wc_12,wc_5,0.0,"[('wc_5', 0.39000000000000024), ('wc_12', 0.5000000000000003), ('wc_14', 0.39000000000000024)]",0.8139500000000003,,,32.0,0.007245,['Fail'],Pass,0.39000000000000024,-0.22333333333333358,1.0,6.0,0.2
539.0,12.0,wc_12,,0.0,,,,81.0,,,,Pass,,,,,
539.0,12.0,wc_12,wc_7,0.0,"[('wc_12', 0.5000000000000003), ('wc_14', 0.39000000000000024), ('wc_5', 0.39000000000000024)]",0.8139500000000003,,,20.0,0.010551000000000001,['Fail'],Pass,0.3600000000000002,-0.3600000000000002,0.0,0.0,0.3
539.0,12.0,wc_12,,0.0,,,,243.0,,,,Pass,,,,,
539.0,12.0,wc_12,wc_17,0.0,"[('wc_12', 0.5000000000000003), ('wc_14', 0.39000000000000024), ('wc_5', 0.39000000000000024)]",0.8139500000000003,,,36.0,0.010043999999999999,['Fail'],Pass,0.6600000000000005,-0.32666666666666716,1.0,3.0,0.8
539.0,12.0,wc_12,,0.0,,,,183.0,,,,Pass,,,,,
539.0,12.0,wc_12,wc_6,0.0,"[('wc_6', 0.5300000000000004), ('wc_7', 0.3600000000000002), ('wc_17', 0.6600000000000005)]",0.8977280000000003,,,29.0,0.012237000000000001,['Pass'],Pass,0.5300000000000004,-0.4390909090909094,0.0,0.0,0.5
539.0,12.0,wc_12,,0.0,,,,341.0,,,,Pass,,,,,
539.0,12.0,wc_12,wc_4,1.0,"[('wc_4', 0.7200000000000005), ('wc_7', 0.3600000000000002), ('wc_17', 0.6600000000000005), ('wc_6', 0.5300000000000004)]",0.9713638400000001,,,38.0,0.057305,['Pass'],Pass,0.7300000000000005,0.26999999999999946,2.0,2.0,0.9
547.0,13.0,wc_13,,0.0,,,,141.0,,,,Fail,,,,,
547.0,13.0,wc_13,,0.0,,,63.0,,,,,Fail,,,,,
547.0,13.0,wc_13,,0.0,,,,0.0,,,,Fail,,,,,
547.0,13.0,wc_13,wc_13,0.0,"[('wc_13', 0.9700000000000008)]",0.9700000000000008,,,29.0,0.00235,['Pass'],Fail,0.9700000000000008,-0.9700000000000008,0.0,2.0,0.8
547.0,13.0,wc_13,,0.0,,,,381.0,,,,Fail,,,,,
547.0,13.0,wc_13,wc_5,0.0,"[('wc_13', 0.9700000000000008)]",0.9700000000000008,,,21.0,0.004035,['Pass'],Fail,0.3800000000000002,-0.23714285714285738,1.0,7.0,0.2
547.0,13.0,wc_13,,0.0,,,,61.0,,,,Fail,,,,,
547.0,13.0,wc_13,wc_2,0.0,"[('wc_13', 0.9700000000000008)]",0.9700000000000008,,,40.0,0.006163,['Pass'],Fail,0.9000000000000007,-0.9000000000000007,0.0,0.0,1.0
547.0,13.0,wc_13,,0.0,,,,0.0,,,,Fail,,,,,
547.0,13.0,wc_13,wc_4,1.0,"[('wc_4', 0.7300000000000005), ('wc_5', 0.3800000000000002), ('wc_2', 0.9000000000000007)]",0.9832600000000001,,,33.0,0.04122,['Fail'],Fail,0.7400000000000005,0.25999999999999945,3.0,3.0,0.9
559.0,13.0,wc_13,,0.0,,,,141.0,,,,Pass,,,,,
559.0,13.0,wc_13,,0.0,,,51.0,,,,,Pass,,,,,
559.0,13.0,wc_13,,0.0,,,,0.0,,,,Pass,,,,,
559.0,13.0,wc_13,wc_13,0.0,"[('wc_13', 0.9600000000000007)]",0.9600000000000007,,,40.0,0.00243,['Pass'],Pass,0.9600000000000007,-0.9600000000000007,0.0,3.0,0.8
559.0,13.0,wc_13,,0.0,,,,222.0,,,,Pass,,,,,
559.0,13.0,wc_13,wc_1,0.0,"[('wc_13', 0.9600000000000007)]",0.9600000000000007,,,35.0,0.004144999999999999,['Pass'],Pass,0.4700000000000003,-0.136666666666667,2.0,6.0,0.4
559.0,13.0,wc_13,,0.0,,,,142.0,,,,Pass,,,,,
559.0,13.0,wc_13,wc_6,0.0,"[('wc_6', 0.5400000000000004), ('wc_13', 0.9600000000000007)]",0.9816000000000004,,,23.0,0.007038,['Pass'],Pass,0.5400000000000004,-0.04000000000000037,1.0,2.0,0.5
559.0,13.0,wc_13,,0.0,,,,0.0,,,,Pass,,,,,
559.0,13.0,wc_13,wc_7,1.0,"[('wc_7', 0.3700000000000002), ('wc_13', 0.9600000000000007), ('wc_6', 0.5400000000000004)]",0.9884080000000002,,,29.0,0.044956,['Pass'],Pass,0.3800000000000002,0.2866666666666664,2.0,3.0,0.3
566.0,15.0,wc_15,,0.0,,,,203.0,,,,Fail,,,,,
566.0,15.0,wc_15,,0.0,,,80.0,,,,,Fail,,,,,
566.0,15.0,wc_15,,0.0,,,,0.0,,,,Fail,,,,,
566.0,15.0,wc_15,wc_15,0.0,"[('wc_15', 0.28000000000000014)]",0.28000000000000014,,,26.0,0.002427,['Pass'],Fail,0.28000000000000014,-0.08000000000000013,1.0,5.0,0.1
566.0,15.0,wc_15,,0.0,,,,402.0,,,,Fail,,,,,
566.0,15.0,wc_15,wc_11,0.0,"[('wc_11', 0.20000000000000007), ('wc_15', 0.28000000000000014)]",0.42400000000000015,,,26.0,0.0043749999999999995,['Pass'],Fail,0.20000000000000007,-0.20000000000000007,0.0,0.0,0.1
566.0,15.0,wc_15,,0.0,,,,362.0,,,,Fail,,,,,
566.0,15.0,wc_15,wc_5,0.0,"[('wc_15', 0.28000000000000014), ('wc_11', 0.20000000000000007)]",0.42400000000000015,,,27.0,0.006425999999999999,['Pass'],Fail,0.3800000000000002,-0.15777777777777802,2.0,9.0,0.2
566.0,15.0,wc_15,,0.0,,,,61.0,,,,Fail,,,,,
566.0,15.0,wc_15,wc_6,0.0,"[('wc_6', 0.5500000000000004), ('wc_5', 0.3800000000000002)]",0.7210000000000003,,,20.0,0.007925,['Fail'],Fail,0.5500000000000004,0.11666666666666625,2.0,3.0,0.5
566.0,15.0,wc_15,,0.0,,,,243.0,,,,Fail,,,,,
566.0,15.0,wc_15,wc_16,1.0,"[('wc_16', 0.7800000000000006), ('wc_5', 0.3800000000000002), ('wc_6', 0.5500000000000004)]",0.9386200000000002,,,27.0,0.044943000000000004,['Fail'],Fail,0.7800000000000006,-0.5577777777777784,2.0,9.0,0.8
571.0,15.0,wc_15,,0.0,,,,103.0,,,,Fail,,,,,
571.0,15.0,wc_15,,0.0,,,73.0,,,,,Fail,,,,,
571.0,15.0,wc_15,,0.0,,,,0.0,,,,Fail,,,,,
571.0,15.0,wc_15,wc_15,0.0,"[('wc_15', 0.27000000000000013)]",0.27000000000000013,,,23.0,0.002636,['Fail'],Fail,0.27000000000000013,-0.10333333333333347,1.0,6.0,0.1
571.0,15.0,wc_15,,0.0,,,,402.0,,,,Fail,,,,,
571.0,15.0,wc_15,wc_11,0.0,"[('wc_15', 0.27000000000000013)]",0.27000000000000013,,,25.0,0.0047150000000000004,['Fail'],Fail,0.19000000000000006,-0.19000000000000006,0.0,1.0,0.1
571.0,15.0,wc_15,,0.0,,,,103.0,,,,Fail,,,,,
571.0,15.0,wc_15,wc_10,0.0,"[('wc_10', 0.7500000000000006), ('wc_15', 0.27000000000000013)]",0.8175000000000004,,,31.0,0.00681,['Fail'],Fail,0.7500000000000006,-0.6250000000000006,1.0,8.0,0.7
571.0,15.0,wc_15,,0.0,,,,81.0,,,,Fail,,,,,
571.0,15.0,wc_15,wc_12,1.0,"[('wc_12', 0.4900000000000003), ('wc_15', 0.27000000000000013), ('wc_10', 0.7500000000000006)]",0.9069250000000003,,,24.0,0.050113,['Fail'],Fail,0.4900000000000003,-0.4900000000000003,0.0,0.0,0.3
577.0,16.0,wc_16,,0.0,,,,0.0,,,,Fail,,,,,
577.0,16.0,wc_16,,0.0,,,77.0,,,,,Fail,,,,,
577.0,16.0,wc_16,,0.0,,,,0.0,,,,Fail,,,,,
577.0,16.0,wc_16,wc_16,0.0,"[('wc_16', 0.7800000000000006)]",0.7800000000000006,,,24.0,0.002487,['Fail'],Fail,0.7800000000000006,-0.5800000000000005,0.0,0.0,0.8
577.0,16.0,wc_16,,0.0,,,,61.0,,,,Fail,,,,,
577.0,16.0,wc_16,wc_13,0.0,"[('wc_13', 0.9600000000000007)]",0.9600000000000007,,,21.0,0.004226000000000001,['Pass'],Fail,0.9600000000000007,-0.7933333333333341,1.0,6.0,0.8
577.0,16.0,wc_16,,0.0,,,,182.0,,,,Fail,,,,,
577.0,16.0,wc_16,wc_7,0.0,"[('wc_7', 0.3800000000000002), ('wc_13', 0.9600000000000007)]",0.9752000000000005,,,30.0,0.006599,['Pass'],Fail,0.3800000000000002,0.019999999999999796,2.0,5.0,0.3
577.0,16.0,wc_16,,0.0,,,,301.0,,,,Fail,,,,,
577.0,16.0,wc_16,wc_3,0.0,"[('wc_13', 0.9600000000000007), ('wc_7', 0.3800000000000002)]",0.9752000000000005,,,38.0,0.012999000000000002,['Pass'],Fail,0.8000000000000006,-0.6400000000000006,0.0,0.0,0.9
577.0,16.0,wc_16,,0.0,,,,162.0,,,,Fail,,,,,
577.0,16.0,wc_16,wc_9,1.0,"[('wc_9', 0.8200000000000006), ('wc_16', 0.7800000000000006), ('wc_3', 0.8000000000000006)]",0.9920800000000001,,,32.0,0.04926899999999999,['Fail'],Fail,0.8200000000000006,-0.4450000000000006,3.0,8.0,0.9
581.0,16.0,wc_16,,0.0,,,,182.0,,,,Pass,,,,,
581.0,16.0,wc_16,,0.0,,,57.0,,,,,Pass,,,,,
581.0,16.0,wc_16,,0.0,,,,0.0,,,,Pass,,,,,
581.0,16.0,wc_16,wc_16,0.0,"[('wc_16', 0.7900000000000006)]",0.7900000000000006,,,29.0,0.002624,['Pass'],Pass,0.7900000000000006,0.2099999999999994,1.0,1.0,0.8
581.0,16.0,wc_16,,0.0,,,,0.0,,,,Pass,,,,,
581.0,16.0,wc_16,wc_17,0.0,"[('wc_17', 0.6600000000000005), ('wc_16', 0.7900000000000006)]",0.9286000000000003,,,21.0,0.004977,['Pass'],Pass,0.6600000000000005,-0.43777777777777827,2.0,9.0,0.8
581.0,16.0,wc_16,,0.0,,,,382.0,,,,Pass,,,,,
581.0,16.0,wc_16,wc_4,1.0,"[('wc_4', 0.7400000000000005), ('wc_16', 0.7900000000000006), ('wc_17', 0.6600000000000005)]",0.9814360000000001,,,35.0,0.042374999999999996,['Pass'],Pass,0.7400000000000005,-0.24000000000000055,4.0,8.0,0.9
588.0,14.0,wc_14,,0.0,,,,161.0,,,,Pass,,,,,
588.0,14.0,wc_14,,0.0,,,56.0,,,,,Pass,,,,,
588.0,14.0,wc_14,,0.0,,,,0.0,,,,Pass,,,,,
588.0,14.0,wc_14,wc_14,0.0,"[('wc_14', 0.3800000000000002)]",0.3800000000000002,,,34.0,0.002791,['Pass'],Pass,0.3800000000000002,-0.3800000000000002,0.0,0.0,0.2
588.0,14.0,wc_14,,0.0,,,,361.0,,,,Pass,,,,,
588.0,14.0,wc_14,wc_5,0.0,"[('wc_5', 0.3800000000000002)]",0.3800000000000002,,,37.0,0.004048,['Fail'],Pass,0.3800000000000002,-0.3800000000000002,0.0,3.0,0.2
588.0,14.0,wc_14,,0.0,,,,121.0,,,,Pass,,,,,
588.0,14.0,wc_14,wc_13,0.0,"[('wc_13', 0.9500000000000007), ('wc_14', 0.3800000000000002)]",0.9690000000000004,,,21.0,0.005865,['Pass'],Pass,0.9500000000000007,-0.8250000000000007,1.0,8.0,0.8
588.0,14.0,wc_14,,0.0,,,,202.0,,,,Pass,,,,,
588.0,14.0,wc_14,wc_8,1.0,"[('wc_8', 0.7100000000000005), ('wc_14', 0.3800000000000002), ('wc_13', 0.9500000000000007)]",0.9910100000000002,,,21.0,0.043627000000000006,['Pass'],Pass,0.7100000000000005,-0.7100000000000005,0.0,0.0,0.6
601.0,15.0,wc_15,,0.0,,,,183.0,,,,Fail,,,,,
601.0,15.0,wc_15,,0.0,,,80.0,,,,,Fail,,,,,
601.0,15.0,wc_15,,0.0,,,,0.0,,,,Fail,,,,,
601.0,15.0,wc_15,wc_15,0.0,"[('wc_15', 0.28000000000000014)]",0.28000000000000014,,,20.0,0.00228,['Fail'],Fail,0.28000000000000014,-0.08000000000000013,0.0,0.0,0.1
601.0,15.0,wc_15,,0.0,,,,243.0,,,,Fail,,,,,
601.0,15.0,wc_15,wc_7,0.0,"[('wc_7', 0.3700000000000002), ('wc_15', 0.28000000000000014)]",0.5464000000000002,,,25.0,0.004613000000000001,['Fail'],Fail,0.3700000000000002,-0.12000000000000022,2.0,8.0,0.3
601.0,15.0,wc_15,,0.0,,,,0.0,,,,Fail,,,,,
601.0,15.0,wc_15,wc_9,1.0,"[('wc_9', 0.8200000000000006), ('wc_15', 0.28000000000000014), ('wc_7', 0.3700000000000002)]",0.9183520000000003,,,38.0,0.04118199999999999,['Fail'],Fail,0.8200000000000006,-0.8200000000000006,0.0,0.0,0.9
615.0,15.0,wc_15,,0.0,,,,162.0,,,,Pass,,,,,
615.0,15.0,wc_15,,0.0,,,75.0,,,,,Pass,,,,,
615.0,15.0,wc_15,,0.0,,,,0.0,,,,Pass,,,,,
615.0,15.0,wc_15,wc_15,0.0,"[('wc_15', 0.29000000000000015)]",0.29000000000000015,,,40.0,0.002579,['Fail'],Pass,0.29000000000000015,0.7099999999999999,1.0,1.0,0.1
615.0,15.0,wc_15,,0.0,,,,61.0,,,,Pass,,,,,
615.0,15.0,wc_15,wc_12,0.0,"[('wc_12', 0.4900000000000003), ('wc_15', 0.29000000000000015)]",0.6379000000000004,,,25.0,0.004103,['Fail'],Pass,0.4900000000000003,-0.4900000000000003,0.0,4.0,0.3
615.0,15.0,wc_15,,0.0,,,,0.0,,,,Pass,,,,,
615.0,15.0,wc_15,wc_13,0.0,"[('wc_13', 0.9500000000000007)]",0.9500000000000007,,,29.0,0.008951,['Pass'],Pass,0.9500000000000007,-0.7500000000000007,0.0,0.0,0.8
615.0,15.0,wc_15,,0.0,,,,0.0,,,,Pass,,,,,
615.0,15.0,wc_15,wc_14,0.0,"[('wc_13', 0.9500000000000007)]",0.9500000000000007,,,37.0,0.0076359999999999996,['Pass'],Pass,0.39000000000000024,0.10999999999999976,1.0,2.0,0.2
615.0,15.0,wc_15,,0.0,,,,182.0,,,,Pass,,,,,
615.0,15.0,wc_15,wc_8,0.0,"[('wc_8', 0.7100000000000005), ('wc_13', 0.9500000000000007)]",0.9855000000000003,,,37.0,0.009579999999999998,['Pass'],Pass,0.7100000000000005,-0.7100000000000005,0.0,1.0,0.6
615.0,15.0,wc_15,,0.0,,,,82.0,,,,Pass,,,,,
615.0,15.0,wc_15,wc_6,1.0,"[('wc_6', 0.5600000000000004), ('wc_13', 0.9500000000000007), ('wc_8', 0.7100000000000005)]",0.9936200000000001,,,36.0,0.056146,['Pass'],Pass,0.5600000000000004,-0.5600000000000004,0.0,0.0,0.5
620.0,17.0,wc_17,,0.0,,,,263.0,,,,Pass,,,,,
620.0,17.0,wc_17,,0.0,,,59.0,,,,,Pass,,,,,
620.0,17.0,wc_17,,0.0,,,,0.0,,,,Pass,,,,,
620.0,17.0,wc_17,wc_17,0.0,"[('wc_17', 0.6600000000000005)]",0.6600000000000005,,,21.0,0.002336,['Pass'],Pass,0.6600000000000005,-0.6600000000000005,0.0,3.0,0.8
620.0,17.0,wc_17,,0.0,,,,83.0,,,,Pass,,,,,
620.0,17.0,wc_17,wc_15,0.0,"[('wc_17', 0.6600000000000005)]",0.6600000000000005,,,36.0,0.004166,['Pass'],Pass,0.29000000000000015,0.20999999999999985,1.0,2.0,0.1
620.0,17.0,wc_17,,0.0,,,,362.0,,,,Pass,,,,,
620.0,17.0,wc_17,wc_9,0.0,"[('wc_9', 0.8200000000000006), ('wc_17', 0.6600000000000005)]",0.9388000000000003,,,29.0,0.006108,['Pass'],Pass,0.8200000000000006,-0.8200000000000006,0.0,1.0,0.9
620.0,17.0,wc_17,,0.0,,,,0.0,,,,Pass,,,,,
620.0,17.0,wc_17,wc_10,1.0,"[('wc_10', 0.7500000000000006), ('wc_17', 0.6600000000000005), ('wc_9', 0.8200000000000006)]",0.9847000000000001,,,31.0,0.044912,['Pass'],Pass,0.7500000000000006,-0.7500000000000006,0.0,0.0,0.7
