mpecck/BCQC/bcqc_with_qdt/results/raw/input_12/independent_qc/training/20_workpiece/20200429_090307/wp_3_qc_majority_0.9.csv
production_index,step_idx,production_workcell,qc,consent,winner_qc_list,score,production_time,transport_time,inspection_time,network_time,qc_results,actual_quality,qc_score,score_error,in_winner_counter,in_qc_counter,qc_capability
5.0,1.0,wc_1,,0.0,,,69.0,,,,,Fail,,,,,
5.0,1.0,wc_1,,0.0,,,,0.0,,,,Fail,,,,,
5.0,1.0,wc_1,wc_1,0.0,"[('wc_1', 0.3800000000000002)]",0.3800000000000002,,,40.0,0.002613,['Fail'],Fail,0.3800000000000002,-0.04666666666666691,1.0,3.0,0.4
5.0,1.0,wc_1,,0.0,,,,0.0,,,,Fail,,,,,
5.0,1.0,wc_1,wc_3,0.0,"[('wc_3', 0.5000000000000003), ('wc_1', 0.3800000000000002)]",0.6900000000000004,,,35.0,0.004239,['Fail'],Fail,0.5000000000000003,-0.5000000000000003,0.0,1.0,0.9
5.0,1.0,wc_1,,0.0,,,,0.0,,,,Fail,,,,,
5.0,1.0,wc_1,wc_4,0.0,"[('wc_4', 0.42000000000000026), ('wc_1', 0.3800000000000002), ('wc_3', 0.5000000000000003)]",0.8202000000000003,,,38.0,0.006512,['Fail'],Fail,0.42000000000000026,-0.17000000000000026,1.0,4.0,0.9
5.0,1.0,wc_1,,0.0,,,,182.0,,,,Fail,,,,,
5.0,1.0,wc_1,wc_11,0.0,"[('wc_11', 0.20000000000000007), ('wc_1', 0.3800000000000002), ('wc_3', 0.5000000000000003), ('wc_4', 0.42000000000000026)]",0.8561600000000003,,,33.0,0.008002,['Fail'],Fail,0.20000000000000007,-0.20000000000000007,0.0,7.0,0.1
5.0,1.0,wc_1,,0.0,,,,81.0,,,,Fail,,,,,
5.0,1.0,wc_1,wc_13,1.0,"[('wc_13', 0.3800000000000002), ('wc_1', 0.3800000000000002), ('wc_3', 0.5000000000000003), ('wc_4', 0.42000000000000026), ('wc_11', 0.20000000000000007)]",0.9108192000000002,,,25.0,0.043981000000000006,['Fail'],Fail,0.3800000000000002,-0.13000000000000023,1.0,4.0,0.8
104.0,1.0,wc_1,,0.0,,,,222.0,,,,Pass,,,,,
104.0,1.0,wc_1,,0.0,,,78.0,,,,,Pass,,,,,
104.0,1.0,wc_1,,0.0,,,,0.0,,,,Pass,,,,,
104.0,1.0,wc_1,wc_1,0.0,"[('wc_1', 0.39000000000000024)]",0.39000000000000024,,,37.0,0.002997,['Pass'],Pass,0.39000000000000024,0.10999999999999976,2.0,4.0,0.4
104.0,1.0,wc_1,,0.0,,,,243.0,,,,Pass,,,,,
104.0,1.0,wc_1,wc_11,0.0,"[('wc_1', 0.39000000000000024)]",0.39000000000000024,,,24.0,0.006277,['Pass'],Pass,0.20000000000000007,-0.07500000000000007,1.0,8.0,0.1
104.0,1.0,wc_1,,0.0,,,,223.0,,,,Pass,,,,,
104.0,1.0,wc_1,wc_2,0.0,"[('wc_2', 0.5400000000000004), ('wc_1', 0.39000000000000024)]",0.7194000000000003,,,39.0,0.007129,['Pass'],Pass,0.5400000000000004,-0.04000000000000037,3.0,6.0,1.0
104.0,1.0,wc_1,,0.0,,,,122.0,,,,Pass,,,,,
104.0,1.0,wc_1,wc_6,0.0,"[('wc_6', 0.3400000000000002), ('wc_1', 0.39000000000000024), ('wc_2', 0.5400000000000004)]",0.8148040000000003,,,37.0,0.009836000000000001,['Pass'],Pass,0.3400000000000002,-0.3400000000000002,0.0,3.0,0.5
104.0,1.0,wc_1,,0.0,,,,0.0,,,,Pass,,,,,
104.0,1.0,wc_1,wc_9,0.0,"[('wc_1', 0.39000000000000024), ('wc_2', 0.5400000000000004), ('wc_6', 0.3400000000000002)]",0.8148040000000003,,,39.0,0.009754,['Pass'],Pass,0.5000000000000003,-0.16666666666666702,3.0,9.0,0.9
104.0,1.0,wc_1,,0.0,,,,0.0,,,,Pass,,,,,
104.0,1.0,wc_1,wc_10,1.0,"[('wc_10', 0.5000000000000003), ('wc_1', 0.39000000000000024), ('wc_2', 0.5400000000000004), ('wc_6', 0.3400000000000002)]",0.9074020000000003,,,30.0,0.047796000000000005,['Pass'],Pass,0.5100000000000003,0.11499999999999966,5.0,8.0,0.7
120.0,3.0,wc_3,,0.0,,,,342.0,,,,Fail,,,,,
120.0,3.0,wc_3,,0.0,,,74.0,,,,,Fail,,,,,
120.0,3.0,wc_3,,0.0,,,,0.0,,,,Fail,,,,,
120.0,3.0,wc_3,wc_3,0.0,"[('wc_3', 0.5000000000000003)]",0.5000000000000003,,,36.0,0.002372,['Fail'],Fail,0.5000000000000003,-0.16666666666666702,1.0,3.0,0.9
120.0,3.0,wc_3,,0.0,,,,141.0,,,,Fail,,,,,
120.0,3.0,wc_3,wc_12,0.0,"[('wc_12', 0.40000000000000024), ('wc_3', 0.5000000000000003)]",0.7000000000000004,,,32.0,0.005992,['Fail'],Fail,0.40000000000000024,-0.20000000000000023,0.0,0.0,0.3
120.0,3.0,wc_3,,0.0,,,,182.0,,,,Fail,,,,,
120.0,3.0,wc_3,wc_6,0.0,"[('wc_6', 0.3400000000000002), ('wc_3', 0.5000000000000003), ('wc_12', 0.40000000000000024)]",0.8020000000000003,,,26.0,0.006124999999999999,['Fail'],Fail,0.3400000000000002,-0.09000000000000019,1.0,4.0,0.5
120.0,3.0,wc_3,,0.0,,,,222.0,,,,Fail,,,,,
120.0,3.0,wc_3,wc_2,1.0,"[('wc_2', 0.5500000000000004), ('wc_3', 0.5000000000000003), ('wc_12', 0.40000000000000024), ('wc_6', 0.3400000000000002)]",0.9109000000000002,,,21.0,0.04009,['Fail'],Fail,0.5600000000000004,0.06499999999999961,5.0,8.0,1.0
131.0,4.0,wc_4,,0.0,,,,0.0,,,,Pass,,,,,
131.0,4.0,wc_4,,0.0,,,60.0,,,,,Pass,,,,,
131.0,4.0,wc_4,,0.0,,,,0.0,,,,Pass,,,,,
131.0,4.0,wc_4,wc_4,0.0,"[('wc_4', 0.42000000000000026)]",0.42000000000000026,,,25.0,0.00229,['Pass'],Pass,0.42000000000000026,-0.13428571428571456,2.0,7.0,0.9
131.0,4.0,wc_4,,0.0,,,,121.0,,,,Pass,,,,,
131.0,4.0,wc_4,wc_8,0.0,"[('wc_8', 0.4900000000000003), ('wc_4', 0.42000000000000026)]",0.7042000000000004,,,23.0,0.005734,['Pass'],Pass,0.4900000000000003,-0.3650000000000003,1.0,8.0,0.6
131.0,4.0,wc_4,,0.0,,,,122.0,,,,Pass,,,,,
131.0,4.0,wc_4,wc_12,0.0,"[('wc_12', 0.41000000000000025), ('wc_4', 0.42000000000000026), ('wc_8', 0.4900000000000003)]",0.8254780000000003,,,37.0,0.010222,['Pass'],Pass,0.41000000000000025,0.5899999999999997,1.0,1.0,0.3
131.0,4.0,wc_4,,0.0,,,,182.0,,,,Pass,,,,,
131.0,4.0,wc_4,wc_6,0.0,"[('wc_6', 0.3500000000000002), ('wc_4', 0.42000000000000026), ('wc_8', 0.4900000000000003), ('wc_12', 0.41000000000000025)]",0.8865607000000002,,,37.0,0.007374,['Pass'],Pass,0.3500000000000002,0.04999999999999982,2.0,5.0,0.5
131.0,4.0,wc_4,,0.0,,,,222.0,,,,Pass,,,,,
131.0,4.0,wc_4,wc_2,1.0,"[('wc_2', 0.5600000000000004), ('wc_4', 0.42000000000000026), ('wc_8', 0.4900000000000003), ('wc_12', 0.41000000000000025), ('wc_6', 0.3500000000000002)]",0.9500867080000002,,,36.0,0.044668,['Pass'],Pass,0.5700000000000004,0.09666666666666623,6.0,9.0,1.0
154.0,3.0,wc_3,,0.0,,,,0.0,,,,Fail,,,,,
154.0,3.0,wc_3,,0.0,,,68.0,,,,,Fail,,,,,
154.0,3.0,wc_3,,0.0,,,,0.0,,,,Fail,,,,,
154.0,3.0,wc_3,wc_3,0.0,"[('wc_3', 0.5000000000000003)]",0.5000000000000003,,,21.0,0.003561,['Fail'],Fail,0.5000000000000003,-0.10000000000000031,2.0,5.0,0.9
154.0,3.0,wc_3,,0.0,,,,101.0,,,,Fail,,,,,
154.0,3.0,wc_3,wc_2,0.0,"[('wc_2', 0.5700000000000004), ('wc_3', 0.5000000000000003)]",0.7850000000000004,,,23.0,0.0053430000000000005,['Fail'],Fail,0.5700000000000004,0.09666666666666623,6.0,9.0,1.0
154.0,3.0,wc_3,,0.0,,,,122.0,,,,Fail,,,,,
154.0,3.0,wc_3,wc_6,0.0,"[('wc_6', 0.3600000000000002), ('wc_3', 0.5000000000000003), ('wc_2', 0.5700000000000004)]",0.8624000000000003,,,31.0,0.006222,['Fail'],Fail,0.3600000000000002,0.1399999999999998,3.0,6.0,0.5
154.0,3.0,wc_3,,0.0,,,,0.0,,,,Fail,,,,,
154.0,3.0,wc_3,wc_11,0.0,"[('wc_3', 0.5000000000000003), ('wc_2', 0.5700000000000004), ('wc_6', 0.3600000000000002)]",0.8624000000000003,,,21.0,0.008423,['Fail'],Fail,0.19000000000000006,-0.09909090909090915,0.0,0.0,0.1
154.0,3.0,wc_3,,0.0,,,,41.0,,,,Fail,,,,,
154.0,3.0,wc_3,wc_7,1.0,"[('wc_7', 0.3200000000000002), ('wc_3', 0.5000000000000003), ('wc_2', 0.5700000000000004), ('wc_6', 0.3600000000000002)]",0.9064320000000002,,,31.0,0.041712000000000006,['Fail'],Fail,0.3200000000000002,-0.3200000000000002,0.0,0.0,0.3
178.0,2.0,wc_2,,0.0,,,,202.0,,,,Fail,,,,,
178.0,2.0,wc_2,,0.0,,,80.0,,,,,Fail,,,,,
178.0,2.0,wc_2,,0.0,,,,0.0,,,,Fail,,,,,
178.0,2.0,wc_2,wc_2,0.0,"[('wc_2', 0.5800000000000004)]",0.5800000000000004,,,26.0,0.002286,['Fail'],Fail,0.5800000000000004,-0.5800000000000004,0.0,0.0,1.0
178.0,2.0,wc_2,,0.0,,,,182.0,,,,Fail,,,,,
178.0,2.0,wc_2,wc_13,0.0,"[('wc_13', 0.3800000000000002), ('wc_2', 0.5800000000000004)]",0.7396000000000004,,,26.0,0.007074,['Fail'],Fail,0.3800000000000002,-0.2550000000000002,1.0,8.0,0.8
178.0,2.0,wc_2,,0.0,,,,222.0,,,,Fail,,,,,
178.0,2.0,wc_2,wc_1,0.0,"[('wc_2', 0.5800000000000004), ('wc_13', 0.3800000000000002)]",0.7396000000000004,,,38.0,0.008539999999999999,['Fail'],Fail,0.40000000000000024,-0.025000000000000244,3.0,8.0,0.4
178.0,2.0,wc_2,,0.0,,,,243.0,,,,Fail,,,,,
178.0,2.0,wc_2,wc_15,0.0,"[('wc_15', 0.29000000000000015), ('wc_2', 0.5800000000000004), ('wc_13', 0.3800000000000002)]",0.8151160000000003,,,25.0,0.008173999999999999,['Fail'],Fail,0.29000000000000015,-0.01727272727272744,0.0,0.0,0.1
178.0,2.0,wc_2,,0.0,,,,442.0,,,,Fail,,,,,
178.0,2.0,wc_2,wc_5,0.0,"[('wc_5', 0.3400000000000002), ('wc_2', 0.5800000000000004), ('wc_13', 0.3800000000000002), ('wc_15', 0.29000000000000015)]",0.8779765600000002,,,20.0,0.010332000000000001,['Fail'],Fail,0.3400000000000002,-0.17333333333333353,0.0,0.0,0.2
178.0,2.0,wc_2,,0.0,,,,83.0,,,,Fail,,,,,
178.0,2.0,wc_2,wc_3,1.0,"[('wc_3', 0.5000000000000003), ('wc_2', 0.5800000000000004), ('wc_13', 0.3800000000000002), ('wc_15', 0.29000000000000015), ('wc_5', 0.3400000000000002)]",0.9389882800000001,,,20.0,0.044851999999999996,['Fail'],Fail,0.5100000000000003,0.061428571428571055,4.0,7.0,0.9
199.0,2.0,wc_2,,0.0,,,,101.0,,,,Fail,,,,,
199.0,2.0,wc_2,,0.0,,,70.0,,,,,Fail,,,,,
199.0,2.0,wc_2,,0.0,,,,0.0,,,,Fail,,,,,
199.0,2.0,wc_2,wc_2,0.0,"[('wc_2', 0.5900000000000004)]",0.5900000000000004,,,21.0,0.002427,['Fail'],Fail,0.5900000000000004,0.4099999999999996,1.0,1.0,1.0
199.0,2.0,wc_2,,0.0,,,,243.0,,,,Fail,,,,,
199.0,2.0,wc_2,wc_16,0.0,"[('wc_16', 0.43000000000000027), ('wc_2', 0.5900000000000004)]",0.7663000000000003,,,28.0,0.004568,['Fail'],Fail,0.43000000000000027,-0.30500000000000027,1.0,8.0,0.8
199.0,2.0,wc_2,,0.0,,,,81.0,,,,Fail,,,,,
199.0,2.0,wc_2,wc_14,0.0,"[('wc_2', 0.5900000000000004), ('wc_16', 0.43000000000000027)]",0.7663000000000003,,,20.0,0.006287,['Fail'],Fail,0.2600000000000001,-0.029230769230769338,0.0,0.0,0.2
199.0,2.0,wc_2,,0.0,,,,361.0,,,,Fail,,,,,
199.0,2.0,wc_2,wc_5,0.0,"[('wc_2', 0.5900000000000004), ('wc_16', 0.43000000000000027)]",0.7663000000000003,,,39.0,0.007876999999999999,['Fail'],Fail,0.3500000000000002,0.6499999999999998,1.0,1.0,0.2
199.0,2.0,wc_2,,0.0,,,,61.0,,,,Fail,,,,,
199.0,2.0,wc_2,wc_6,0.0,"[('wc_6', 0.3700000000000002), ('wc_2', 0.5900000000000004), ('wc_16', 0.43000000000000027)]",0.8527690000000003,,,24.0,0.011425999999999999,['Fail'],Fail,0.3700000000000002,0.12999999999999978,4.0,8.0,0.5
199.0,2.0,wc_2,,0.0,,,,321.0,,,,Fail,,,,,
199.0,2.0,wc_2,wc_3,1.0,"[('wc_3', 0.5100000000000003), ('wc_2', 0.5900000000000004), ('wc_16', 0.43000000000000027), ('wc_6', 0.3700000000000002)]",0.9278568100000002,,,21.0,0.043173,['Fail'],Fail,0.5200000000000004,0.10499999999999965,5.0,8.0,0.9
238.0,2.0,wc_2,,0.0,,,,101.0,,,,Fail,,,,,
238.0,2.0,wc_2,,0.0,,,65.0,,,,,Fail,,,,,
238.0,2.0,wc_2,,0.0,,,,0.0,,,,Fail,,,,,
238.0,2.0,wc_2,wc_2,0.0,"[('wc_2', 0.6000000000000004)]",0.6000000000000004,,,37.0,0.002257,['Fail'],Fail,0.6000000000000004,0.3999999999999996,2.0,2.0,1.0
238.0,2.0,wc_2,,0.0,,,,203.0,,,,Fail,,,,,
238.0,2.0,wc_2,wc_10,0.0,"[('wc_2', 0.6000000000000004)]",0.6000000000000004,,,28.0,0.004346,['Fail'],Fail,0.5100000000000003,-0.1253846153846157,0.0,0.0,0.7
238.0,2.0,wc_2,,0.0,,,,382.0,,,,Fail,,,,,
238.0,2.0,wc_2,wc_5,0.0,"[('wc_5', 0.3500000000000002), ('wc_10', 0.5100000000000003)]",0.6815000000000003,,,31.0,0.007955,['Pass'],Fail,0.3500000000000002,0.1499999999999998,1.0,2.0,0.2
238.0,2.0,wc_2,,0.0,,,,81.0,,,,Fail,,,,,
238.0,2.0,wc_2,wc_7,0.0,"[('wc_7', 0.3200000000000002), ('wc_10', 0.5100000000000003), ('wc_5', 0.3500000000000002)]",0.7834200000000002,,,28.0,0.009083,['Pass'],Fail,0.3200000000000002,-0.3200000000000002,0.0,2.0,0.3
238.0,2.0,wc_2,,0.0,,,,142.0,,,,Fail,,,,,
238.0,2.0,wc_2,wc_12,0.0,"[('wc_12', 0.42000000000000026), ('wc_10', 0.5100000000000003), ('wc_5', 0.3500000000000002), ('wc_7', 0.3200000000000002)]",0.8743836000000003,,,23.0,0.009438000000000002,['Pass'],Fail,0.42000000000000026,-0.02000000000000024,2.0,5.0,0.3
238.0,2.0,wc_2,,0.0,,,,361.0,,,,Fail,,,,,
238.0,2.0,wc_2,wc_3,0.0,"[('wc_10', 0.5100000000000003), ('wc_5', 0.3500000000000002), ('wc_7', 0.3200000000000002), ('wc_12', 0.42000000000000026)]",0.8743836000000003,,,20.0,0.011094999999999999,['Pass'],Fail,0.5200000000000004,0.10499999999999965,5.0,8.0,0.9
238.0,2.0,wc_2,,0.0,,,,222.0,,,,Fail,,,,,
238.0,2.0,wc_2,wc_16,0.0,"[('wc_16', 0.43000000000000027), ('wc_2', 0.6000000000000004), ('wc_3', 0.5200000000000004)]",0.8905600000000002,,,32.0,0.015101999999999999,['Fail'],Fail,0.43000000000000027,-0.20777777777777806,2.0,9.0,0.8
238.0,2.0,wc_2,,0.0,,,,0.0,,,,Fail,,,,,
238.0,2.0,wc_2,wc_17,1.0,"[('wc_17', 0.39000000000000024), ('wc_2', 0.6000000000000004), ('wc_3', 0.5200000000000004), ('wc_16', 0.43000000000000027)]",0.9332416000000001,,,20.0,0.045764,['Fail'],Fail,0.39000000000000024,-0.39000000000000024,0.0,0.0,0.8
262.0,3.0,wc_3,,0.0,,,,362.0,,,,Pass,,,,,
262.0,3.0,wc_3,,0.0,,,61.0,,,,,Pass,,,,,
262.0,3.0,wc_3,,0.0,,,,0.0,,,,Pass,,,,,
262.0,3.0,wc_3,wc_3,0.0,"[('wc_3', 0.5300000000000004)]",0.5300000000000004,,,36.0,0.002312,['Fail'],Pass,0.5300000000000004,0.13666666666666627,6.0,9.0,0.9
262.0,3.0,wc_3,,0.0,,,,141.0,,,,Pass,,,,,
262.0,3.0,wc_3,wc_12,0.0,"[('wc_12', 0.41000000000000025), ('wc_3', 0.5300000000000004)]",0.7227000000000003,,,21.0,0.005001,['Fail'],Pass,0.41000000000000025,-0.07666666666666694,2.0,6.0,0.3
262.0,3.0,wc_3,,0.0,,,,0.0,,,,Pass,,,,,
262.0,3.0,wc_3,wc_15,0.0,"[('wc_15', 0.30000000000000016), ('wc_3', 0.5300000000000004), ('wc_12', 0.41000000000000025)]",0.8058900000000002,,,35.0,0.007681,['Fail'],Pass,0.30000000000000016,0.03333333333333316,1.0,3.0,0.1
262.0,3.0,wc_3,,0.0,,,,243.0,,,,Pass,,,,,
262.0,3.0,wc_3,wc_7,0.0,"[('wc_3', 0.5300000000000004), ('wc_12', 0.41000000000000025), ('wc_15', 0.30000000000000016)]",0.8058900000000002,,,23.0,0.008028,['Fail'],Pass,0.31000000000000016,-0.31000000000000016,0.0,3.0,0.3
262.0,3.0,wc_3,,0.0,,,,182.0,,,,Pass,,,,,
262.0,3.0,wc_3,wc_14,0.0,"[('wc_3', 0.5300000000000004), ('wc_12', 0.41000000000000025), ('wc_15', 0.30000000000000016)]",0.8058900000000002,,,32.0,0.015519,['Fail'],Pass,0.2500000000000001,-0.2500000000000001,0.0,2.0,0.2
262.0,3.0,wc_3,,0.0,,,,301.0,,,,Pass,,,,,
262.0,3.0,wc_3,wc_10,0.0,"[('wc_3', 0.5300000000000004), ('wc_12', 0.41000000000000025), ('wc_15', 0.30000000000000016)]",0.8058900000000002,,,40.0,0.011585,['Fail'],Pass,0.5000000000000003,-0.5000000000000003,0.0,1.0,0.7
262.0,3.0,wc_3,,0.0,,,,382.0,,,,Pass,,,,,
262.0,3.0,wc_3,wc_5,0.0,"[('wc_5', 0.3400000000000002), ('wc_3', 0.5300000000000004), ('wc_12', 0.41000000000000025), ('wc_15', 0.30000000000000016)]",0.8718874000000002,,,37.0,0.015005000000000003,['Fail'],Pass,0.3400000000000002,-0.006666666666666876,1.0,3.0,0.2
262.0,3.0,wc_3,,0.0,,,,41.0,,,,Pass,,,,,
262.0,3.0,wc_3,wc_1,0.0,"[('wc_3', 0.5300000000000004), ('wc_12', 0.41000000000000025), ('wc_15', 0.30000000000000016), ('wc_5', 0.3400000000000002)]",0.8718874000000002,,,25.0,0.019152,['Fail'],Pass,0.39000000000000024,-0.11727272727272753,0.0,0.0,0.4
262.0,3.0,wc_3,,0.0,,,,182.0,,,,Pass,,,,,
262.0,3.0,wc_3,wc_8,1.0,"[('wc_8', 0.4900000000000003), ('wc_7', 0.31000000000000016), ('wc_14', 0.2500000000000001), ('wc_10', 0.5000000000000003), ('wc_1', 0.39000000000000024)]",0.9195028750000002,,,22.0,0.05238899999999999,['Pass'],Pass,0.4900000000000003,-0.4900000000000003,0.0,0.0,0.6
294.0,2.0,wc_2,,0.0,,,,182.0,,,,Pass,,,,,
294.0,2.0,wc_2,,0.0,,,63.0,,,,,Pass,,,,,
294.0,2.0,wc_2,,0.0,,,,0.0,,,,Pass,,,,,
294.0,2.0,wc_2,wc_2,0.0,"[('wc_2', 0.6100000000000004)]",0.6100000000000004,,,26.0,0.002223,['Pass'],Pass,0.6100000000000004,0.13999999999999957,3.0,4.0,1.0
294.0,2.0,wc_2,,0.0,,,,142.0,,,,Pass,,,,,
294.0,2.0,wc_2,wc_7,0.0,"[('wc_2', 0.6100000000000004)]",0.6100000000000004,,,37.0,0.004052999999999999,['Pass'],Pass,0.31000000000000016,-0.060000000000000164,1.0,4.0,0.3
294.0,2.0,wc_2,,0.0,,,,0.0,,,,Pass,,,,,
294.0,2.0,wc_2,wc_11,0.0,"[('wc_11', 0.18000000000000005), ('wc_2', 0.6100000000000004)]",0.6802000000000004,,,32.0,0.006683,['Pass'],Pass,0.18000000000000005,-0.18000000000000005,0.0,5.0,0.1
294.0,2.0,wc_2,,0.0,,,,21.0,,,,Pass,,,,,
294.0,2.0,wc_2,wc_6,0.0,"[('wc_6', 0.3800000000000002), ('wc_2', 0.6100000000000004), ('wc_11', 0.18000000000000005)]",0.8017240000000003,,,22.0,0.008301000000000001,['Pass'],Pass,0.3800000000000002,0.0745454545454543,0.0,0.0,0.5
294.0,2.0,wc_2,,0.0,,,,243.0,,,,Pass,,,,,
294.0,2.0,wc_2,wc_16,0.0,"[('wc_16', 0.43000000000000027), ('wc_2', 0.6100000000000004), ('wc_11', 0.18000000000000005), ('wc_6', 0.3800000000000002)]",0.8869826800000002,,,23.0,0.017834,['Pass'],Pass,0.43000000000000027,-0.43000000000000027,0.0,1.0,0.8
294.0,2.0,wc_2,,0.0,,,,41.0,,,,Pass,,,,,
294.0,2.0,wc_2,wc_12,1.0,"[('wc_12', 0.40000000000000024), ('wc_2', 0.6100000000000004), ('wc_11', 0.18000000000000005), ('wc_6', 0.3800000000000002), ('wc_16', 0.43000000000000027)]",0.9321896080000002,,,22.0,0.049149,['Pass'],Pass,0.40000000000000024,-0.025000000000000244,3.0,8.0,0.3
309.0,5.0,wc_5,,0.0,,,,401.0,,,,Pass,,,,,
309.0,5.0,wc_5,,0.0,,,57.0,,,,,Pass,,,,,
309.0,5.0,wc_5,,0.0,,,,0.0,,,,Pass,,,,,
309.0,5.0,wc_5,wc_5,0.0,"[('wc_5', 0.3300000000000002)]",0.3300000000000002,,,23.0,0.002398,['Fail'],Pass,0.3300000000000002,-0.13000000000000017,1.0,5.0,0.2
309.0,5.0,wc_5,,0.0,,,,162.0,,,,Pass,,,,,
309.0,5.0,wc_5,wc_11,0.0,"[('wc_5', 0.3300000000000002)]",0.3300000000000002,,,26.0,0.006468,['Fail'],Pass,0.18000000000000005,-0.013333333333333391,1.0,6.0,0.1
309.0,5.0,wc_5,,0.0,,,,162.0,,,,Pass,,,,,
309.0,5.0,wc_5,wc_17,0.0,"[('wc_17', 0.39000000000000024), ('wc_5', 0.3300000000000002)]",0.5913000000000003,,,32.0,0.016575,['Fail'],Pass,0.39000000000000024,-0.39000000000000024,0.0,2.0,0.8
309.0,5.0,wc_5,,0.0,,,,322.0,,,,Pass,,,,,
309.0,5.0,wc_5,wc_9,0.0,"[('wc_5', 0.3300000000000002), ('wc_17', 0.39000000000000024)]",0.5913000000000003,,,38.0,0.009873999999999999,['Fail'],Pass,0.4900000000000003,-0.4900000000000003,0.0,8.0,0.9
309.0,5.0,wc_5,,0.0,,,,243.0,,,,Pass,,,,,
309.0,5.0,wc_5,wc_1,0.0,"[('wc_1', 0.40000000000000024), ('wc_5', 0.3300000000000002), ('wc_17', 0.39000000000000024)]",0.7547800000000002,,,25.0,0.011791,['Fail'],Pass,0.40000000000000024,0.09999999999999976,1.0,2.0,0.4
309.0,5.0,wc_5,,0.0,,,,182.0,,,,Pass,,,,,
309.0,5.0,wc_5,wc_12,0.0,"[('wc_12', 0.40000000000000024), ('wc_5', 0.3300000000000002), ('wc_17', 0.39000000000000024), ('wc_1', 0.40000000000000024)]",0.8528680000000002,,,30.0,0.013127000000000002,['Fail'],Pass,0.40000000000000024,-0.025000000000000244,3.0,8.0,0.3
309.0,5.0,wc_5,,0.0,,,,381.0,,,,Pass,,,,,
309.0,5.0,wc_5,wc_4,0.0,"[('wc_5', 0.3300000000000002), ('wc_17', 0.39000000000000024), ('wc_1', 0.40000000000000024), ('wc_12', 0.40000000000000024)]",0.8528680000000002,,,34.0,0.013798999999999999,['Fail'],Pass,0.42000000000000026,-0.205714285714286,0.0,0.0,0.9
309.0,5.0,wc_5,,0.0,,,,101.0,,,,Pass,,,,,
309.0,5.0,wc_5,wc_7,0.0,"[('wc_5', 0.3300000000000002), ('wc_17', 0.39000000000000024), ('wc_1', 0.40000000000000024), ('wc_12', 0.40000000000000024)]",0.8528680000000002,,,40.0,0.014631,['Fail'],Pass,0.30000000000000016,-0.10000000000000014,1.0,5.0,0.3
309.0,5.0,wc_5,,0.0,,,,102.0,,,,Pass,,,,,
309.0,5.0,wc_5,wc_6,1.0,"[('wc_6', 0.39000000000000024), ('wc_5', 0.3300000000000002), ('wc_17', 0.39000000000000024), ('wc_1', 0.40000000000000024), ('wc_12', 0.40000000000000024)]",0.9102494800000002,,,22.0,0.05383900000000001,['Fail'],Pass,0.40000000000000024,0.5999999999999998,2.0,2.0,0.5
322.0,6.0,wc_6,,0.0,,,,0.0,,,,Fail,,,,,
322.0,6.0,wc_6,,0.0,,,79.0,,,,,Fail,,,,,
322.0,6.0,wc_6,,0.0,,,,0.0,,,,Fail,,,,,
322.0,6.0,wc_6,wc_6,0.0,"[('wc_6', 0.40000000000000024)]",0.40000000000000024,,,21.0,0.00231,['Fail'],Fail,0.40000000000000024,0.5999999999999998,2.0,2.0,0.5
322.0,6.0,wc_6,,0.0,,,,243.0,,,,Fail,,,,,
322.0,6.0,wc_6,wc_16,0.0,"[('wc_16', 0.4400000000000003), ('wc_6', 0.40000000000000024)]",0.6640000000000004,,,32.0,0.003928,['Fail'],Fail,0.4400000000000003,-0.10666666666666696,1.0,3.0,0.8
322.0,6.0,wc_6,,0.0,,,,81.0,,,,Fail,,,,,
322.0,6.0,wc_6,wc_14,0.0,"[('wc_14', 0.2600000000000001), ('wc_6', 0.40000000000000024), ('wc_16', 0.4400000000000003)]",0.7513600000000002,,,36.0,0.006973999999999999,['Fail'],Fail,0.2600000000000001,-0.06000000000000011,1.0,5.0,0.2
322.0,6.0,wc_6,,0.0,,,,82.0,,,,Fail,,,,,
322.0,6.0,wc_6,wc_12,0.0,"[('wc_12', 0.41000000000000025), ('wc_6', 0.40000000000000024), ('wc_16', 0.4400000000000003), ('wc_14', 0.2600000000000001)]",0.8533024000000002,,,25.0,0.015811000000000002,['Fail'],Fail,0.41000000000000025,0.03444444444444417,4.0,9.0,0.3
322.0,6.0,wc_6,,0.0,,,,361.0,,,,Fail,,,,,
322.0,6.0,wc_6,wc_3,1.0,"[('wc_3', 0.5300000000000004), ('wc_6', 0.40000000000000024), ('wc_16', 0.4400000000000003), ('wc_14', 0.2600000000000001), ('wc_12', 0.41000000000000025)]",0.9310521280000001,,,33.0,0.04769400000000001,['Fail'],Fail,0.5300000000000004,-0.19666666666666704,1.0,3.0,0.9
335.0,6.0,wc_6,,0.0,,,,101.0,,,,Pass,,,,,
335.0,6.0,wc_6,,0.0,,,68.0,,,,,Pass,,,,,
335.0,6.0,wc_6,,0.0,,,,0.0,,,,Pass,,,,,
335.0,6.0,wc_6,wc_6,0.0,"[('wc_6', 0.41000000000000025)]",0.41000000000000025,,,31.0,0.002594,['Fail'],Pass,0.41000000000000025,0.5899999999999997,3.0,3.0,0.5
335.0,6.0,wc_6,,0.0,,,,182.0,,,,Pass,,,,,
335.0,6.0,wc_6,wc_13,0.0,"[('wc_6', 0.41000000000000025)]",0.41000000000000025,,,30.0,0.004894,['Fail'],Pass,0.3800000000000002,-0.2466666666666669,0.0,0.0,0.8
335.0,6.0,wc_6,,0.0,,,,0.0,,,,Pass,,,,,
335.0,6.0,wc_6,wc_17,0.0,"[('wc_17', 0.39000000000000024), ('wc_13', 0.3800000000000002)]",0.6218000000000004,,,30.0,0.006354,['Pass'],Pass,0.39000000000000024,-0.14000000000000024,1.0,4.0,0.8
335.0,6.0,wc_6,,0.0,,,,21.0,,,,Pass,,,,,
335.0,6.0,wc_6,wc_12,0.0,"[('wc_12', 0.42000000000000026), ('wc_6', 0.41000000000000025)]",0.6578000000000004,,,27.0,0.008506,['Fail'],Pass,0.42000000000000026,-0.42000000000000026,0.0,0.0,0.3
335.0,6.0,wc_6,,0.0,,,,0.0,,,,Pass,,,,,
335.0,6.0,wc_6,wc_16,0.0,"[('wc_16', 0.4500000000000003), ('wc_13', 0.3800000000000002), ('wc_17', 0.39000000000000024)]",0.7919900000000003,,,35.0,0.011215999999999999,['Pass'],Pass,0.4500000000000003,0.04999999999999971,2.0,4.0,0.8
335.0,6.0,wc_6,,0.0,,,,362.0,,,,Pass,,,,,
335.0,6.0,wc_6,wc_10,0.0,"[('wc_10', 0.5000000000000003), ('wc_13', 0.3800000000000002), ('wc_17', 0.39000000000000024), ('wc_16', 0.4500000000000003)]",0.8959950000000002,,,32.0,0.017646000000000002,['Pass'],Pass,0.5000000000000003,-0.3000000000000003,1.0,5.0,0.7
335.0,6.0,wc_6,,0.0,,,,61.0,,,,Pass,,,,,
335.0,6.0,wc_6,wc_7,0.0,"[('wc_13', 0.3800000000000002), ('wc_17', 0.39000000000000024), ('wc_16', 0.4500000000000003), ('wc_10', 0.5000000000000003)]",0.8959950000000002,,,24.0,0.021253,['Pass'],Pass,0.29000000000000015,-0.1471428571428573,1.0,7.0,0.3
335.0,6.0,wc_6,,0.0,,,,0.0,,,,Pass,,,,,
335.0,6.0,wc_6,wc_9,1.0,"[('wc_9', 0.4800000000000003), ('wc_13', 0.3800000000000002), ('wc_17', 0.39000000000000024), ('wc_16', 0.4500000000000003), ('wc_10', 0.5000000000000003)]",0.9459174000000001,,,29.0,0.054035999999999994,['Pass'],Pass,0.4800000000000003,-0.4800000000000003,0.0,0.0,0.9
346.0,11.0,wc_11,,0.0,,,,0.0,,,,Pass,,,,,
346.0,11.0,wc_11,,0.0,,,57.0,,,,,Pass,,,,,
346.0,11.0,wc_11,,0.0,,,,0.0,,,,Pass,,,,,
346.0,11.0,wc_11,wc_11,0.0,"[('wc_11', 0.17000000000000004)]",0.17000000000000004,,,24.0,0.00244,['Fail'],Pass,0.17000000000000004,-0.058888888888888935,1.0,9.0,0.1
346.0,11.0,wc_11,,0.0,,,,322.0,,,,Pass,,,,,
346.0,11.0,wc_11,wc_3,0.0,"[('wc_3', 0.5300000000000004), ('wc_11', 0.17000000000000004)]",0.6099000000000003,,,34.0,0.005124999999999999,['Fail'],Pass,0.5300000000000004,-0.28000000000000036,1.0,4.0,0.9
346.0,11.0,wc_11,,0.0,,,,141.0,,,,Pass,,,,,
346.0,11.0,wc_11,wc_12,0.0,"[('wc_12', 0.41000000000000025), ('wc_11', 0.17000000000000004), ('wc_3', 0.5300000000000004)]",0.7698410000000003,,,21.0,0.006012,['Fail'],Pass,0.41000000000000025,-0.41000000000000025,0.0,1.0,0.3
346.0,11.0,wc_11,,0.0,,,,202.0,,,,Pass,,,,,
346.0,11.0,wc_11,wc_7,0.0,"[('wc_11', 0.17000000000000004), ('wc_3', 0.5300000000000004), ('wc_12', 0.41000000000000025)]",0.7698410000000003,,,27.0,0.008387,['Fail'],Pass,0.28000000000000014,-0.15500000000000014,1.0,8.0,0.3
346.0,11.0,wc_11,,0.0,,,,162.0,,,,Pass,,,,,
346.0,11.0,wc_11,wc_13,0.0,"[('wc_11', 0.17000000000000004), ('wc_3', 0.5300000000000004), ('wc_12', 0.41000000000000025)]",0.7698410000000003,,,20.0,0.011318,['Fail'],Pass,0.39000000000000024,0.6099999999999998,1.0,1.0,0.8
346.0,11.0,wc_11,,0.0,,,,0.0,,,,Pass,,,,,
346.0,11.0,wc_11,wc_15,0.0,"[('wc_15', 0.29000000000000015), ('wc_11', 0.17000000000000004), ('wc_3', 0.5300000000000004), ('wc_12', 0.41000000000000025)]",0.8365871100000002,,,20.0,0.012368999999999998,['Fail'],Pass,0.29000000000000015,-0.16500000000000015,1.0,8.0,0.1
346.0,11.0,wc_11,,0.0,,,,303.0,,,,Pass,,,,,
346.0,11.0,wc_11,wc_2,0.0,"[('wc_11', 0.17000000000000004), ('wc_3', 0.5300000000000004), ('wc_12', 0.41000000000000025), ('wc_15', 0.29000000000000015)]",0.8365871100000002,,,36.0,0.017933,['Fail'],Pass,0.6200000000000004,-0.12000000000000044,4.0,8.0,1.0
346.0,11.0,wc_11,,0.0,,,,0.0,,,,Pass,,,,,
346.0,11.0,wc_11,wc_5,0.0,"[('wc_5', 0.3300000000000002), ('wc_11', 0.17000000000000004), ('wc_3', 0.5300000000000004), ('wc_12', 0.41000000000000025), ('wc_15', 0.29000000000000015)]",0.8905133637000002,,,23.0,0.01748,['Fail'],Pass,0.3300000000000002,-0.08000000000000018,2.0,8.0,0.2
346.0,11.0,wc_11,,0.0,,,,61.0,,,,Pass,,,,,
346.0,11.0,wc_11,wc_6,1.0,"[('wc_6', 0.41000000000000025), ('wc_7', 0.28000000000000014), ('wc_13', 0.39000000000000024), ('wc_2', 0.6200000000000004)]",0.9015313600000002,,,24.0,0.048107,['Pass'],Pass,0.42000000000000026,0.3799999999999998,4.0,5.0,0.5
360.0,7.0,wc_7,,0.0,,,,0.0,,,,Pass,,,,,
360.0,7.0,wc_7,,0.0,,,66.0,,,,,Pass,,,,,
360.0,7.0,wc_7,,0.0,,,,0.0,,,,Pass,,,,,
360.0,7.0,wc_7,wc_7,0.0,"[('wc_7', 0.28000000000000014)]",0.28000000000000014,,,29.0,0.002751,['Pass'],Pass,0.28000000000000014,-0.05777777777777793,2.0,9.0,0.3
360.0,7.0,wc_7,,0.0,,,,0.0,,,,Pass,,,,,
360.0,7.0,wc_7,wc_9,0.0,"[('wc_9', 0.4800000000000003), ('wc_7', 0.28000000000000014)]",0.6256000000000004,,,26.0,0.004183,['Pass'],Pass,0.4800000000000003,-0.4800000000000003,0.0,1.0,0.9
360.0,7.0,wc_7,,0.0,,,,202.0,,,,Pass,,,,,
360.0,7.0,wc_7,wc_17,0.0,"[('wc_17', 0.39000000000000024), ('wc_7', 0.28000000000000014), ('wc_9', 0.4800000000000003)]",0.7716160000000003,,,33.0,0.0059429999999999995,['Pass'],Pass,0.39000000000000024,-0.05666666666666692,2.0,6.0,0.8
360.0,7.0,wc_7,,0.0,,,,103.0,,,,Pass,,,,,
360.0,7.0,wc_7,wc_16,0.0,"[('wc_16', 0.4600000000000003), ('wc_7', 0.28000000000000014), ('wc_9', 0.4800000000000003), ('wc_17', 0.39000000000000024)]",0.8766726400000002,,,26.0,0.013871,['Pass'],Pass,0.4600000000000003,0.0399999999999997,3.0,6.0,0.8
360.0,7.0,wc_7,,0.0,,,,382.0,,,,Pass,,,,,
360.0,7.0,wc_7,wc_11,0.0,"[('wc_7', 0.28000000000000014), ('wc_9', 0.4800000000000003), ('wc_17', 0.39000000000000024), ('wc_16', 0.4600000000000003)]",0.8766726400000002,,,39.0,0.010642,['Pass'],Pass,0.16000000000000003,-0.16000000000000003,0.0,0.0,0.1
360.0,7.0,wc_7,,0.0,,,,223.0,,,,Pass,,,,,
360.0,7.0,wc_7,wc_2,1.0,"[('wc_2', 0.6200000000000004), ('wc_7', 0.28000000000000014), ('wc_9', 0.4800000000000003), ('wc_17', 0.39000000000000024), ('wc_16', 0.4600000000000003)]",0.9531356032000001,,,36.0,0.045325000000000004,['Pass'],Pass,0.6200000000000004,-0.6200000000000004,0.0,0.0,1.0
370.0,8.0,wc_8,,0.0,,,,162.0,,,,Fail,,,,,
370.0,8.0,wc_8,,0.0,,,71.0,,,,,Fail,,,,,
370.0,8.0,wc_8,,0.0,,,,0.0,,,,Fail,,,,,
370.0,8.0,wc_8,wc_8,0.0,"[('wc_8', 0.4900000000000003)]",0.4900000000000003,,,40.0,0.002684,['Pass'],Fail,0.4900000000000003,-0.4900000000000003,0.0,6.0,0.6
370.0,8.0,wc_8,,0.0,,,,182.0,,,,Fail,,,,,
370.0,8.0,wc_8,wc_2,0.0,"[('wc_2', 0.6200000000000004)]",0.6200000000000004,,,22.0,0.0040809999999999996,['Fail'],Fail,0.6200000000000004,-0.6200000000000004,0.0,0.0,1.0
370.0,8.0,wc_8,,0.0,,,,223.0,,,,Fail,,,,,
370.0,8.0,wc_8,wc_15,0.0,"[('wc_15', 0.28000000000000014), ('wc_8', 0.4900000000000003)]",0.6328000000000003,,,25.0,0.006465,['Pass'],Fail,0.28000000000000014,-0.18000000000000013,0.0,0.0,0.1
370.0,8.0,wc_8,,0.0,,,,382.0,,,,Fail,,,,,
370.0,8.0,wc_8,wc_10,0.0,"[('wc_10', 0.5000000000000003), ('wc_2', 0.6200000000000004)]",0.8100000000000004,,,23.0,0.008829,['Fail'],Fail,0.5000000000000003,-0.25000000000000033,2.0,8.0,0.7
370.0,8.0,wc_8,,0.0,,,,81.0,,,,Fail,,,,,
370.0,8.0,wc_8,wc_12,0.0,"[('wc_12', 0.40000000000000024), ('wc_2', 0.6200000000000004), ('wc_10', 0.5000000000000003)]",0.8860000000000002,,,21.0,0.014797,['Fail'],Fail,0.40000000000000024,-0.40000000000000024,0.0,3.0,0.3
370.0,8.0,wc_8,,0.0,,,,182.0,,,,Fail,,,,,
370.0,8.0,wc_8,wc_6,1.0,"[('wc_6', 0.42000000000000026), ('wc_2', 0.6200000000000004), ('wc_10', 0.5000000000000003), ('wc_12', 0.40000000000000024)]",0.9338800000000002,,,32.0,0.053325000000000004,['Fail'],Fail,0.43000000000000027,0.28428571428571403,5.0,7.0,0.5
381.0,8.0,wc_8,,0.0,,,,0.0,,,,Fail,,,,,
381.0,8.0,wc_8,,0.0,,,74.0,,,,,Fail,,,,,
381.0,8.0,wc_8,,0.0,,,,0.0,,,,Fail,,,,,
381.0,8.0,wc_8,wc_8,0.0,"[('wc_8', 0.4800000000000003)]",0.4800000000000003,,,20.0,0.002206,['Fail'],Fail,0.4800000000000003,-0.4800000000000003,0.0,7.0,0.6
381.0,8.0,wc_8,,0.0,,,,0.0,,,,Fail,,,,,
381.0,8.0,wc_8,wc_10,0.0,"[('wc_10', 0.5000000000000003), ('wc_8', 0.4800000000000003)]",0.7400000000000003,,,38.0,0.0039559999999999994,['Fail'],Fail,0.5000000000000003,-0.16666666666666702,3.0,9.0,0.7
381.0,8.0,wc_8,,0.0,,,,121.0,,,,Fail,,,,,
381.0,8.0,wc_8,wc_14,0.0,"[('wc_8', 0.4800000000000003), ('wc_10', 0.5000000000000003)]",0.7400000000000003,,,34.0,0.006052999999999999,['Fail'],Fail,0.27000000000000013,-0.07000000000000012,0.0,0.0,0.2
381.0,8.0,wc_8,,0.0,,,,281.0,,,,Fail,,,,,
381.0,8.0,wc_8,wc_9,0.0,"[('wc_9', 0.4900000000000003), ('wc_8', 0.4800000000000003), ('wc_10', 0.5000000000000003)]",0.8674000000000003,,,24.0,0.009016,['Fail'],Fail,0.4900000000000003,-0.156666666666667,1.0,3.0,0.9
381.0,8.0,wc_8,,0.0,,,,0.0,,,,Fail,,,,,
381.0,8.0,wc_8,wc_11,0.0,"[('wc_11', 0.15000000000000002), ('wc_8', 0.4800000000000003), ('wc_10', 0.5000000000000003), ('wc_9', 0.4900000000000003)]",0.8872900000000002,,,21.0,0.010780999999999999,['Fail'],Fail,0.15000000000000002,-0.15000000000000002,0.0,2.0,0.1
381.0,8.0,wc_8,,0.0,,,,223.0,,,,Fail,,,,,
381.0,8.0,wc_8,wc_2,1.0,"[('wc_2', 0.6300000000000004), ('wc_8', 0.4800000000000003), ('wc_10', 0.5000000000000003), ('wc_9', 0.4900000000000003), ('wc_11', 0.15000000000000002)]",0.9582973000000001,,,34.0,0.047948,['Fail'],Fail,0.6400000000000005,0.35999999999999954,2.0,2.0,1.0
391.0,9.0,wc_9,,0.0,,,,183.0,,,,Pass,,,,,
391.0,9.0,wc_9,,0.0,,,69.0,,,,,Pass,,,,,
391.0,9.0,wc_9,,0.0,,,,0.0,,,,Pass,,,,,
391.0,9.0,wc_9,wc_9,0.0,"[('wc_9', 0.4900000000000003)]",0.4900000000000003,,,26.0,0.002091,['Pass'],Pass,0.4900000000000003,0.009999999999999676,2.0,4.0,0.9
391.0,9.0,wc_9,,0.0,,,,243.0,,,,Pass,,,,,
391.0,9.0,wc_9,wc_1,0.0,"[('wc_1', 0.41000000000000025), ('wc_9', 0.4900000000000003)]",0.6991000000000003,,,22.0,0.0049239999999999996,['Pass'],Pass,0.41000000000000025,-0.18777777777777804,2.0,9.0,0.4
391.0,9.0,wc_9,,0.0,,,,283.0,,,,Pass,,,,,
391.0,9.0,wc_9,wc_17,0.0,"[('wc_17', 0.40000000000000024), ('wc_9', 0.4900000000000003), ('wc_1', 0.41000000000000025)]",0.8194600000000003,,,20.0,0.007107,['Pass'],Pass,0.40000000000000024,-0.06666666666666693,3.0,9.0,0.8
391.0,9.0,wc_9,,0.0,,,,21.0,,,,Pass,,,,,
391.0,9.0,wc_9,wc_12,0.0,"[('wc_9', 0.4900000000000003), ('wc_1', 0.41000000000000025), ('wc_17', 0.40000000000000024)]",0.8194600000000003,,,35.0,0.014577,['Pass'],Pass,0.40000000000000024,-0.20000000000000023,1.0,5.0,0.3
391.0,9.0,wc_9,,0.0,,,,361.0,,,,Pass,,,,,
391.0,9.0,wc_9,wc_3,1.0,"[('wc_3', 0.5200000000000004), ('wc_9', 0.4900000000000003), ('wc_1', 0.41000000000000025), ('wc_17', 0.40000000000000024)]",0.9133408000000002,,,38.0,0.05403300000000001,['Pass'],Pass,0.5200000000000004,-0.29777777777777814,2.0,9.0,0.9
400.0,10.0,wc_10,,0.0,,,,182.0,,,,Pass,,,,,
400.0,10.0,wc_10,,0.0,,,51.0,,,,,Pass,,,,,
400.0,10.0,wc_10,,0.0,,,,0.0,,,,Pass,,,,,
400.0,10.0,wc_10,wc_10,0.0,"[('wc_10', 0.5000000000000003)]",0.5000000000000003,,,32.0,0.00238,['Pass'],Pass,0.5000000000000003,-0.5000000000000003,0.0,1.0,0.7
400.0,10.0,wc_10,,0.0,,,,61.0,,,,Pass,,,,,
400.0,10.0,wc_10,wc_7,0.0,"[('wc_7', 0.29000000000000015), ('wc_10', 0.5000000000000003)]",0.6450000000000002,,,23.0,0.0041270000000000005,['Pass'],Pass,0.29000000000000015,-0.29000000000000015,0.0,3.0,0.3
400.0,10.0,wc_10,,0.0,,,,321.0,,,,Pass,,,,,
400.0,10.0,wc_10,wc_4,0.0,"[('wc_4', 0.41000000000000025), ('wc_10', 0.5000000000000003), ('wc_7', 0.29000000000000015)]",0.7905500000000003,,,21.0,0.010213,['Pass'],Pass,0.41000000000000025,-0.41000000000000025,0.0,8.0,0.9
400.0,10.0,wc_10,,0.0,,,,161.0,,,,Pass,,,,,
400.0,10.0,wc_10,wc_14,0.0,"[('wc_14', 0.2600000000000001), ('wc_10', 0.5000000000000003), ('wc_7', 0.29000000000000015), ('wc_4', 0.41000000000000025)]",0.8450070000000002,,,29.0,0.007797,['Pass'],Pass,0.2600000000000001,-0.2600000000000001,0.0,2.0,0.2
400.0,10.0,wc_10,,0.0,,,,0.0,,,,Pass,,,,,
400.0,10.0,wc_10,wc_17,1.0,"[('wc_17', 0.40000000000000024), ('wc_10', 0.5000000000000003), ('wc_7', 0.29000000000000015), ('wc_4', 0.41000000000000025), ('wc_14', 0.2600000000000001)]",0.9070042000000001,,,25.0,0.046575000000000005,['Pass'],Pass,0.41000000000000025,0.5899999999999997,1.0,1.0,0.8
422.0,8.0,wc_8,,0.0,,,,223.0,,,,Pass,,,,,
422.0,8.0,wc_8,,0.0,,,74.0,,,,,Pass,,,,,
422.0,8.0,wc_8,,0.0,,,,0.0,,,,Pass,,,,,
422.0,8.0,wc_8,wc_8,0.0,"[('wc_8', 0.4800000000000003)]",0.4800000000000003,,,26.0,0.002251,['Pass'],Pass,0.4800000000000003,-0.38000000000000034,0.0,0.0,0.6
422.0,8.0,wc_8,,0.0,,,,142.0,,,,Pass,,,,,
422.0,8.0,wc_8,wc_13,0.0,"[('wc_13', 0.40000000000000024), ('wc_8', 0.4800000000000003)]",0.6880000000000004,,,20.0,0.004144,['Pass'],Pass,0.40000000000000024,-0.11428571428571455,2.0,7.0,0.8
422.0,8.0,wc_8,,0.0,,,,341.0,,,,Pass,,,,,
422.0,8.0,wc_8,wc_3,0.0,"[('wc_3', 0.5200000000000004), ('wc_8', 0.4800000000000003), ('wc_13', 0.40000000000000024)]",0.8502400000000003,,,36.0,0.006393,['Pass'],Pass,0.5200000000000004,-0.32000000000000034,0.0,0.0,0.9
422.0,8.0,wc_8,,0.0,,,,181.0,,,,Pass,,,,,
422.0,8.0,wc_8,wc_14,0.0,"[('wc_14', 0.27000000000000013), ('wc_8', 0.4800000000000003), ('wc_13', 0.40000000000000024), ('wc_3', 0.5200000000000004)]",0.8906752000000002,,,36.0,0.008983999999999999,['Pass'],Pass,0.27000000000000013,0.06333333333333319,1.0,3.0,0.2
422.0,8.0,wc_8,,0.0,,,,82.0,,,,Pass,,,,,
422.0,8.0,wc_8,wc_12,0.0,"[('wc_8', 0.4800000000000003), ('wc_13', 0.40000000000000024), ('wc_3', 0.5200000000000004), ('wc_14', 0.27000000000000013)]",0.8906752000000002,,,36.0,0.011582,['Pass'],Pass,0.39000000000000024,-0.2471428571428574,1.0,7.0,0.3
422.0,8.0,wc_8,,0.0,,,,381.0,,,,Pass,,,,,
422.0,8.0,wc_8,wc_4,1.0,"[('wc_4', 0.41000000000000025), ('wc_8', 0.4800000000000003), ('wc_13', 0.40000000000000024), ('wc_3', 0.5200000000000004), ('wc_14', 0.27000000000000013)]",0.9354983680000002,,,32.0,0.047347,['Pass'],Pass,0.41000000000000025,-0.41000000000000025,0.0,0.0,0.9
446.0,12.0,wc_12,,0.0,,,,121.0,,,,Fail,,,,,
446.0,12.0,wc_12,,0.0,,,66.0,,,,,Fail,,,,,
446.0,12.0,wc_12,,0.0,,,,0.0,,,,Fail,,,,,
446.0,12.0,wc_12,wc_12,0.0,"[('wc_12', 0.3800000000000002)]",0.3800000000000002,,,40.0,0.002109,['Fail'],Fail,0.3800000000000002,-0.2550000000000002,1.0,8.0,0.3
446.0,12.0,wc_12,,0.0,,,,242.0,,,,Fail,,,,,
446.0,12.0,wc_12,wc_1,0.0,"[('wc_1', 0.41000000000000025), ('wc_12', 0.3800000000000002)]",0.6342000000000003,,,33.0,0.004255999999999999,['Fail'],Fail,0.41000000000000025,-0.41000000000000025,0.0,2.0,0.4
446.0,12.0,wc_12,,0.0,,,,0.0,,,,Fail,,,,,
446.0,12.0,wc_12,wc_4,0.0,"[('wc_4', 0.41000000000000025), ('wc_12', 0.3800000000000002), ('wc_1', 0.41000000000000025)]",0.7841780000000003,,,33.0,0.007797,['Fail'],Fail,0.41000000000000025,-0.41000000000000025,0.0,0.0,0.9
446.0,12.0,wc_12,,0.0,,,,182.0,,,,Fail,,,,,
446.0,12.0,wc_12,wc_15,0.0,"[('wc_12', 0.3800000000000002), ('wc_1', 0.41000000000000025), ('wc_4', 0.41000000000000025)]",0.7841780000000003,,,29.0,0.009919,['Fail'],Fail,0.27000000000000013,-0.27000000000000013,0.0,5.0,0.1
446.0,12.0,wc_12,,0.0,,,,442.0,,,,Fail,,,,,
446.0,12.0,wc_12,wc_5,0.0,"[('wc_5', 0.3200000000000002), ('wc_12', 0.3800000000000002), ('wc_1', 0.41000000000000025), ('wc_4', 0.41000000000000025)]",0.8532410400000002,,,32.0,0.012401,['Fail'],Fail,0.3200000000000002,-0.18666666666666684,0.0,0.0,0.2
446.0,12.0,wc_12,,0.0,,,,83.0,,,,Fail,,,,,
446.0,12.0,wc_12,wc_3,1.0,"[('wc_3', 0.5300000000000004), ('wc_12', 0.3800000000000002), ('wc_1', 0.41000000000000025), ('wc_4', 0.41000000000000025), ('wc_5', 0.3200000000000002)]",0.9310232888000002,,,37.0,0.057833,['Fail'],Fail,0.5400000000000004,0.45999999999999963,2.0,2.0,0.9
469.0,12.0,wc_12,,0.0,,,,141.0,,,,Fail,,,,,
469.0,12.0,wc_12,,0.0,,,79.0,,,,,Fail,,,,,
469.0,12.0,wc_12,,0.0,,,,0.0,,,,Fail,,,,,
469.0,12.0,wc_12,wc_12,0.0,"[('wc_12', 0.3800000000000002)]",0.3800000000000002,,,40.0,0.002336,['Fail'],Fail,0.3800000000000002,-0.15777777777777802,2.0,9.0,0.3
469.0,12.0,wc_12,,0.0,,,,262.0,,,,Fail,,,,,
469.0,12.0,wc_12,wc_2,0.0,"[('wc_2', 0.6400000000000005), ('wc_12', 0.3800000000000002)]",0.7768000000000004,,,32.0,0.01051,['Fail'],Fail,0.6400000000000005,-0.30666666666666714,2.0,6.0,1.0
469.0,12.0,wc_12,,0.0,,,,202.0,,,,Fail,,,,,
469.0,12.0,wc_12,wc_14,0.0,"[('wc_14', 0.28000000000000014), ('wc_12', 0.3800000000000002), ('wc_2', 0.6400000000000005)]",0.8392960000000003,,,38.0,0.008756,['Fail'],Fail,0.28000000000000014,0.11999999999999988,2.0,5.0,0.2
469.0,12.0,wc_12,,0.0,,,,301.0,,,,Fail,,,,,
469.0,12.0,wc_12,wc_10,0.0,"[('wc_12', 0.3800000000000002), ('wc_2', 0.6400000000000005), ('wc_14', 0.28000000000000014)]",0.8392960000000003,,,29.0,0.007832,['Fail'],Fail,0.5000000000000003,-0.25000000000000033,1.0,4.0,0.7
469.0,12.0,wc_12,,0.0,,,,103.0,,,,Fail,,,,,
469.0,12.0,wc_12,wc_9,1.0,"[('wc_9', 0.5000000000000003), ('wc_12', 0.3800000000000002), ('wc_2', 0.6400000000000005), ('wc_14', 0.28000000000000014)]",0.9196480000000002,,,31.0,0.047494,['Fail'],Fail,0.5000000000000003,-0.05555555555555591,4.0,9.0,0.9
486.0,12.0,wc_12,,0.0,,,,101.0,,,,Pass,,,,,
486.0,12.0,wc_12,,0.0,,,78.0,,,,,Pass,,,,,
486.0,12.0,wc_12,,0.0,,,,0.0,,,,Pass,,,,,
486.0,12.0,wc_12,wc_12,0.0,"[('wc_12', 0.3800000000000002)]",0.3800000000000002,,,34.0,0.002341,['Fail'],Pass,0.3800000000000002,-0.3800000000000002,0.0,0.0,0.3
486.0,12.0,wc_12,,0.0,,,,361.0,,,,Pass,,,,,
486.0,12.0,wc_12,wc_11,0.0,"[('wc_11', 0.16000000000000003), ('wc_12', 0.3800000000000002)]",0.4792000000000002,,,29.0,0.00541,['Fail'],Pass,0.16000000000000003,-0.03500000000000003,1.0,8.0,0.1
486.0,12.0,wc_12,,0.0,,,,342.0,,,,Pass,,,,,
486.0,12.0,wc_12,wc_4,0.0,"[('wc_12', 0.3800000000000002), ('wc_11', 0.16000000000000003)]",0.4792000000000002,,,30.0,0.005587,['Fail'],Pass,0.42000000000000026,0.07999999999999974,1.0,2.0,0.9
486.0,12.0,wc_12,,0.0,,,,81.0,,,,Pass,,,,,
486.0,12.0,wc_12,wc_2,0.0,"[('wc_2', 0.6400000000000005), ('wc_12', 0.3800000000000002), ('wc_11', 0.16000000000000003)]",0.8125120000000003,,,36.0,0.008558,['Fail'],Pass,0.6400000000000005,-0.2114285714285719,3.0,7.0,1.0
486.0,12.0,wc_12,,0.0,,,,183.0,,,,Pass,,,,,
486.0,12.0,wc_12,wc_9,0.0,"[('wc_12', 0.3800000000000002), ('wc_11', 0.16000000000000003), ('wc_2', 0.6400000000000005)]",0.8125120000000003,,,24.0,0.010582,['Fail'],Pass,0.5000000000000003,-0.05555555555555591,4.0,9.0,0.9
486.0,12.0,wc_12,,0.0,,,,61.0,,,,Pass,,,,,
486.0,12.0,wc_12,wc_6,0.0,"[('wc_6', 0.43000000000000027), ('wc_12', 0.3800000000000002), ('wc_11', 0.16000000000000003), ('wc_2', 0.6400000000000005)]",0.8931318400000002,,,21.0,0.011999,['Fail'],Pass,0.43000000000000027,-0.045384615384615634,0.0,0.0,0.5
486.0,12.0,wc_12,,0.0,,,,0.0,,,,Pass,,,,,
486.0,12.0,wc_12,wc_7,1.0,"[('wc_7', 0.29000000000000015), ('wc_12', 0.3800000000000002), ('wc_11', 0.16000000000000003), ('wc_2', 0.6400000000000005), ('wc_6', 0.43000000000000027)]",0.9241236064000001,,,33.0,0.04795,['Fail'],Pass,0.29000000000000015,-0.04000000000000015,2.0,8.0,0.3
493.0,13.0,wc_13,,0.0,,,,162.0,,,,Pass,,,,,
493.0,13.0,wc_13,,0.0,,,50.0,,,,,Pass,,,,,
493.0,13.0,wc_13,,0.0,,,,0.0,,,,Pass,,,,,
493.0,13.0,wc_13,wc_13,0.0,"[('wc_13', 0.40000000000000024)]",0.40000000000000024,,,21.0,0.002446,['Pass'],Pass,0.40000000000000024,-0.12727272727272754,0.0,0.0,0.8
493.0,13.0,wc_13,,0.0,,,,381.0,,,,Pass,,,,,
493.0,13.0,wc_13,wc_5,0.0,"[('wc_13', 0.40000000000000024)]",0.40000000000000024,,,32.0,0.004164,['Pass'],Pass,0.3300000000000002,0.0033333333333331328,1.0,3.0,0.2
493.0,13.0,wc_13,,0.0,,,,101.0,,,,Pass,,,,,
493.0,13.0,wc_13,wc_8,0.0,"[('wc_8', 0.4900000000000003), ('wc_5', 0.3300000000000002)]",0.6583000000000003,,,40.0,0.0067729999999999995,['Fail'],Pass,0.4900000000000003,-0.24000000000000032,1.0,4.0,0.6
493.0,13.0,wc_13,,0.0,,,,223.0,,,,Pass,,,,,
493.0,13.0,wc_13,wc_17,0.0,"[('wc_5', 0.3300000000000002), ('wc_8', 0.4900000000000003)]",0.6583000000000003,,,29.0,0.008248,['Fail'],Pass,0.41000000000000025,-0.21000000000000024,1.0,5.0,0.8
493.0,13.0,wc_13,,0.0,,,,382.0,,,,Pass,,,,,
493.0,13.0,wc_13,wc_4,0.0,"[('wc_4', 0.41000000000000025), ('wc_13', 0.40000000000000024), ('wc_17', 0.41000000000000025)]",0.7911400000000003,,,29.0,0.009718000000000001,['Pass'],Pass,0.41000000000000025,-0.07666666666666694,1.0,3.0,0.9
493.0,13.0,wc_13,,0.0,,,,162.0,,,,Pass,,,,,
493.0,13.0,wc_13,wc_10,0.0,"[('wc_10', 0.4900000000000003), ('wc_5', 0.3300000000000002), ('wc_8', 0.4900000000000003)]",0.8257330000000003,,,24.0,0.013154000000000002,['Fail'],Pass,0.4900000000000003,-0.3233333333333337,1.0,6.0,0.7
493.0,13.0,wc_13,,0.0,,,,61.0,,,,Pass,,,,,
493.0,13.0,wc_13,wc_7,0.0,"[('wc_7', 0.29000000000000015), ('wc_13', 0.40000000000000024), ('wc_17', 0.41000000000000025), ('wc_4', 0.41000000000000025)]",0.8517094000000003,,,34.0,0.022723999999999998,['Pass'],Pass,0.29000000000000015,-0.04000000000000015,2.0,8.0,0.3
493.0,13.0,wc_13,,0.0,,,,203.0,,,,Pass,,,,,
493.0,13.0,wc_13,wc_15,0.0,"[('wc_15', 0.2600000000000001), ('wc_5', 0.3300000000000002), ('wc_8', 0.4900000000000003), ('wc_10', 0.4900000000000003)]",0.8710424200000002,,,37.0,0.021306,['Fail'],Pass,0.2600000000000001,-0.2600000000000001,0.0,8.0,0.1
493.0,13.0,wc_13,,0.0,,,,223.0,,,,Pass,,,,,
493.0,13.0,wc_13,wc_6,1.0,"[('wc_6', 0.4400000000000003), ('wc_5', 0.3300000000000002), ('wc_8', 0.4900000000000003), ('wc_10', 0.4900000000000003), ('wc_15', 0.2600000000000001)]",0.9277837552000001,,,38.0,0.055321999999999996,['Fail'],Pass,0.4500000000000003,0.5499999999999997,2.0,2.0,0.5
501.0,16.0,wc_16,,0.0,,,,243.0,,,,Pass,,,,,
501.0,16.0,wc_16,,0.0,,,54.0,,,,,Pass,,,,,
501.0,16.0,wc_16,,0.0,,,,0.0,,,,Pass,,,,,
501.0,16.0,wc_16,wc_16,0.0,"[('wc_16', 0.4700000000000003)]",0.4700000000000003,,,22.0,0.002875,['Pass'],Pass,0.4700000000000003,-0.2200000000000003,0.0,0.0,0.8
501.0,16.0,wc_16,,0.0,,,,362.0,,,,Pass,,,,,
501.0,16.0,wc_16,wc_10,0.0,"[('wc_10', 0.4900000000000003), ('wc_16', 0.4700000000000003)]",0.7297000000000003,,,27.0,0.003949,['Pass'],Pass,0.4900000000000003,-0.20428571428571463,2.0,7.0,0.7
501.0,16.0,wc_16,,0.0,,,,61.0,,,,Pass,,,,,
501.0,16.0,wc_16,wc_7,0.0,"[('wc_7', 0.28000000000000014), ('wc_16', 0.4700000000000003), ('wc_10', 0.4900000000000003)]",0.8053840000000003,,,38.0,0.006206,['Pass'],Pass,0.28000000000000014,-0.05777777777777793,2.0,9.0,0.3
501.0,16.0,wc_16,,0.0,,,,182.0,,,,Pass,,,,,
501.0,16.0,wc_16,wc_14,0.0,"[('wc_16', 0.4700000000000003), ('wc_10', 0.4900000000000003), ('wc_7', 0.28000000000000014)]",0.8053840000000003,,,24.0,0.008084,['Pass'],Pass,0.29000000000000015,0.08499999999999985,3.0,8.0,0.2
501.0,16.0,wc_16,,0.0,,,,82.0,,,,Pass,,,,,
501.0,16.0,wc_16,wc_12,0.0,"[('wc_12', 0.39000000000000024), ('wc_16', 0.4700000000000003), ('wc_10', 0.4900000000000003), ('wc_7', 0.28000000000000014)]",0.8812842400000002,,,25.0,0.011410000000000002,['Pass'],Pass,0.39000000000000024,0.10999999999999976,1.0,2.0,0.3
501.0,16.0,wc_16,,0.0,,,,242.0,,,,Pass,,,,,
501.0,16.0,wc_16,wc_1,1.0,"[('wc_1', 0.41000000000000025), ('wc_16', 0.4700000000000003), ('wc_10', 0.4900000000000003), ('wc_7', 0.28000000000000014), ('wc_12', 0.39000000000000024)]",0.9299577016000001,,,28.0,0.051785,['Pass'],Pass,0.41000000000000025,-0.12428571428571455,2.0,7.0,0.4
511.0,14.0,wc_14,,0.0,,,,222.0,,,,Pass,,,,,
511.0,14.0,wc_14,,0.0,,,66.0,,,,,Pass,,,,,
511.0,14.0,wc_14,,0.0,,,,0.0,,,,Pass,,,,,
511.0,14.0,wc_14,wc_14,0.0,"[('wc_14', 0.29000000000000015)]",0.29000000000000015,,,28.0,0.002322,['Pass'],Pass,0.29000000000000015,0.04333333333333317,3.0,9.0,0.2
511.0,14.0,wc_14,,0.0,,,,142.0,,,,Pass,,,,,
511.0,14.0,wc_14,wc_6,0.0,"[('wc_6', 0.4500000000000003)]",0.4500000000000003,,,27.0,0.005516,['Fail'],Pass,0.4500000000000003,0.21666666666666634,2.0,3.0,0.5
511.0,14.0,wc_14,,0.0,,,,341.0,,,,Pass,,,,,
511.0,14.0,wc_14,wc_4,0.0,"[('wc_4', 0.40000000000000024), ('wc_14', 0.29000000000000015)]",0.5740000000000003,,,24.0,0.006076,['Pass'],Pass,0.40000000000000024,-0.20000000000000023,1.0,5.0,0.9
511.0,14.0,wc_14,,0.0,,,,182.0,,,,Pass,,,,,
511.0,14.0,wc_14,wc_11,0.0,"[('wc_11', 0.17000000000000004), ('wc_14', 0.29000000000000015), ('wc_4', 0.40000000000000024)]",0.6464200000000002,,,32.0,0.007526,['Pass'],Pass,0.17000000000000004,0.011818181818181783,0.0,0.0,0.1
511.0,14.0,wc_14,,0.0,,,,162.0,,,,Pass,,,,,
511.0,14.0,wc_14,wc_17,0.0,"[('wc_17', 0.40000000000000024), ('wc_14', 0.29000000000000015), ('wc_4', 0.40000000000000024), ('wc_11', 0.17000000000000004)]",0.7878520000000002,,,29.0,0.009524999999999999,['Pass'],Pass,0.40000000000000024,-0.2571428571428574,1.0,7.0,0.8
511.0,14.0,wc_14,,0.0,,,,243.0,,,,Pass,,,,,
511.0,14.0,wc_14,wc_1,0.0,"[('wc_1', 0.41000000000000025), ('wc_14', 0.29000000000000015), ('wc_4', 0.40000000000000024), ('wc_11', 0.17000000000000004), ('wc_17', 0.40000000000000024)]",0.8748326800000001,,,33.0,0.012707000000000001,['Pass'],Pass,0.41000000000000025,-0.12428571428571455,2.0,7.0,0.4
511.0,14.0,wc_14,,0.0,,,,203.0,,,,Pass,,,,,
511.0,14.0,wc_14,wc_9,1.0,"[('wc_9', 0.4900000000000003), ('wc_14', 0.29000000000000015), ('wc_4', 0.40000000000000024), ('wc_11', 0.17000000000000004), ('wc_17', 0.40000000000000024), ('wc_1', 0.41000000000000025)]",0.9361646668000001,,,38.0,0.05719199999999999,['Pass'],Pass,0.4900000000000003,-0.156666666666667,1.0,3.0,0.9
519.0,15.0,wc_15,,0.0,,,,162.0,,,,Fail,,,,,
519.0,15.0,wc_15,,0.0,,,56.0,,,,,Fail,,,,,
519.0,15.0,wc_15,,0.0,,,,0.0,,,,Fail,,,,,
519.0,15.0,wc_15,wc_15,0.0,"[('wc_15', 0.2600000000000001)]",0.2600000000000001,,,32.0,0.002865,['Fail'],Fail,0.2600000000000001,-0.1690909090909092,0.0,0.0,0.1
519.0,15.0,wc_15,,0.0,,,,303.0,,,,Fail,,,,,
519.0,15.0,wc_15,wc_2,0.0,"[('wc_2', 0.6400000000000005), ('wc_15', 0.2600000000000001)]",0.7336000000000004,,,33.0,0.004085,['Fail'],Fail,0.6400000000000005,-0.2763636363636368,0.0,0.0,1.0
519.0,15.0,wc_15,,0.0,,,,0.0,,,,Fail,,,,,
519.0,15.0,wc_15,wc_5,0.0,"[('wc_5', 0.3400000000000002), ('wc_15', 0.2600000000000001), ('wc_2', 0.6400000000000005)]",0.8241760000000002,,,38.0,0.007184000000000001,['Fail'],Fail,0.3400000000000002,-0.006666666666666876,2.0,6.0,0.2
519.0,15.0,wc_15,,0.0,,,,81.0,,,,Fail,,,,,
519.0,15.0,wc_15,wc_7,0.0,"[('wc_15', 0.2600000000000001), ('wc_2', 0.6400000000000005), ('wc_5', 0.3400000000000002)]",0.8241760000000002,,,38.0,0.0077859999999999995,['Fail'],Fail,0.29000000000000015,-0.29000000000000015,0.0,1.0,0.3
519.0,15.0,wc_15,,0.0,,,,162.0,,,,Fail,,,,,
519.0,15.0,wc_15,wc_13,0.0,"[('wc_13', 0.39000000000000024), ('wc_15', 0.2600000000000001), ('wc_2', 0.6400000000000005), ('wc_5', 0.3400000000000002)]",0.8927473600000002,,,30.0,0.009774000000000001,['Fail'],Fail,0.39000000000000024,-0.39000000000000024,0.0,3.0,0.8
519.0,15.0,wc_15,,0.0,,,,222.0,,,,Fail,,,,,
519.0,15.0,wc_15,wc_1,0.0,"[('wc_15', 0.2600000000000001), ('wc_2', 0.6400000000000005), ('wc_5', 0.3400000000000002), ('wc_13', 0.39000000000000024)]",0.8927473600000002,,,21.0,0.010782,['Fail'],Fail,0.41000000000000025,-0.03500000000000025,3.0,8.0,0.4
519.0,15.0,wc_15,,0.0,,,,203.0,,,,Fail,,,,,
519.0,15.0,wc_15,wc_9,1.0,"[('wc_9', 0.4900000000000003), ('wc_15', 0.2600000000000001), ('wc_2', 0.6400000000000005), ('wc_5', 0.3400000000000002), ('wc_13', 0.39000000000000024)]",0.9453011536000001,,,29.0,0.05618000000000001,['Fail'],Fail,0.4900000000000003,0.009999999999999676,2.0,4.0,0.9
534.0,15.0,wc_15,,0.0,,,,162.0,,,,Fail,,,,,
534.0,15.0,wc_15,,0.0,,,70.0,,,,,Fail,,,,,
534.0,15.0,wc_15,,0.0,,,,0.0,,,,Fail,,,,,
534.0,15.0,wc_15,wc_15,0.0,"[('wc_15', 0.27000000000000013)]",0.27000000000000013,,,31.0,0.008814,['Fail'],Fail,0.27000000000000013,0.7299999999999999,1.0,1.0,0.1
534.0,15.0,wc_15,,0.0,,,,362.0,,,,Fail,,,,,
534.0,15.0,wc_15,wc_9,0.0,"[('wc_9', 0.4900000000000003), ('wc_15', 0.27000000000000013)]",0.6277000000000004,,,37.0,0.005857,['Fail'],Fail,0.4900000000000003,0.009999999999999676,2.0,4.0,0.9
534.0,15.0,wc_15,,0.0,,,,182.0,,,,Fail,,,,,
534.0,15.0,wc_15,wc_16,0.0,"[('wc_16', 0.4800000000000003), ('wc_15', 0.27000000000000013), ('wc_9', 0.4900000000000003)]",0.8064040000000002,,,36.0,0.007006,['Fail'],Fail,0.4800000000000003,-0.146666666666667,1.0,3.0,0.8
534.0,15.0,wc_15,,0.0,,,,81.0,,,,Fail,,,,,
534.0,15.0,wc_15,wc_14,0.0,"[('wc_15', 0.27000000000000013), ('wc_9', 0.4900000000000003), ('wc_16', 0.4800000000000003)]",0.8064040000000003,,,25.0,0.008577999999999999,['Fail'],Fail,0.30000000000000016,-0.30000000000000016,0.0,1.0,0.2
534.0,15.0,wc_15,,0.0,,,,162.0,,,,Fail,,,,,
534.0,15.0,wc_15,wc_7,0.0,"[('wc_15', 0.27000000000000013), ('wc_9', 0.4900000000000003), ('wc_16', 0.4800000000000003)]",0.8064040000000003,,,27.0,0.009841,['Fail'],Fail,0.28000000000000014,-0.28000000000000014,0.0,2.0,0.3
534.0,15.0,wc_15,,0.0,,,,162.0,,,,Fail,,,,,
534.0,15.0,wc_15,wc_13,0.0,"[('wc_13', 0.39000000000000024), ('wc_15', 0.27000000000000013), ('wc_9', 0.4900000000000003), ('wc_16', 0.4800000000000003)]",0.8819064400000002,,,22.0,0.011707,['Fail'],Fail,0.39000000000000024,-0.14000000000000024,1.0,4.0,0.8
534.0,15.0,wc_15,,0.0,,,,341.0,,,,Fail,,,,,
534.0,15.0,wc_15,wc_11,1.0,"[('wc_11', 0.18000000000000005), ('wc_15', 0.27000000000000013), ('wc_9', 0.4900000000000003), ('wc_16', 0.4800000000000003), ('wc_13', 0.39000000000000024)]",0.9031632808000002,,,23.0,0.04836599999999999,['Fail'],Fail,0.19000000000000006,0.47666666666666657,2.0,3.0,0.1
546.0,15.0,wc_15,,0.0,,,,122.0,,,,Pass,,,,,
546.0,15.0,wc_15,,0.0,,,52.0,,,,,Pass,,,,,
546.0,15.0,wc_15,,0.0,,,,0.0,,,,Pass,,,,,
546.0,15.0,wc_15,wc_15,0.0,"[('wc_15', 0.28000000000000014)]",0.28000000000000014,,,38.0,0.002184,['Fail'],Pass,0.28000000000000014,0.7199999999999999,2.0,2.0,0.1
546.0,15.0,wc_15,,0.0,,,,223.0,,,,Pass,,,,,
546.0,15.0,wc_15,wc_6,0.0,"[('wc_6', 0.4500000000000003)]",0.4500000000000003,,,40.0,0.003809,['Pass'],Pass,0.4500000000000003,-0.11666666666666697,2.0,6.0,0.5
546.0,15.0,wc_15,,0.0,,,,361.0,,,,Pass,,,,,
546.0,15.0,wc_15,wc_5,0.0,"[('wc_5', 0.3500000000000002), ('wc_15', 0.28000000000000014)]",0.5320000000000003,,,21.0,0.007971,['Fail'],Pass,0.3500000000000002,0.0249999999999998,3.0,8.0,0.2
546.0,15.0,wc_15,,0.0,,,,182.0,,,,Pass,,,,,
546.0,15.0,wc_15,wc_16,0.0,"[('wc_16', 0.4900000000000003), ('wc_6', 0.4500000000000003)]",0.7195000000000003,,,26.0,0.018987999999999998,['Pass'],Pass,0.4900000000000003,0.009999999999999676,2.0,4.0,0.8
546.0,15.0,wc_15,,0.0,,,,263.0,,,,Pass,,,,,
546.0,15.0,wc_15,wc_1,0.0,"[('wc_6', 0.4500000000000003), ('wc_16', 0.4900000000000003)]",0.7195000000000003,,,32.0,0.013231,['Pass'],Pass,0.40000000000000024,-0.10000000000000026,0.0,0.0,0.4
546.0,15.0,wc_15,,0.0,,,,283.0,,,,Pass,,,,,
546.0,15.0,wc_15,wc_17,0.0,"[('wc_17', 0.40000000000000024), ('wc_6', 0.4500000000000003), ('wc_16', 0.4900000000000003)]",0.8317000000000003,,,36.0,0.011158000000000001,['Pass'],Pass,0.40000000000000024,-0.20000000000000023,0.0,0.0,0.8
546.0,15.0,wc_15,,0.0,,,,263.0,,,,Pass,,,,,
546.0,15.0,wc_15,wc_2,1.0,"[('wc_2', 0.6500000000000005), ('wc_6', 0.4500000000000003), ('wc_16', 0.4900000000000003), ('wc_17', 0.40000000000000024)]",0.9410950000000001,,,20.0,0.05181000000000001,['Pass'],Pass,0.6600000000000005,0.0066666666666661545,2.0,3.0,1.0
556.0,17.0,wc_17,,0.0,,,,263.0,,,,Fail,,,,,
556.0,17.0,wc_17,,0.0,,,54.0,,,,,Fail,,,,,
556.0,17.0,wc_17,,0.0,,,,0.0,,,,Fail,,,,,
556.0,17.0,wc_17,wc_17,0.0,"[('wc_17', 0.41000000000000025)]",0.41000000000000025,,,25.0,0.002113,['Fail'],Fail,0.41000000000000025,0.5899999999999997,1.0,1.0,0.8
556.0,17.0,wc_17,,0.0,,,,382.0,,,,Fail,,,,,
556.0,17.0,wc_17,wc_4,0.0,"[('wc_4', 0.40000000000000024), ('wc_17', 0.41000000000000025)]",0.6460000000000004,,,38.0,0.004148,['Fail'],Fail,0.40000000000000024,-0.17777777777777803,2.0,9.0,0.9
556.0,17.0,wc_17,,0.0,,,,161.0,,,,Fail,,,,,
556.0,17.0,wc_17,wc_14,0.0,"[('wc_14', 0.29000000000000015), ('wc_17', 0.41000000000000025), ('wc_4', 0.40000000000000024)]",0.7486600000000003,,,30.0,0.00707,['Fail'],Fail,0.29000000000000015,-0.29000000000000015,0.0,3.0,0.2
556.0,17.0,wc_17,,0.0,,,,102.0,,,,Fail,,,,,
556.0,17.0,wc_17,wc_13,0.0,"[('wc_13', 0.39000000000000024), ('wc_17', 0.41000000000000025), ('wc_4', 0.40000000000000024), ('wc_14', 0.29000000000000015)]",0.8466826000000002,,,37.0,0.018244000000000003,['Fail'],Fail,0.39000000000000024,-0.05666666666666692,2.0,6.0,0.8
556.0,17.0,wc_17,,0.0,,,,242.0,,,,Fail,,,,,
556.0,17.0,wc_17,wc_2,1.0,"[('wc_2', 0.6600000000000005), ('wc_17', 0.41000000000000025), ('wc_4', 0.40000000000000024), ('wc_14', 0.29000000000000015), ('wc_13', 0.39000000000000024)]",0.9478720840000001,,,29.0,0.05603299999999999,['Fail'],Fail,0.6700000000000005,0.07999999999999952,3.0,4.0,1.0
561.0,17.0,wc_17,,0.0,,,,263.0,,,,Pass,,,,,
561.0,17.0,wc_17,,0.0,,,62.0,,,,,Pass,,,,,
561.0,17.0,wc_17,,0.0,,,,0.0,,,,Pass,,,,,
561.0,17.0,wc_17,wc_17,0.0,"[('wc_17', 0.42000000000000026)]",0.42000000000000026,,,25.0,0.006801,['Pass'],Pass,0.42000000000000026,0.5799999999999997,2.0,2.0,0.8
561.0,17.0,wc_17,,0.0,,,,382.0,,,,Pass,,,,,
561.0,17.0,wc_17,wc_4,0.0,"[('wc_4', 0.40000000000000024), ('wc_17', 0.42000000000000026)]",0.6520000000000004,,,40.0,0.0058530000000000006,['Pass'],Pass,0.40000000000000024,-0.40000000000000024,0.0,0.0,0.9
561.0,17.0,wc_17,,0.0,,,,61.0,,,,Pass,,,,,
561.0,17.0,wc_17,wc_1,0.0,"[('wc_1', 0.39000000000000024), ('wc_17', 0.42000000000000026), ('wc_4', 0.40000000000000024)]",0.7877200000000002,,,31.0,0.006538,['Pass'],Pass,0.39000000000000024,-0.39000000000000024,0.0,2.0,0.4
561.0,17.0,wc_17,,0.0,,,,142.0,,,,Pass,,,,,
561.0,17.0,wc_17,wc_6,0.0,"[('wc_17', 0.42000000000000026), ('wc_4', 0.40000000000000024), ('wc_1', 0.39000000000000024)]",0.7877200000000002,,,28.0,0.010135000000000002,['Pass'],Pass,0.4500000000000003,-0.07500000000000029,3.0,8.0,0.5
561.0,17.0,wc_17,,0.0,,,,0.0,,,,Pass,,,,,
561.0,17.0,wc_17,wc_8,0.0,"[('wc_8', 0.4900000000000003), ('wc_17', 0.42000000000000026), ('wc_4', 0.40000000000000024), ('wc_1', 0.39000000000000024)]",0.8917372000000002,,,22.0,0.010502,['Pass'],Pass,0.4900000000000003,-0.3081818181818185,0.0,0.0,0.6
561.0,17.0,wc_17,,0.0,,,,182.0,,,,Pass,,,,,
561.0,17.0,wc_17,wc_2,1.0,"[('wc_2', 0.6700000000000005), ('wc_17', 0.42000000000000026), ('wc_4', 0.40000000000000024), ('wc_1', 0.39000000000000024), ('wc_8', 0.4900000000000003)]",0.9642732760000001,,,29.0,0.064607,['Pass'],Pass,0.6800000000000005,0.11999999999999955,4.0,5.0,1.0
