mpecck/BCQC/bcqc_with_qdt/results/raw/input_12/independent_qc/training/20_workpiece/20200429_090307/wp_7_qc_majority_0.9.csv
production_index,step_idx,production_workcell,qc,consent,winner_qc_list,score,production_time,transport_time,inspection_time,network_time,qc_results,actual_quality,qc_score,score_error,in_winner_counter,in_qc_counter,qc_capability
16.0,1.0,wc_1,,0.0,,,51.0,,,,,Fail,,,,,
16.0,1.0,wc_1,,0.0,,,,0.0,,,,Fail,,,,,
16.0,1.0,wc_1,wc_1,0.0,"[('wc_1', 0.4700000000000003)]",0.4700000000000003,,,22.0,0.005933,['Fail'],Fail,0.4700000000000003,-0.386666666666667,0.0,0.0,0.4
16.0,1.0,wc_1,,0.0,,,,222.0,,,,Fail,,,,,
16.0,1.0,wc_1,wc_14,0.0,"[('wc_14', 0.2500000000000001), ('wc_1', 0.4700000000000003)]",0.6025000000000003,,,31.0,0.0059629999999999996,['Fail'],Fail,0.2500000000000001,-0.2500000000000001,0.0,2.0,0.2
16.0,1.0,wc_1,,0.0,,,,0.0,,,,Fail,,,,,
16.0,1.0,wc_1,wc_16,0.0,"[('wc_16', 0.6400000000000005), ('wc_1', 0.4700000000000003), ('wc_14', 0.2500000000000001)]",0.8569000000000003,,,27.0,0.010013000000000001,['Fail'],Fail,0.6400000000000005,0.07428571428571384,5.0,7.0,0.8
16.0,1.0,wc_1,,0.0,,,,243.0,,,,Fail,,,,,
16.0,1.0,wc_1,wc_8,1.0,"[('wc_8', 0.5600000000000004), ('wc_1', 0.4700000000000003), ('wc_14', 0.2500000000000001), ('wc_16', 0.6400000000000005)]",0.9370360000000002,,,26.0,0.038013,['Fail'],Fail,0.5700000000000004,0.1799999999999996,3.0,4.0,0.6
125.0,1.0,wc_1,,0.0,,,,162.0,,,,Pass,,,,,
125.0,1.0,wc_1,,0.0,,,56.0,,,,,Pass,,,,,
125.0,1.0,wc_1,,0.0,,,,0.0,,,,Pass,,,,,
125.0,1.0,wc_1,wc_1,0.0,"[('wc_1', 0.4800000000000003)]",0.4800000000000003,,,37.0,0.003016,['Fail'],Pass,0.4800000000000003,0.5199999999999997,1.0,1.0,0.4
125.0,1.0,wc_1,,0.0,,,,223.0,,,,Pass,,,,,
125.0,1.0,wc_1,wc_10,0.0,"[('wc_10', 0.5700000000000004), ('wc_1', 0.4800000000000003)]",0.7764000000000003,,,20.0,0.004118,['Fail'],Pass,0.5700000000000004,-0.3200000000000004,0.0,0.0,0.7
125.0,1.0,wc_1,,0.0,,,,81.0,,,,Pass,,,,,
125.0,1.0,wc_1,wc_8,0.0,"[('wc_1', 0.4800000000000003), ('wc_10', 0.5700000000000004)]",0.7764000000000003,,,27.0,0.010206,['Fail'],Pass,0.5700000000000004,0.1799999999999996,3.0,4.0,0.6
125.0,1.0,wc_1,,0.0,,,,0.0,,,,Pass,,,,,
125.0,1.0,wc_1,wc_9,1.0,"[('wc_9', 0.6200000000000004), ('wc_1', 0.4800000000000003), ('wc_10', 0.5700000000000004)]",0.9150320000000002,,,28.0,0.035945,['Fail'],Pass,0.6200000000000004,-0.6200000000000004,0.0,0.0,0.9
140.0,2.0,wc_2,,0.0,,,,263.0,,,,Pass,,,,,
140.0,2.0,wc_2,,0.0,,,72.0,,,,,Pass,,,,,
140.0,2.0,wc_2,,0.0,,,,0.0,,,,Pass,,,,,
140.0,2.0,wc_2,wc_2,0.0,"[('wc_2', 0.7200000000000005)]",0.7200000000000005,,,40.0,0.004746,['Pass'],Pass,0.7200000000000005,-0.43428571428571483,0.0,0.0,1.0
140.0,2.0,wc_2,,0.0,,,,0.0,,,,Pass,,,,,
140.0,2.0,wc_2,wc_4,0.0,"[('wc_4', 0.5300000000000004), ('wc_2', 0.7200000000000005)]",0.8684000000000003,,,38.0,0.005803,['Pass'],Pass,0.5300000000000004,-0.19666666666666704,1.0,3.0,0.9
140.0,2.0,wc_2,,0.0,,,,142.0,,,,Pass,,,,,
140.0,2.0,wc_2,wc_9,1.0,"[('wc_9', 0.6200000000000004), ('wc_2', 0.7200000000000005), ('wc_4', 0.5300000000000004)]",0.9499920000000002,,,29.0,0.034483,['Pass'],Pass,0.6300000000000004,0.36999999999999955,1.0,1.0,0.9
164.0,3.0,wc_3,,0.0,,,,362.0,,,,Fail,,,,,
164.0,3.0,wc_3,,0.0,,,57.0,,,,,Fail,,,,,
164.0,3.0,wc_3,,0.0,,,,0.0,,,,Fail,,,,,
164.0,3.0,wc_3,wc_3,0.0,"[('wc_3', 0.6300000000000004)]",0.6300000000000004,,,26.0,0.003707,['Fail'],Fail,0.6300000000000004,-0.38000000000000045,2.0,8.0,0.9
164.0,3.0,wc_3,,0.0,,,,161.0,,,,Fail,,,,,
164.0,3.0,wc_3,wc_13,0.0,"[('wc_13', 0.6300000000000004), ('wc_3', 0.6300000000000004)]",0.8631000000000003,,,26.0,0.005644,['Fail'],Fail,0.6300000000000004,-0.5188888888888894,1.0,9.0,0.8
164.0,3.0,wc_3,,0.0,,,,381.0,,,,Fail,,,,,
164.0,3.0,wc_3,wc_5,0.0,"[('wc_3', 0.6300000000000004), ('wc_13', 0.6300000000000004)]",0.8631000000000003,,,34.0,0.006088,['Fail'],Fail,0.3700000000000002,-0.1700000000000002,0.0,0.0,0.2
164.0,3.0,wc_3,,0.0,,,,81.0,,,,Fail,,,,,
164.0,3.0,wc_3,wc_7,0.0,"[('wc_3', 0.6300000000000004), ('wc_13', 0.6300000000000004)]",0.8631000000000003,,,21.0,0.013547,['Fail'],Fail,0.29000000000000015,-0.29000000000000015,0.0,6.0,0.3
164.0,3.0,wc_3,,0.0,,,,142.0,,,,Fail,,,,,
164.0,3.0,wc_3,wc_12,1.0,"[('wc_12', 0.5100000000000003), ('wc_3', 0.6300000000000004), ('wc_13', 0.6300000000000004)]",0.9329190000000002,,,39.0,0.040456,['Fail'],Fail,0.5100000000000003,-0.11000000000000032,2.0,5.0,0.3
206.0,3.0,wc_3,,0.0,,,,361.0,,,,Fail,,,,,
206.0,3.0,wc_3,,0.0,,,80.0,,,,,Fail,,,,,
206.0,3.0,wc_3,,0.0,,,,0.0,,,,Fail,,,,,
206.0,3.0,wc_3,wc_3,0.0,"[('wc_3', 0.6300000000000004)]",0.6300000000000004,,,39.0,0.002321,['Fail'],Fail,0.6300000000000004,-0.29666666666666713,3.0,9.0,0.9
206.0,3.0,wc_3,,0.0,,,,0.0,,,,Fail,,,,,
206.0,3.0,wc_3,wc_5,0.0,"[('wc_5', 0.3600000000000002), ('wc_3', 0.6300000000000004)]",0.7632000000000003,,,35.0,0.004244,['Fail'],Fail,0.3600000000000002,-0.3600000000000002,0.0,1.0,0.2
206.0,3.0,wc_3,,0.0,,,,122.0,,,,Fail,,,,,
206.0,3.0,wc_3,wc_9,1.0,"[('wc_9', 0.6300000000000004), ('wc_3', 0.6300000000000004), ('wc_5', 0.3600000000000002)]",0.9123840000000003,,,24.0,0.040038,['Fail'],Fail,0.6400000000000005,0.026666666666666172,2.0,3.0,0.9
222.0,4.0,wc_4,,0.0,,,,382.0,,,,Fail,,,,,
222.0,4.0,wc_4,,0.0,,,68.0,,,,,Fail,,,,,
222.0,4.0,wc_4,,0.0,,,,0.0,,,,Fail,,,,,
222.0,4.0,wc_4,wc_4,0.0,"[('wc_4', 0.5300000000000004)]",0.5300000000000004,,,37.0,0.003239,['Fail'],Fail,0.5300000000000004,-0.19666666666666704,2.0,6.0,0.9
222.0,4.0,wc_4,,0.0,,,,222.0,,,,Fail,,,,,
222.0,4.0,wc_4,wc_17,0.0,"[('wc_17', 0.5000000000000003), ('wc_4', 0.5300000000000004)]",0.7650000000000003,,,40.0,0.004313,['Fail'],Fail,0.5000000000000003,-0.25000000000000033,0.0,0.0,0.8
222.0,4.0,wc_4,,0.0,,,,263.0,,,,Fail,,,,,
222.0,4.0,wc_4,wc_2,1.0,"[('wc_2', 0.7300000000000005), ('wc_4', 0.5300000000000004), ('wc_17', 0.5000000000000003)]",0.9365500000000002,,,30.0,0.037460999999999994,['Fail'],Fail,0.7300000000000005,-0.23000000000000054,2.0,4.0,1.0
271.0,4.0,wc_4,,0.0,,,,0.0,,,,Pass,,,,,
271.0,4.0,wc_4,,0.0,,,53.0,,,,,Pass,,,,,
271.0,4.0,wc_4,,0.0,,,,0.0,,,,Pass,,,,,
271.0,4.0,wc_4,wc_4,0.0,"[('wc_4', 0.5300000000000004)]",0.5300000000000004,,,37.0,0.002386,['Pass'],Pass,0.5300000000000004,-0.10142857142857181,3.0,7.0,0.9
271.0,4.0,wc_4,,0.0,,,,182.0,,,,Pass,,,,,
271.0,4.0,wc_4,wc_11,0.0,"[('wc_4', 0.5300000000000004)]",0.5300000000000004,,,34.0,0.0049689999999999995,['Pass'],Pass,0.17000000000000004,-0.09857142857142862,0.0,0.0,0.1
271.0,4.0,wc_4,,0.0,,,,21.0,,,,Pass,,,,,
271.0,4.0,wc_4,wc_6,0.0,"[('wc_6', 0.4700000000000003), ('wc_4', 0.5300000000000004)]",0.7509000000000003,,,30.0,0.006326,['Pass'],Pass,0.4700000000000003,-0.3588888888888892,1.0,9.0,0.5
271.0,4.0,wc_4,,0.0,,,,321.0,,,,Pass,,,,,
271.0,4.0,wc_4,wc_3,1.0,"[('wc_3', 0.6300000000000004), ('wc_4', 0.5300000000000004), ('wc_6', 0.4700000000000003)]",0.9078330000000002,,,28.0,0.040839999999999994,['Pass'],Pass,0.6300000000000004,-0.13000000000000045,1.0,2.0,0.9
320.0,3.0,wc_3,,0.0,,,,0.0,,,,Fail,,,,,
320.0,3.0,wc_3,,0.0,,,73.0,,,,,Fail,,,,,
320.0,3.0,wc_3,,0.0,,,,0.0,,,,Fail,,,,,
320.0,3.0,wc_3,wc_3,0.0,"[('wc_3', 0.6300000000000004)]",0.6300000000000004,,,40.0,0.002681,['Fail'],Fail,0.6300000000000004,-0.13000000000000045,1.0,2.0,0.9
320.0,3.0,wc_3,,0.0,,,,141.0,,,,Fail,,,,,
320.0,3.0,wc_3,wc_8,0.0,"[('wc_8', 0.5700000000000004), ('wc_3', 0.6300000000000004)]",0.8409000000000003,,,28.0,0.003985,['Fail'],Fail,0.5700000000000004,-0.2700000000000004,0.0,0.0,0.6
320.0,3.0,wc_3,,0.0,,,,142.0,,,,Fail,,,,,
320.0,3.0,wc_3,wc_13,1.0,"[('wc_13', 0.6300000000000004), ('wc_3', 0.6300000000000004), ('wc_8', 0.5700000000000004)]",0.9411330000000002,,,21.0,0.03928,['Fail'],Fail,0.6300000000000004,-0.38000000000000045,1.0,4.0,0.8
377.0,3.0,wc_3,,0.0,,,,341.0,,,,Pass,,,,,
377.0,3.0,wc_3,,0.0,,,66.0,,,,,Pass,,,,,
377.0,3.0,wc_3,,0.0,,,,0.0,,,,Pass,,,,,
377.0,3.0,wc_3,wc_3,0.0,"[('wc_3', 0.6400000000000005)]",0.6400000000000005,,,28.0,0.002347,['Pass'],Pass,0.6400000000000005,0.026666666666666172,2.0,3.0,0.9
377.0,3.0,wc_3,,0.0,,,,202.0,,,,Pass,,,,,
377.0,3.0,wc_3,wc_11,0.0,"[('wc_11', 0.16000000000000003), ('wc_3', 0.6400000000000005)]",0.6976000000000004,,,40.0,0.004657,['Pass'],Pass,0.16000000000000003,-0.16000000000000003,0.0,2.0,0.1
377.0,3.0,wc_3,,0.0,,,,41.0,,,,Pass,,,,,
377.0,3.0,wc_3,wc_7,0.0,"[('wc_7', 0.28000000000000014), ('wc_3', 0.6400000000000005), ('wc_11', 0.16000000000000003)]",0.7822720000000003,,,24.0,0.005908,['Pass'],Pass,0.28000000000000014,-0.28000000000000014,0.0,0.0,0.3
377.0,3.0,wc_3,,0.0,,,,0.0,,,,Pass,,,,,
377.0,3.0,wc_3,wc_10,1.0,"[('wc_10', 0.5800000000000004), ('wc_3', 0.6400000000000005), ('wc_11', 0.16000000000000003), ('wc_7', 0.28000000000000014)]",0.9085542400000002,,,23.0,0.041152999999999995,['Pass'],Pass,0.5800000000000004,-0.3300000000000004,2.0,8.0,0.7
410.0,5.0,wc_5,,0.0,,,,382.0,,,,Pass,,,,,
410.0,5.0,wc_5,,0.0,,,58.0,,,,,Pass,,,,,
410.0,5.0,wc_5,,0.0,,,,0.0,,,,Pass,,,,,
410.0,5.0,wc_5,wc_5,0.0,"[('wc_5', 0.3700000000000002)]",0.3700000000000002,,,28.0,0.002405,['Pass'],Pass,0.3700000000000002,-0.20333333333333356,1.0,6.0,0.2
410.0,5.0,wc_5,,0.0,,,,122.0,,,,Pass,,,,,
410.0,5.0,wc_5,wc_9,0.0,"[('wc_9', 0.6400000000000005), ('wc_5', 0.3700000000000002)]",0.7732000000000003,,,21.0,0.004798,['Pass'],Pass,0.6400000000000005,-0.35428571428571476,2.0,7.0,0.9
410.0,5.0,wc_5,,0.0,,,,263.0,,,,Pass,,,,,
410.0,5.0,wc_5,wc_2,1.0,"[('wc_2', 0.7300000000000005), ('wc_5', 0.3700000000000002), ('wc_9', 0.6400000000000005)]",0.9387640000000003,,,30.0,0.039049,['Pass'],Pass,0.7300000000000005,-0.35500000000000054,3.0,8.0,1.0
415.0,6.0,wc_6,,0.0,,,,122.0,,,,Pass,,,,,
415.0,6.0,wc_6,,0.0,,,50.0,,,,,Pass,,,,,
415.0,6.0,wc_6,,0.0,,,,0.0,,,,Pass,,,,,
415.0,6.0,wc_6,wc_6,0.0,"[('wc_6', 0.4700000000000003)]",0.4700000000000003,,,33.0,0.002334,['Fail'],Pass,0.4700000000000003,-0.4700000000000003,0.0,3.0,0.5
415.0,6.0,wc_6,,0.0,,,,202.0,,,,Pass,,,,,
415.0,6.0,wc_6,wc_14,0.0,"[('wc_14', 0.2600000000000001), ('wc_6', 0.4700000000000003)]",0.6078000000000003,,,36.0,0.005501,['Fail'],Pass,0.2600000000000001,-0.1766666666666668,0.0,0.0,0.2
415.0,6.0,wc_6,,0.0,,,,182.0,,,,Pass,,,,,
415.0,6.0,wc_6,wc_8,0.0,"[('wc_8', 0.5800000000000004), ('wc_6', 0.4700000000000003), ('wc_14', 0.2600000000000001)]",0.8352760000000002,,,39.0,0.005883,['Fail'],Pass,0.5800000000000004,-0.2466666666666671,1.0,3.0,0.6
415.0,6.0,wc_6,,0.0,,,,223.0,,,,Pass,,,,,
415.0,6.0,wc_6,wc_17,0.0,"[('wc_6', 0.4700000000000003), ('wc_14', 0.2600000000000001), ('wc_8', 0.5800000000000004)]",0.8352760000000002,,,26.0,0.010027000000000001,['Fail'],Pass,0.5100000000000003,-0.31000000000000033,1.0,5.0,0.8
415.0,6.0,wc_6,,0.0,,,,41.0,,,,Pass,,,,,
415.0,6.0,wc_6,wc_13,1.0,"[('wc_13', 0.6300000000000004), ('wc_6', 0.4700000000000003), ('wc_14', 0.2600000000000001), ('wc_8', 0.5800000000000004)]",0.9390521200000002,,,21.0,0.045146000000000006,['Fail'],Pass,0.6300000000000004,-0.34428571428571475,2.0,7.0,0.8
428.0,7.0,wc_7,,0.0,,,,182.0,,,,Pass,,,,,
428.0,7.0,wc_7,,0.0,,,73.0,,,,,Pass,,,,,
428.0,7.0,wc_7,,0.0,,,,0.0,,,,Pass,,,,,
428.0,7.0,wc_7,wc_7,0.0,"[('wc_7', 0.29000000000000015)]",0.29000000000000015,,,27.0,0.00209,['Pass'],Pass,0.29000000000000015,0.04333333333333317,1.0,3.0,0.3
428.0,7.0,wc_7,,0.0,,,,162.0,,,,Pass,,,,,
428.0,7.0,wc_7,wc_13,0.0,"[('wc_13', 0.6300000000000004), ('wc_7', 0.29000000000000015)]",0.7373000000000004,,,36.0,0.004934,['Pass'],Pass,0.6300000000000004,-0.34428571428571475,2.0,7.0,0.8
428.0,7.0,wc_7,,0.0,,,,341.0,,,,Pass,,,,,
428.0,7.0,wc_7,wc_3,1.0,"[('wc_3', 0.6500000000000005), ('wc_7', 0.29000000000000015), ('wc_13', 0.6300000000000004)]",0.9080550000000003,,,30.0,0.047060000000000005,['Pass'],Pass,0.6500000000000005,-0.07857142857142907,4.0,7.0,0.9
436.0,10.0,wc_10,,0.0,,,,182.0,,,,Fail,,,,,
436.0,10.0,wc_10,,0.0,,,66.0,,,,,Fail,,,,,
436.0,10.0,wc_10,,0.0,,,,0.0,,,,Fail,,,,,
436.0,10.0,wc_10,wc_10,0.0,"[('wc_10', 0.5800000000000004)]",0.5800000000000004,,,21.0,0.002577,['Fail'],Fail,0.5800000000000004,-0.3981818181818186,0.0,0.0,0.7
436.0,10.0,wc_10,,0.0,,,,81.0,,,,Fail,,,,,
436.0,10.0,wc_10,wc_8,0.0,"[('wc_8', 0.5800000000000004), ('wc_10', 0.5800000000000004)]",0.8236000000000003,,,20.0,0.004203,['Fail'],Fail,0.5800000000000004,-0.18000000000000038,2.0,5.0,0.6
436.0,10.0,wc_10,,0.0,,,,182.0,,,,Fail,,,,,
436.0,10.0,wc_10,wc_2,1.0,"[('wc_2', 0.7300000000000005), ('wc_10', 0.5800000000000004), ('wc_8', 0.5800000000000004)]",0.9523720000000002,,,40.0,0.044134,['Fail'],Fail,0.7300000000000005,-0.7300000000000005,0.0,0.0,1.0
445.0,9.0,wc_9,,0.0,,,,183.0,,,,Pass,,,,,
445.0,9.0,wc_9,,0.0,,,54.0,,,,,Pass,,,,,
445.0,9.0,wc_9,,0.0,,,,0.0,,,,Pass,,,,,
445.0,9.0,wc_9,wc_9,0.0,"[('wc_9', 0.6400000000000005)]",0.6400000000000005,,,38.0,0.002473,['Pass'],Pass,0.6400000000000005,-0.36727272727272775,0.0,0.0,0.9
445.0,9.0,wc_9,,0.0,,,,61.0,,,,Pass,,,,,
445.0,9.0,wc_9,wc_6,0.0,"[('wc_9', 0.6400000000000005)]",0.6400000000000005,,,23.0,0.011325,['Pass'],Pass,0.4700000000000003,-0.3033333333333337,1.0,6.0,0.5
445.0,9.0,wc_9,,0.0,,,,162.0,,,,Pass,,,,,
445.0,9.0,wc_9,wc_12,0.0,"[('wc_12', 0.5100000000000003), ('wc_6', 0.4700000000000003)]",0.7403000000000004,,,36.0,0.007741999999999999,['Fail'],Pass,0.5100000000000003,-0.3671428571428575,0.0,0.0,0.3
445.0,9.0,wc_9,,0.0,,,,361.0,,,,Pass,,,,,
445.0,9.0,wc_9,wc_3,0.0,"[('wc_3', 0.6500000000000005), ('wc_9', 0.6400000000000005)]",0.8740000000000003,,,22.0,0.014963,['Pass'],Pass,0.6500000000000005,-0.15000000000000047,4.0,8.0,0.9
445.0,9.0,wc_9,,0.0,,,,101.0,,,,Pass,,,,,
445.0,9.0,wc_9,wc_2,1.0,"[('wc_2', 0.7300000000000005), ('wc_9', 0.6400000000000005), ('wc_3', 0.6500000000000005)]",0.9659800000000002,,,24.0,0.047279,['Pass'],Pass,0.7400000000000005,0.25999999999999945,1.0,1.0,1.0
453.0,11.0,wc_11,,0.0,,,,223.0,,,,Pass,,,,,
453.0,11.0,wc_11,,0.0,,,54.0,,,,,Pass,,,,,
453.0,11.0,wc_11,,0.0,,,,0.0,,,,Pass,,,,,
453.0,11.0,wc_11,wc_11,0.0,"[('wc_11', 0.17000000000000004)]",0.17000000000000004,,,22.0,0.002923,['Pass'],Pass,0.17000000000000004,-0.04500000000000004,1.0,8.0,0.1
453.0,11.0,wc_11,,0.0,,,,81.0,,,,Pass,,,,,
453.0,11.0,wc_11,wc_13,0.0,"[('wc_13', 0.6300000000000004), ('wc_11', 0.17000000000000004)]",0.6929000000000004,,,26.0,0.0057610000000000005,['Pass'],Pass,0.6300000000000004,-0.33000000000000046,0.0,0.0,0.8
453.0,11.0,wc_11,,0.0,,,,0.0,,,,Pass,,,,,
453.0,11.0,wc_11,wc_15,0.0,"[('wc_15', 0.22000000000000008), ('wc_11', 0.17000000000000004), ('wc_13', 0.6300000000000004)]",0.7604620000000003,,,39.0,0.010554999999999998,['Pass'],Pass,0.22000000000000008,-0.16444444444444453,0.0,0.0,0.1
453.0,11.0,wc_11,,0.0,,,,442.0,,,,Pass,,,,,
453.0,11.0,wc_11,wc_5,0.0,"[('wc_5', 0.3700000000000002), ('wc_11', 0.17000000000000004), ('wc_13', 0.6300000000000004), ('wc_15', 0.22000000000000008)]",0.8490910600000002,,,23.0,0.008985,['Pass'],Pass,0.3700000000000002,-0.1881818181818184,0.0,0.0,0.2
453.0,11.0,wc_11,,0.0,,,,103.0,,,,Pass,,,,,
453.0,11.0,wc_11,wc_4,1.0,"[('wc_4', 0.5300000000000004), ('wc_11', 0.17000000000000004), ('wc_13', 0.6300000000000004), ('wc_15', 0.22000000000000008), ('wc_5', 0.3700000000000002)]",0.9290727982000002,,,32.0,0.056810000000000006,['Pass'],Pass,0.5300000000000004,-0.5300000000000004,0.0,0.0,0.9
463.0,10.0,wc_10,,0.0,,,,162.0,,,,Pass,,,,,
463.0,10.0,wc_10,,0.0,,,61.0,,,,,Pass,,,,,
463.0,10.0,wc_10,,0.0,,,,0.0,,,,Pass,,,,,
463.0,10.0,wc_10,wc_10,0.0,"[('wc_10', 0.5900000000000004)]",0.5900000000000004,,,37.0,0.002386,['Fail'],Pass,0.5900000000000004,-0.2566666666666671,1.0,3.0,0.7
463.0,10.0,wc_10,,0.0,,,,223.0,,,,Pass,,,,,
463.0,10.0,wc_10,wc_1,0.0,"[('wc_10', 0.5900000000000004)]",0.5900000000000004,,,32.0,0.004043,['Fail'],Pass,0.4900000000000003,-0.356666666666667,0.0,0.0,0.4
463.0,10.0,wc_10,,0.0,,,,222.0,,,,Pass,,,,,
463.0,10.0,wc_10,wc_14,0.0,"[('wc_14', 0.27000000000000013), ('wc_1', 0.4900000000000003)]",0.6277000000000004,,,35.0,0.005748,['Pass'],Pass,0.27000000000000013,-0.07000000000000012,1.0,5.0,0.2
463.0,10.0,wc_10,,0.0,,,,361.0,,,,Pass,,,,,
463.0,10.0,wc_10,wc_5,0.0,"[('wc_5', 0.3800000000000002), ('wc_10', 0.5900000000000004)]",0.7458000000000004,,,23.0,0.007989,['Fail'],Pass,0.3800000000000002,0.6199999999999998,1.0,1.0,0.2
463.0,10.0,wc_10,,0.0,,,,122.0,,,,Pass,,,,,
463.0,10.0,wc_10,wc_9,0.0,"[('wc_9', 0.6500000000000005), ('wc_1', 0.4900000000000003), ('wc_14', 0.27000000000000013)]",0.8696950000000003,,,21.0,0.010071,['Pass'],Pass,0.6500000000000005,-0.15000000000000047,1.0,2.0,0.9
463.0,10.0,wc_10,,0.0,,,,162.0,,,,Pass,,,,,
463.0,10.0,wc_10,wc_15,0.0,"[('wc_1', 0.4900000000000003), ('wc_14', 0.27000000000000013), ('wc_9', 0.6500000000000005)]",0.8696950000000003,,,24.0,0.012543,['Pass'],Pass,0.2300000000000001,0.7699999999999999,1.0,1.0,0.1
463.0,10.0,wc_10,,0.0,,,,81.0,,,,Pass,,,,,
463.0,10.0,wc_10,wc_13,1.0,"[('wc_13', 0.6400000000000005), ('wc_10', 0.5900000000000004), ('wc_5', 0.3800000000000002), ('wc_15', 0.2300000000000001)]",0.9295357600000002,,,35.0,0.050538999999999994,['Fail'],Pass,0.6500000000000005,0.34999999999999953,2.0,2.0,0.8
475.0,8.0,wc_8,,0.0,,,,202.0,,,,Pass,,,,,
475.0,8.0,wc_8,,0.0,,,72.0,,,,,Pass,,,,,
475.0,8.0,wc_8,,0.0,,,,0.0,,,,Pass,,,,,
475.0,8.0,wc_8,wc_8,0.0,"[('wc_8', 0.5800000000000004)]",0.5800000000000004,,,30.0,0.0021,['Pass'],Pass,0.5800000000000004,-0.2466666666666671,3.0,9.0,0.6
475.0,8.0,wc_8,,0.0,,,,281.0,,,,Pass,,,,,
475.0,8.0,wc_8,wc_3,0.0,"[('wc_3', 0.6500000000000005), ('wc_8', 0.5800000000000004)]",0.8530000000000003,,,33.0,0.004321,['Pass'],Pass,0.6500000000000005,-0.19545454545454594,0.0,0.0,0.9
475.0,8.0,wc_8,,0.0,,,,81.0,,,,Pass,,,,,
475.0,8.0,wc_8,wc_1,1.0,"[('wc_1', 0.4800000000000003), ('wc_8', 0.5800000000000004), ('wc_3', 0.6500000000000005)]",0.9235600000000003,,,35.0,0.045950000000000005,['Pass'],Pass,0.4900000000000003,0.009999999999999676,1.0,2.0,0.4
495.0,12.0,wc_12,,0.0,,,,182.0,,,,Fail,,,,,
495.0,12.0,wc_12,,0.0,,,66.0,,,,,Fail,,,,,
495.0,12.0,wc_12,,0.0,,,,0.0,,,,Fail,,,,,
495.0,12.0,wc_12,wc_12,0.0,"[('wc_12', 0.5000000000000003)]",0.5000000000000003,,,35.0,0.002566,['Fail'],Fail,0.5000000000000003,-0.5000000000000003,0.0,4.0,0.3
495.0,12.0,wc_12,,0.0,,,,341.0,,,,Fail,,,,,
495.0,12.0,wc_12,wc_10,0.0,"[('wc_10', 0.5900000000000004), ('wc_12', 0.5000000000000003)]",0.7950000000000004,,,37.0,0.004658,['Fail'],Fail,0.5900000000000004,-0.1900000000000004,2.0,5.0,0.7
495.0,12.0,wc_12,,0.0,,,,41.0,,,,Fail,,,,,
495.0,12.0,wc_12,wc_6,0.0,"[('wc_6', 0.4600000000000003), ('wc_12', 0.5000000000000003), ('wc_10', 0.5900000000000004)]",0.8893000000000002,,,35.0,0.006451999999999999,['Fail'],Fail,0.4600000000000003,-0.3600000000000003,0.0,0.0,0.5
495.0,12.0,wc_12,,0.0,,,,222.0,,,,Fail,,,,,
495.0,12.0,wc_12,wc_2,1.0,"[('wc_2', 0.7400000000000005), ('wc_12', 0.5000000000000003), ('wc_10', 0.5900000000000004), ('wc_6', 0.4600000000000003)]",0.9712180000000001,,,35.0,0.04699400000000001,['Fail'],Fail,0.7400000000000005,-0.3400000000000005,2.0,5.0,1.0
523.0,12.0,wc_12,,0.0,,,,162.0,,,,Fail,,,,,
523.0,12.0,wc_12,,0.0,,,56.0,,,,,Fail,,,,,
523.0,12.0,wc_12,,0.0,,,,0.0,,,,Fail,,,,,
523.0,12.0,wc_12,wc_12,0.0,"[('wc_12', 0.5000000000000003)]",0.5000000000000003,,,37.0,0.00233,['Fail'],Fail,0.5000000000000003,-0.3000000000000003,1.0,5.0,0.3
523.0,12.0,wc_12,,0.0,,,,0.0,,,,Fail,,,,,
523.0,12.0,wc_12,wc_14,0.0,"[('wc_14', 0.2600000000000001), ('wc_12', 0.5000000000000003)]",0.6300000000000003,,,27.0,0.0074730000000000005,['Fail'],Fail,0.2600000000000001,-0.13500000000000012,1.0,8.0,0.2
523.0,12.0,wc_12,,0.0,,,,321.0,,,,Fail,,,,,
523.0,12.0,wc_12,wc_11,0.0,"[('wc_12', 0.5000000000000003), ('wc_14', 0.2600000000000001)]",0.6300000000000003,,,25.0,0.019821,['Fail'],Fail,0.18000000000000005,-0.013333333333333391,0.0,0.0,0.1
523.0,12.0,wc_12,,0.0,,,,41.0,,,,Fail,,,,,
523.0,12.0,wc_12,wc_7,0.0,"[('wc_12', 0.5000000000000003), ('wc_14', 0.2600000000000001)]",0.6300000000000003,,,26.0,0.008508,['Fail'],Fail,0.30000000000000016,-0.10000000000000014,0.0,0.0,0.3
523.0,12.0,wc_12,,0.0,,,,243.0,,,,Fail,,,,,
523.0,12.0,wc_12,wc_17,0.0,"[('wc_17', 0.5000000000000003), ('wc_12', 0.5000000000000003), ('wc_14', 0.2600000000000001)]",0.8150000000000003,,,34.0,0.015845,['Fail'],Fail,0.5000000000000003,-0.4230769230769234,0.0,0.0,0.8
523.0,12.0,wc_12,,0.0,,,,223.0,,,,Fail,,,,,
523.0,12.0,wc_12,wc_8,1.0,"[('wc_8', 0.5800000000000004), ('wc_12', 0.5000000000000003), ('wc_14', 0.2600000000000001), ('wc_17', 0.5000000000000003)]",0.9223000000000002,,,21.0,0.056554999999999994,['Fail'],Fail,0.5800000000000004,-0.0800000000000004,1.0,2.0,0.6
545.0,12.0,wc_12,,0.0,,,,122.0,,,,Fail,,,,,
545.0,12.0,wc_12,,0.0,,,59.0,,,,,Fail,,,,,
545.0,12.0,wc_12,,0.0,,,,0.0,,,,Fail,,,,,
545.0,12.0,wc_12,wc_12,0.0,"[('wc_12', 0.5000000000000003)]",0.5000000000000003,,,33.0,0.003407,['Pass'],Fail,0.5000000000000003,-0.16666666666666702,2.0,6.0,0.3
545.0,12.0,wc_12,,0.0,,,,0.0,,,,Fail,,,,,
545.0,12.0,wc_12,wc_15,0.0,"[('wc_12', 0.5000000000000003)]",0.5000000000000003,,,30.0,0.009181,['Pass'],Fail,0.2400000000000001,0.15999999999999992,2.0,5.0,0.1
545.0,12.0,wc_12,,0.0,,,,422.0,,,,Fail,,,,,
545.0,12.0,wc_12,wc_4,0.0,"[('wc_4', 0.5300000000000004), ('wc_15', 0.2400000000000001)]",0.6428000000000003,,,33.0,0.005919,['Fail'],Fail,0.5300000000000004,-0.5300000000000004,0.0,4.0,0.9
545.0,12.0,wc_12,,0.0,,,,202.0,,,,Fail,,,,,
545.0,12.0,wc_12,wc_16,0.0,"[('wc_16', 0.6500000000000005), ('wc_15', 0.2400000000000001), ('wc_4', 0.5300000000000004)]",0.8749800000000003,,,24.0,0.00883,['Fail'],Fail,0.6500000000000005,-0.4192307692307697,0.0,0.0,0.8
545.0,12.0,wc_12,,0.0,,,,223.0,,,,Fail,,,,,
545.0,12.0,wc_12,wc_7,0.0,"[('wc_15', 0.2400000000000001), ('wc_4', 0.5300000000000004), ('wc_16', 0.6500000000000005)]",0.8749800000000003,,,23.0,0.015173000000000002,['Fail'],Fail,0.29000000000000015,-0.29000000000000015,0.0,1.0,0.3
545.0,12.0,wc_12,,0.0,,,,0.0,,,,Fail,,,,,
545.0,12.0,wc_12,wc_10,1.0,"[('wc_10', 0.5900000000000004), ('wc_15', 0.2400000000000001), ('wc_4', 0.5300000000000004), ('wc_16', 0.6500000000000005)]",0.9487418000000002,,,30.0,0.046872,['Fail'],Fail,0.5900000000000004,-0.09000000000000041,4.0,8.0,0.7
567.0,12.0,wc_12,,0.0,,,,81.0,,,,Fail,,,,,
567.0,12.0,wc_12,,0.0,,,60.0,,,,,Fail,,,,,
567.0,12.0,wc_12,,0.0,,,,0.0,,,,Fail,,,,,
567.0,12.0,wc_12,wc_12,0.0,"[('wc_12', 0.4900000000000003)]",0.4900000000000003,,,21.0,0.002536,['Pass'],Fail,0.4900000000000003,-0.20428571428571463,2.0,7.0,0.3
567.0,12.0,wc_12,,0.0,,,,381.0,,,,Fail,,,,,
567.0,12.0,wc_12,wc_4,0.0,"[('wc_4', 0.5300000000000004)]",0.5300000000000004,,,38.0,0.004509,['Fail'],Fail,0.5300000000000004,-0.33000000000000035,1.0,5.0,0.9
567.0,12.0,wc_12,,0.0,,,,81.0,,,,Fail,,,,,
567.0,12.0,wc_12,wc_6,0.0,"[('wc_6', 0.4700000000000003), ('wc_4', 0.5300000000000004)]",0.7509000000000003,,,28.0,0.005631,['Fail'],Fail,0.4700000000000003,-0.136666666666667,1.0,3.0,0.5
567.0,12.0,wc_12,,0.0,,,,263.0,,,,Fail,,,,,
567.0,12.0,wc_12,wc_17,0.0,"[('wc_17', 0.5100000000000003), ('wc_4', 0.5300000000000004), ('wc_6', 0.4700000000000003)]",0.8779410000000003,,,37.0,0.00774,['Fail'],Fail,0.5100000000000003,-0.010000000000000342,1.0,2.0,0.8
567.0,12.0,wc_12,,0.0,,,,103.0,,,,Fail,,,,,
567.0,12.0,wc_12,wc_16,1.0,"[('wc_16', 0.6600000000000005), ('wc_4', 0.5300000000000004), ('wc_6', 0.4700000000000003), ('wc_17', 0.5100000000000003)]",0.9584999400000002,,,34.0,0.047674999999999995,['Fail'],Fail,0.6700000000000005,0.3299999999999995,2.0,2.0,0.8
595.0,12.0,wc_12,,0.0,,,,41.0,,,,Pass,,,,,
595.0,12.0,wc_12,,0.0,,,55.0,,,,,Pass,,,,,
595.0,12.0,wc_12,,0.0,,,,0.0,,,,Pass,,,,,
595.0,12.0,wc_12,wc_12,0.0,"[('wc_12', 0.4800000000000003)]",0.4800000000000003,,,35.0,0.002284,['Pass'],Pass,0.4800000000000003,-0.23000000000000032,2.0,8.0,0.3
595.0,12.0,wc_12,,0.0,,,,182.0,,,,Pass,,,,,
595.0,12.0,wc_12,wc_6,0.0,"[('wc_6', 0.4800000000000003), ('wc_12', 0.4800000000000003)]",0.7296000000000002,,,32.0,0.003914,['Pass'],Pass,0.4800000000000003,0.019999999999999685,2.0,4.0,0.5
595.0,12.0,wc_12,,0.0,,,,222.0,,,,Pass,,,,,
595.0,12.0,wc_12,wc_2,1.0,"[('wc_2', 0.7400000000000005), ('wc_12', 0.4800000000000003), ('wc_6', 0.4800000000000003)]",0.9296960000000002,,,22.0,0.047953,['Pass'],Pass,0.7400000000000005,-0.40666666666666723,3.0,9.0,1.0
603.0,13.0,wc_13,,0.0,,,,182.0,,,,Fail,,,,,
603.0,13.0,wc_13,,0.0,,,72.0,,,,,Fail,,,,,
603.0,13.0,wc_13,,0.0,,,,0.0,,,,Fail,,,,,
603.0,13.0,wc_13,wc_13,0.0,"[('wc_13', 0.6500000000000005)]",0.6500000000000005,,,39.0,0.002162,['Fail'],Fail,0.6500000000000005,-0.40000000000000047,2.0,8.0,0.8
603.0,13.0,wc_13,,0.0,,,,361.0,,,,Fail,,,,,
603.0,13.0,wc_13,wc_4,0.0,"[('wc_4', 0.5300000000000004), ('wc_13', 0.6500000000000005)]",0.8355000000000004,,,24.0,0.003895,['Fail'],Fail,0.5300000000000004,-0.24428571428571466,2.0,7.0,0.9
603.0,13.0,wc_13,,0.0,,,,81.0,,,,Fail,,,,,
603.0,13.0,wc_13,wc_6,1.0,"[('wc_6', 0.4900000000000003), ('wc_13', 0.6500000000000005), ('wc_4', 0.5300000000000004)]",0.9161050000000002,,,39.0,0.046462,['Fail'],Fail,0.5000000000000003,0.1666666666666663,4.0,6.0,0.5
617.0,13.0,wc_13,,0.0,,,,182.0,,,,Fail,,,,,
617.0,13.0,wc_13,,0.0,,,75.0,,,,,Fail,,,,,
617.0,13.0,wc_13,,0.0,,,,0.0,,,,Fail,,,,,
617.0,13.0,wc_13,wc_13,0.0,"[('wc_13', 0.6500000000000005)]",0.6500000000000005,,,22.0,0.002577,['Fail'],Fail,0.6500000000000005,-0.31666666666666715,3.0,9.0,0.8
617.0,13.0,wc_13,,0.0,,,,242.0,,,,Fail,,,,,
617.0,13.0,wc_13,wc_2,0.0,"[('wc_2', 0.7400000000000005), ('wc_13', 0.6500000000000005)]",0.9090000000000003,,,27.0,0.004359999999999999,['Fail'],Fail,0.7400000000000005,-0.44000000000000056,0.0,0.0,1.0
617.0,13.0,wc_13,,0.0,,,,0.0,,,,Fail,,,,,
617.0,13.0,wc_13,wc_3,1.0,"[('wc_3', 0.6600000000000005), ('wc_13', 0.6500000000000005), ('wc_2', 0.7400000000000005)]",0.9690600000000001,,,29.0,0.045528,['Fail'],Fail,0.6600000000000005,-0.4100000000000005,2.0,8.0,0.9
623.0,13.0,wc_13,,0.0,,,,161.0,,,,Pass,,,,,
623.0,13.0,wc_13,,0.0,,,79.0,,,,,Pass,,,,,
623.0,13.0,wc_13,,0.0,,,,0.0,,,,Pass,,,,,
623.0,13.0,wc_13,wc_13,0.0,"[('wc_13', 0.6500000000000005)]",0.6500000000000005,,,34.0,0.002177,['Pass'],Pass,0.6500000000000005,-0.6500000000000005,0.0,0.0,0.8
623.0,13.0,wc_13,,0.0,,,,301.0,,,,Pass,,,,,
623.0,13.0,wc_13,wc_9,0.0,"[('wc_9', 0.6400000000000005), ('wc_13', 0.6500000000000005)]",0.8740000000000003,,,32.0,0.004470999999999999,['Pass'],Pass,0.6400000000000005,-0.5490909090909095,0.0,0.0,0.9
623.0,13.0,wc_13,,0.0,,,,182.0,,,,Pass,,,,,
623.0,13.0,wc_13,wc_16,1.0,"[('wc_16', 0.6700000000000005), ('wc_13', 0.6500000000000005), ('wc_9', 0.6400000000000005)]",0.9584200000000002,,,39.0,0.041741,['Pass'],Pass,0.6700000000000005,-0.17000000000000048,3.0,6.0,0.8
627.0,14.0,wc_14,,0.0,,,,81.0,,,,Pass,,,,,
627.0,14.0,wc_14,,0.0,,,70.0,,,,,Pass,,,,,
627.0,14.0,wc_14,,0.0,,,,0.0,,,,Pass,,,,,
627.0,14.0,wc_14,wc_14,0.0,"[('wc_14', 0.2600000000000001)]",0.2600000000000001,,,23.0,0.003886,['Pass'],Pass,0.2600000000000001,-0.1266666666666668,0.0,0.0,0.2
627.0,14.0,wc_14,,0.0,,,,202.0,,,,Pass,,,,,
627.0,14.0,wc_14,wc_1,0.0,"[('wc_1', 0.4900000000000003), ('wc_14', 0.2600000000000001)]",0.6226000000000003,,,24.0,0.005855,['Pass'],Pass,0.4900000000000003,-0.39000000000000035,0.0,0.0,0.4
627.0,14.0,wc_14,,0.0,,,,0.0,,,,Pass,,,,,
627.0,14.0,wc_14,wc_5,0.0,"[('wc_5', 0.39000000000000024), ('wc_14', 0.2600000000000001), ('wc_1', 0.4900000000000003)]",0.7697860000000003,,,30.0,0.006399,['Pass'],Pass,0.39000000000000024,-0.2081818181818184,0.0,0.0,0.2
627.0,14.0,wc_14,,0.0,,,,182.0,,,,Pass,,,,,
627.0,14.0,wc_14,wc_16,1.0,"[('wc_16', 0.6700000000000005), ('wc_14', 0.2600000000000001), ('wc_1', 0.4900000000000003), ('wc_5', 0.39000000000000024)]",0.9240293800000002,,,26.0,0.043322000000000006,['Pass'],Pass,0.6700000000000005,-0.09857142857142909,4.0,7.0,0.8
632.0,16.0,wc_16,,0.0,,,,0.0,,,,Pass,,,,,
632.0,16.0,wc_16,,0.0,,,66.0,,,,,Pass,,,,,
632.0,16.0,wc_16,,0.0,,,,0.0,,,,Pass,,,,,
632.0,16.0,wc_16,wc_16,0.0,"[('wc_16', 0.6700000000000005)]",0.6700000000000005,,,29.0,0.002457,['Pass'],Pass,0.6700000000000005,-0.09857142857142909,4.0,7.0,0.8
632.0,16.0,wc_16,,0.0,,,,203.0,,,,Pass,,,,,
632.0,16.0,wc_16,wc_6,0.0,"[('wc_6', 0.5000000000000003), ('wc_16', 0.6700000000000005)]",0.8350000000000004,,,37.0,0.004058,['Pass'],Pass,0.5000000000000003,-0.05555555555555591,4.0,9.0,0.5
632.0,16.0,wc_16,,0.0,,,,202.0,,,,Pass,,,,,
632.0,16.0,wc_16,wc_1,1.0,"[('wc_1', 0.5000000000000003), ('wc_16', 0.6700000000000005), ('wc_6', 0.5000000000000003)]",0.9175000000000002,,,32.0,0.045844,['Pass'],Pass,0.5100000000000003,0.48999999999999966,2.0,2.0,0.4
647.0,15.0,wc_15,,0.0,,,,243.0,,,,Fail,,,,,
647.0,15.0,wc_15,,0.0,,,72.0,,,,,Fail,,,,,
647.0,15.0,wc_15,,0.0,,,,0.0,,,,Fail,,,,,
647.0,15.0,wc_15,wc_15,0.0,"[('wc_15', 0.2500000000000001)]",0.2500000000000001,,,32.0,0.002355,['Pass'],Fail,0.2500000000000001,-0.01923076923076933,0.0,0.0,0.1
647.0,15.0,wc_15,,0.0,,,,382.0,,,,Fail,,,,,
647.0,15.0,wc_15,wc_10,0.0,"[('wc_10', 0.5900000000000004), ('wc_15', 0.2500000000000001)]",0.6925000000000003,,,36.0,0.004501,['Pass'],Fail,0.5900000000000004,-0.32333333333333375,0.0,0.0,0.7
647.0,15.0,wc_15,,0.0,,,,0.0,,,,Fail,,,,,
647.0,15.0,wc_15,wc_11,0.0,"[('wc_15', 0.2500000000000001), ('wc_10', 0.5900000000000004)]",0.6925000000000003,,,33.0,0.009492,['Pass'],Fail,0.17000000000000004,-0.17000000000000004,0.0,9.0,0.1
647.0,15.0,wc_15,,0.0,,,,21.0,,,,Fail,,,,,
647.0,15.0,wc_15,wc_6,0.0,"[('wc_15', 0.2500000000000001), ('wc_10', 0.5900000000000004)]",0.6925000000000003,,,32.0,0.009072,['Pass'],Fail,0.5000000000000003,-0.5000000000000003,0.0,0.0,0.5
647.0,15.0,wc_15,,0.0,,,,162.0,,,,Fail,,,,,
647.0,15.0,wc_15,wc_12,0.0,"[('wc_12', 0.4800000000000003), ('wc_15', 0.2500000000000001), ('wc_10', 0.5900000000000004)]",0.8401000000000003,,,31.0,0.009349,['Pass'],Fail,0.4800000000000003,-0.265714285714286,0.0,0.0,0.3
647.0,15.0,wc_15,,0.0,,,,262.0,,,,Fail,,,,,
647.0,15.0,wc_15,wc_2,0.0,"[('wc_2', 0.7500000000000006), ('wc_11', 0.17000000000000004), ('wc_6', 0.5000000000000003)]",0.8962500000000003,,,38.0,0.012933,['Fail'],Fail,0.7500000000000006,-0.5000000000000006,1.0,4.0,1.0
647.0,15.0,wc_15,,0.0,,,,0.0,,,,Fail,,,,,
647.0,15.0,wc_15,wc_5,1.0,"[('wc_5', 0.40000000000000024), ('wc_11', 0.17000000000000004), ('wc_6', 0.5000000000000003), ('wc_2', 0.7500000000000006)]",0.9377500000000002,,,32.0,0.054606999999999996,['Fail'],Fail,0.41000000000000025,0.2566666666666664,2.0,3.0,0.2
656.0,15.0,wc_15,,0.0,,,,162.0,,,,Fail,,,,,
656.0,15.0,wc_15,,0.0,,,67.0,,,,,Fail,,,,,
656.0,15.0,wc_15,,0.0,,,,0.0,,,,Fail,,,,,
656.0,15.0,wc_15,wc_15,0.0,"[('wc_15', 0.2400000000000001)]",0.2400000000000001,,,32.0,0.002641,['Pass'],Fail,0.2400000000000001,-0.2400000000000001,0.0,1.0,0.1
656.0,15.0,wc_15,,0.0,,,,0.0,,,,Fail,,,,,
656.0,15.0,wc_15,wc_17,0.0,"[('wc_17', 0.5200000000000004)]",0.5200000000000004,,,22.0,0.004444999999999999,['Fail'],Fail,0.5200000000000004,-0.32000000000000034,0.0,0.0,0.8
656.0,15.0,wc_15,,0.0,,,,223.0,,,,Fail,,,,,
656.0,15.0,wc_15,wc_8,0.0,"[('wc_8', 0.5800000000000004), ('wc_17', 0.5200000000000004)]",0.7984000000000003,,,26.0,0.005832,['Fail'],Fail,0.5800000000000004,-0.48909090909090946,0.0,0.0,0.6
656.0,15.0,wc_15,,0.0,,,,162.0,,,,Fail,,,,,
656.0,15.0,wc_15,wc_1,1.0,"[('wc_1', 0.5100000000000003), ('wc_17', 0.5200000000000004), ('wc_8', 0.5800000000000004)]",0.9012160000000002,,,39.0,0.045569,['Fail'],Fail,0.5200000000000004,0.22999999999999965,3.0,4.0,0.4
660.0,15.0,wc_15,,0.0,,,,243.0,,,,Pass,,,,,
660.0,15.0,wc_15,,0.0,,,69.0,,,,,Pass,,,,,
660.0,15.0,wc_15,,0.0,,,,0.0,,,,Pass,,,,,
660.0,15.0,wc_15,wc_15,0.0,"[('wc_15', 0.2300000000000001)]",0.2300000000000001,,,25.0,0.002233,['Pass'],Pass,0.2300000000000001,-0.2300000000000001,0.0,2.0,0.1
660.0,15.0,wc_15,,0.0,,,,382.0,,,,Pass,,,,,
660.0,15.0,wc_15,wc_10,0.0,"[('wc_10', 0.5800000000000004)]",0.5800000000000004,,,34.0,0.003927,['Fail'],Pass,0.5800000000000004,-0.5800000000000004,0.0,2.0,0.7
660.0,15.0,wc_15,,0.0,,,,182.0,,,,Pass,,,,,
660.0,15.0,wc_15,wc_17,0.0,"[('wc_17', 0.5300000000000004), ('wc_10', 0.5800000000000004)]",0.8026000000000003,,,21.0,0.006234,['Fail'],Pass,0.5300000000000004,0.46999999999999964,1.0,1.0,0.8
660.0,15.0,wc_15,,0.0,,,,183.0,,,,Pass,,,,,
660.0,15.0,wc_15,wc_6,1.0,"[('wc_6', 0.5100000000000003), ('wc_10', 0.5800000000000004), ('wc_17', 0.5300000000000004)]",0.9032740000000002,,,22.0,0.043126000000000005,['Fail'],Pass,0.5200000000000004,0.14666666666666628,2.0,3.0,0.5
662.0,17.0,wc_17,,0.0,,,,263.0,,,,Fail,,,,,
662.0,17.0,wc_17,,0.0,,,76.0,,,,,Fail,,,,,
662.0,17.0,wc_17,,0.0,,,,0.0,,,,Fail,,,,,
662.0,17.0,wc_17,wc_17,0.0,"[('wc_17', 0.5400000000000004)]",0.5400000000000004,,,26.0,0.005806,['Fail'],Fail,0.5400000000000004,0.45999999999999963,2.0,2.0,0.8
662.0,17.0,wc_17,,0.0,,,,382.0,,,,Fail,,,,,
662.0,17.0,wc_17,wc_4,0.0,"[('wc_4', 0.5300000000000004), ('wc_17', 0.5400000000000004)]",0.7838000000000003,,,37.0,0.003965,['Fail'],Fail,0.5300000000000004,-0.33000000000000035,0.0,0.0,0.9
662.0,17.0,wc_17,,0.0,,,,103.0,,,,Fail,,,,,
662.0,17.0,wc_17,wc_3,1.0,"[('wc_3', 0.6600000000000005), ('wc_17', 0.5400000000000004), ('wc_4', 0.5300000000000004)]",0.9264920000000002,,,32.0,0.042905,['Fail'],Fail,0.6600000000000005,-0.6600000000000005,0.0,0.0,0.9
668.0,17.0,wc_17,,0.0,,,,242.0,,,,Pass,,,,,
668.0,17.0,wc_17,,0.0,,,80.0,,,,,Pass,,,,,
668.0,17.0,wc_17,,0.0,,,,0.0,,,,Pass,,,,,
668.0,17.0,wc_17,wc_17,0.0,"[('wc_17', 0.5500000000000004)]",0.5500000000000004,,,29.0,0.002353,['Pass'],Pass,0.5500000000000004,0.4499999999999996,3.0,3.0,0.8
668.0,17.0,wc_17,,0.0,,,,243.0,,,,Pass,,,,,
668.0,17.0,wc_17,wc_1,0.0,"[('wc_1', 0.5200000000000004), ('wc_17', 0.5500000000000004)]",0.7840000000000004,,,38.0,0.00421,['Pass'],Pass,0.5200000000000004,-0.02000000000000035,3.0,6.0,0.4
668.0,17.0,wc_17,,0.0,,,,243.0,,,,Pass,,,,,
668.0,17.0,wc_17,wc_15,0.0,"[('wc_17', 0.5500000000000004), ('wc_1', 0.5200000000000004)]",0.7840000000000004,,,31.0,0.005683,['Pass'],Pass,0.22000000000000008,-0.22000000000000008,0.0,4.0,0.1
668.0,17.0,wc_17,,0.0,,,,263.0,,,,Pass,,,,,
668.0,17.0,wc_17,wc_8,1.0,"[('wc_8', 0.5900000000000004), ('wc_17', 0.5500000000000004), ('wc_1', 0.5200000000000004)]",0.9114400000000002,,,30.0,0.048625,['Pass'],Pass,0.5900000000000004,-0.09000000000000041,2.0,4.0,0.6
