mpecck/BCQC/bcqc_with_qdt/results/raw/input_4/independent_qc/score/5_workpiece/20200429_104641/wp_5_qc_majority_0.9.csv
production_index,step_idx,production_workcell,qc,consent,winner_qc_list,score,production_time,transport_time,inspection_time,network_time,qc_results,actual_quality,qc_score,score_error,in_winner_counter,in_qc_counter,qc_capability
4.0,1.0,wc_1,,0.0,,,70.0,,,,,Fail,,,,,
4.0,1.0,wc_1,,0.0,,,,0.0,,,,Fail,,,,,
4.0,1.0,wc_1,wc_1,0.0,"[('wc_1', 0.2400000000000001)]",0.2400000000000001,,,28.0,0.003825,['Pass'],Fail,0.2400000000000001,-0.17548387096774204,0.0,0.0,0.1
4.0,1.0,wc_1,,0.0,,,,0.0,,,,Fail,,,,,
4.0,1.0,wc_1,wc_2,0.0,"[('wc_2', 0.8700000000000007)]",0.8700000000000007,,,26.0,0.0047469999999999995,['Fail'],Fail,0.8700000000000007,-0.803333333333334,0.0,0.0,0.8
4.0,1.0,wc_1,,0.0,,,,0.0,,,,Fail,,,,,
4.0,1.0,wc_1,wc_3,0.0,"[('wc_3', 0.8300000000000006), ('wc_2', 0.8700000000000007)]",0.9779000000000002,,,27.0,0.0063030000000000004,['Fail'],Fail,0.8300000000000006,-0.6050000000000006,0.0,0.0,0.9
4.0,1.0,wc_1,,0.0,,,,0.0,,,,Fail,,,,,
4.0,1.0,wc_1,wc_4,1.0,"[('wc_4', 0.8200000000000006), ('wc_2', 0.8700000000000007), ('wc_3', 0.8300000000000006)]",0.9960220000000001,,,21.0,0.03785000000000001,['Fail'],Fail,0.8200000000000006,-0.6450000000000007,0.0,0.0,0.7
10.0,1.0,wc_1,,0.0,,,,61.0,,,,Pass,,,,,
10.0,1.0,wc_1,,0.0,,,50.0,,,,,Pass,,,,,
10.0,1.0,wc_1,,0.0,,,,0.0,,,,Pass,,,,,
10.0,1.0,wc_1,wc_1,0.0,"[('wc_1', 0.2400000000000001)]",0.2400000000000001,,,36.0,0.003228,['Pass'],Pass,0.2400000000000001,-0.2400000000000001,0.0,1.0,0.1
10.0,1.0,wc_1,,0.0,,,,0.0,,,,Pass,,,,,
10.0,1.0,wc_1,wc_2,0.0,"[('wc_2', 0.8700000000000007), ('wc_1', 0.2400000000000001)]",0.9012000000000006,,,33.0,0.004159,['Pass'],Pass,0.8700000000000007,0.12999999999999934,1.0,1.0,0.8
10.0,1.0,wc_1,,0.0,,,,0.0,,,,Pass,,,,,
10.0,1.0,wc_1,wc_3,1.0,"[('wc_3', 0.8300000000000006), ('wc_1', 0.2400000000000001), ('wc_2', 0.8700000000000007)]",0.9832040000000002,,,36.0,0.041958,['Pass'],Pass,0.8300000000000006,0.16999999999999937,2.0,2.0,0.9
13.0,4.0,wc_4,,0.0,,,,0.0,,,,Pass,,,,,
13.0,4.0,wc_4,,0.0,,,71.0,,,,,Pass,,,,,
13.0,4.0,wc_4,,0.0,,,,0.0,,,,Pass,,,,,
13.0,4.0,wc_4,wc_4,0.0,"[('wc_4', 0.8200000000000006)]",0.8200000000000006,,,35.0,0.003647,['Pass'],Pass,0.8200000000000006,-0.8200000000000006,0.0,1.0,0.7
13.0,4.0,wc_4,,0.0,,,,0.0,,,,Pass,,,,,
13.0,4.0,wc_4,wc_5,0.0,"[('wc_5', 0.5700000000000004), ('wc_4', 0.8200000000000006)]",0.9226000000000003,,,27.0,0.008806,['Pass'],Pass,0.5700000000000004,-0.41210526315789514,0.0,0.0,0.4
13.0,4.0,wc_4,,0.0,,,,41.0,,,,Pass,,,,,
13.0,4.0,wc_4,wc_1,0.0,"[('wc_4', 0.8200000000000006), ('wc_5', 0.5700000000000004)]",0.9226000000000003,,,39.0,0.00938,['Pass'],Pass,0.2400000000000001,0.2599999999999999,1.0,2.0,0.1
13.0,4.0,wc_4,,0.0,,,,0.0,,,,Pass,,,,,
13.0,4.0,wc_4,wc_2,1.0,"[('wc_2', 0.8700000000000007), ('wc_4', 0.8200000000000006), ('wc_5', 0.5700000000000004)]",0.9899380000000001,,,39.0,0.040842,['Pass'],Pass,0.8700000000000007,0.12999999999999934,3.0,3.0,0.8
15.0,2.0,wc_2,,0.0,,,,0.0,,,,Fail,,,,,
15.0,2.0,wc_2,,0.0,,,51.0,,,,,Fail,,,,,
15.0,2.0,wc_2,,0.0,,,,0.0,,,,Fail,,,,,
15.0,2.0,wc_2,wc_2,0.0,"[('wc_2', 0.8700000000000007)]",0.8700000000000007,,,37.0,0.004607,['Fail'],Fail,0.8700000000000007,0.12999999999999934,3.0,3.0,0.8
15.0,2.0,wc_2,,0.0,,,,0.0,,,,Fail,,,,,
15.0,2.0,wc_2,wc_3,0.0,"[('wc_3', 0.8300000000000006), ('wc_2', 0.8700000000000007)]",0.9779000000000002,,,34.0,0.004704,['Fail'],Fail,0.8300000000000006,-0.163333333333334,2.0,3.0,0.9
15.0,2.0,wc_2,,0.0,,,,0.0,,,,Fail,,,,,
15.0,2.0,wc_2,wc_4,1.0,"[('wc_4', 0.8200000000000006), ('wc_2', 0.8700000000000007), ('wc_3', 0.8300000000000006)]",0.9960220000000001,,,27.0,0.04262099999999999,['Fail'],Fail,0.8200000000000006,-0.153333333333334,2.0,3.0,0.7
19.0,3.0,wc_3,,0.0,,,,103.0,,,,Fail,,,,,
19.0,3.0,wc_3,,0.0,,,79.0,,,,,Fail,,,,,
19.0,3.0,wc_3,,0.0,,,,0.0,,,,Fail,,,,,
19.0,3.0,wc_3,wc_3,0.0,"[('wc_3', 0.8300000000000006)]",0.8300000000000006,,,31.0,0.002098,['Fail'],Fail,0.8300000000000006,-0.08000000000000063,3.0,4.0,0.9
19.0,3.0,wc_3,,0.0,,,,0.0,,,,Fail,,,,,
19.0,3.0,wc_3,wc_4,0.0,"[('wc_4', 0.8200000000000006), ('wc_3', 0.8300000000000006)]",0.9694000000000003,,,39.0,0.00402,['Fail'],Fail,0.8200000000000006,-0.153333333333334,2.0,3.0,0.7
19.0,3.0,wc_3,,0.0,,,,0.0,,,,Fail,,,,,
19.0,3.0,wc_3,wc_5,1.0,"[('wc_5', 0.5700000000000004), ('wc_3', 0.8300000000000006), ('wc_4', 0.8200000000000006)]",0.9868420000000001,,,25.0,0.051788999999999995,['Fail'],Fail,0.5700000000000004,0.09666666666666623,2.0,3.0,0.4
24.0,2.0,wc_2,,0.0,,,,61.0,,,,Pass,,,,,
24.0,2.0,wc_2,,0.0,,,76.0,,,,,Pass,,,,,
24.0,2.0,wc_2,,0.0,,,,0.0,,,,Pass,,,,,
24.0,2.0,wc_2,wc_2,0.0,"[('wc_2', 0.8700000000000007)]",0.8700000000000007,,,40.0,0.003237,['Pass'],Pass,0.8700000000000007,-0.07000000000000062,4.0,5.0,0.8
24.0,2.0,wc_2,,0.0,,,,0.0,,,,Pass,,,,,
24.0,2.0,wc_2,wc_3,0.0,"[('wc_3', 0.8300000000000006), ('wc_2', 0.8700000000000007)]",0.9779000000000002,,,37.0,0.004254,['Pass'],Pass,0.8300000000000006,-0.030000000000000582,4.0,5.0,0.9
24.0,2.0,wc_2,,0.0,,,,0.0,,,,Pass,,,,,
24.0,2.0,wc_2,wc_4,1.0,"[('wc_4', 0.8200000000000006), ('wc_2', 0.8700000000000007), ('wc_3', 0.8300000000000006)]",0.9960220000000001,,,39.0,0.04087699999999999,['Pass'],Pass,0.8200000000000006,-0.020000000000000573,4.0,5.0,0.7
30.0,3.0,wc_3,,0.0,,,,103.0,,,,Pass,,,,,
30.0,3.0,wc_3,,0.0,,,74.0,,,,,Pass,,,,,
30.0,3.0,wc_3,,0.0,,,,0.0,,,,Pass,,,,,
30.0,3.0,wc_3,wc_3,0.0,"[('wc_3', 0.8300000000000006)]",0.8300000000000006,,,26.0,0.002143,['Pass'],Pass,0.8300000000000006,0.003333333333332744,5.0,6.0,0.9
30.0,3.0,wc_3,,0.0,,,,0.0,,,,Pass,,,,,
30.0,3.0,wc_3,wc_4,0.0,"[('wc_3', 0.8300000000000006)]",0.8300000000000006,,,34.0,0.004198,['Pass'],Pass,0.8200000000000006,-0.020000000000000573,4.0,5.0,0.7
30.0,3.0,wc_3,,0.0,,,,0.0,,,,Pass,,,,,
30.0,3.0,wc_3,wc_5,0.0,"[('wc_5', 0.5700000000000004), ('wc_3', 0.8300000000000006)]",0.9269000000000003,,,31.0,0.006257,['Pass'],Pass,0.5700000000000004,-0.0700000000000004,2.0,4.0,0.4
30.0,3.0,wc_3,,0.0,,,,41.0,,,,Pass,,,,,
30.0,3.0,wc_3,wc_1,0.0,"[('wc_3', 0.8300000000000006), ('wc_5', 0.5700000000000004)]",0.9269000000000003,,,32.0,0.007632999999999999,['Pass'],Pass,0.2400000000000001,-0.07333333333333344,1.0,6.0,0.1
30.0,3.0,wc_3,,0.0,,,,0.0,,,,Pass,,,,,
30.0,3.0,wc_3,wc_2,1.0,"[('wc_2', 0.8700000000000007), ('wc_3', 0.8300000000000006), ('wc_5', 0.5700000000000004)]",0.9904970000000001,,,36.0,0.047943000000000006,['Pass'],Pass,0.8700000000000007,-0.012857142857143566,6.0,7.0,0.8
38.0,5.0,wc_5,,0.0,,,,0.0,,,,Pass,,,,,
38.0,5.0,wc_5,,0.0,,,61.0,,,,,Pass,,,,,
38.0,5.0,wc_5,,0.0,,,,0.0,,,,Pass,,,,,
38.0,5.0,wc_5,wc_5,0.0,"[('wc_5', 0.5700000000000004)]",0.5700000000000004,,,40.0,0.002221,['Pass'],Pass,0.5700000000000004,0.029999999999999583,3.0,5.0,0.4
38.0,5.0,wc_5,,0.0,,,,41.0,,,,Pass,,,,,
38.0,5.0,wc_5,wc_1,0.0,"[('wc_5', 0.5700000000000004)]",0.5700000000000004,,,22.0,0.003939,['Pass'],Pass,0.2400000000000001,-0.09714285714285725,1.0,7.0,0.1
38.0,5.0,wc_5,,0.0,,,,0.0,,,,Pass,,,,,
38.0,5.0,wc_5,wc_2,0.0,"[('wc_2', 0.8700000000000007), ('wc_5', 0.5700000000000004)]",0.9441000000000004,,,24.0,0.006092,['Pass'],Pass,0.8700000000000007,-0.012857142857143566,6.0,7.0,0.8
38.0,5.0,wc_5,,0.0,,,,0.0,,,,Pass,,,,,
38.0,5.0,wc_5,wc_3,1.0,"[('wc_3', 0.8300000000000006), ('wc_5', 0.5700000000000004), ('wc_2', 0.8700000000000007)]",0.9904970000000001,,,38.0,0.04430800000000001,['Pass'],Pass,0.8300000000000006,0.044999999999999374,7.0,8.0,0.9
41.0,6.0,wc_6,,0.0,,,,101.0,,,,Fail,,,,,
41.0,6.0,wc_6,,0.0,,,55.0,,,,,Fail,,,,,
41.0,6.0,wc_6,,0.0,,,,0.0,,,,Fail,,,,,
41.0,6.0,wc_6,wc_6,0.0,"[('wc_6', 0.8700000000000007)]",0.8700000000000007,,,27.0,0.002188,['Fail'],Fail,0.8700000000000007,-0.8300000000000006,0.0,0.0,0.9
41.0,6.0,wc_6,,0.0,,,,0.0,,,,Fail,,,,,
41.0,6.0,wc_6,wc_7,0.0,"[('wc_7', 0.6500000000000005), ('wc_6', 0.8700000000000007)]",0.9545000000000003,,,20.0,0.00451,['Fail'],Fail,0.6500000000000005,-0.6500000000000005,0.0,0.0,0.6
41.0,6.0,wc_6,,0.0,,,,0.0,,,,Fail,,,,,
41.0,6.0,wc_6,wc_8,1.0,"[('wc_8', 0.5800000000000004), ('wc_6', 0.8700000000000007), ('wc_7', 0.6500000000000005)]",0.9808900000000002,,,27.0,0.03912,['Fail'],Fail,0.5800000000000004,-0.5400000000000004,0.0,0.0,0.6
44.0,6.0,wc_6,,0.0,,,,82.0,,,,Pass,,,,,
44.0,6.0,wc_6,,0.0,,,58.0,,,,,Pass,,,,,
44.0,6.0,wc_6,,0.0,,,,0.0,,,,Pass,,,,,
44.0,6.0,wc_6,wc_6,0.0,"[('wc_6', 0.8700000000000007)]",0.8700000000000007,,,26.0,0.002407,['Pass'],Pass,0.8700000000000007,0.12999999999999934,1.0,1.0,0.9
44.0,6.0,wc_6,,0.0,,,,0.0,,,,Pass,,,,,
44.0,6.0,wc_6,wc_7,0.0,"[('wc_6', 0.8700000000000007)]",0.8700000000000007,,,39.0,0.004731,['Pass'],Pass,0.6500000000000005,0.34999999999999953,1.0,1.0,0.6
44.0,6.0,wc_6,,0.0,,,,0.0,,,,Pass,,,,,
44.0,6.0,wc_6,wc_8,0.0,"[('wc_8', 0.5800000000000004), ('wc_6', 0.8700000000000007)]",0.9454000000000004,,,23.0,0.007001,['Pass'],Pass,0.5800000000000004,-0.5800000000000004,0.0,0.0,0.6
44.0,6.0,wc_6,,0.0,,,,0.0,,,,Pass,,,,,
44.0,6.0,wc_6,wc_9,0.0,"[('wc_6', 0.8700000000000007), ('wc_8', 0.5800000000000004)]",0.9454000000000004,,,38.0,0.008693,['Pass'],Pass,0.4100000000000003,-0.26294117647058857,0.0,0.0,0.4
44.0,6.0,wc_6,,0.0,,,,0.0,,,,Pass,,,,,
44.0,6.0,wc_6,wc_10,1.0,"[('wc_10', 0.8600000000000007), ('wc_6', 0.8700000000000007), ('wc_8', 0.5800000000000004)]",0.9923560000000001,,,35.0,0.041011000000000006,['Pass'],Pass,0.8600000000000007,-0.8229629629629636,0.0,0.0,1.0
49.0,10.0,wc_10,,0.0,,,,0.0,,,,Pass,,,,,
49.0,10.0,wc_10,,0.0,,,60.0,,,,,Pass,,,,,
49.0,10.0,wc_10,,0.0,,,,0.0,,,,Pass,,,,,
49.0,10.0,wc_10,wc_10,0.0,"[('wc_10', 0.8600000000000007)]",0.8600000000000007,,,29.0,0.002306,['Pass'],Pass,0.8600000000000007,-0.8600000000000007,0.0,0.0,1.0
49.0,10.0,wc_10,,0.0,,,,0.0,,,,Pass,,,,,
49.0,10.0,wc_10,wc_11,0.0,"[('wc_11', 0.7600000000000006), ('wc_10', 0.8600000000000007)]",0.9664000000000003,,,34.0,0.004170999999999999,['Pass'],Pass,0.7600000000000006,-0.7229629629629635,0.0,0.0,0.8
49.0,10.0,wc_10,,0.0,,,,21.0,,,,Pass,,,,,
49.0,10.0,wc_10,wc_6,1.0,"[('wc_6', 0.8700000000000007), ('wc_10', 0.8600000000000007), ('wc_11', 0.7600000000000006)]",0.9956320000000001,,,36.0,0.04623999999999999,['Pass'],Pass,0.8700000000000007,0.12999999999999934,3.0,3.0,0.9
55.0,8.0,wc_8,,0.0,,,,0.0,,,,Fail,,,,,
55.0,8.0,wc_8,,0.0,,,76.0,,,,,Fail,,,,,
55.0,8.0,wc_8,,0.0,,,,0.0,,,,Fail,,,,,
55.0,8.0,wc_8,wc_8,0.0,"[('wc_8', 0.5800000000000004)]",0.5800000000000004,,,36.0,0.002002,['Fail'],Fail,0.5800000000000004,-0.0800000000000004,1.0,2.0,0.6
55.0,8.0,wc_8,,0.0,,,,0.0,,,,Fail,,,,,
55.0,8.0,wc_8,wc_9,0.0,"[('wc_9', 0.4100000000000003), ('wc_8', 0.5800000000000004)]",0.7522000000000004,,,38.0,0.004579,['Fail'],Fail,0.4100000000000003,-0.4100000000000003,0.0,2.0,0.4
55.0,8.0,wc_8,,0.0,,,,0.0,,,,Fail,,,,,
55.0,8.0,wc_8,wc_10,1.0,"[('wc_10', 0.8600000000000007), ('wc_8', 0.5800000000000004), ('wc_9', 0.4100000000000003)]",0.9653080000000002,,,32.0,0.03858,['Fail'],Fail,0.8600000000000007,0.13999999999999935,2.0,2.0,1.0
59.0,9.0,wc_9,,0.0,,,,103.0,,,,Pass,,,,,
59.0,9.0,wc_9,,0.0,,,63.0,,,,,Pass,,,,,
59.0,9.0,wc_9,,0.0,,,,0.0,,,,Pass,,,,,
59.0,9.0,wc_9,wc_9,0.0,"[('wc_9', 0.4100000000000003)]",0.41000000000000036,,,22.0,0.002035,['Fail'],Pass,0.4100000000000003,-0.076666666666667,1.0,3.0,0.4
59.0,9.0,wc_9,,0.0,,,,0.0,,,,Pass,,,,,
59.0,9.0,wc_9,wc_10,0.0,"[('wc_10', 0.8600000000000007)]",0.8600000000000007,,,39.0,0.004016,['Pass'],Pass,0.8600000000000007,0.13999999999999935,2.0,2.0,1.0
59.0,9.0,wc_9,,0.0,,,,0.0,,,,Pass,,,,,
59.0,9.0,wc_9,wc_11,0.0,"[('wc_11', 0.7600000000000006), ('wc_10', 0.8600000000000007)]",0.9664000000000003,,,32.0,0.006942,['Pass'],Pass,0.7600000000000006,-0.26000000000000056,1.0,2.0,0.8
59.0,9.0,wc_9,,0.0,,,,21.0,,,,Pass,,,,,
59.0,9.0,wc_9,wc_6,1.0,"[('wc_6', 0.8700000000000007), ('wc_10', 0.8600000000000007), ('wc_11', 0.7600000000000006)]",0.9956320000000001,,,38.0,0.03952800000000001,['Pass'],Pass,0.8700000000000007,-0.07000000000000062,4.0,5.0,0.9
65.0,8.0,wc_8,,0.0,,,,0.0,,,,Fail,,,,,
65.0,8.0,wc_8,,0.0,,,73.0,,,,,Fail,,,,,
65.0,8.0,wc_8,,0.0,,,,0.0,,,,Fail,,,,,
65.0,8.0,wc_8,wc_8,0.0,"[('wc_8', 0.5800000000000004)]",0.5800000000000004,,,37.0,0.002043,['Fail'],Fail,0.5800000000000004,-0.0800000000000004,2.0,4.0,0.6
65.0,8.0,wc_8,,0.0,,,,0.0,,,,Fail,,,,,
65.0,8.0,wc_8,wc_9,0.0,"[('wc_9', 0.4100000000000003), ('wc_8', 0.5800000000000004)]",0.7522000000000004,,,30.0,0.004052,['Fail'],Fail,0.4100000000000003,-0.1600000000000003,1.0,4.0,0.4
65.0,8.0,wc_8,,0.0,,,,0.0,,,,Fail,,,,,
65.0,8.0,wc_8,wc_10,1.0,"[('wc_10', 0.8600000000000007), ('wc_8', 0.5800000000000004), ('wc_9', 0.4100000000000003)]",0.9653080000000002,,,31.0,0.04306800000000001,['Fail'],Fail,0.8600000000000007,0.13999999999999935,4.0,4.0,1.0
69.0,7.0,wc_7,,0.0,,,,61.0,,,,Pass,,,,,
69.0,7.0,wc_7,,0.0,,,73.0,,,,,Pass,,,,,
69.0,7.0,wc_7,,0.0,,,,0.0,,,,Pass,,,,,
69.0,7.0,wc_7,wc_7,0.0,"[('wc_7', 0.6500000000000005)]",0.6500000000000005,,,26.0,0.002698,['Pass'],Pass,0.6500000000000005,-0.48333333333333384,1.0,6.0,0.6
69.0,7.0,wc_7,,0.0,,,,0.0,,,,Pass,,,,,
69.0,7.0,wc_7,wc_8,0.0,"[('wc_8', 0.5800000000000004), ('wc_7', 0.6500000000000005)]",0.8530000000000003,,,29.0,0.004642,['Pass'],Pass,0.5800000000000004,0.019999999999999574,3.0,5.0,0.6
69.0,7.0,wc_7,,0.0,,,,0.0,,,,Pass,,,,,
69.0,7.0,wc_7,wc_9,1.0,"[('wc_9', 0.4100000000000003), ('wc_7', 0.6500000000000005), ('wc_8', 0.5800000000000004)]",0.9132700000000002,,,33.0,0.042065,['Pass'],Pass,0.4100000000000003,0.08999999999999969,3.0,6.0,0.4
74.0,8.0,wc_8,,0.0,,,,101.0,,,,Fail,,,,,
74.0,8.0,wc_8,,0.0,,,75.0,,,,,Fail,,,,,
74.0,8.0,wc_8,,0.0,,,,0.0,,,,Fail,,,,,
74.0,8.0,wc_8,wc_8,0.0,"[('wc_8', 0.5800000000000004)]",0.5800000000000004,,,30.0,0.002258,['Fail'],Fail,0.5800000000000004,0.08666666666666623,4.0,6.0,0.6
74.0,8.0,wc_8,,0.0,,,,0.0,,,,Fail,,,,,
74.0,8.0,wc_8,wc_9,0.0,"[('wc_9', 0.4100000000000003), ('wc_8', 0.5800000000000004)]",0.7522000000000004,,,23.0,0.00409,['Fail'],Fail,0.4100000000000003,0.08999999999999969,3.0,6.0,0.4
74.0,8.0,wc_8,,0.0,,,,0.0,,,,Fail,,,,,
74.0,8.0,wc_8,wc_10,1.0,"[('wc_10', 0.8600000000000007), ('wc_8', 0.5800000000000004), ('wc_9', 0.4100000000000003)]",0.9653080000000002,,,39.0,0.042963,['Fail'],Fail,0.8600000000000007,-0.026666666666667282,5.0,6.0,1.0
79.0,8.0,wc_8,,0.0,,,,81.0,,,,Fail,,,,,
79.0,8.0,wc_8,,0.0,,,51.0,,,,,Fail,,,,,
79.0,8.0,wc_8,,0.0,,,,0.0,,,,Fail,,,,,
79.0,8.0,wc_8,wc_8,0.0,"[('wc_8', 0.5800000000000004)]",0.5800000000000004,,,39.0,0.002261,['Fail'],Fail,0.5800000000000004,0.1342857142857139,5.0,7.0,0.6
79.0,8.0,wc_8,,0.0,,,,0.0,,,,Fail,,,,,
79.0,8.0,wc_8,wc_9,0.0,"[('wc_9', 0.4100000000000003), ('wc_8', 0.5800000000000004)]",0.7522000000000004,,,28.0,0.0055119999999999995,['Fail'],Fail,0.4100000000000003,0.1614285714285711,4.0,7.0,0.4
79.0,8.0,wc_8,,0.0,,,,0.0,,,,Fail,,,,,
79.0,8.0,wc_8,wc_10,1.0,"[('wc_10', 0.8600000000000007), ('wc_8', 0.5800000000000004), ('wc_9', 0.4100000000000003)]",0.9653080000000002,,,33.0,0.040462,['Fail'],Fail,0.8600000000000007,-0.0028571428571435575,6.0,7.0,1.0
84.0,8.0,wc_8,,0.0,,,,81.0,,,,Pass,,,,,
84.0,8.0,wc_8,,0.0,,,75.0,,,,,Pass,,,,,
84.0,8.0,wc_8,,0.0,,,,0.0,,,,Pass,,,,,
84.0,8.0,wc_8,wc_8,0.0,"[('wc_8', 0.5800000000000004)]",0.5800000000000004,,,39.0,0.001953,['Pass'],Pass,0.5800000000000004,0.1699999999999996,6.0,8.0,0.6
84.0,8.0,wc_8,,0.0,,,,0.0,,,,Pass,,,,,
84.0,8.0,wc_8,wc_9,0.0,"[('wc_9', 0.4100000000000003), ('wc_8', 0.5800000000000004)]",0.7522000000000004,,,24.0,0.004275,['Pass'],Pass,0.4100000000000003,0.2149999999999997,5.0,8.0,0.4
84.0,8.0,wc_8,,0.0,,,,0.0,,,,Pass,,,,,
84.0,8.0,wc_8,wc_10,1.0,"[('wc_10', 0.8600000000000007), ('wc_8', 0.5800000000000004), ('wc_9', 0.4100000000000003)]",0.9653080000000002,,,22.0,0.042235,['Pass'],Pass,0.8600000000000007,0.014999999999999347,7.0,8.0,1.0
88.0,11.0,wc_11,,0.0,,,,0.0,,,,Fail,,,,,
88.0,11.0,wc_11,,0.0,,,59.0,,,,,Fail,,,,,
88.0,11.0,wc_11,,0.0,,,,0.0,,,,Fail,,,,,
88.0,11.0,wc_11,wc_11,0.0,"[('wc_11', 0.7600000000000006)]",0.7600000000000006,,,35.0,0.002718,['Fail'],Fail,0.7600000000000006,-0.5100000000000006,2.0,8.0,0.8
88.0,11.0,wc_11,,0.0,,,,21.0,,,,Fail,,,,,
88.0,11.0,wc_11,wc_6,0.0,"[('wc_6', 0.8700000000000007), ('wc_11', 0.7600000000000006)]",0.9688000000000002,,,24.0,0.004745,['Fail'],Fail,0.8700000000000007,-0.47000000000000064,0.0,0.0,0.9
88.0,11.0,wc_11,,0.0,,,,0.0,,,,Fail,,,,,
88.0,11.0,wc_11,wc_7,0.0,"[('wc_11', 0.7600000000000006), ('wc_6', 0.8700000000000007)]",0.9688000000000002,,,24.0,0.006655,['Fail'],Fail,0.6500000000000005,-0.45000000000000046,0.0,0.0,0.6
88.0,11.0,wc_11,,0.0,,,,0.0,,,,Fail,,,,,
88.0,11.0,wc_11,wc_8,0.0,"[('wc_11', 0.7600000000000006), ('wc_6', 0.8700000000000007)]",0.9688000000000002,,,29.0,0.010786999999999998,['Fail'],Fail,0.5800000000000004,0.19777777777777739,7.0,9.0,0.6
88.0,11.0,wc_11,,0.0,,,,0.0,,,,Fail,,,,,
88.0,11.0,wc_11,wc_9,0.0,"[('wc_11', 0.7600000000000006), ('wc_6', 0.8700000000000007)]",0.9688000000000002,,,32.0,0.009781,['Fail'],Fail,0.4100000000000003,0.2566666666666663,6.0,9.0,0.4
88.0,11.0,wc_11,,0.0,,,,0.0,,,,Fail,,,,,
88.0,11.0,wc_11,wc_10,1.0,"[('wc_10', 0.8600000000000007), ('wc_11', 0.7600000000000006), ('wc_6', 0.8700000000000007)]",0.9956320000000001,,,29.0,0.045293,['Fail'],Fail,0.8600000000000007,0.028888888888888187,8.0,9.0,1.0
93.0,11.0,wc_11,,0.0,,,,0.0,,,,Fail,,,,,
93.0,11.0,wc_11,,0.0,,,61.0,,,,,Fail,,,,,
93.0,11.0,wc_11,,0.0,,,,0.0,,,,Fail,,,,,
93.0,11.0,wc_11,wc_11,0.0,"[('wc_11', 0.7600000000000006)]",0.7600000000000006,,,31.0,0.002062,['Fail'],Fail,0.7600000000000006,-0.42666666666666725,3.0,9.0,0.8
93.0,11.0,wc_11,,0.0,,,,21.0,,,,Fail,,,,,
93.0,11.0,wc_11,wc_6,0.0,"[('wc_6', 0.8700000000000007), ('wc_11', 0.7600000000000006)]",0.9688000000000002,,,33.0,0.0040479999999999995,['Fail'],Fail,0.8700000000000007,0.12999999999999934,1.0,1.0,0.9
93.0,11.0,wc_11,,0.0,,,,0.0,,,,Fail,,,,,
93.0,11.0,wc_11,wc_7,1.0,"[('wc_7', 0.6500000000000005), ('wc_11', 0.7600000000000006), ('wc_6', 0.8700000000000007)]",0.9890800000000001,,,29.0,0.046106,['Fail'],Fail,0.6500000000000005,-0.15000000000000047,1.0,2.0,0.6
98.0,11.0,wc_11,,0.0,,,,0.0,,,,Pass,,,,,
98.0,11.0,wc_11,,0.0,,,77.0,,,,,Pass,,,,,
98.0,11.0,wc_11,,0.0,,,,0.0,,,,Pass,,,,,
98.0,11.0,wc_11,wc_11,0.0,"[('wc_11', 0.7600000000000006)]",0.7600000000000006,,,25.0,0.001985,['Pass'],Pass,0.7600000000000006,-0.36000000000000054,0.0,0.0,0.8
98.0,11.0,wc_11,,0.0,,,,21.0,,,,Pass,,,,,
98.0,11.0,wc_11,wc_6,0.0,"[('wc_6', 0.8700000000000007), ('wc_11', 0.7600000000000006)]",0.9688000000000002,,,20.0,0.004175,['Pass'],Pass,0.8700000000000007,0.12999999999999934,2.0,2.0,0.9
98.0,11.0,wc_11,,0.0,,,,0.0,,,,Pass,,,,,
98.0,11.0,wc_11,wc_7,1.0,"[('wc_7', 0.6500000000000005), ('wc_11', 0.7600000000000006), ('wc_6', 0.8700000000000007)]",0.9890800000000001,,,39.0,0.044518,['Pass'],Pass,0.6500000000000005,0.016666666666666163,2.0,3.0,0.6
103.0,12.0,wc_12,,0.0,,,,142.0,,,,Fail,,,,,
103.0,12.0,wc_12,,0.0,,,54.0,,,,,Fail,,,,,
103.0,12.0,wc_12,,0.0,,,,0.0,,,,Fail,,,,,
103.0,12.0,wc_12,wc_12,0.0,"[('wc_12', 0.5000000000000003)]",0.5000000000000003,,,25.0,0.003195,['Pass'],Fail,0.5000000000000003,-0.38888888888888923,0.0,0.0,0.3
103.0,12.0,wc_12,,0.0,,,,0.0,,,,Fail,,,,,
103.0,12.0,wc_12,wc_13,0.0,"[('wc_12', 0.5000000000000003)]",0.5000000000000003,,,32.0,0.004098,['Pass'],Fail,0.3900000000000001,-0.3515384615384617,0.0,0.0,0.3
103.0,12.0,wc_12,,0.0,,,,0.0,,,,Fail,,,,,
103.0,12.0,wc_12,wc_14,0.0,"[('wc_14', 0.6600000000000005), ('wc_13', 0.3900000000000001)]",0.7926000000000003,,,21.0,0.005993,['Fail'],Fail,0.6600000000000005,-0.5446153846153851,0.0,0.0,0.5
103.0,12.0,wc_12,,0.0,,,,0.0,,,,Fail,,,,,
103.0,12.0,wc_12,wc_15,0.0,"[('wc_15', 0.1600000000000001), ('wc_13', 0.3900000000000001), ('wc_14', 0.6600000000000005)]",0.8257840000000003,,,24.0,0.007797,['Fail'],Fail,0.1600000000000001,-0.006153846153846232,0.0,0.0,0.2
103.0,12.0,wc_12,,0.0,,,,0.0,,,,Fail,,,,,
103.0,12.0,wc_12,wc_16,0.0,"[('wc_16', 0.9300000000000008), ('wc_12', 0.5000000000000003)]",0.9650000000000004,,,33.0,0.017639999999999996,['Pass'],Fail,0.9300000000000008,-0.7448148148148157,0.0,0.0,0.8
103.0,12.0,wc_12,,0.0,,,,0.0,,,,Fail,,,,,
103.0,12.0,wc_12,wc_17,1.0,"[('wc_17', 0.4800000000000003), ('wc_12', 0.5000000000000003), ('wc_16', 0.9300000000000008)]",0.9818000000000002,,,25.0,0.056201,['Pass'],Fail,0.4800000000000003,-0.3646153846153849,0.0,0.0,0.4
108.0,12.0,wc_12,,0.0,,,,21.0,,,,Fail,,,,,
108.0,12.0,wc_12,,0.0,,,80.0,,,,,Fail,,,,,
108.0,12.0,wc_12,,0.0,,,,0.0,,,,Fail,,,,,
108.0,12.0,wc_12,wc_12,0.0,"[('wc_12', 0.5000000000000003)]",0.5000000000000003,,,35.0,0.002032,['Fail'],Fail,0.5000000000000003,0.49999999999999967,1.0,1.0,0.3
108.0,12.0,wc_12,,0.0,,,,0.0,,,,Fail,,,,,
108.0,12.0,wc_12,wc_13,0.0,"[('wc_12', 0.5000000000000003)]",0.5000000000000003,,,25.0,0.005604,['Fail'],Fail,0.3900000000000001,-0.3900000000000001,0.0,1.0,0.3
108.0,12.0,wc_12,,0.0,,,,0.0,,,,Fail,,,,,
108.0,12.0,wc_12,wc_14,0.0,"[('wc_14', 0.6600000000000005), ('wc_12', 0.5000000000000003)]",0.8300000000000003,,,28.0,0.010094,['Fail'],Fail,0.6600000000000005,-0.6600000000000005,0.0,1.0,0.5
108.0,12.0,wc_12,,0.0,,,,0.0,,,,Fail,,,,,
108.0,12.0,wc_12,wc_15,0.0,"[('wc_12', 0.5000000000000003), ('wc_14', 0.6600000000000005)]",0.8300000000000003,,,26.0,0.008451,['Fail'],Fail,0.1600000000000001,-0.1600000000000001,0.0,1.0,0.2
108.0,12.0,wc_12,,0.0,,,,0.0,,,,Fail,,,,,
108.0,12.0,wc_12,wc_16,1.0,"[('wc_16', 0.9300000000000008), ('wc_12', 0.5000000000000003), ('wc_14', 0.6600000000000005)]",0.9881000000000002,,,40.0,0.046085,['Fail'],Fail,0.9300000000000008,0.06999999999999917,2.0,2.0,0.8
115.0,12.0,wc_12,,0.0,,,,41.0,,,,Fail,,,,,
115.0,12.0,wc_12,,0.0,,,50.0,,,,,Fail,,,,,
115.0,12.0,wc_12,,0.0,,,,0.0,,,,Fail,,,,,
115.0,12.0,wc_12,wc_12,0.0,"[('wc_12', 0.5000000000000003)]",0.5000000000000003,,,29.0,0.002474,['Pass'],Fail,0.5000000000000003,0.49999999999999967,2.0,2.0,0.3
115.0,12.0,wc_12,,0.0,,,,0.0,,,,Fail,,,,,
115.0,12.0,wc_12,wc_13,0.0,"[('wc_12', 0.5000000000000003)]",0.5000000000000003,,,40.0,0.003771,['Pass'],Fail,0.3900000000000001,-0.3900000000000001,0.0,2.0,0.3
115.0,12.0,wc_12,,0.0,,,,0.0,,,,Fail,,,,,
115.0,12.0,wc_12,wc_14,0.0,"[('wc_14', 0.6600000000000005), ('wc_12', 0.5000000000000003)]",0.8300000000000003,,,26.0,0.006666,['Pass'],Fail,0.6600000000000005,-0.16000000000000048,1.0,2.0,0.5
115.0,12.0,wc_12,,0.0,,,,0.0,,,,Fail,,,,,
115.0,12.0,wc_12,wc_15,0.0,"[('wc_12', 0.5000000000000003), ('wc_14', 0.6600000000000005)]",0.8300000000000003,,,21.0,0.011459,['Pass'],Fail,0.1600000000000001,-0.1600000000000001,0.0,2.0,0.2
115.0,12.0,wc_12,,0.0,,,,0.0,,,,Fail,,,,,
115.0,12.0,wc_12,wc_16,1.0,"[('wc_16', 0.9300000000000008), ('wc_13', 0.3900000000000001), ('wc_15', 0.1600000000000001)]",0.9641320000000004,,,20.0,0.04550800000000001,['Fail'],Fail,0.9300000000000008,0.06999999999999917,3.0,3.0,0.8
120.0,12.0,wc_12,,0.0,,,,41.0,,,,Fail,,,,,
120.0,12.0,wc_12,,0.0,,,80.0,,,,,Fail,,,,,
120.0,12.0,wc_12,,0.0,,,,0.0,,,,Fail,,,,,
120.0,12.0,wc_12,wc_12,0.0,"[('wc_12', 0.5000000000000003)]",0.5000000000000003,,,36.0,0.002207,['Fail'],Fail,0.5000000000000003,0.1666666666666663,2.0,3.0,0.3
120.0,12.0,wc_12,,0.0,,,,0.0,,,,Fail,,,,,
120.0,12.0,wc_12,wc_13,0.0,"[('wc_13', 0.3900000000000001), ('wc_12', 0.5000000000000003)]",0.6950000000000003,,,28.0,0.004416,['Fail'],Fail,0.3900000000000001,-0.05666666666666681,1.0,3.0,0.3
120.0,12.0,wc_12,,0.0,,,,0.0,,,,Fail,,,,,
120.0,12.0,wc_12,wc_14,0.0,"[('wc_12', 0.5000000000000003), ('wc_13', 0.3900000000000001)]",0.6950000000000003,,,24.0,0.009142,['Fail'],Fail,0.6600000000000005,-0.32666666666666716,1.0,3.0,0.5
120.0,12.0,wc_12,,0.0,,,,0.0,,,,Fail,,,,,
120.0,12.0,wc_12,wc_15,0.0,"[('wc_15', 0.1600000000000001), ('wc_14', 0.6600000000000005)]",0.7144000000000004,,,37.0,0.0074399999999999996,['Pass'],Fail,0.1600000000000001,0.17333333333333323,1.0,3.0,0.2
120.0,12.0,wc_12,,0.0,,,,0.0,,,,Fail,,,,,
120.0,12.0,wc_12,wc_16,1.0,"[('wc_16', 0.9300000000000008), ('wc_12', 0.5000000000000003), ('wc_13', 0.3900000000000001)]",0.9786500000000002,,,38.0,0.04482300000000001,['Fail'],Fail,0.9300000000000008,0.06999999999999917,4.0,4.0,0.8
130.0,12.0,wc_12,,0.0,,,,41.0,,,,Pass,,,,,
130.0,12.0,wc_12,,0.0,,,66.0,,,,,Pass,,,,,
130.0,12.0,wc_12,,0.0,,,,0.0,,,,Pass,,,,,
130.0,12.0,wc_12,wc_12,0.0,"[('wc_12', 0.5000000000000003)]",0.5000000000000003,,,27.0,0.002605,['Pass'],Pass,0.5000000000000003,0.24999999999999967,3.0,4.0,0.3
130.0,12.0,wc_12,,0.0,,,,0.0,,,,Pass,,,,,
130.0,12.0,wc_12,wc_13,0.0,"[('wc_13', 0.3900000000000001), ('wc_12', 0.5000000000000003)]",0.6950000000000003,,,35.0,0.006273,['Pass'],Pass,0.3900000000000001,0.10999999999999988,2.0,4.0,0.3
130.0,12.0,wc_12,,0.0,,,,0.0,,,,Pass,,,,,
130.0,12.0,wc_12,wc_14,0.0,"[('wc_12', 0.5000000000000003), ('wc_13', 0.3900000000000001)]",0.6950000000000003,,,22.0,0.009042999999999999,['Pass'],Pass,0.6600000000000005,-0.4100000000000005,1.0,4.0,0.5
130.0,12.0,wc_12,,0.0,,,,0.0,,,,Pass,,,,,
130.0,12.0,wc_12,wc_15,0.0,"[('wc_15', 0.1600000000000001), ('wc_12', 0.5000000000000003), ('wc_13', 0.3900000000000001)]",0.7438000000000002,,,23.0,0.007841,['Pass'],Pass,0.1600000000000001,0.08999999999999991,1.0,4.0,0.2
130.0,12.0,wc_12,,0.0,,,,0.0,,,,Pass,,,,,
130.0,12.0,wc_12,wc_16,0.0,"[('wc_16', 0.9300000000000008), ('wc_14', 0.6600000000000005)]",0.9762000000000003,,,21.0,0.025762,['Fail'],Pass,0.9300000000000008,0.06999999999999917,4.0,4.0,0.8
130.0,12.0,wc_12,,0.0,,,,0.0,,,,Pass,,,,,
130.0,12.0,wc_12,wc_17,1.0,"[('wc_17', 0.4800000000000003), ('wc_14', 0.6600000000000005), ('wc_16', 0.9300000000000008)]",0.9876240000000002,,,35.0,0.045806999999999994,['Fail'],Pass,0.4800000000000003,-0.23000000000000032,1.0,4.0,0.4
135.0,13.0,wc_13,,0.0,,,,41.0,,,,Fail,,,,,
135.0,13.0,wc_13,,0.0,,,74.0,,,,,Fail,,,,,
135.0,13.0,wc_13,,0.0,,,,0.0,,,,Fail,,,,,
135.0,13.0,wc_13,wc_13,0.0,"[('wc_13', 0.3900000000000001)]",0.3900000000000001,,,29.0,0.00251,['Pass'],Fail,0.3900000000000001,0.009999999999999898,2.0,5.0,0.3
135.0,13.0,wc_13,,0.0,,,,0.0,,,,Fail,,,,,
135.0,13.0,wc_13,wc_14,0.0,"[('wc_14', 0.6600000000000005)]",0.6600000000000005,,,28.0,0.004087,['Fail'],Fail,0.6600000000000005,-0.26000000000000045,2.0,5.0,0.5
135.0,13.0,wc_13,,0.0,,,,0.0,,,,Fail,,,,,
135.0,13.0,wc_13,wc_15,0.0,"[('wc_15', 0.1600000000000001), ('wc_14', 0.6600000000000005)]",0.7144000000000004,,,40.0,0.0060290000000000005,['Fail'],Fail,0.1600000000000001,0.039999999999999925,1.0,5.0,0.2
135.0,13.0,wc_13,,0.0,,,,0.0,,,,Fail,,,,,
135.0,13.0,wc_13,wc_16,1.0,"[('wc_16', 0.9300000000000008), ('wc_14', 0.6600000000000005), ('wc_15', 0.1600000000000001)]",0.9800080000000002,,,40.0,0.043321,['Fail'],Fail,0.9300000000000008,0.06999999999999917,6.0,6.0,0.8
140.0,13.0,wc_13,,0.0,,,,61.0,,,,Fail,,,,,
140.0,13.0,wc_13,,0.0,,,69.0,,,,,Fail,,,,,
140.0,13.0,wc_13,,0.0,,,,0.0,,,,Fail,,,,,
140.0,13.0,wc_13,wc_13,0.0,"[('wc_13', 0.3900000000000001)]",0.3900000000000001,,,34.0,0.002531,['Fail'],Fail,0.3900000000000001,-0.05666666666666681,2.0,6.0,0.3
140.0,13.0,wc_13,,0.0,,,,0.0,,,,Fail,,,,,
140.0,13.0,wc_13,wc_14,0.0,"[('wc_14', 0.6600000000000005), ('wc_13', 0.3900000000000001)]",0.7926000000000003,,,34.0,0.004309,['Fail'],Fail,0.6600000000000005,-0.16000000000000048,3.0,6.0,0.5
140.0,13.0,wc_13,,0.0,,,,0.0,,,,Fail,,,,,
140.0,13.0,wc_13,wc_15,0.0,"[('wc_13', 0.3900000000000001), ('wc_14', 0.6600000000000005)]",0.7926000000000003,,,28.0,0.008126,['Fail'],Fail,0.1600000000000001,0.17333333333333323,2.0,6.0,0.2
140.0,13.0,wc_13,,0.0,,,,0.0,,,,Fail,,,,,
140.0,13.0,wc_13,wc_16,1.0,"[('wc_16', 0.9300000000000008), ('wc_13', 0.3900000000000001), ('wc_14', 0.6600000000000005)]",0.9854820000000002,,,36.0,0.055367,['Fail'],Fail,0.9300000000000008,0.06999999999999917,7.0,7.0,0.8
147.0,13.0,wc_13,,0.0,,,,61.0,,,,Fail,,,,,
147.0,13.0,wc_13,,0.0,,,73.0,,,,,Fail,,,,,
147.0,13.0,wc_13,,0.0,,,,0.0,,,,Fail,,,,,
147.0,13.0,wc_13,wc_13,0.0,"[('wc_13', 0.3900000000000001)]",0.3900000000000001,,,21.0,0.002284,['Pass'],Fail,0.3900000000000001,0.03857142857142842,3.0,7.0,0.3
147.0,13.0,wc_13,,0.0,,,,0.0,,,,Fail,,,,,
147.0,13.0,wc_13,wc_14,0.0,"[('wc_14', 0.6600000000000005), ('wc_13', 0.3900000000000001)]",0.7926000000000003,,,26.0,0.005623,['Pass'],Fail,0.6600000000000005,-0.08857142857142908,4.0,7.0,0.5
147.0,13.0,wc_13,,0.0,,,,0.0,,,,Fail,,,,,
147.0,13.0,wc_13,wc_15,0.0,"[('wc_13', 0.3900000000000001), ('wc_14', 0.6600000000000005)]",0.7926000000000003,,,34.0,0.005856999999999999,['Pass'],Fail,0.1600000000000001,0.1257142857142856,2.0,7.0,0.2
147.0,13.0,wc_13,,0.0,,,,0.0,,,,Fail,,,,,
147.0,13.0,wc_13,wc_16,0.0,"[('wc_16', 0.9300000000000008), ('wc_15', 0.1600000000000001)]",0.9412000000000007,,,28.0,0.008274,['Fail'],Fail,0.9300000000000008,0.06999999999999917,7.0,7.0,0.8
147.0,13.0,wc_13,,0.0,,,,0.0,,,,Fail,,,,,
147.0,13.0,wc_13,wc_17,0.0,"[('wc_15', 0.1600000000000001), ('wc_16', 0.9300000000000008)]",0.9412000000000007,,,30.0,0.010892,['Fail'],Fail,0.4800000000000003,-0.3133333333333337,1.0,6.0,0.4
147.0,13.0,wc_13,,0.0,,,,21.0,,,,Fail,,,,,
147.0,13.0,wc_13,wc_12,1.0,"[('wc_12', 0.5000000000000003), ('wc_15', 0.1600000000000001), ('wc_16', 0.9300000000000008)]",0.9706000000000004,,,26.0,0.045237,['Fail'],Fail,0.5000000000000003,-3.3306690738754696e-16,4.0,8.0,0.3
154.0,13.0,wc_13,,0.0,,,,0.0,,,,Fail,,,,,
154.0,13.0,wc_13,,0.0,,,54.0,,,,,Fail,,,,,
154.0,13.0,wc_13,,0.0,,,,0.0,,,,Fail,,,,,
154.0,13.0,wc_13,wc_13,0.0,"[('wc_13', 0.3900000000000001)]",0.3900000000000001,,,40.0,0.003714,['Pass'],Fail,0.3900000000000001,-0.015000000000000124,3.0,8.0,0.3
154.0,13.0,wc_13,,0.0,,,,0.0,,,,Fail,,,,,
154.0,13.0,wc_13,wc_14,0.0,"[('wc_14', 0.6600000000000005)]",0.6600000000000005,,,40.0,0.005304,['Fail'],Fail,0.6600000000000005,-0.16000000000000048,4.0,8.0,0.5
154.0,13.0,wc_13,,0.0,,,,0.0,,,,Fail,,,,,
154.0,13.0,wc_13,wc_15,0.0,"[('wc_14', 0.6600000000000005)]",0.6600000000000005,,,29.0,0.0061660000000000005,['Fail'],Fail,0.1600000000000001,0.2149999999999999,3.0,8.0,0.2
154.0,13.0,wc_13,,0.0,,,,0.0,,,,Fail,,,,,
154.0,13.0,wc_13,wc_16,0.0,"[('wc_16', 0.9300000000000008), ('wc_14', 0.6600000000000005)]",0.9762000000000003,,,29.0,0.011585,['Fail'],Fail,0.9300000000000008,0.06999999999999917,8.0,8.0,0.8
154.0,13.0,wc_13,,0.0,,,,0.0,,,,Fail,,,,,
154.0,13.0,wc_13,wc_17,1.0,"[('wc_17', 0.4800000000000003), ('wc_14', 0.6600000000000005), ('wc_16', 0.9300000000000008)]",0.9876240000000002,,,32.0,0.043955,['Fail'],Fail,0.4800000000000003,-0.23000000000000032,2.0,8.0,0.4
159.0,13.0,wc_13,,0.0,,,,41.0,,,,Fail,,,,,
159.0,13.0,wc_13,,0.0,,,60.0,,,,,Fail,,,,,
159.0,13.0,wc_13,,0.0,,,,0.0,,,,Fail,,,,,
159.0,13.0,wc_13,wc_13,0.0,"[('wc_13', 0.3900000000000001)]",0.3900000000000001,,,39.0,0.002102,['Fail'],Fail,0.3900000000000001,-0.05666666666666681,3.0,9.0,0.3
159.0,13.0,wc_13,,0.0,,,,0.0,,,,Fail,,,,,
159.0,13.0,wc_13,wc_14,0.0,"[('wc_14', 0.6600000000000005), ('wc_13', 0.3900000000000001)]",0.7926000000000003,,,35.0,0.004032,['Fail'],Fail,0.6600000000000005,-0.1044444444444449,5.0,9.0,0.5
159.0,13.0,wc_13,,0.0,,,,0.0,,,,Fail,,,,,
159.0,13.0,wc_13,wc_15,0.0,"[('wc_13', 0.3900000000000001), ('wc_14', 0.6600000000000005)]",0.7926000000000003,,,31.0,0.006098,['Fail'],Fail,0.1600000000000001,0.17333333333333323,3.0,9.0,0.2
159.0,13.0,wc_13,,0.0,,,,0.0,,,,Fail,,,,,
159.0,13.0,wc_13,wc_16,0.0,"[('wc_16', 0.9300000000000008), ('wc_15', 0.1600000000000001)]",0.9412000000000007,,,25.0,0.009905,['Pass'],Fail,0.9300000000000008,0.06999999999999917,9.0,9.0,0.8
159.0,13.0,wc_13,,0.0,,,,0.0,,,,Fail,,,,,
159.0,13.0,wc_13,wc_17,0.0,"[('wc_15', 0.1600000000000001), ('wc_16', 0.9300000000000008)]",0.9412000000000007,,,40.0,0.012074,['Pass'],Fail,0.4800000000000003,-0.23000000000000032,2.0,8.0,0.4
159.0,13.0,wc_13,,0.0,,,,21.0,,,,Fail,,,,,
159.0,13.0,wc_13,wc_12,1.0,"[('wc_12', 0.5000000000000003), ('wc_15', 0.1600000000000001), ('wc_16', 0.9300000000000008)]",0.9706000000000004,,,21.0,0.053994,['Pass'],Fail,0.5000000000000003,-3.3306690738754696e-16,0.0,0.0,0.3
165.0,13.0,wc_13,,0.0,,,,0.0,,,,Pass,,,,,
165.0,13.0,wc_13,,0.0,,,62.0,,,,,Pass,,,,,
165.0,13.0,wc_13,,0.0,,,,0.0,,,,Pass,,,,,
165.0,13.0,wc_13,wc_13,0.0,"[('wc_13', 0.3900000000000001)]",0.3900000000000001,,,38.0,0.002416,['Fail'],Pass,0.3900000000000001,-0.09000000000000014,0.0,0.0,0.3
165.0,13.0,wc_13,,0.0,,,,0.0,,,,Pass,,,,,
165.0,13.0,wc_13,wc_14,0.0,"[('wc_14', 0.6600000000000005)]",0.6600000000000005,,,35.0,0.004423,['Pass'],Pass,0.6600000000000005,-0.16000000000000048,0.0,0.0,0.5
165.0,13.0,wc_13,,0.0,,,,0.0,,,,Pass,,,,,
165.0,13.0,wc_13,wc_15,0.0,"[('wc_14', 0.6600000000000005)]",0.6600000000000005,,,36.0,0.0077399999999999995,['Pass'],Pass,0.1600000000000001,0.23999999999999994,0.0,0.0,0.2
165.0,13.0,wc_13,,0.0,,,,0.0,,,,Pass,,,,,
165.0,13.0,wc_13,wc_16,0.0,"[('wc_16', 0.9300000000000008), ('wc_14', 0.6600000000000005)]",0.9762000000000003,,,39.0,0.010141,['Pass'],Pass,0.9300000000000008,0.06999999999999917,0.0,0.0,0.8
165.0,13.0,wc_13,,0.0,,,,0.0,,,,Pass,,,,,
165.0,13.0,wc_13,wc_17,0.0,"[('wc_14', 0.6600000000000005), ('wc_16', 0.9300000000000008)]",0.9762000000000003,,,37.0,0.009916999999999999,['Pass'],Pass,0.4800000000000003,-0.2577777777777781,2.0,9.0,0.4
165.0,13.0,wc_13,,0.0,,,,21.0,,,,Pass,,,,,
165.0,13.0,wc_13,wc_12,0.0,"[('wc_14', 0.6600000000000005), ('wc_16', 0.9300000000000008)]",0.9762000000000003,,,40.0,0.024294,['Pass'],Pass,0.5000000000000003,-0.5000000000000003,0.0,0.0,0.3
165.0,13.0,wc_13,,0.0,,,,182.0,,,,Pass,,,,,
165.0,13.0,wc_13,wc_6,1.0,"[('wc_6', 0.8700000000000007), ('wc_14', 0.6600000000000005), ('wc_16', 0.9300000000000008)]",0.9969060000000001,,,29.0,0.051029000000000005,['Pass'],Pass,0.8700000000000007,-0.584285714285715,0.0,0.0,0.9
170.0,16.0,wc_16,,0.0,,,,243.0,,,,Fail,,,,,
170.0,16.0,wc_16,,0.0,,,79.0,,,,,Fail,,,,,
170.0,16.0,wc_16,,0.0,,,,0.0,,,,Fail,,,,,
170.0,16.0,wc_16,wc_16,0.0,"[('wc_16', 0.9300000000000008)]",0.9300000000000008,,,35.0,0.00225,['Fail'],Fail,0.9300000000000008,0.06999999999999917,1.0,1.0,0.8
170.0,16.0,wc_16,,0.0,,,,0.0,,,,Fail,,,,,
170.0,16.0,wc_16,wc_17,0.0,"[('wc_17', 0.4800000000000003), ('wc_16', 0.9300000000000008)]",0.9636000000000005,,,26.0,0.004176,['Fail'],Fail,0.4800000000000003,-0.2800000000000003,0.0,0.0,0.4
170.0,16.0,wc_16,,0.0,,,,21.0,,,,Fail,,,,,
170.0,16.0,wc_16,wc_12,1.0,"[('wc_12', 0.5000000000000003), ('wc_16', 0.9300000000000008), ('wc_17', 0.4800000000000003)]",0.9818000000000002,,,25.0,0.043057000000000005,['Fail'],Fail,0.5000000000000003,-3.3306690738754696e-16,1.0,2.0,0.3
171.0,16.0,wc_16,,0.0,,,,0.0,,,,Fail,,,,,
171.0,16.0,wc_16,,0.0,,,52.0,,,,,Fail,,,,,
171.0,16.0,wc_16,,0.0,,,,0.0,,,,Fail,,,,,
171.0,16.0,wc_16,wc_16,0.0,"[('wc_16', 0.9300000000000008)]",0.9300000000000008,,,23.0,0.002205,['Fail'],Fail,0.9300000000000008,0.06999999999999917,2.0,2.0,0.8
171.0,16.0,wc_16,,0.0,,,,0.0,,,,Fail,,,,,
171.0,16.0,wc_16,wc_17,0.0,"[('wc_17', 0.4800000000000003), ('wc_16', 0.9300000000000008)]",0.9636000000000005,,,20.0,0.0041600000000000005,['Fail'],Fail,0.4800000000000003,0.5199999999999997,1.0,1.0,0.4
171.0,16.0,wc_16,,0.0,,,,21.0,,,,Fail,,,,,
171.0,16.0,wc_16,wc_12,1.0,"[('wc_12', 0.5000000000000003), ('wc_16', 0.9300000000000008), ('wc_17', 0.4800000000000003)]",0.9818000000000002,,,40.0,0.039782,['Fail'],Fail,0.5000000000000003,0.1666666666666663,2.0,3.0,0.3
177.0,14.0,wc_14,,0.0,,,,0.0,,,,Pass,,,,,
177.0,14.0,wc_14,,0.0,,,75.0,,,,,Pass,,,,,
177.0,14.0,wc_14,,0.0,,,,0.0,,,,Pass,,,,,
177.0,14.0,wc_14,wc_14,0.0,"[('wc_14', 0.6600000000000005)]",0.6600000000000005,,,29.0,0.002325,['Fail'],Pass,0.6600000000000005,-0.32666666666666716,1.0,3.0,0.5
177.0,14.0,wc_14,,0.0,,,,0.0,,,,Pass,,,,,
177.0,14.0,wc_14,wc_15,0.0,"[('wc_14', 0.6600000000000005)]",0.6600000000000005,,,40.0,0.005186,['Fail'],Pass,0.1600000000000001,-0.1600000000000001,0.0,3.0,0.2
177.0,14.0,wc_14,,0.0,,,,0.0,,,,Pass,,,,,
177.0,14.0,wc_14,wc_16,0.0,"[('wc_16', 0.9300000000000008), ('wc_15', 0.1600000000000001)]",0.9412000000000007,,,32.0,0.0058460000000000005,['Pass'],Pass,0.9300000000000008,0.06999999999999917,3.0,3.0,0.8
177.0,14.0,wc_14,,0.0,,,,0.0,,,,Pass,,,,,
177.0,14.0,wc_14,wc_17,1.0,"[('wc_17', 0.4800000000000003), ('wc_15', 0.1600000000000001), ('wc_16', 0.9300000000000008)]",0.9694240000000004,,,36.0,0.04912200000000001,['Pass'],Pass,0.4800000000000003,0.5199999999999997,3.0,3.0,0.4
181.0,16.0,wc_16,,0.0,,,,103.0,,,,Fail,,,,,
181.0,16.0,wc_16,,0.0,,,60.0,,,,,Fail,,,,,
181.0,16.0,wc_16,,0.0,,,,0.0,,,,Fail,,,,,
181.0,16.0,wc_16,wc_16,0.0,"[('wc_16', 0.9300000000000008)]",0.9300000000000008,,,20.0,0.002056,['Fail'],Fail,0.9300000000000008,0.06999999999999917,4.0,4.0,0.8
181.0,16.0,wc_16,,0.0,,,,0.0,,,,Fail,,,,,
181.0,16.0,wc_16,wc_17,0.0,"[('wc_17', 0.4800000000000003), ('wc_16', 0.9300000000000008)]",0.9636000000000005,,,20.0,0.004089000000000001,['Fail'],Fail,0.4800000000000003,0.5199999999999997,3.0,3.0,0.4
181.0,16.0,wc_16,,0.0,,,,21.0,,,,Fail,,,,,
181.0,16.0,wc_16,wc_12,0.0,"[('wc_16', 0.9300000000000008), ('wc_17', 0.4800000000000003)]",0.9636000000000005,,,33.0,0.00693,['Fail'],Fail,0.5000000000000003,-3.3306690738754696e-16,2.0,4.0,0.3
181.0,16.0,wc_16,,0.0,,,,0.0,,,,Fail,,,,,
181.0,16.0,wc_16,wc_13,0.0,"[('wc_16', 0.9300000000000008), ('wc_17', 0.4800000000000003)]",0.9636000000000005,,,29.0,0.009037,['Fail'],Fail,0.3900000000000001,-0.3900000000000001,0.0,4.0,0.3
181.0,16.0,wc_16,,0.0,,,,0.0,,,,Fail,,,,,
181.0,16.0,wc_16,wc_14,1.0,"[('wc_14', 0.6600000000000005), ('wc_16', 0.9300000000000008), ('wc_17', 0.4800000000000003)]",0.9876240000000002,,,21.0,0.046813999999999995,['Fail'],Fail,0.6600000000000005,-0.26000000000000045,2.0,5.0,0.5
184.0,16.0,wc_16,,0.0,,,,0.0,,,,Fail,,,,,
184.0,16.0,wc_16,,0.0,,,58.0,,,,,Fail,,,,,
184.0,16.0,wc_16,,0.0,,,,0.0,,,,Fail,,,,,
184.0,16.0,wc_16,wc_16,0.0,"[('wc_16', 0.9300000000000008)]",0.9300000000000008,,,31.0,0.002988,['Fail'],Fail,0.9300000000000008,0.06999999999999917,5.0,5.0,0.8
184.0,16.0,wc_16,,0.0,,,,0.0,,,,Fail,,,,,
184.0,16.0,wc_16,wc_17,0.0,"[('wc_17', 0.4800000000000003), ('wc_16', 0.9300000000000008)]",0.9636000000000005,,,37.0,0.0037350000000000005,['Fail'],Fail,0.4800000000000003,0.5199999999999997,4.0,4.0,0.4
184.0,16.0,wc_16,,0.0,,,,21.0,,,,Fail,,,,,
184.0,16.0,wc_16,wc_12,1.0,"[('wc_12', 0.5000000000000003), ('wc_16', 0.9300000000000008), ('wc_17', 0.4800000000000003)]",0.9818000000000002,,,27.0,0.044002,['Fail'],Fail,0.5000000000000003,-3.3306690738754696e-16,3.0,6.0,0.3
185.0,16.0,wc_16,,0.0,,,,0.0,,,,Pass,,,,,
185.0,16.0,wc_16,,0.0,,,51.0,,,,,Pass,,,,,
185.0,16.0,wc_16,,0.0,,,,0.0,,,,Pass,,,,,
185.0,16.0,wc_16,wc_16,0.0,"[('wc_16', 0.9300000000000008)]",0.9300000000000008,,,39.0,0.002194,['Pass'],Pass,0.9300000000000008,0.06999999999999917,6.0,6.0,0.8
185.0,16.0,wc_16,,0.0,,,,0.0,,,,Pass,,,,,
185.0,16.0,wc_16,wc_17,0.0,"[('wc_16', 0.9300000000000008)]",0.9300000000000008,,,28.0,0.004744,['Pass'],Pass,0.4800000000000003,0.5199999999999997,5.0,5.0,0.4
185.0,16.0,wc_16,,0.0,,,,21.0,,,,Pass,,,,,
185.0,16.0,wc_16,wc_12,0.0,"[('wc_16', 0.9300000000000008)]",0.9300000000000008,,,34.0,0.007104,['Pass'],Pass,0.5000000000000003,-3.3306690738754696e-16,3.0,6.0,0.3
185.0,16.0,wc_16,,0.0,,,,0.0,,,,Pass,,,,,
185.0,16.0,wc_16,wc_13,0.0,"[('wc_13', 0.3900000000000001), ('wc_16', 0.9300000000000008)]",0.9573000000000005,,,30.0,0.007104,['Pass'],Pass,0.3900000000000001,-0.3900000000000001,0.0,6.0,0.3
185.0,16.0,wc_16,,0.0,,,,0.0,,,,Pass,,,,,
185.0,16.0,wc_16,wc_14,0.0,"[('wc_16', 0.9300000000000008), ('wc_13', 0.3900000000000001)]",0.9573000000000005,,,36.0,0.010577999999999999,['Pass'],Pass,0.6600000000000005,-0.32666666666666716,2.0,6.0,0.5
185.0,16.0,wc_16,,0.0,,,,0.0,,,,Pass,,,,,
185.0,16.0,wc_16,wc_15,0.0,"[('wc_16', 0.9300000000000008), ('wc_13', 0.3900000000000001)]",0.9573000000000005,,,31.0,0.012695999999999999,['Pass'],Pass,0.1600000000000001,0.006666666666666571,1.0,6.0,0.2
185.0,16.0,wc_16,,0.0,,,,223.0,,,,Pass,,,,,
185.0,16.0,wc_16,wc_6,1.0,"[('wc_6', 0.8700000000000007), ('wc_16', 0.9300000000000008), ('wc_13', 0.3900000000000001)]",0.9944490000000001,,,30.0,0.051068999999999996,['Pass'],Pass,0.8700000000000007,-0.703333333333334,1.0,6.0,0.9
190.0,15.0,wc_15,,0.0,,,,223.0,,,,Fail,,,,,
190.0,15.0,wc_15,,0.0,,,78.0,,,,,Fail,,,,,
190.0,15.0,wc_15,,0.0,,,,0.0,,,,Fail,,,,,
190.0,15.0,wc_15,wc_15,0.0,"[('wc_15', 0.1600000000000001)]",0.16000000000000014,,,26.0,0.002637,['Pass'],Fail,0.1600000000000001,-0.017142857142857237,1.0,7.0,0.2
190.0,15.0,wc_15,,0.0,,,,0.0,,,,Fail,,,,,
190.0,15.0,wc_15,wc_16,0.0,"[('wc_16', 0.9300000000000008)]",0.9300000000000008,,,21.0,0.004200000000000001,['Fail'],Fail,0.9300000000000008,0.06999999999999917,7.0,7.0,0.8
190.0,15.0,wc_15,,0.0,,,,0.0,,,,Fail,,,,,
190.0,15.0,wc_15,wc_17,0.0,"[('wc_17', 0.4800000000000003), ('wc_16', 0.9300000000000008)]",0.9636000000000005,,,31.0,0.006022,['Fail'],Fail,0.4800000000000003,0.35333333333333306,5.0,6.0,0.4
190.0,15.0,wc_15,,0.0,,,,21.0,,,,Fail,,,,,
190.0,15.0,wc_15,wc_12,1.0,"[('wc_12', 0.5000000000000003), ('wc_16', 0.9300000000000008), ('wc_17', 0.4800000000000003)]",0.9818000000000002,,,40.0,0.047903,['Fail'],Fail,0.5000000000000003,-3.3306690738754696e-16,4.0,8.0,0.3
192.0,15.0,wc_15,,0.0,,,,0.0,,,,Fail,,,,,
192.0,15.0,wc_15,,0.0,,,70.0,,,,,Fail,,,,,
192.0,15.0,wc_15,,0.0,,,,0.0,,,,Fail,,,,,
192.0,15.0,wc_15,wc_15,0.0,"[('wc_15', 0.1600000000000001)]",0.16000000000000014,,,40.0,0.002492,['Fail'],Fail,0.1600000000000001,-0.03500000000000009,1.0,8.0,0.2
192.0,15.0,wc_15,,0.0,,,,0.0,,,,Fail,,,,,
192.0,15.0,wc_15,wc_16,0.0,"[('wc_16', 0.9300000000000008), ('wc_15', 0.1600000000000001)]",0.9412000000000007,,,24.0,0.0041519999999999994,['Fail'],Fail,0.9300000000000008,0.06999999999999917,8.0,8.0,0.8
192.0,15.0,wc_15,,0.0,,,,0.0,,,,Fail,,,,,
192.0,15.0,wc_15,wc_17,1.0,"[('wc_17', 0.4800000000000003), ('wc_15', 0.1600000000000001), ('wc_16', 0.9300000000000008)]",0.9694240000000004,,,27.0,0.041205,['Fail'],Fail,0.4800000000000003,0.3949999999999997,7.0,8.0,0.4
194.0,15.0,wc_15,,0.0,,,,83.0,,,,Pass,,,,,
194.0,15.0,wc_15,,0.0,,,56.0,,,,,Pass,,,,,
194.0,15.0,wc_15,,0.0,,,,0.0,,,,Pass,,,,,
194.0,15.0,wc_15,wc_15,0.0,"[('wc_15', 0.1600000000000001)]",0.16000000000000014,,,36.0,0.002248,['Pass'],Pass,0.1600000000000001,0.06222222222222212,2.0,9.0,0.2
194.0,15.0,wc_15,,0.0,,,,0.0,,,,Pass,,,,,
194.0,15.0,wc_15,wc_16,0.0,"[('wc_16', 0.9300000000000008), ('wc_15', 0.1600000000000001)]",0.9412000000000007,,,21.0,0.004119,['Pass'],Pass,0.9300000000000008,0.06999999999999917,9.0,9.0,0.8
194.0,15.0,wc_15,,0.0,,,,0.0,,,,Pass,,,,,
194.0,15.0,wc_15,wc_17,1.0,"[('wc_17', 0.4800000000000003), ('wc_15', 0.1600000000000001), ('wc_16', 0.9300000000000008)]",0.9694240000000004,,,35.0,0.044874000000000004,['Pass'],Pass,0.4800000000000003,0.4088888888888885,8.0,9.0,0.4
196.0,17.0,wc_17,,0.0,,,,0.0,,,,Pass,,,,,
196.0,17.0,wc_17,,0.0,,,67.0,,,,,Pass,,,,,
196.0,17.0,wc_17,,0.0,,,,0.0,,,,Pass,,,,,
196.0,17.0,wc_17,wc_17,0.0,"[('wc_17', 0.4800000000000003)]",0.4800000000000003,,,30.0,0.002456,['Pass'],Pass,0.4800000000000003,0.4088888888888885,8.0,9.0,0.4
196.0,17.0,wc_17,,0.0,,,,21.0,,,,Pass,,,,,
196.0,17.0,wc_17,wc_12,0.0,"[('wc_12', 0.5000000000000003)]",0.5000000000000003,,,34.0,0.004151,['Fail'],Pass,0.5000000000000003,-0.10000000000000031,0.0,0.0,0.3
196.0,17.0,wc_17,,0.0,,,,0.0,,,,Pass,,,,,
196.0,17.0,wc_17,wc_13,0.0,"[('wc_13', 0.3900000000000001), ('wc_17', 0.4800000000000003)]",0.6828000000000003,,,38.0,0.005758,['Pass'],Pass,0.3900000000000001,-0.29000000000000015,0.0,0.0,0.3
196.0,17.0,wc_17,,0.0,,,,0.0,,,,Pass,,,,,
196.0,17.0,wc_17,wc_14,0.0,"[('wc_14', 0.6600000000000005), ('wc_17', 0.4800000000000003), ('wc_13', 0.3900000000000001)]",0.8921520000000003,,,25.0,0.009185,['Pass'],Pass,0.6600000000000005,-0.46000000000000046,0.0,0.0,0.5
196.0,17.0,wc_17,,0.0,,,,0.0,,,,Pass,,,,,
196.0,17.0,wc_17,wc_15,1.0,"[('wc_15', 0.1600000000000001), ('wc_17', 0.4800000000000003), ('wc_13', 0.3900000000000001), ('wc_14', 0.6600000000000005)]",0.9094076800000002,,,25.0,0.04636799999999999,['Pass'],Pass,0.1600000000000001,0.20363636363636356,0.0,0.0,0.2
