mpecck/BCQC/bcqc_with_qdt/results/raw/input_6/independent_qc/score/5_workpiece/20200429_104648/wp_5_qc_majority_0.9.csv
production_index,step_idx,production_workcell,qc,consent,winner_qc_list,score,production_time,transport_time,inspection_time,network_time,qc_results,actual_quality,qc_score,score_error,in_winner_counter,in_qc_counter,qc_capability
12.0,1.0,wc_1,,0.0,,,61.0,,,,,Fail,,,,,
12.0,1.0,wc_1,,0.0,,,,0.0,,,,Fail,,,,,
12.0,1.0,wc_1,wc_1,0.0,"[('wc_1', 0.13)]",0.13,,,35.0,0.002278,['Fail'],Fail,0.13,-0.09153846153846154,0.0,0.0,0.1
12.0,1.0,wc_1,,0.0,,,,0.0,,,,Fail,,,,,
12.0,1.0,wc_1,wc_2,0.0,"[('wc_2', 0.6200000000000004)]",0.6200000000000004,,,34.0,0.0042369999999999994,['Pass'],Fail,0.6200000000000004,-0.5800000000000004,0.0,0.0,0.5
12.0,1.0,wc_1,,0.0,,,,0.0,,,,Fail,,,,,
12.0,1.0,wc_1,wc_3,0.0,"[('wc_3', 0.3500000000000002), ('wc_2', 0.6200000000000004)]",0.7530000000000003,,,39.0,0.0057669999999999996,['Pass'],Fail,0.3500000000000002,-0.3500000000000002,0.0,0.0,0.3
12.0,1.0,wc_1,,0.0,,,,0.0,,,,Fail,,,,,
12.0,1.0,wc_1,wc_4,0.0,"[('wc_4', 0.8200000000000006), ('wc_1', 0.13)]",0.8434000000000006,,,30.0,0.015208,['Fail'],Fail,0.8200000000000006,-0.5628571428571435,0.0,0.0,0.7
12.0,1.0,wc_1,,0.0,,,,0.0,,,,Fail,,,,,
12.0,1.0,wc_1,wc_5,1.0,"[('wc_5', 0.9900000000000008), ('wc_2', 0.6200000000000004), ('wc_3', 0.3500000000000002)]",0.9975300000000001,,,34.0,0.042234999999999995,['Pass'],Fail,0.9900000000000008,-0.7400000000000008,0.0,0.0,1.0
18.0,1.0,wc_1,,0.0,,,,41.0,,,,Fail,,,,,
18.0,1.0,wc_1,,0.0,,,59.0,,,,,Fail,,,,,
18.0,1.0,wc_1,,0.0,,,,0.0,,,,Fail,,,,,
18.0,1.0,wc_1,wc_1,0.0,"[('wc_1', 0.13)]",0.13,,,35.0,0.002628,['Fail'],Fail,0.13,-0.13,0.0,1.0,0.1
18.0,1.0,wc_1,,0.0,,,,0.0,,,,Fail,,,,,
18.0,1.0,wc_1,wc_2,0.0,"[('wc_2', 0.6200000000000004), ('wc_1', 0.13)]",0.6694000000000004,,,26.0,0.004128,['Fail'],Fail,0.6200000000000004,0.37999999999999956,1.0,1.0,0.5
18.0,1.0,wc_1,,0.0,,,,0.0,,,,Fail,,,,,
18.0,1.0,wc_1,wc_3,0.0,"[('wc_1', 0.13), ('wc_2', 0.6200000000000004)]",0.6694000000000004,,,34.0,0.011139,['Fail'],Fail,0.3500000000000002,0.6499999999999998,1.0,1.0,0.3
18.0,1.0,wc_1,,0.0,,,,0.0,,,,Fail,,,,,
18.0,1.0,wc_1,wc_4,1.0,"[('wc_4', 0.8200000000000006), ('wc_1', 0.13), ('wc_2', 0.6200000000000004)]",0.9404920000000003,,,40.0,0.04456,['Fail'],Fail,0.8200000000000006,-0.3200000000000006,1.0,2.0,0.7
26.0,1.0,wc_1,,0.0,,,,61.0,,,,Pass,,,,,
26.0,1.0,wc_1,,0.0,,,67.0,,,,,Pass,,,,,
26.0,1.0,wc_1,,0.0,,,,0.0,,,,Pass,,,,,
26.0,1.0,wc_1,wc_1,0.0,"[('wc_1', 0.13)]",0.13,,,36.0,0.007319,['Pass'],Pass,0.13,0.37,1.0,2.0,0.1
26.0,1.0,wc_1,,0.0,,,,0.0,,,,Pass,,,,,
26.0,1.0,wc_1,wc_2,0.0,"[('wc_2', 0.6200000000000004), ('wc_1', 0.13)]",0.6694000000000004,,,35.0,0.004536999999999999,['Pass'],Pass,0.6200000000000004,0.37999999999999956,2.0,2.0,0.5
26.0,1.0,wc_1,,0.0,,,,0.0,,,,Pass,,,,,
26.0,1.0,wc_1,wc_3,0.0,"[('wc_3', 0.3500000000000002), ('wc_1', 0.13), ('wc_2', 0.6200000000000004)]",0.7851100000000003,,,20.0,0.005622,['Pass'],Pass,0.3500000000000002,0.1499999999999998,1.0,2.0,0.3
26.0,1.0,wc_1,,0.0,,,,0.0,,,,Pass,,,,,
26.0,1.0,wc_1,wc_4,1.0,"[('wc_4', 0.8200000000000006), ('wc_1', 0.13), ('wc_2', 0.6200000000000004), ('wc_3', 0.3500000000000002)]",0.9613198000000002,,,28.0,0.04257799999999999,['Pass'],Pass,0.8200000000000006,-0.153333333333334,2.0,3.0,0.7
30.0,4.0,wc_4,,0.0,,,,0.0,,,,Pass,,,,,
30.0,4.0,wc_4,,0.0,,,72.0,,,,,Pass,,,,,
30.0,4.0,wc_4,,0.0,,,,0.0,,,,Pass,,,,,
30.0,4.0,wc_4,wc_4,0.0,"[('wc_4', 0.8200000000000006)]",0.8200000000000006,,,25.0,0.002106,['Pass'],Pass,0.8200000000000006,-0.153333333333334,2.0,3.0,0.7
30.0,4.0,wc_4,,0.0,,,,0.0,,,,Pass,,,,,
30.0,4.0,wc_4,wc_5,0.0,"[('wc_5', 0.9900000000000008), ('wc_4', 0.8200000000000006)]",0.9982000000000002,,,39.0,0.004111999999999999,['Pass'],Pass,0.9900000000000008,-0.9900000000000008,0.0,2.0,1.0
30.0,4.0,wc_4,,0.0,,,,41.0,,,,Pass,,,,,
30.0,4.0,wc_4,wc_1,1.0,"[('wc_1', 0.13), ('wc_4', 0.8200000000000006), ('wc_5', 0.9900000000000008)]",0.9984340000000002,,,38.0,0.047415,['Pass'],Pass,0.13,0.62,3.0,4.0,0.1
35.0,3.0,wc_3,,0.0,,,,0.0,,,,Fail,,,,,
35.0,3.0,wc_3,,0.0,,,75.0,,,,,Fail,,,,,
35.0,3.0,wc_3,,0.0,,,,0.0,,,,Fail,,,,,
35.0,3.0,wc_3,wc_3,0.0,"[('wc_3', 0.3500000000000002)]",0.3500000000000002,,,22.0,0.003278,['Fail'],Fail,0.3500000000000002,0.1499999999999998,2.0,4.0,0.3
35.0,3.0,wc_3,,0.0,,,,0.0,,,,Fail,,,,,
35.0,3.0,wc_3,wc_4,0.0,"[('wc_4', 0.8200000000000006), ('wc_3', 0.3500000000000002)]",0.8830000000000005,,,33.0,0.004509,['Fail'],Fail,0.8200000000000006,-0.07000000000000062,3.0,4.0,0.7
35.0,3.0,wc_3,,0.0,,,,0.0,,,,Fail,,,,,
35.0,3.0,wc_3,wc_5,1.0,"[('wc_5', 0.9900000000000008), ('wc_3', 0.3500000000000002), ('wc_4', 0.8200000000000006)]",0.9988300000000001,,,26.0,0.040272,['Fail'],Fail,0.9900000000000008,-0.49000000000000077,2.0,4.0,1.0
39.0,2.0,wc_2,,0.0,,,,61.0,,,,Pass,,,,,
39.0,2.0,wc_2,,0.0,,,63.0,,,,,Pass,,,,,
39.0,2.0,wc_2,,0.0,,,,0.0,,,,Pass,,,,,
39.0,2.0,wc_2,wc_2,0.0,"[('wc_2', 0.6200000000000004)]",0.6200000000000004,,,40.0,0.002242,['Fail'],Pass,0.6200000000000004,-0.020000000000000462,3.0,5.0,0.5
39.0,2.0,wc_2,,0.0,,,,0.0,,,,Pass,,,,,
39.0,2.0,wc_2,wc_3,0.0,"[('wc_2', 0.6200000000000004)]",0.6200000000000004,,,31.0,0.004041,['Fail'],Pass,0.3500000000000002,0.24999999999999978,3.0,5.0,0.3
39.0,2.0,wc_2,,0.0,,,,0.0,,,,Pass,,,,,
39.0,2.0,wc_2,wc_4,0.0,"[('wc_4', 0.8200000000000006), ('wc_2', 0.6200000000000004)]",0.9316000000000003,,,23.0,0.005942,['Fail'],Pass,0.8200000000000006,-0.020000000000000573,4.0,5.0,0.7
39.0,2.0,wc_2,,0.0,,,,0.0,,,,Pass,,,,,
39.0,2.0,wc_2,wc_5,1.0,"[('wc_5', 0.9900000000000008), ('wc_2', 0.6200000000000004), ('wc_4', 0.8200000000000006)]",0.9993160000000001,,,23.0,0.039202999999999995,['Fail'],Pass,0.9900000000000008,-0.3900000000000008,3.0,5.0,1.0
43.0,3.0,wc_3,,0.0,,,,83.0,,,,Fail,,,,,
43.0,3.0,wc_3,,0.0,,,60.0,,,,,Fail,,,,,
43.0,3.0,wc_3,,0.0,,,,0.0,,,,Fail,,,,,
43.0,3.0,wc_3,wc_3,0.0,"[('wc_3', 0.3500000000000002)]",0.3500000000000002,,,23.0,0.00265,['Pass'],Fail,0.3500000000000002,0.1499999999999998,3.0,6.0,0.3
43.0,3.0,wc_3,,0.0,,,,0.0,,,,Fail,,,,,
43.0,3.0,wc_3,wc_4,0.0,"[('wc_4', 0.8200000000000006)]",0.8200000000000006,,,34.0,0.010612,['Fail'],Fail,0.8200000000000006,0.013333333333332753,5.0,6.0,0.7
43.0,3.0,wc_3,,0.0,,,,0.0,,,,Fail,,,,,
43.0,3.0,wc_3,wc_5,0.0,"[('wc_5', 0.9900000000000008), ('wc_4', 0.8200000000000006)]",0.9982000000000002,,,20.0,0.006456,['Fail'],Fail,0.9900000000000008,-0.3900000000000008,3.0,5.0,1.0
43.0,3.0,wc_3,,0.0,,,,41.0,,,,Fail,,,,,
43.0,3.0,wc_3,wc_1,0.0,"[('wc_4', 0.8200000000000006), ('wc_5', 0.9900000000000008)]",0.9982000000000002,,,29.0,0.008106,['Fail'],Fail,0.13,0.37,3.0,6.0,0.1
43.0,3.0,wc_3,,0.0,,,,0.0,,,,Fail,,,,,
43.0,3.0,wc_3,wc_2,1.0,"[('wc_2', 0.6200000000000004), ('wc_4', 0.8200000000000006), ('wc_5', 0.9900000000000008)]",0.9993160000000001,,,30.0,0.045799999999999993,['Fail'],Fail,0.6200000000000004,0.09428571428571386,5.0,7.0,0.5
48.0,3.0,wc_3,,0.0,,,,0.0,,,,Fail,,,,,
48.0,3.0,wc_3,,0.0,,,80.0,,,,,Fail,,,,,
48.0,3.0,wc_3,,0.0,,,,0.0,,,,Fail,,,,,
48.0,3.0,wc_3,wc_3,0.0,"[('wc_3', 0.3500000000000002)]",0.3500000000000002,,,21.0,0.002136,['Pass'],Fail,0.3500000000000002,0.07857142857142835,3.0,7.0,0.3
48.0,3.0,wc_3,,0.0,,,,0.0,,,,Fail,,,,,
48.0,3.0,wc_3,wc_4,0.0,"[('wc_4', 0.8200000000000006), ('wc_3', 0.3500000000000002)]",0.8830000000000005,,,28.0,0.004054,['Pass'],Fail,0.8200000000000006,0.03714285714285648,6.0,7.0,0.7
48.0,3.0,wc_3,,0.0,,,,0.0,,,,Fail,,,,,
48.0,3.0,wc_3,wc_5,0.0,"[('wc_5', 0.9900000000000008)]",0.9900000000000008,,,20.0,0.00635,['Fail'],Fail,0.9900000000000008,-0.32333333333333414,4.0,6.0,1.0
48.0,3.0,wc_3,,0.0,,,,41.0,,,,Fail,,,,,
48.0,3.0,wc_3,wc_1,0.0,"[('wc_5', 0.9900000000000008)]",0.9900000000000008,,,23.0,0.008519,['Fail'],Fail,0.13,0.29857142857142854,3.0,7.0,0.1
48.0,3.0,wc_3,,0.0,,,,0.0,,,,Fail,,,,,
48.0,3.0,wc_3,wc_2,0.0,"[('wc_2', 0.6200000000000004), ('wc_5', 0.9900000000000008)]",0.9962000000000003,,,37.0,0.011779000000000001,['Fail'],Fail,0.6200000000000004,0.09428571428571386,5.0,7.0,0.5
48.0,3.0,wc_3,,0.0,,,,122.0,,,,Fail,,,,,
48.0,3.0,wc_3,wc_6,1.0,"[('wc_6', 0.7100000000000005), ('wc_5', 0.9900000000000008), ('wc_2', 0.6200000000000004)]",0.9988980000000001,,,29.0,0.047337000000000004,['Fail'],Fail,0.7100000000000005,-0.5248148148148153,0.0,0.0,0.5
56.0,3.0,wc_3,,0.0,,,,321.0,,,,Pass,,,,,
56.0,3.0,wc_3,,0.0,,,62.0,,,,,Pass,,,,,
56.0,3.0,wc_3,,0.0,,,,0.0,,,,Pass,,,,,
56.0,3.0,wc_3,wc_3,0.0,"[('wc_3', 0.3500000000000002)]",0.3500000000000002,,,34.0,0.002107,['Pass'],Pass,0.3500000000000002,0.0249999999999998,3.0,8.0,0.3
56.0,3.0,wc_3,,0.0,,,,0.0,,,,Pass,,,,,
56.0,3.0,wc_3,wc_4,0.0,"[('wc_4', 0.8200000000000006), ('wc_3', 0.3500000000000002)]",0.8830000000000005,,,35.0,0.004316,['Pass'],Pass,0.8200000000000006,-0.07000000000000062,6.0,8.0,0.7
56.0,3.0,wc_3,,0.0,,,,0.0,,,,Pass,,,,,
56.0,3.0,wc_3,wc_5,1.0,"[('wc_5', 0.9900000000000008), ('wc_3', 0.3500000000000002), ('wc_4', 0.8200000000000006)]",0.9988300000000001,,,23.0,0.038785,['Pass'],Pass,0.9900000000000008,-0.24000000000000077,6.0,8.0,1.0
62.0,5.0,wc_5,,0.0,,,,0.0,,,,Pass,,,,,
62.0,5.0,wc_5,,0.0,,,75.0,,,,,Pass,,,,,
62.0,5.0,wc_5,,0.0,,,,0.0,,,,Pass,,,,,
62.0,5.0,wc_5,wc_5,0.0,"[('wc_5', 0.9900000000000008)]",0.9900000000000008,,,31.0,0.002332,['Pass'],Pass,0.9900000000000008,-0.24000000000000077,6.0,8.0,1.0
62.0,5.0,wc_5,,0.0,,,,41.0,,,,Pass,,,,,
62.0,5.0,wc_5,wc_1,0.0,"[('wc_5', 0.9900000000000008)]",0.9900000000000008,,,22.0,0.006308,['Pass'],Pass,0.13,0.2033333333333333,3.0,9.0,0.1
62.0,5.0,wc_5,,0.0,,,,0.0,,,,Pass,,,,,
62.0,5.0,wc_5,wc_2,0.0,"[('wc_5', 0.9900000000000008)]",0.9900000000000008,,,40.0,0.007065999999999999,['Pass'],Pass,0.6200000000000004,0.04666666666666619,6.0,9.0,0.5
62.0,5.0,wc_5,,0.0,,,,0.0,,,,Pass,,,,,
62.0,5.0,wc_5,wc_3,0.0,"[('wc_3', 0.3500000000000002), ('wc_5', 0.9900000000000008)]",0.9935000000000005,,,30.0,0.007718000000000001,['Pass'],Pass,0.3500000000000002,0.09444444444444422,4.0,9.0,0.3
62.0,5.0,wc_5,,0.0,,,,0.0,,,,Pass,,,,,
62.0,5.0,wc_5,wc_4,1.0,"[('wc_4', 0.8200000000000006), ('wc_5', 0.9900000000000008), ('wc_3', 0.3500000000000002)]",0.9988300000000001,,,33.0,0.04843199999999999,['Pass'],Pass,0.8200000000000006,-0.020000000000000573,0.0,0.0,0.7
68.0,6.0,wc_6,,0.0,,,,81.0,,,,Pass,,,,,
68.0,6.0,wc_6,,0.0,,,78.0,,,,,Pass,,,,,
68.0,6.0,wc_6,,0.0,,,,0.0,,,,Pass,,,,,
68.0,6.0,wc_6,wc_6,0.0,"[('wc_6', 0.7100000000000005)]",0.7100000000000005,,,38.0,0.002104,['Fail'],Pass,0.7100000000000005,-0.7100000000000005,0.0,2.0,0.5
68.0,6.0,wc_6,,0.0,,,,0.0,,,,Pass,,,,,
68.0,6.0,wc_6,wc_7,0.0,"[('wc_7', 0.7200000000000005)]",0.7200000000000005,,,32.0,0.003821,['Pass'],Pass,0.7200000000000005,-0.7200000000000005,0.0,0.0,0.6
68.0,6.0,wc_6,,0.0,,,,0.0,,,,Pass,,,,,
68.0,6.0,wc_6,wc_8,0.0,"[('wc_8', 0.7800000000000006), ('wc_7', 0.7200000000000005)]",0.9384000000000002,,,23.0,0.006141000000000001,['Pass'],Pass,0.7800000000000006,-0.5981818181818188,0.0,0.0,0.8
68.0,6.0,wc_6,,0.0,,,,0.0,,,,Pass,,,,,
68.0,6.0,wc_6,wc_9,1.0,"[('wc_9', 0.6700000000000005), ('wc_7', 0.7200000000000005), ('wc_8', 0.7800000000000006)]",0.9796720000000001,,,36.0,0.04518300000000001,['Pass'],Pass,0.6700000000000005,-0.518484848484849,0.0,0.0,0.6
73.0,9.0,wc_9,,0.0,,,,0.0,,,,Fail,,,,,
73.0,9.0,wc_9,,0.0,,,62.0,,,,,Fail,,,,,
73.0,9.0,wc_9,,0.0,,,,0.0,,,,Fail,,,,,
73.0,9.0,wc_9,wc_9,0.0,"[('wc_9', 0.6700000000000005)]",0.6700000000000005,,,23.0,0.002329,['Fail'],Fail,0.6700000000000005,-0.6700000000000005,0.0,0.0,0.6
73.0,9.0,wc_9,,0.0,,,,0.0,,,,Fail,,,,,
73.0,9.0,wc_9,wc_10,0.0,"[('wc_9', 0.6700000000000005)]",0.6700000000000005,,,30.0,0.004764,['Fail'],Fail,0.4700000000000003,-0.3487878787878791,0.0,0.0,0.4
73.0,9.0,wc_9,,0.0,,,,0.0,,,,Fail,,,,,
73.0,9.0,wc_9,wc_11,0.0,"[('wc_9', 0.6700000000000005)]",0.6700000000000005,,,39.0,0.006366999999999999,['Fail'],Fail,0.3400000000000002,-0.18848484848484867,0.0,0.0,0.2
73.0,9.0,wc_9,,0.0,,,,21.0,,,,Fail,,,,,
73.0,9.0,wc_9,wc_6,0.0,"[('wc_6', 0.7100000000000005), ('wc_9', 0.6700000000000005)]",0.9043000000000003,,,40.0,0.011305,['Fail'],Fail,0.7100000000000005,-0.7100000000000005,0.0,3.0,0.5
73.0,9.0,wc_9,,0.0,,,,0.0,,,,Fail,,,,,
73.0,9.0,wc_9,wc_7,1.0,"[('wc_7', 0.7200000000000005), ('wc_9', 0.6700000000000005), ('wc_6', 0.7100000000000005)]",0.9732040000000002,,,20.0,0.040926000000000004,['Fail'],Fail,0.7200000000000005,0.27999999999999947,2.0,2.0,0.6
76.0,9.0,wc_9,,0.0,,,,0.0,,,,Fail,,,,,
76.0,9.0,wc_9,,0.0,,,54.0,,,,,Fail,,,,,
76.0,9.0,wc_9,,0.0,,,,0.0,,,,Fail,,,,,
76.0,9.0,wc_9,wc_9,0.0,"[('wc_9', 0.6700000000000005)]",0.6700000000000005,,,21.0,0.002262,['Fail'],Fail,0.6700000000000005,0.3299999999999995,1.0,1.0,0.6
76.0,9.0,wc_9,,0.0,,,,0.0,,,,Fail,,,,,
76.0,9.0,wc_9,wc_10,0.0,"[('wc_10', 0.4700000000000003), ('wc_9', 0.6700000000000005)]",0.8251000000000004,,,24.0,0.004251,['Fail'],Fail,0.4700000000000003,-0.4700000000000003,0.0,1.0,0.4
76.0,9.0,wc_9,,0.0,,,,0.0,,,,Fail,,,,,
76.0,9.0,wc_9,wc_11,0.0,"[('wc_9', 0.6700000000000005), ('wc_10', 0.4700000000000003)]",0.8251000000000004,,,38.0,0.005861,['Fail'],Fail,0.3400000000000002,-0.3400000000000002,0.0,1.0,0.2
76.0,9.0,wc_9,,0.0,,,,21.0,,,,Fail,,,,,
76.0,9.0,wc_9,wc_6,1.0,"[('wc_6', 0.7100000000000005), ('wc_9', 0.6700000000000005), ('wc_10', 0.4700000000000003)]",0.9492790000000002,,,24.0,0.041462,['Fail'],Fail,0.7100000000000005,-0.3100000000000005,2.0,5.0,0.5
80.0,9.0,wc_9,,0.0,,,,0.0,,,,Pass,,,,,
80.0,9.0,wc_9,,0.0,,,65.0,,,,,Pass,,,,,
80.0,9.0,wc_9,,0.0,,,,0.0,,,,Pass,,,,,
80.0,9.0,wc_9,wc_9,0.0,"[('wc_9', 0.6700000000000005)]",0.6700000000000005,,,25.0,0.002355,['Pass'],Pass,0.6700000000000005,0.3299999999999995,2.0,2.0,0.6
80.0,9.0,wc_9,,0.0,,,,0.0,,,,Pass,,,,,
80.0,9.0,wc_9,wc_10,0.0,"[('wc_10', 0.4700000000000003), ('wc_9', 0.6700000000000005)]",0.8251000000000004,,,39.0,0.004831,['Pass'],Pass,0.4700000000000003,0.029999999999999694,1.0,2.0,0.4
80.0,9.0,wc_9,,0.0,,,,0.0,,,,Pass,,,,,
80.0,9.0,wc_9,wc_11,0.0,"[('wc_9', 0.6700000000000005), ('wc_10', 0.4700000000000003)]",0.8251000000000004,,,33.0,0.007098,['Pass'],Pass,0.3400000000000002,-0.3400000000000002,0.0,2.0,0.2
80.0,9.0,wc_9,,0.0,,,,21.0,,,,Pass,,,,,
80.0,9.0,wc_9,wc_6,0.0,"[('wc_9', 0.6700000000000005), ('wc_10', 0.4700000000000003)]",0.8251000000000004,,,35.0,0.012657999999999999,['Pass'],Pass,0.7100000000000005,-0.3100000000000005,2.0,5.0,0.5
80.0,9.0,wc_9,,0.0,,,,0.0,,,,Pass,,,,,
80.0,9.0,wc_9,wc_7,1.0,"[('wc_7', 0.7200000000000005), ('wc_11', 0.3400000000000002), ('wc_6', 0.7100000000000005)]",0.9464080000000002,,,31.0,0.051734000000000016,['Fail'],Pass,0.7200000000000005,0.02999999999999947,3.0,4.0,0.6
83.0,11.0,wc_11,,0.0,,,,0.0,,,,Fail,,,,,
83.0,11.0,wc_11,,0.0,,,53.0,,,,,Fail,,,,,
83.0,11.0,wc_11,,0.0,,,,0.0,,,,Fail,,,,,
83.0,11.0,wc_11,wc_11,0.0,"[('wc_11', 0.3400000000000002)]",0.3400000000000002,,,31.0,0.002168,['Fail'],Fail,0.3400000000000002,-0.006666666666666876,1.0,3.0,0.2
83.0,11.0,wc_11,,0.0,,,,21.0,,,,Fail,,,,,
83.0,11.0,wc_11,wc_6,0.0,"[('wc_6', 0.7100000000000005), ('wc_11', 0.3400000000000002)]",0.8086000000000004,,,23.0,0.004302,['Fail'],Fail,0.7100000000000005,-0.21000000000000052,3.0,6.0,0.5
83.0,11.0,wc_11,,0.0,,,,0.0,,,,Fail,,,,,
83.0,11.0,wc_11,wc_7,0.0,"[('wc_11', 0.3400000000000002), ('wc_6', 0.7100000000000005)]",0.8086000000000004,,,30.0,0.0065379999999999995,['Fail'],Fail,0.7200000000000005,0.02999999999999947,3.0,4.0,0.6
83.0,11.0,wc_11,,0.0,,,,0.0,,,,Fail,,,,,
83.0,11.0,wc_11,wc_8,1.0,"[('wc_8', 0.7800000000000006), ('wc_11', 0.3400000000000002), ('wc_6', 0.7100000000000005)]",0.9578920000000002,,,28.0,0.041546,['Fail'],Fail,0.7800000000000006,-0.38000000000000056,2.0,5.0,0.8
88.0,11.0,wc_11,,0.0,,,,0.0,,,,Fail,,,,,
88.0,11.0,wc_11,,0.0,,,50.0,,,,,Fail,,,,,
88.0,11.0,wc_11,,0.0,,,,0.0,,,,Fail,,,,,
88.0,11.0,wc_11,wc_11,0.0,"[('wc_11', 0.3400000000000002)]",0.3400000000000002,,,28.0,0.002524,['Fail'],Fail,0.3400000000000002,0.1599999999999998,2.0,4.0,0.2
88.0,11.0,wc_11,,0.0,,,,21.0,,,,Fail,,,,,
88.0,11.0,wc_11,wc_6,0.0,"[('wc_6', 0.7100000000000005), ('wc_11', 0.3400000000000002)]",0.8086000000000004,,,25.0,0.004078,['Fail'],Fail,0.7100000000000005,-0.13857142857142912,4.0,7.0,0.5
88.0,11.0,wc_11,,0.0,,,,0.0,,,,Fail,,,,,
88.0,11.0,wc_11,wc_7,1.0,"[('wc_7', 0.7200000000000005), ('wc_11', 0.3400000000000002), ('wc_6', 0.7100000000000005)]",0.9464080000000002,,,27.0,0.04583299999999999,['Fail'],Fail,0.7200000000000005,-0.0533333333333339,4.0,6.0,0.6
93.0,11.0,wc_11,,0.0,,,,0.0,,,,Fail,,,,,
93.0,11.0,wc_11,,0.0,,,69.0,,,,,Fail,,,,,
93.0,11.0,wc_11,,0.0,,,,0.0,,,,Fail,,,,,
93.0,11.0,wc_11,wc_11,0.0,"[('wc_11', 0.3400000000000002)]",0.3400000000000002,,,29.0,0.001965,['Pass'],Fail,0.3400000000000002,0.2599999999999998,3.0,5.0,0.2
93.0,11.0,wc_11,,0.0,,,,21.0,,,,Fail,,,,,
93.0,11.0,wc_11,wc_6,0.0,"[('wc_6', 0.7100000000000005), ('wc_11', 0.3400000000000002)]",0.8086000000000004,,,36.0,0.0039239999999999995,['Pass'],Fail,0.7100000000000005,-0.08500000000000052,5.0,8.0,0.5
93.0,11.0,wc_11,,0.0,,,,0.0,,,,Fail,,,,,
93.0,11.0,wc_11,wc_7,0.0,"[('wc_11', 0.3400000000000002), ('wc_6', 0.7100000000000005)]",0.8086000000000004,,,24.0,0.006188,['Pass'],Fail,0.7200000000000005,-0.0533333333333339,4.0,6.0,0.6
93.0,11.0,wc_11,,0.0,,,,0.0,,,,Fail,,,,,
93.0,11.0,wc_11,wc_8,0.0,"[('wc_8', 0.7800000000000006), ('wc_7', 0.7200000000000005)]",0.9384000000000002,,,26.0,0.008504999999999999,['Fail'],Fail,0.7800000000000006,-0.44666666666666727,2.0,6.0,0.8
93.0,11.0,wc_11,,0.0,,,,0.0,,,,Fail,,,,,
93.0,11.0,wc_11,wc_9,0.0,"[('wc_7', 0.7200000000000005), ('wc_8', 0.7800000000000006)]",0.9384000000000002,,,27.0,0.019011999999999998,['Fail'],Fail,0.6700000000000005,-0.27000000000000046,2.0,5.0,0.6
93.0,11.0,wc_11,,0.0,,,,0.0,,,,Fail,,,,,
93.0,11.0,wc_11,wc_10,1.0,"[('wc_10', 0.4700000000000003), ('wc_7', 0.7200000000000005), ('wc_8', 0.7800000000000006)]",0.9673520000000002,,,24.0,0.053786,['Fail'],Fail,0.4700000000000003,-0.136666666666667,2.0,6.0,0.4
98.0,11.0,wc_11,,0.0,,,,0.0,,,,Pass,,,,,
98.0,11.0,wc_11,,0.0,,,53.0,,,,,Pass,,,,,
98.0,11.0,wc_11,,0.0,,,,0.0,,,,Pass,,,,,
98.0,11.0,wc_11,wc_11,0.0,"[('wc_11', 0.3400000000000002)]",0.3400000000000002,,,21.0,0.00207,['Pass'],Pass,0.3400000000000002,0.1599999999999998,3.0,6.0,0.2
98.0,11.0,wc_11,,0.0,,,,21.0,,,,Pass,,,,,
98.0,11.0,wc_11,wc_6,0.0,"[('wc_6', 0.7100000000000005), ('wc_11', 0.3400000000000002)]",0.8086000000000004,,,33.0,0.004148000000000001,['Pass'],Pass,0.7100000000000005,-0.15444444444444494,5.0,9.0,0.5
98.0,11.0,wc_11,,0.0,,,,0.0,,,,Pass,,,,,
98.0,11.0,wc_11,wc_7,0.0,"[('wc_11', 0.3400000000000002), ('wc_6', 0.7100000000000005)]",0.8086000000000004,,,38.0,0.008331000000000002,['Pass'],Pass,0.7200000000000005,-0.005714285714286227,5.0,7.0,0.6
98.0,11.0,wc_11,,0.0,,,,0.0,,,,Pass,,,,,
98.0,11.0,wc_11,wc_8,1.0,"[('wc_8', 0.7800000000000006), ('wc_11', 0.3400000000000002), ('wc_6', 0.7100000000000005)]",0.9578920000000002,,,34.0,0.057737,['Pass'],Pass,0.7800000000000006,-0.2800000000000006,4.0,8.0,0.8
101.0,7.0,wc_7,,0.0,,,,102.0,,,,Fail,,,,,
101.0,7.0,wc_7,,0.0,,,51.0,,,,,Fail,,,,,
101.0,7.0,wc_7,,0.0,,,,0.0,,,,Fail,,,,,
101.0,7.0,wc_7,wc_7,0.0,"[('wc_7', 0.7200000000000005)]",0.7200000000000005,,,27.0,0.002386,['Fail'],Fail,0.7200000000000005,-0.09500000000000053,5.0,8.0,0.6
101.0,7.0,wc_7,,0.0,,,,0.0,,,,Fail,,,,,
101.0,7.0,wc_7,wc_8,0.0,"[('wc_8', 0.7800000000000006), ('wc_7', 0.7200000000000005)]",0.9384000000000002,,,29.0,0.004505,['Fail'],Fail,0.7800000000000006,-0.2800000000000006,4.0,8.0,0.8
101.0,7.0,wc_7,,0.0,,,,0.0,,,,Fail,,,,,
101.0,7.0,wc_7,wc_9,1.0,"[('wc_9', 0.6700000000000005), ('wc_7', 0.7200000000000005), ('wc_8', 0.7800000000000006)]",0.9796720000000001,,,23.0,0.043487,['Fail'],Fail,0.6700000000000005,-0.2950000000000005,3.0,8.0,0.6
107.0,8.0,wc_8,,0.0,,,,101.0,,,,Fail,,,,,
107.0,8.0,wc_8,,0.0,,,75.0,,,,,Fail,,,,,
107.0,8.0,wc_8,,0.0,,,,0.0,,,,Fail,,,,,
107.0,8.0,wc_8,wc_8,0.0,"[('wc_8', 0.7800000000000006)]",0.7800000000000006,,,22.0,0.002083,['Fail'],Fail,0.7800000000000006,-0.224444444444445,5.0,9.0,0.8
107.0,8.0,wc_8,,0.0,,,,0.0,,,,Fail,,,,,
107.0,8.0,wc_8,wc_9,0.0,"[('wc_9', 0.6700000000000005), ('wc_8', 0.7800000000000006)]",0.9274000000000003,,,29.0,0.004364,['Fail'],Fail,0.6700000000000005,-0.2950000000000005,3.0,8.0,0.6
107.0,8.0,wc_8,,0.0,,,,0.0,,,,Fail,,,,,
107.0,8.0,wc_8,wc_10,1.0,"[('wc_10', 0.4700000000000003), ('wc_8', 0.7800000000000006), ('wc_9', 0.6700000000000005)]",0.9615220000000002,,,22.0,0.039612,['Fail'],Fail,0.4700000000000003,-0.136666666666667,3.0,9.0,0.4
112.0,8.0,wc_8,,0.0,,,,81.0,,,,Fail,,,,,
112.0,8.0,wc_8,,0.0,,,75.0,,,,,Fail,,,,,
112.0,8.0,wc_8,,0.0,,,,0.0,,,,Fail,,,,,
112.0,8.0,wc_8,wc_8,0.0,"[('wc_8', 0.7800000000000006)]",0.7800000000000006,,,39.0,0.002095,['Fail'],Fail,0.7800000000000006,-0.1800000000000006,0.0,0.0,0.8
112.0,8.0,wc_8,,0.0,,,,0.0,,,,Fail,,,,,
112.0,8.0,wc_8,wc_9,0.0,"[('wc_9', 0.6700000000000005), ('wc_8', 0.7800000000000006)]",0.9274000000000003,,,39.0,0.003895,['Fail'],Fail,0.6700000000000005,-0.22555555555555606,4.0,9.0,0.6
112.0,8.0,wc_8,,0.0,,,,0.0,,,,Fail,,,,,
112.0,8.0,wc_8,wc_10,0.0,"[('wc_8', 0.7800000000000006), ('wc_9', 0.6700000000000005)]",0.9274000000000003,,,36.0,0.007738999999999999,['Fail'],Fail,0.4700000000000003,-0.136666666666667,3.0,9.0,0.4
112.0,8.0,wc_8,,0.0,,,,0.0,,,,Fail,,,,,
112.0,8.0,wc_8,wc_11,1.0,"[('wc_11', 0.3400000000000002), ('wc_8', 0.7800000000000006), ('wc_9', 0.6700000000000005)]",0.9520840000000002,,,22.0,0.041468000000000005,['Fail'],Fail,0.3400000000000002,0.1599999999999998,0.0,0.0,0.2
115.0,10.0,wc_10,,0.0,,,,103.0,,,,Fail,,,,,
115.0,10.0,wc_10,,0.0,,,53.0,,,,,Fail,,,,,
115.0,10.0,wc_10,,0.0,,,,0.0,,,,Fail,,,,,
115.0,10.0,wc_10,wc_10,0.0,"[('wc_10', 0.4700000000000003)]",0.4700000000000003,,,37.0,0.002017,['Fail'],Fail,0.4700000000000003,-0.17000000000000032,0.0,0.0,0.4
115.0,10.0,wc_10,,0.0,,,,0.0,,,,Fail,,,,,
115.0,10.0,wc_10,wc_11,0.0,"[('wc_11', 0.3400000000000002), ('wc_10', 0.4700000000000003)]",0.6502000000000003,,,32.0,0.004357,['Fail'],Fail,0.3400000000000002,-0.3400000000000002,0.0,0.0,0.2
115.0,10.0,wc_10,,0.0,,,,21.0,,,,Fail,,,,,
115.0,10.0,wc_10,wc_6,0.0,"[('wc_6', 0.7100000000000005)]",0.7100000000000005,,,24.0,0.006058999999999999,['Pass'],Fail,0.7100000000000005,-0.24846153846153896,0.0,0.0,0.5
115.0,10.0,wc_10,,0.0,,,,0.0,,,,Fail,,,,,
115.0,10.0,wc_10,wc_7,1.0,"[('wc_7', 0.7200000000000005), ('wc_10', 0.4700000000000003), ('wc_11', 0.3400000000000002)]",0.9020560000000003,,,27.0,0.04778800000000001,['Fail'],Fail,0.7200000000000005,-0.13666666666666716,0.0,0.0,0.6
119.0,10.0,wc_10,,0.0,,,,0.0,,,,Pass,,,,,
119.0,10.0,wc_10,,0.0,,,55.0,,,,,Pass,,,,,
119.0,10.0,wc_10,,0.0,,,,0.0,,,,Pass,,,,,
119.0,10.0,wc_10,wc_10,0.0,"[('wc_10', 0.4700000000000003)]",0.4700000000000003,,,29.0,0.002145,['Pass'],Pass,0.4700000000000003,0.5299999999999997,1.0,1.0,0.4
119.0,10.0,wc_10,,0.0,,,,0.0,,,,Pass,,,,,
119.0,10.0,wc_10,wc_11,0.0,"[('wc_10', 0.4700000000000003)]",0.4700000000000003,,,30.0,0.0068520000000000005,['Pass'],Pass,0.3400000000000002,0.6599999999999998,1.0,1.0,0.2
119.0,10.0,wc_10,,0.0,,,,21.0,,,,Pass,,,,,
119.0,10.0,wc_10,wc_6,0.0,"[('wc_6', 0.7100000000000005), ('wc_11', 0.3400000000000002)]",0.8086000000000004,,,31.0,0.005977,['Fail'],Pass,0.7100000000000005,-0.7100000000000005,0.0,1.0,0.5
119.0,10.0,wc_10,,0.0,,,,0.0,,,,Pass,,,,,
119.0,10.0,wc_10,wc_7,1.0,"[('wc_7', 0.7200000000000005), ('wc_11', 0.3400000000000002), ('wc_6', 0.7100000000000005)]",0.9464080000000002,,,26.0,0.040891000000000004,['Fail'],Pass,0.7200000000000005,0.27999999999999947,1.0,1.0,0.6
126.0,7.0,wc_7,,0.0,,,,0.0,,,,Pass,,,,,
126.0,7.0,wc_7,,0.0,,,79.0,,,,,Pass,,,,,
126.0,7.0,wc_7,,0.0,,,,0.0,,,,Pass,,,,,
126.0,7.0,wc_7,wc_7,0.0,"[('wc_7', 0.7200000000000005)]",0.7200000000000005,,,32.0,0.002753,['Pass'],Pass,0.7200000000000005,0.27999999999999947,1.0,1.0,0.6
126.0,7.0,wc_7,,0.0,,,,0.0,,,,Pass,,,,,
126.0,7.0,wc_7,wc_8,0.0,"[('wc_8', 0.7800000000000006), ('wc_7', 0.7200000000000005)]",0.9384000000000002,,,32.0,0.00598,['Pass'],Pass,0.7800000000000006,-0.44666666666666727,1.0,3.0,0.8
126.0,7.0,wc_7,,0.0,,,,0.0,,,,Pass,,,,,
126.0,7.0,wc_7,wc_9,1.0,"[('wc_9', 0.6700000000000005), ('wc_7', 0.7200000000000005), ('wc_8', 0.7800000000000006)]",0.9796720000000001,,,21.0,0.03969099999999999,['Pass'],Pass,0.6700000000000005,-0.20846153846153892,0.0,0.0,0.6
130.0,8.0,wc_8,,0.0,,,,101.0,,,,Fail,,,,,
130.0,8.0,wc_8,,0.0,,,62.0,,,,,Fail,,,,,
130.0,8.0,wc_8,,0.0,,,,0.0,,,,Fail,,,,,
130.0,8.0,wc_8,wc_8,0.0,"[('wc_8', 0.7800000000000006)]",0.7800000000000006,,,20.0,0.002392,['Fail'],Fail,0.7800000000000006,-0.2800000000000006,2.0,4.0,0.8
130.0,8.0,wc_8,,0.0,,,,0.0,,,,Fail,,,,,
130.0,8.0,wc_8,wc_9,0.0,"[('wc_9', 0.6700000000000005), ('wc_8', 0.7800000000000006)]",0.9274000000000003,,,40.0,0.0042369999999999994,['Fail'],Fail,0.6700000000000005,-0.6700000000000005,0.0,0.0,0.6
130.0,8.0,wc_8,,0.0,,,,0.0,,,,Fail,,,,,
130.0,8.0,wc_8,wc_10,1.0,"[('wc_10', 0.4700000000000003), ('wc_8', 0.7800000000000006), ('wc_9', 0.6700000000000005)]",0.9615220000000002,,,30.0,0.04519400000000001,['Fail'],Fail,0.4700000000000003,0.029999999999999694,2.0,4.0,0.4
134.0,8.0,wc_8,,0.0,,,,81.0,,,,Fail,,,,,
134.0,8.0,wc_8,,0.0,,,68.0,,,,,Fail,,,,,
134.0,8.0,wc_8,,0.0,,,,0.0,,,,Fail,,,,,
134.0,8.0,wc_8,wc_8,0.0,"[('wc_8', 0.7800000000000006)]",0.7800000000000006,,,25.0,0.002034,['Fail'],Fail,0.7800000000000006,-0.1800000000000006,3.0,5.0,0.8
134.0,8.0,wc_8,,0.0,,,,0.0,,,,Fail,,,,,
134.0,8.0,wc_8,wc_9,0.0,"[('wc_9', 0.6700000000000005), ('wc_8', 0.7800000000000006)]",0.9274000000000003,,,35.0,0.0041730000000000005,['Fail'],Fail,0.6700000000000005,0.3299999999999995,1.0,1.0,0.6
134.0,8.0,wc_8,,0.0,,,,0.0,,,,Fail,,,,,
134.0,8.0,wc_8,wc_10,1.0,"[('wc_10', 0.4700000000000003), ('wc_8', 0.7800000000000006), ('wc_9', 0.6700000000000005)]",0.9615220000000002,,,36.0,0.04306799999999999,['Fail'],Fail,0.4700000000000003,0.12999999999999967,3.0,5.0,0.4
136.0,8.0,wc_8,,0.0,,,,81.0,,,,Fail,,,,,
136.0,8.0,wc_8,,0.0,,,57.0,,,,,Fail,,,,,
136.0,8.0,wc_8,,0.0,,,,0.0,,,,Fail,,,,,
136.0,8.0,wc_8,wc_8,0.0,"[('wc_8', 0.7800000000000006)]",0.7800000000000006,,,39.0,0.002463,['Fail'],Fail,0.7800000000000006,-0.11333333333333395,4.0,6.0,0.8
136.0,8.0,wc_8,,0.0,,,,0.0,,,,Fail,,,,,
136.0,8.0,wc_8,wc_9,0.0,"[('wc_9', 0.6700000000000005), ('wc_8', 0.7800000000000006)]",0.9274000000000003,,,27.0,0.004016,['Fail'],Fail,0.6700000000000005,0.3299999999999995,2.0,2.0,0.6
136.0,8.0,wc_8,,0.0,,,,0.0,,,,Fail,,,,,
136.0,8.0,wc_8,wc_10,0.0,"[('wc_8', 0.7800000000000006), ('wc_9', 0.6700000000000005)]",0.9274000000000003,,,36.0,0.0063360000000000005,['Fail'],Fail,0.4700000000000003,0.12999999999999967,3.0,5.0,0.4
136.0,8.0,wc_8,,0.0,,,,0.0,,,,Fail,,,,,
136.0,8.0,wc_8,wc_11,1.0,"[('wc_11', 0.3400000000000002), ('wc_8', 0.7800000000000006), ('wc_9', 0.6700000000000005)]",0.9520840000000002,,,39.0,0.04765799999999999,['Fail'],Fail,0.3400000000000002,0.1599999999999998,3.0,6.0,0.2
140.0,8.0,wc_8,,0.0,,,,61.0,,,,Fail,,,,,
140.0,8.0,wc_8,,0.0,,,76.0,,,,,Fail,,,,,
140.0,8.0,wc_8,,0.0,,,,0.0,,,,Fail,,,,,
140.0,8.0,wc_8,wc_8,0.0,"[('wc_8', 0.7800000000000006)]",0.7800000000000006,,,26.0,0.002221,['Fail'],Fail,0.7800000000000006,-0.06571428571428628,5.0,7.0,0.8
140.0,8.0,wc_8,,0.0,,,,0.0,,,,Fail,,,,,
140.0,8.0,wc_8,wc_9,0.0,"[('wc_8', 0.7800000000000006)]",0.7800000000000006,,,29.0,0.004209,['Fail'],Fail,0.6700000000000005,0.3299999999999995,3.0,3.0,0.6
140.0,8.0,wc_8,,0.0,,,,0.0,,,,Fail,,,,,
140.0,8.0,wc_8,wc_10,0.0,"[('wc_10', 0.4700000000000003), ('wc_9', 0.6700000000000005)]",0.8251000000000004,,,21.0,0.005809000000000001,['Pass'],Fail,0.4700000000000003,0.029999999999999694,3.0,6.0,0.4
140.0,8.0,wc_8,,0.0,,,,0.0,,,,Fail,,,,,
140.0,8.0,wc_8,wc_11,0.0,"[('wc_11', 0.3400000000000002), ('wc_9', 0.6700000000000005), ('wc_10', 0.4700000000000003)]",0.8845660000000003,,,28.0,0.0074800000000000005,['Pass'],Fail,0.3400000000000002,0.1599999999999998,3.0,6.0,0.2
140.0,8.0,wc_8,,0.0,,,,21.0,,,,Fail,,,,,
140.0,8.0,wc_8,wc_6,1.0,"[('wc_6', 0.7100000000000005), ('wc_9', 0.6700000000000005), ('wc_10', 0.4700000000000003), ('wc_11', 0.3400000000000002)]",0.9665241400000001,,,31.0,0.044666000000000004,['Pass'],Fail,0.7100000000000005,-0.4242857142857148,2.0,7.0,0.5
144.0,8.0,wc_8,,0.0,,,,0.0,,,,Pass,,,,,
144.0,8.0,wc_8,,0.0,,,57.0,,,,,Pass,,,,,
144.0,8.0,wc_8,,0.0,,,,0.0,,,,Pass,,,,,
144.0,8.0,wc_8,wc_8,0.0,"[('wc_8', 0.7800000000000006)]",0.7800000000000006,,,36.0,0.002754,['Pass'],Pass,0.7800000000000006,-0.15500000000000058,5.0,8.0,0.8
144.0,8.0,wc_8,,0.0,,,,0.0,,,,Pass,,,,,
144.0,8.0,wc_8,wc_9,0.0,"[('wc_9', 0.6700000000000005), ('wc_8', 0.7800000000000006)]",0.9274000000000003,,,32.0,0.00589,['Pass'],Pass,0.6700000000000005,0.3299999999999995,4.0,4.0,0.6
144.0,8.0,wc_8,,0.0,,,,0.0,,,,Pass,,,,,
144.0,8.0,wc_8,wc_10,1.0,"[('wc_10', 0.4700000000000003), ('wc_8', 0.7800000000000006), ('wc_9', 0.6700000000000005)]",0.9615220000000002,,,27.0,0.047064,['Pass'],Pass,0.4700000000000003,0.1549999999999997,5.0,8.0,0.4
149.0,12.0,wc_12,,0.0,,,,81.0,,,,Fail,,,,,
149.0,12.0,wc_12,,0.0,,,58.0,,,,,Fail,,,,,
149.0,12.0,wc_12,,0.0,,,,0.0,,,,Fail,,,,,
149.0,12.0,wc_12,wc_12,0.0,"[('wc_12', 0.5600000000000004)]",0.5600000000000004,,,40.0,0.002175,['Fail'],Fail,0.5600000000000004,-0.4662500000000004,0.0,0.0,0.4
149.0,12.0,wc_12,,0.0,,,,0.0,,,,Fail,,,,,
149.0,12.0,wc_12,wc_13,0.0,"[('wc_13', 0.8100000000000006), ('wc_12', 0.5600000000000004)]",0.9164000000000003,,,33.0,0.004072,['Fail'],Fail,0.8100000000000006,-0.7475000000000006,0.0,0.0,0.5
149.0,12.0,wc_12,,0.0,,,,0.0,,,,Fail,,,,,
149.0,12.0,wc_12,wc_14,0.0,"[('wc_12', 0.5600000000000004), ('wc_13', 0.8100000000000006)]",0.9164000000000003,,,34.0,0.005842,['Fail'],Fail,0.1600000000000001,-0.12774193548387106,0.0,0.0,0.1
149.0,12.0,wc_12,,0.0,,,,0.0,,,,Fail,,,,,
149.0,12.0,wc_12,wc_15,1.0,"[('wc_15', 0.3000000000000002), ('wc_12', 0.5600000000000004), ('wc_13', 0.8100000000000006)]",0.9414800000000003,,,28.0,0.042715,['Fail'],Fail,0.3000000000000002,-0.15365853658536607,0.0,0.0,0.1
155.0,12.0,wc_12,,0.0,,,,61.0,,,,Pass,,,,,
155.0,12.0,wc_12,,0.0,,,68.0,,,,,Pass,,,,,
155.0,12.0,wc_12,,0.0,,,,0.0,,,,Pass,,,,,
155.0,12.0,wc_12,wc_12,0.0,"[('wc_12', 0.5600000000000004)]",0.5600000000000004,,,21.0,0.002577,['Pass'],Pass,0.5600000000000004,0.4399999999999996,1.0,1.0,0.4
155.0,12.0,wc_12,,0.0,,,,0.0,,,,Pass,,,,,
155.0,12.0,wc_12,wc_13,0.0,"[('wc_13', 0.8100000000000006), ('wc_12', 0.5600000000000004)]",0.9164000000000003,,,31.0,0.005219,['Pass'],Pass,0.8100000000000006,0.1899999999999994,1.0,1.0,0.5
155.0,12.0,wc_12,,0.0,,,,0.0,,,,Pass,,,,,
155.0,12.0,wc_12,wc_14,0.0,"[('wc_12', 0.5600000000000004), ('wc_13', 0.8100000000000006)]",0.9164000000000003,,,31.0,0.007407,['Pass'],Pass,0.1600000000000001,-0.1600000000000001,0.0,1.0,0.1
155.0,12.0,wc_12,,0.0,,,,0.0,,,,Pass,,,,,
155.0,12.0,wc_12,wc_15,1.0,"[('wc_15', 0.3000000000000002), ('wc_12', 0.5600000000000004), ('wc_13', 0.8100000000000006)]",0.9414800000000003,,,22.0,0.050306000000000003,['Pass'],Pass,0.3000000000000002,0.6999999999999997,1.0,1.0,0.1
159.0,13.0,wc_13,,0.0,,,,81.0,,,,Fail,,,,,
159.0,13.0,wc_13,,0.0,,,78.0,,,,,Fail,,,,,
159.0,13.0,wc_13,,0.0,,,,0.0,,,,Fail,,,,,
159.0,13.0,wc_13,wc_13,0.0,"[('wc_13', 0.8100000000000006)]",0.8100000000000006,,,28.0,0.002395,['Fail'],Fail,0.8100000000000006,0.1899999999999994,2.0,2.0,0.5
159.0,13.0,wc_13,,0.0,,,,0.0,,,,Fail,,,,,
159.0,13.0,wc_13,wc_14,0.0,"[('wc_14', 0.1600000000000001), ('wc_13', 0.8100000000000006)]",0.8404000000000005,,,40.0,0.00483,['Fail'],Fail,0.1600000000000001,-0.1600000000000001,0.0,2.0,0.1
159.0,13.0,wc_13,,0.0,,,,0.0,,,,Fail,,,,,
159.0,13.0,wc_13,wc_15,0.0,"[('wc_13', 0.8100000000000006), ('wc_14', 0.1600000000000001)]",0.8404000000000005,,,22.0,0.006281,['Fail'],Fail,0.3000000000000002,0.6999999999999997,1.0,1.0,0.1
159.0,13.0,wc_13,,0.0,,,,0.0,,,,Fail,,,,,
159.0,13.0,wc_13,wc_16,1.0,"[('wc_16', 0.8300000000000006), ('wc_13', 0.8100000000000006), ('wc_14', 0.1600000000000001)]",0.9728680000000002,,,30.0,0.04214000000000001,['Fail'],Fail,0.8300000000000006,-0.6395238095238102,0.0,0.0,0.6
163.0,13.0,wc_13,,0.0,,,,61.0,,,,Pass,,,,,
163.0,13.0,wc_13,,0.0,,,73.0,,,,,Pass,,,,,
163.0,13.0,wc_13,,0.0,,,,0.0,,,,Pass,,,,,
163.0,13.0,wc_13,wc_13,0.0,"[('wc_13', 0.8100000000000006)]",0.8100000000000006,,,38.0,0.00299,['Pass'],Pass,0.8100000000000006,0.1899999999999994,3.0,3.0,0.5
163.0,13.0,wc_13,,0.0,,,,0.0,,,,Pass,,,,,
163.0,13.0,wc_13,wc_14,0.0,"[('wc_14', 0.1600000000000001), ('wc_13', 0.8100000000000006)]",0.8404000000000005,,,25.0,0.004497,['Pass'],Pass,0.1600000000000001,0.17333333333333323,1.0,3.0,0.1
163.0,13.0,wc_13,,0.0,,,,0.0,,,,Pass,,,,,
163.0,13.0,wc_13,wc_15,0.0,"[('wc_15', 0.3000000000000002), ('wc_13', 0.8100000000000006), ('wc_14', 0.1600000000000001)]",0.8882800000000004,,,25.0,0.006633,['Pass'],Pass,0.3000000000000002,0.1999999999999998,1.0,2.0,0.1
163.0,13.0,wc_13,,0.0,,,,0.0,,,,Pass,,,,,
163.0,13.0,wc_13,wc_16,0.0,"[('wc_13', 0.8100000000000006), ('wc_14', 0.1600000000000001), ('wc_15', 0.3000000000000002)]",0.8882800000000004,,,25.0,0.007741,['Pass'],Pass,0.8300000000000006,-0.8300000000000006,0.0,0.0,0.6
163.0,13.0,wc_13,,0.0,,,,0.0,,,,Pass,,,,,
163.0,13.0,wc_13,wc_17,1.0,"[('wc_17', 0.8100000000000006), ('wc_13', 0.8100000000000006), ('wc_14', 0.1600000000000001), ('wc_15', 0.3000000000000002)]",0.9787732000000001,,,34.0,0.05624499999999999,['Pass'],Pass,0.8100000000000006,-0.6006976744186052,0.0,0.0,1.0
165.0,15.0,wc_15,,0.0,,,,83.0,,,,Pass,,,,,
165.0,15.0,wc_15,,0.0,,,54.0,,,,,Pass,,,,,
165.0,15.0,wc_15,,0.0,,,,0.0,,,,Pass,,,,,
165.0,15.0,wc_15,wc_15,0.0,"[('wc_15', 0.3000000000000002)]",0.30000000000000027,,,30.0,0.002952,['Pass'],Pass,0.3000000000000002,0.3666666666666664,2.0,3.0,0.1
165.0,15.0,wc_15,,0.0,,,,0.0,,,,Pass,,,,,
165.0,15.0,wc_15,wc_16,0.0,"[('wc_16', 0.8300000000000006), ('wc_15', 0.3000000000000002)]",0.8810000000000004,,,20.0,0.004157,['Pass'],Pass,0.8300000000000006,-0.8300000000000006,0.0,1.0,0.6
165.0,15.0,wc_15,,0.0,,,,0.0,,,,Pass,,,,,
165.0,15.0,wc_15,wc_17,1.0,"[('wc_17', 0.8100000000000006), ('wc_15', 0.3000000000000002), ('wc_16', 0.8300000000000006)]",0.9773900000000002,,,21.0,0.045477000000000004,['Pass'],Pass,0.8100000000000006,0.1899999999999994,1.0,1.0,1.0
169.0,14.0,wc_14,,0.0,,,,61.0,,,,Pass,,,,,
169.0,14.0,wc_14,,0.0,,,80.0,,,,,Pass,,,,,
169.0,14.0,wc_14,,0.0,,,,0.0,,,,Pass,,,,,
169.0,14.0,wc_14,wc_14,0.0,"[('wc_14', 0.1600000000000001)]",0.16000000000000014,,,30.0,0.002269,['Pass'],Pass,0.1600000000000001,0.23999999999999994,2.0,5.0,0.1
169.0,14.0,wc_14,,0.0,,,,0.0,,,,Pass,,,,,
169.0,14.0,wc_14,wc_15,0.0,"[('wc_15', 0.3000000000000002), ('wc_14', 0.1600000000000001)]",0.41200000000000037,,,23.0,0.0051660000000000005,['Pass'],Pass,0.3000000000000002,0.4499999999999998,3.0,4.0,0.1
169.0,14.0,wc_14,,0.0,,,,0.0,,,,Pass,,,,,
169.0,14.0,wc_14,wc_16,1.0,"[('wc_16', 0.8300000000000006), ('wc_14', 0.1600000000000001), ('wc_15', 0.3000000000000002)]",0.9000400000000004,,,22.0,0.06142299999999999,['Pass'],Pass,0.8300000000000006,-0.163333333333334,2.0,3.0,0.6
171.0,16.0,wc_16,,0.0,,,,0.0,,,,Pass,,,,,
171.0,16.0,wc_16,,0.0,,,51.0,,,,,Pass,,,,,
171.0,16.0,wc_16,,0.0,,,,0.0,,,,Pass,,,,,
171.0,16.0,wc_16,wc_16,0.0,"[('wc_16', 0.8300000000000006)]",0.8300000000000006,,,38.0,0.002397,['Pass'],Pass,0.8300000000000006,-0.163333333333334,2.0,3.0,0.6
171.0,16.0,wc_16,,0.0,,,,0.0,,,,Pass,,,,,
171.0,16.0,wc_16,wc_17,0.0,"[('wc_17', 0.8100000000000006), ('wc_16', 0.8300000000000006)]",0.9677000000000002,,,35.0,0.004314999999999999,['Pass'],Pass,0.8100000000000006,-0.3100000000000006,1.0,2.0,1.0
171.0,16.0,wc_16,,0.0,,,,21.0,,,,Pass,,,,,
171.0,16.0,wc_16,wc_12,1.0,"[('wc_12', 0.5600000000000004), ('wc_16', 0.8300000000000006), ('wc_17', 0.8100000000000006)]",0.9857880000000001,,,40.0,0.040271999999999995,['Pass'],Pass,0.5600000000000004,-0.13142857142857184,3.0,7.0,0.4
174.0,17.0,wc_17,,0.0,,,,0.0,,,,Fail,,,,,
174.0,17.0,wc_17,,0.0,,,58.0,,,,,Fail,,,,,
174.0,17.0,wc_17,,0.0,,,,0.0,,,,Fail,,,,,
174.0,17.0,wc_17,wc_17,0.0,"[('wc_17', 0.8100000000000006)]",0.8100000000000006,,,39.0,0.002238,['Fail'],Fail,0.8100000000000006,-0.14333333333333398,2.0,3.0,1.0
174.0,17.0,wc_17,,0.0,,,,21.0,,,,Fail,,,,,
174.0,17.0,wc_17,wc_12,0.0,"[('wc_17', 0.8100000000000006)]",0.8100000000000006,,,23.0,0.0044139999999999995,['Fail'],Fail,0.5600000000000004,-0.13142857142857184,3.0,7.0,0.4
174.0,17.0,wc_17,,0.0,,,,0.0,,,,Fail,,,,,
174.0,17.0,wc_17,wc_13,0.0,"[('wc_13', 0.8100000000000006), ('wc_17', 0.8100000000000006)]",0.9639000000000002,,,24.0,0.006003,['Fail'],Fail,0.8100000000000006,-0.2385714285714292,4.0,7.0,0.5
174.0,17.0,wc_17,,0.0,,,,0.0,,,,Fail,,,,,
174.0,17.0,wc_17,wc_14,0.0,"[('wc_17', 0.8100000000000006), ('wc_13', 0.8100000000000006)]",0.9639000000000002,,,35.0,0.008019,['Fail'],Fail,0.1600000000000001,0.26857142857142846,3.0,7.0,0.1
174.0,17.0,wc_17,,0.0,,,,0.0,,,,Fail,,,,,
174.0,17.0,wc_17,wc_15,0.0,"[('wc_17', 0.8100000000000006), ('wc_13', 0.8100000000000006)]",0.9639000000000002,,,23.0,0.009478,['Fail'],Fail,0.3000000000000002,0.3666666666666664,4.0,6.0,0.1
174.0,17.0,wc_17,,0.0,,,,0.0,,,,Fail,,,,,
174.0,17.0,wc_17,wc_16,0.0,"[('wc_17', 0.8100000000000006), ('wc_13', 0.8100000000000006)]",0.9639000000000002,,,22.0,0.011429000000000002,['Fail'],Fail,0.8300000000000006,-0.08000000000000063,3.0,4.0,0.6
174.0,17.0,wc_17,,0.0,,,,203.0,,,,Fail,,,,,
174.0,17.0,wc_17,wc_6,1.0,"[('wc_6', 0.7100000000000005), ('wc_12', 0.5600000000000004), ('wc_14', 0.1600000000000001), ('wc_15', 0.3000000000000002), ('wc_16', 0.8300000000000006)]",0.9872451040000001,,,23.0,0.04982199999999999,['Pass'],Fail,0.7100000000000005,-0.5225000000000005,0.0,0.0,0.5
179.0,17.0,wc_17,,0.0,,,,263.0,,,,Fail,,,,,
179.0,17.0,wc_17,,0.0,,,56.0,,,,,Fail,,,,,
179.0,17.0,wc_17,,0.0,,,,0.0,,,,Fail,,,,,
179.0,17.0,wc_17,wc_17,0.0,"[('wc_17', 0.8100000000000006)]",0.8100000000000006,,,24.0,0.002305,['Fail'],Fail,0.8100000000000006,-0.3100000000000006,2.0,4.0,1.0
179.0,17.0,wc_17,,0.0,,,,21.0,,,,Fail,,,,,
179.0,17.0,wc_17,wc_12,0.0,"[('wc_17', 0.8100000000000006)]",0.8100000000000006,,,34.0,0.00398,['Fail'],Fail,0.5600000000000004,-0.060000000000000386,4.0,8.0,0.4
179.0,17.0,wc_17,,0.0,,,,0.0,,,,Fail,,,,,
179.0,17.0,wc_17,wc_13,0.0,"[('wc_13', 0.8100000000000006), ('wc_12', 0.5600000000000004)]",0.9164000000000003,,,38.0,0.006932000000000001,['Pass'],Fail,0.8100000000000006,-0.3100000000000006,4.0,8.0,0.5
179.0,17.0,wc_17,,0.0,,,,0.0,,,,Fail,,,,,
179.0,17.0,wc_17,wc_14,0.0,"[('wc_12', 0.5600000000000004), ('wc_13', 0.8100000000000006)]",0.9164000000000003,,,34.0,0.008039,['Pass'],Fail,0.1600000000000001,0.3399999999999999,4.0,8.0,0.1
179.0,17.0,wc_17,,0.0,,,,0.0,,,,Fail,,,,,
179.0,17.0,wc_17,wc_15,1.0,"[('wc_15', 0.3000000000000002), ('wc_12', 0.5600000000000004), ('wc_13', 0.8100000000000006)]",0.9414800000000003,,,29.0,0.052374000000000004,['Pass'],Fail,0.3000000000000002,0.4499999999999998,6.0,8.0,0.1
181.0,17.0,wc_17,,0.0,,,,0.0,,,,Pass,,,,,
181.0,17.0,wc_17,,0.0,,,58.0,,,,,Pass,,,,,
181.0,17.0,wc_17,,0.0,,,,0.0,,,,Pass,,,,,
181.0,17.0,wc_17,wc_17,0.0,"[('wc_17', 0.8100000000000006)]",0.8100000000000006,,,24.0,0.002326,['Pass'],Pass,0.8100000000000006,-0.4100000000000006,2.0,5.0,1.0
181.0,17.0,wc_17,,0.0,,,,21.0,,,,Pass,,,,,
181.0,17.0,wc_17,wc_12,0.0,"[('wc_17', 0.8100000000000006)]",0.8100000000000006,,,25.0,0.005689,['Pass'],Pass,0.5600000000000004,-0.004444444444444806,5.0,9.0,0.4
181.0,17.0,wc_17,,0.0,,,,0.0,,,,Pass,,,,,
181.0,17.0,wc_17,wc_13,0.0,"[('wc_13', 0.8100000000000006), ('wc_12', 0.5600000000000004)]",0.9164000000000003,,,31.0,0.005686999999999999,['Fail'],Pass,0.8100000000000006,-0.25444444444444503,5.0,9.0,0.5
181.0,17.0,wc_17,,0.0,,,,0.0,,,,Pass,,,,,
181.0,17.0,wc_17,wc_14,0.0,"[('wc_12', 0.5600000000000004), ('wc_13', 0.8100000000000006)]",0.9164000000000003,,,25.0,0.007614000000000001,['Fail'],Pass,0.1600000000000001,0.28444444444444433,4.0,9.0,0.1
181.0,17.0,wc_17,,0.0,,,,0.0,,,,Pass,,,,,
181.0,17.0,wc_17,wc_15,0.0,"[('wc_12', 0.5600000000000004), ('wc_13', 0.8100000000000006)]",0.9164000000000003,,,29.0,0.009585999999999999,['Fail'],Pass,0.3000000000000002,0.4499999999999998,6.0,8.0,0.1
181.0,17.0,wc_17,,0.0,,,,0.0,,,,Pass,,,,,
181.0,17.0,wc_17,wc_16,1.0,"[('wc_16', 0.8300000000000006), ('wc_17', 0.8100000000000006), ('wc_14', 0.1600000000000001), ('wc_15', 0.3000000000000002)]",0.9810076000000001,,,30.0,0.05402200000000001,['Pass'],Pass,0.8300000000000006,-0.11571428571428632,5.0,7.0,0.6
