mpecck/BCQC/bcqc_with_qdt/results/raw/input_16/independent_qc/score/5_workpiece/20200429_105837/wp_2_qc_majority_0.9.csv
production_index,step_idx,production_workcell,qc,consent,winner_qc_list,score,production_time,transport_time,inspection_time,network_time,qc_results,actual_quality,qc_score,score_error,in_winner_counter,in_qc_counter,qc_capability
1.0,1.0,wc_1,,0.0,,,70.0,,,,,Fail,,,,,
1.0,1.0,wc_1,,0.0,,,,0.0,,,,Fail,,,,,
1.0,1.0,wc_1,wc_1,0.0,"[('wc_1', 0.7900000000000006)]",0.7900000000000006,,,25.0,0.0024,['Pass'],Fail,0.7900000000000006,-0.6337500000000006,0.0,0.0,0.7
1.0,1.0,wc_1,,0.0,,,,0.0,,,,Fail,,,,,
1.0,1.0,wc_1,wc_2,0.0,"[('wc_1', 0.7900000000000006)]",0.7900000000000006,,,29.0,0.00506,['Pass'],Fail,0.4300000000000003,-0.3050000000000003,0.0,0.0,0.3
1.0,1.0,wc_1,,0.0,,,,0.0,,,,Fail,,,,,
1.0,1.0,wc_1,wc_3,0.0,"[('wc_1', 0.7900000000000006)]",0.7900000000000006,,,20.0,0.00555,['Pass'],Fail,0.2900000000000001,-0.1337500000000001,0.0,0.0,0.2
1.0,1.0,wc_1,,0.0,,,,0.0,,,,Fail,,,,,
1.0,1.0,wc_1,wc_4,0.0,"[('wc_4', 0.6200000000000004), ('wc_1', 0.7900000000000006)]",0.9202000000000004,,,38.0,0.008254000000000001,['Pass'],Fail,0.6200000000000004,-0.46375000000000044,0.0,0.0,0.5
1.0,1.0,wc_1,,0.0,,,,0.0,,,,Fail,,,,,
1.0,1.0,wc_1,wc_5,0.0,"[('wc_1', 0.7900000000000006), ('wc_4', 0.6200000000000004)]",0.9202000000000004,,,35.0,0.009961,['Pass'],Fail,0.6800000000000005,-0.4925000000000005,0.0,0.0,0.5
1.0,1.0,wc_1,,0.0,,,,61.0,,,,Fail,,,,,
1.0,1.0,wc_1,wc_6,1.0,"[('wc_6', 0.8600000000000007), ('wc_2', 0.4300000000000003), ('wc_3', 0.2900000000000001), ('wc_5', 0.6800000000000005)]",0.9818694400000001,,,28.0,0.04141500000000001,['Fail'],Fail,0.8600000000000007,-0.5266666666666673,3.0,9.0,0.7
8.0,1.0,wc_1,,0.0,,,,202.0,,,,Fail,,,,,
8.0,1.0,wc_1,,0.0,,,56.0,,,,,Fail,,,,,
8.0,1.0,wc_1,,0.0,,,,0.0,,,,Fail,,,,,
8.0,1.0,wc_1,wc_1,0.0,"[('wc_1', 0.7900000000000006)]",0.7900000000000006,,,27.0,0.002395,['Fail'],Fail,0.7900000000000006,-0.7900000000000006,0.0,1.0,0.7
8.0,1.0,wc_1,,0.0,,,,0.0,,,,Fail,,,,,
8.0,1.0,wc_1,wc_2,0.0,"[('wc_2', 0.4300000000000003), ('wc_1', 0.7900000000000006)]",0.8803000000000004,,,39.0,0.003915999999999999,['Fail'],Fail,0.4300000000000003,0.5699999999999996,1.0,1.0,0.3
8.0,1.0,wc_1,,0.0,,,,0.0,,,,Fail,,,,,
8.0,1.0,wc_1,wc_3,0.0,"[('wc_1', 0.7900000000000006), ('wc_2', 0.4300000000000003)]",0.8803000000000004,,,34.0,0.005912000000000001,['Fail'],Fail,0.2900000000000001,0.71,1.0,1.0,0.2
8.0,1.0,wc_1,,0.0,,,,0.0,,,,Fail,,,,,
8.0,1.0,wc_1,wc_4,1.0,"[('wc_4', 0.6200000000000004), ('wc_1', 0.7900000000000006), ('wc_2', 0.4300000000000003)]",0.9545140000000002,,,38.0,0.040872000000000006,['Fail'],Fail,0.6200000000000004,-0.12000000000000044,1.0,2.0,0.5
19.0,1.0,wc_1,,0.0,,,,61.0,,,,Pass,,,,,
19.0,1.0,wc_1,,0.0,,,69.0,,,,,Pass,,,,,
19.0,1.0,wc_1,,0.0,,,,0.0,,,,Pass,,,,,
19.0,1.0,wc_1,wc_1,0.0,"[('wc_1', 0.7900000000000006)]",0.7900000000000006,,,32.0,0.00242,['Pass'],Pass,0.7900000000000006,-0.2900000000000006,1.0,2.0,0.7
19.0,1.0,wc_1,,0.0,,,,0.0,,,,Pass,,,,,
19.0,1.0,wc_1,wc_2,0.0,"[('wc_2', 0.4300000000000003), ('wc_1', 0.7900000000000006)]",0.8803000000000004,,,37.0,0.004786,['Pass'],Pass,0.4300000000000003,0.5699999999999996,2.0,2.0,0.3
19.0,1.0,wc_1,,0.0,,,,0.0,,,,Pass,,,,,
19.0,1.0,wc_1,wc_3,1.0,"[('wc_3', 0.2900000000000001), ('wc_1', 0.7900000000000006), ('wc_2', 0.4300000000000003)]",0.9150130000000003,,,25.0,0.038648,['Pass'],Pass,0.2900000000000001,0.37666666666666654,2.0,3.0,0.2
22.0,3.0,wc_3,,0.0,,,,0.0,,,,Fail,,,,,
22.0,3.0,wc_3,,0.0,,,61.0,,,,,Fail,,,,,
22.0,3.0,wc_3,,0.0,,,,0.0,,,,Fail,,,,,
22.0,3.0,wc_3,wc_3,0.0,"[('wc_3', 0.2900000000000001)]",0.29000000000000004,,,21.0,0.00229,['Fail'],Fail,0.2900000000000001,0.37666666666666654,2.0,3.0,0.2
22.0,3.0,wc_3,,0.0,,,,0.0,,,,Fail,,,,,
22.0,3.0,wc_3,wc_4,0.0,"[('wc_4', 0.6200000000000004), ('wc_3', 0.2900000000000001)]",0.7302000000000004,,,25.0,0.00442,['Fail'],Fail,0.6200000000000004,-0.2866666666666671,1.0,3.0,0.5
22.0,3.0,wc_3,,0.0,,,,0.0,,,,Fail,,,,,
22.0,3.0,wc_3,wc_5,1.0,"[('wc_5', 0.6800000000000005), ('wc_3', 0.2900000000000001), ('wc_4', 0.6200000000000004)]",0.9136640000000003,,,30.0,0.04596599999999999,['Fail'],Fail,0.6800000000000005,-0.1800000000000005,2.0,4.0,0.5
25.0,4.0,wc_4,,0.0,,,,103.0,,,,Fail,,,,,
25.0,4.0,wc_4,,0.0,,,54.0,,,,,Fail,,,,,
25.0,4.0,wc_4,,0.0,,,,0.0,,,,Fail,,,,,
25.0,4.0,wc_4,wc_4,0.0,"[('wc_4', 0.6200000000000004)]",0.6200000000000004,,,38.0,0.002285,['Fail'],Fail,0.6200000000000004,-0.12000000000000044,2.0,4.0,0.5
25.0,4.0,wc_4,,0.0,,,,0.0,,,,Fail,,,,,
25.0,4.0,wc_4,wc_5,0.0,"[('wc_5', 0.6800000000000005), ('wc_4', 0.6200000000000004)]",0.8784000000000003,,,27.0,0.004503999999999999,['Fail'],Fail,0.6800000000000005,-0.1800000000000005,2.0,4.0,0.5
25.0,4.0,wc_4,,0.0,,,,41.0,,,,Fail,,,,,
25.0,4.0,wc_4,wc_1,1.0,"[('wc_1', 0.7900000000000006), ('wc_4', 0.6200000000000004), ('wc_5', 0.6800000000000005)]",0.9744640000000001,,,29.0,0.037654,['Fail'],Fail,0.7900000000000006,-0.1900000000000006,3.0,5.0,0.7
29.0,3.0,wc_3,,0.0,,,,0.0,,,,Pass,,,,,
29.0,3.0,wc_3,,0.0,,,52.0,,,,,Pass,,,,,
29.0,3.0,wc_3,,0.0,,,,0.0,,,,Pass,,,,,
29.0,3.0,wc_3,wc_3,0.0,"[('wc_3', 0.2900000000000001)]",0.29000000000000004,,,21.0,0.002077,['Fail'],Pass,0.2900000000000001,0.3099999999999999,3.0,5.0,0.2
29.0,3.0,wc_3,,0.0,,,,0.0,,,,Pass,,,,,
29.0,3.0,wc_3,wc_4,0.0,"[('wc_4', 0.6200000000000004), ('wc_3', 0.2900000000000001)]",0.7302000000000004,,,23.0,0.003998,['Fail'],Pass,0.6200000000000004,-0.020000000000000462,3.0,5.0,0.5
29.0,3.0,wc_3,,0.0,,,,0.0,,,,Pass,,,,,
29.0,3.0,wc_3,wc_5,0.0,"[('wc_3', 0.2900000000000001), ('wc_4', 0.6200000000000004)]",0.7302000000000004,,,36.0,0.006791,['Fail'],Pass,0.6800000000000005,-0.08000000000000052,3.0,5.0,0.5
29.0,3.0,wc_3,,0.0,,,,41.0,,,,Pass,,,,,
29.0,3.0,wc_3,wc_1,1.0,"[('wc_1', 0.7900000000000006), ('wc_3', 0.2900000000000001), ('wc_4', 0.6200000000000004)]",0.9433420000000002,,,32.0,0.05309,['Fail'],Pass,0.7900000000000006,-0.12333333333333396,4.0,6.0,0.7
34.0,2.0,wc_2,,0.0,,,,0.0,,,,Fail,,,,,
34.0,2.0,wc_2,,0.0,,,68.0,,,,,Fail,,,,,
34.0,2.0,wc_2,,0.0,,,,0.0,,,,Fail,,,,,
34.0,2.0,wc_2,wc_2,0.0,"[('wc_2', 0.4300000000000003)]",0.4300000000000004,,,37.0,0.002115,['Fail'],Fail,0.4300000000000003,0.06999999999999967,3.0,6.0,0.3
34.0,2.0,wc_2,,0.0,,,,0.0,,,,Fail,,,,,
34.0,2.0,wc_2,wc_3,0.0,"[('wc_3', 0.2900000000000001), ('wc_2', 0.4300000000000003)]",0.5953000000000003,,,24.0,0.005327,['Fail'],Fail,0.2900000000000001,0.37666666666666654,4.0,6.0,0.2
34.0,2.0,wc_2,,0.0,,,,0.0,,,,Fail,,,,,
34.0,2.0,wc_2,wc_4,0.0,"[('wc_4', 0.6200000000000004), ('wc_2', 0.4300000000000003), ('wc_3', 0.2900000000000001)]",0.8462140000000002,,,37.0,0.007716,['Fail'],Fail,0.6200000000000004,0.04666666666666619,4.0,6.0,0.5
34.0,2.0,wc_2,,0.0,,,,0.0,,,,Fail,,,,,
34.0,2.0,wc_2,wc_5,1.0,"[('wc_5', 0.6800000000000005), ('wc_2', 0.4300000000000003), ('wc_3', 0.2900000000000001), ('wc_4', 0.6200000000000004)]",0.9507884800000002,,,23.0,0.044092,['Fail'],Fail,0.6800000000000005,-0.1085714285714291,4.0,7.0,0.5
37.0,4.0,wc_4,,0.0,,,,103.0,,,,Fail,,,,,
37.0,4.0,wc_4,,0.0,,,52.0,,,,,Fail,,,,,
37.0,4.0,wc_4,,0.0,,,,0.0,,,,Fail,,,,,
37.0,4.0,wc_4,wc_4,0.0,"[('wc_4', 0.6200000000000004)]",0.6200000000000004,,,37.0,0.003444,['Fail'],Fail,0.6200000000000004,0.09428571428571386,5.0,7.0,0.5
37.0,4.0,wc_4,,0.0,,,,0.0,,,,Fail,,,,,
37.0,4.0,wc_4,wc_5,0.0,"[('wc_5', 0.6800000000000005), ('wc_4', 0.6200000000000004)]",0.8784000000000003,,,22.0,0.00628,['Fail'],Fail,0.6800000000000005,-0.1085714285714291,4.0,7.0,0.5
37.0,4.0,wc_4,,0.0,,,,41.0,,,,Fail,,,,,
37.0,4.0,wc_4,wc_1,1.0,"[('wc_1', 0.7900000000000006), ('wc_4', 0.6200000000000004), ('wc_5', 0.6800000000000005)]",0.9744640000000001,,,25.0,0.038166,['Fail'],Fail,0.7900000000000006,-0.1650000000000006,5.0,8.0,0.7
43.0,4.0,wc_4,,0.0,,,,0.0,,,,Fail,,,,,
43.0,4.0,wc_4,,0.0,,,63.0,,,,,Fail,,,,,
43.0,4.0,wc_4,,0.0,,,,0.0,,,,Fail,,,,,
43.0,4.0,wc_4,wc_4,0.0,"[('wc_4', 0.6200000000000004)]",0.6200000000000004,,,38.0,0.002058,['Fail'],Fail,0.6200000000000004,0.12999999999999956,6.0,8.0,0.5
43.0,4.0,wc_4,,0.0,,,,0.0,,,,Fail,,,,,
43.0,4.0,wc_4,wc_5,0.0,"[('wc_5', 0.6800000000000005)]",0.6800000000000005,,,36.0,0.004772,['Pass'],Fail,0.6800000000000005,-0.05500000000000049,5.0,8.0,0.5
43.0,4.0,wc_4,,0.0,,,,41.0,,,,Fail,,,,,
43.0,4.0,wc_4,wc_1,0.0,"[('wc_1', 0.7900000000000006), ('wc_4', 0.6200000000000004)]",0.9202000000000004,,,37.0,0.005833,['Fail'],Fail,0.7900000000000006,-0.1650000000000006,5.0,8.0,0.7
43.0,4.0,wc_4,,0.0,,,,0.0,,,,Fail,,,,,
43.0,4.0,wc_4,wc_2,1.0,"[('wc_2', 0.4300000000000003), ('wc_4', 0.6200000000000004), ('wc_1', 0.7900000000000006)]",0.9545140000000002,,,28.0,0.042172,['Fail'],Fail,0.4300000000000003,0.12555555555555525,5.0,9.0,0.3
47.0,4.0,wc_4,,0.0,,,,0.0,,,,Pass,,,,,
47.0,4.0,wc_4,,0.0,,,79.0,,,,,Pass,,,,,
47.0,4.0,wc_4,,0.0,,,,0.0,,,,Pass,,,,,
47.0,4.0,wc_4,wc_4,0.0,"[('wc_4', 0.6200000000000004)]",0.6200000000000004,,,31.0,0.002254,['Pass'],Pass,0.6200000000000004,0.15777777777777735,7.0,9.0,0.5
47.0,4.0,wc_4,,0.0,,,,0.0,,,,Pass,,,,,
47.0,4.0,wc_4,wc_5,0.0,"[('wc_5', 0.6800000000000005), ('wc_4', 0.6200000000000004)]",0.8784000000000003,,,30.0,0.004739,['Pass'],Pass,0.6800000000000005,-0.12444444444444491,5.0,9.0,0.5
47.0,4.0,wc_4,,0.0,,,,41.0,,,,Pass,,,,,
47.0,4.0,wc_4,wc_1,1.0,"[('wc_1', 0.7900000000000006), ('wc_4', 0.6200000000000004), ('wc_5', 0.6800000000000005)]",0.9744640000000001,,,26.0,0.039046,['Pass'],Pass,0.7900000000000006,-0.09000000000000064,0.0,0.0,0.7
52.0,2.0,wc_2,,0.0,,,,0.0,,,,Pass,,,,,
52.0,2.0,wc_2,,0.0,,,77.0,,,,,Pass,,,,,
52.0,2.0,wc_2,,0.0,,,,0.0,,,,Pass,,,,,
52.0,2.0,wc_2,wc_2,0.0,"[('wc_2', 0.4300000000000003)]",0.4300000000000004,,,33.0,0.002258,['Pass'],Pass,0.4300000000000003,0.06999999999999967,0.0,0.0,0.3
52.0,2.0,wc_2,,0.0,,,,0.0,,,,Pass,,,,,
52.0,2.0,wc_2,wc_3,0.0,"[('wc_2', 0.4300000000000003)]",0.4300000000000004,,,39.0,0.005203,['Pass'],Pass,0.2900000000000001,0.2099999999999999,0.0,0.0,0.2
52.0,2.0,wc_2,,0.0,,,,0.0,,,,Pass,,,,,
52.0,2.0,wc_2,wc_4,0.0,"[('wc_4', 0.6200000000000004), ('wc_2', 0.4300000000000003)]",0.7834000000000004,,,21.0,0.008174,['Pass'],Pass,0.6200000000000004,0.1799999999999996,0.0,0.0,0.5
52.0,2.0,wc_2,,0.0,,,,0.0,,,,Pass,,,,,
52.0,2.0,wc_2,wc_5,1.0,"[('wc_5', 0.6800000000000005), ('wc_2', 0.4300000000000003), ('wc_4', 0.6200000000000004)]",0.9306880000000002,,,28.0,0.04421699999999999,['Pass'],Pass,0.6800000000000005,-0.04363636363636414,0.0,0.0,0.5
60.0,5.0,wc_5,,0.0,,,,0.0,,,,Fail,,,,,
60.0,5.0,wc_5,,0.0,,,67.0,,,,,Fail,,,,,
60.0,5.0,wc_5,,0.0,,,,0.0,,,,Fail,,,,,
60.0,5.0,wc_5,wc_5,0.0,"[('wc_5', 0.6800000000000005)]",0.6800000000000005,,,38.0,0.002227,['Fail'],Fail,0.6800000000000005,-0.6800000000000005,0.0,0.0,0.5
60.0,5.0,wc_5,,0.0,,,,41.0,,,,Fail,,,,,
60.0,5.0,wc_5,wc_1,0.0,"[('wc_1', 0.7900000000000006), ('wc_5', 0.6800000000000005)]",0.9328000000000003,,,26.0,0.00468,['Fail'],Fail,0.7900000000000006,-0.7900000000000006,0.0,1.0,0.7
60.0,5.0,wc_5,,0.0,,,,0.0,,,,Fail,,,,,
60.0,5.0,wc_5,wc_2,1.0,"[('wc_2', 0.4300000000000003), ('wc_5', 0.6800000000000005), ('wc_1', 0.7900000000000006)]",0.9616960000000002,,,31.0,0.046315999999999996,['Fail'],Fail,0.4300000000000003,0.5699999999999996,2.0,2.0,0.3
65.0,5.0,wc_5,,0.0,,,,0.0,,,,Pass,,,,,
65.0,5.0,wc_5,,0.0,,,63.0,,,,,Pass,,,,,
65.0,5.0,wc_5,,0.0,,,,0.0,,,,Pass,,,,,
65.0,5.0,wc_5,wc_5,0.0,"[('wc_5', 0.6800000000000005)]",0.6800000000000005,,,39.0,0.01011,['Pass'],Pass,0.6800000000000005,0.3199999999999995,1.0,1.0,0.5
65.0,5.0,wc_5,,0.0,,,,41.0,,,,Pass,,,,,
65.0,5.0,wc_5,wc_1,0.0,"[('wc_1', 0.7900000000000006)]",0.7900000000000006,,,34.0,0.00411,['Fail'],Pass,0.7900000000000006,-0.2900000000000006,1.0,2.0,0.7
65.0,5.0,wc_5,,0.0,,,,0.0,,,,Pass,,,,,
65.0,5.0,wc_5,wc_2,0.0,"[('wc_2', 0.4300000000000003), ('wc_5', 0.6800000000000005)]",0.8176000000000004,,,23.0,0.014155999999999998,['Pass'],Pass,0.4300000000000003,0.5699999999999996,2.0,2.0,0.3
65.0,5.0,wc_5,,0.0,,,,0.0,,,,Pass,,,,,
65.0,5.0,wc_5,wc_3,0.0,"[('wc_3', 0.2900000000000001), ('wc_1', 0.7900000000000006)]",0.8509000000000004,,,27.0,0.008305,['Fail'],Pass,0.2900000000000001,-0.2900000000000001,0.0,2.0,0.2
65.0,5.0,wc_5,,0.0,,,,0.0,,,,Pass,,,,,
65.0,5.0,wc_5,wc_4,1.0,"[('wc_4', 0.6200000000000004), ('wc_5', 0.6800000000000005), ('wc_2', 0.4300000000000003)]",0.9306880000000002,,,30.0,0.059134,['Pass'],Pass,0.6200000000000004,0.04666666666666619,2.0,3.0,0.5
72.0,6.0,wc_6,,0.0,,,,81.0,,,,Fail,,,,,
72.0,6.0,wc_6,,0.0,,,50.0,,,,,Fail,,,,,
72.0,6.0,wc_6,,0.0,,,,0.0,,,,Fail,,,,,
72.0,6.0,wc_6,wc_6,0.0,"[('wc_6', 0.8600000000000007)]",0.8600000000000007,,,38.0,0.002706,['Pass'],Fail,0.8600000000000007,-0.7171428571428577,0.0,0.0,0.7
72.0,6.0,wc_6,,0.0,,,,0.0,,,,Fail,,,,,
72.0,6.0,wc_6,wc_7,0.0,"[('wc_6', 0.8600000000000007)]",0.8600000000000007,,,40.0,0.005818,['Pass'],Fail,0.7200000000000005,-0.6765217391304353,0.0,0.0,0.6
72.0,6.0,wc_6,,0.0,,,,0.0,,,,Fail,,,,,
72.0,6.0,wc_6,wc_8,0.0,"[('wc_6', 0.8600000000000007)]",0.8600000000000007,,,39.0,0.006123999999999999,['Pass'],Fail,0.4400000000000003,-0.325714285714286,0.0,0.0,0.3
72.0,6.0,wc_6,,0.0,,,,0.0,,,,Fail,,,,,
72.0,6.0,wc_6,wc_9,0.0,"[('wc_9', 0.8300000000000006), ('wc_6', 0.8600000000000007)]",0.9762000000000002,,,36.0,0.007672,['Pass'],Fail,0.8300000000000006,-0.6535294117647065,0.0,0.0,0.8
72.0,6.0,wc_6,,0.0,,,,0.0,,,,Fail,,,,,
72.0,6.0,wc_6,wc_10,1.0,"[('wc_10', 0.9900000000000008), ('wc_7', 0.7200000000000005), ('wc_8', 0.4400000000000003)]",0.9984320000000001,,,39.0,0.045201,['Fail'],Fail,0.9900000000000008,-0.7900000000000007,0.0,0.0,1.0
76.0,6.0,wc_6,,0.0,,,,41.0,,,,Fail,,,,,
76.0,6.0,wc_6,,0.0,,,54.0,,,,,Fail,,,,,
76.0,6.0,wc_6,,0.0,,,,0.0,,,,Fail,,,,,
76.0,6.0,wc_6,wc_6,0.0,"[('wc_6', 0.8600000000000007)]",0.8600000000000007,,,33.0,0.002575,['Fail'],Fail,0.8600000000000007,-0.8600000000000007,0.0,1.0,0.7
76.0,6.0,wc_6,,0.0,,,,0.0,,,,Fail,,,,,
76.0,6.0,wc_6,wc_7,0.0,"[('wc_7', 0.7200000000000005), ('wc_6', 0.8600000000000007)]",0.9608000000000002,,,37.0,0.004102,['Fail'],Fail,0.7200000000000005,0.27999999999999947,1.0,1.0,0.6
76.0,6.0,wc_6,,0.0,,,,0.0,,,,Fail,,,,,
76.0,6.0,wc_6,wc_8,1.0,"[('wc_8', 0.4400000000000003), ('wc_6', 0.8600000000000007), ('wc_7', 0.7200000000000005)]",0.9780480000000001,,,33.0,0.03783,['Fail'],Fail,0.4400000000000003,0.5599999999999997,2.0,2.0,0.3
82.0,6.0,wc_6,,0.0,,,,82.0,,,,Fail,,,,,
82.0,6.0,wc_6,,0.0,,,73.0,,,,,Fail,,,,,
82.0,6.0,wc_6,,0.0,,,,0.0,,,,Fail,,,,,
82.0,6.0,wc_6,wc_6,0.0,"[('wc_6', 0.8600000000000007)]",0.8600000000000007,,,38.0,0.002211,['Fail'],Fail,0.8600000000000007,-0.36000000000000065,1.0,2.0,0.7
82.0,6.0,wc_6,,0.0,,,,0.0,,,,Fail,,,,,
82.0,6.0,wc_6,wc_7,0.0,"[('wc_7', 0.7200000000000005), ('wc_6', 0.8600000000000007)]",0.9608000000000002,,,23.0,0.004122,['Fail'],Fail,0.7200000000000005,0.27999999999999947,2.0,2.0,0.6
82.0,6.0,wc_6,,0.0,,,,0.0,,,,Fail,,,,,
82.0,6.0,wc_6,wc_8,1.0,"[('wc_8', 0.4400000000000003), ('wc_6', 0.8600000000000007), ('wc_7', 0.7200000000000005)]",0.9780480000000001,,,39.0,0.039984000000000006,['Fail'],Fail,0.4400000000000003,0.5599999999999997,3.0,3.0,0.3
87.0,6.0,wc_6,,0.0,,,,82.0,,,,Pass,,,,,
87.0,6.0,wc_6,,0.0,,,75.0,,,,,Pass,,,,,
87.0,6.0,wc_6,,0.0,,,,0.0,,,,Pass,,,,,
87.0,6.0,wc_6,wc_6,0.0,"[('wc_6', 0.8600000000000007)]",0.8600000000000007,,,26.0,0.002375,['Pass'],Pass,0.8600000000000007,-0.19333333333333402,2.0,3.0,0.7
87.0,6.0,wc_6,,0.0,,,,0.0,,,,Pass,,,,,
87.0,6.0,wc_6,wc_7,0.0,"[('wc_7', 0.7200000000000005), ('wc_6', 0.8600000000000007)]",0.9608000000000002,,,26.0,0.0047279999999999996,['Pass'],Pass,0.7200000000000005,0.27999999999999947,3.0,3.0,0.6
87.0,6.0,wc_6,,0.0,,,,0.0,,,,Pass,,,,,
87.0,6.0,wc_6,wc_8,0.0,"[('wc_6', 0.8600000000000007), ('wc_7', 0.7200000000000005)]",0.9608000000000002,,,35.0,0.006994,['Pass'],Pass,0.4400000000000003,0.5599999999999997,3.0,3.0,0.3
87.0,6.0,wc_6,,0.0,,,,0.0,,,,Pass,,,,,
87.0,6.0,wc_6,wc_9,1.0,"[('wc_9', 0.8300000000000006), ('wc_6', 0.8600000000000007), ('wc_7', 0.7200000000000005)]",0.9933360000000001,,,40.0,0.048861,['Pass'],Pass,0.8300000000000006,-0.5800000000000006,1.0,4.0,0.8
92.0,9.0,wc_9,,0.0,,,,0.0,,,,Pass,,,,,
92.0,9.0,wc_9,,0.0,,,50.0,,,,,Pass,,,,,
92.0,9.0,wc_9,,0.0,,,,0.0,,,,Pass,,,,,
92.0,9.0,wc_9,wc_9,0.0,"[('wc_9', 0.8300000000000006)]",0.8300000000000006,,,37.0,0.002174,['Pass'],Pass,0.8300000000000006,-0.5800000000000006,1.0,4.0,0.8
92.0,9.0,wc_9,,0.0,,,,0.0,,,,Pass,,,,,
92.0,9.0,wc_9,wc_10,0.0,"[('wc_10', 0.9900000000000008), ('wc_9', 0.8300000000000006)]",0.9983000000000002,,,32.0,0.004509,['Pass'],Pass,0.9900000000000008,-0.9900000000000008,0.0,3.0,1.0
92.0,9.0,wc_9,,0.0,,,,0.0,,,,Pass,,,,,
92.0,9.0,wc_9,wc_11,1.0,"[('wc_11', 0.3800000000000002), ('wc_9', 0.8300000000000006), ('wc_10', 0.9900000000000008)]",0.9989460000000001,,,26.0,0.043359,['Pass'],Pass,0.3800000000000002,-0.2747368421052634,0.0,0.0,0.3
97.0,11.0,wc_11,,0.0,,,,0.0,,,,Pass,,,,,
97.0,11.0,wc_11,,0.0,,,73.0,,,,,Pass,,,,,
97.0,11.0,wc_11,,0.0,,,,0.0,,,,Pass,,,,,
97.0,11.0,wc_11,wc_11,0.0,"[('wc_11', 0.3800000000000002)]",0.3800000000000002,,,36.0,0.003194,['Pass'],Pass,0.3800000000000002,-0.3800000000000002,0.0,0.0,0.3
97.0,11.0,wc_11,,0.0,,,,21.0,,,,Pass,,,,,
97.0,11.0,wc_11,wc_6,0.0,"[('wc_6', 0.8600000000000007), ('wc_11', 0.3800000000000002)]",0.9132000000000005,,,24.0,0.004853,['Pass'],Pass,0.8600000000000007,-0.2600000000000007,3.0,5.0,0.7
97.0,11.0,wc_11,,0.0,,,,0.0,,,,Pass,,,,,
97.0,11.0,wc_11,wc_7,1.0,"[('wc_7', 0.7200000000000005), ('wc_11', 0.3800000000000002), ('wc_6', 0.8600000000000007)]",0.9756960000000001,,,28.0,0.039264,['Pass'],Pass,0.7200000000000005,0.11333333333333284,5.0,6.0,0.6
101.0,8.0,wc_8,,0.0,,,,0.0,,,,Pass,,,,,
101.0,8.0,wc_8,,0.0,,,80.0,,,,,Pass,,,,,
101.0,8.0,wc_8,,0.0,,,,0.0,,,,Pass,,,,,
101.0,8.0,wc_8,wc_8,0.0,"[('wc_8', 0.4400000000000003)]",0.4400000000000003,,,22.0,0.002414,['Pass'],Pass,0.4400000000000003,0.05999999999999972,3.0,6.0,0.3
101.0,8.0,wc_8,,0.0,,,,0.0,,,,Pass,,,,,
101.0,8.0,wc_8,wc_9,0.0,"[('wc_9', 0.8300000000000006), ('wc_8', 0.4400000000000003)]",0.9048000000000004,,,31.0,0.004682,['Pass'],Pass,0.8300000000000006,-0.4966666666666673,2.0,6.0,0.8
101.0,8.0,wc_8,,0.0,,,,0.0,,,,Pass,,,,,
101.0,8.0,wc_8,wc_10,1.0,"[('wc_10', 0.9900000000000008), ('wc_8', 0.4400000000000003), ('wc_9', 0.8300000000000006)]",0.999048,,,21.0,0.04182000000000001,['Pass'],Pass,0.9900000000000008,-0.6566666666666674,2.0,6.0,1.0
106.0,10.0,wc_10,,0.0,,,,0.0,,,,Fail,,,,,
106.0,10.0,wc_10,,0.0,,,77.0,,,,,Fail,,,,,
106.0,10.0,wc_10,,0.0,,,,0.0,,,,Fail,,,,,
106.0,10.0,wc_10,wc_10,0.0,"[('wc_10', 0.9900000000000008)]",0.9900000000000008,,,39.0,0.002687,['Fail'],Fail,0.9900000000000008,-0.6566666666666674,2.0,6.0,1.0
106.0,10.0,wc_10,,0.0,,,,0.0,,,,Fail,,,,,
106.0,10.0,wc_10,wc_11,0.0,"[('wc_10', 0.9900000000000008)]",0.9900000000000008,,,36.0,0.004332,['Fail'],Fail,0.3800000000000002,0.11999999999999977,1.0,2.0,0.3
106.0,10.0,wc_10,,0.0,,,,21.0,,,,Fail,,,,,
106.0,10.0,wc_10,wc_6,0.0,"[('wc_6', 0.8600000000000007), ('wc_10', 0.9900000000000008)]",0.9986000000000002,,,26.0,0.00686,['Fail'],Fail,0.8600000000000007,-0.28857142857142926,4.0,7.0,0.7
106.0,10.0,wc_10,,0.0,,,,0.0,,,,Fail,,,,,
106.0,10.0,wc_10,wc_7,1.0,"[('wc_7', 0.7200000000000005), ('wc_10', 0.9900000000000008), ('wc_6', 0.8600000000000007)]",0.999608,,,26.0,0.04415,['Fail'],Fail,0.7200000000000005,0.02999999999999947,6.0,8.0,0.6
112.0,7.0,wc_7,,0.0,,,,0.0,,,,Pass,,,,,
112.0,7.0,wc_7,,0.0,,,68.0,,,,,Pass,,,,,
112.0,7.0,wc_7,,0.0,,,,0.0,,,,Pass,,,,,
112.0,7.0,wc_7,wc_7,0.0,"[('wc_7', 0.7200000000000005)]",0.7200000000000005,,,22.0,0.002932,['Pass'],Pass,0.7200000000000005,0.02999999999999947,6.0,8.0,0.6
112.0,7.0,wc_7,,0.0,,,,0.0,,,,Pass,,,,,
112.0,7.0,wc_7,wc_8,0.0,"[('wc_8', 0.4400000000000003), ('wc_7', 0.7200000000000005)]",0.8432000000000004,,,28.0,0.005123,['Pass'],Pass,0.4400000000000003,0.05999999999999972,4.0,8.0,0.3
112.0,7.0,wc_7,,0.0,,,,0.0,,,,Pass,,,,,
112.0,7.0,wc_7,wc_9,1.0,"[('wc_9', 0.8300000000000006), ('wc_7', 0.7200000000000005), ('wc_8', 0.4400000000000003)]",0.9733440000000002,,,28.0,0.041898,['Pass'],Pass,0.8300000000000006,-0.3855555555555562,4.0,9.0,0.8
116.0,10.0,wc_10,,0.0,,,,0.0,,,,Fail,,,,,
116.0,10.0,wc_10,,0.0,,,63.0,,,,,Fail,,,,,
116.0,10.0,wc_10,,0.0,,,,0.0,,,,Fail,,,,,
116.0,10.0,wc_10,wc_10,0.0,"[('wc_10', 0.9900000000000008)]",0.9900000000000008,,,29.0,0.002306,['Fail'],Fail,0.9900000000000008,-0.6150000000000008,3.0,8.0,1.0
116.0,10.0,wc_10,,0.0,,,,0.0,,,,Fail,,,,,
116.0,10.0,wc_10,wc_11,0.0,"[('wc_10', 0.9900000000000008)]",0.9900000000000008,,,34.0,0.00598,['Fail'],Fail,0.3800000000000002,-0.13000000000000023,1.0,4.0,0.3
116.0,10.0,wc_10,,0.0,,,,21.0,,,,Fail,,,,,
116.0,10.0,wc_10,wc_6,0.0,"[('wc_6', 0.8600000000000007), ('wc_10', 0.9900000000000008)]",0.9986000000000002,,,26.0,0.007497,['Fail'],Fail,0.8600000000000007,-0.3044444444444451,5.0,9.0,0.7
116.0,10.0,wc_10,,0.0,,,,0.0,,,,Fail,,,,,
116.0,10.0,wc_10,wc_7,1.0,"[('wc_7', 0.7200000000000005), ('wc_10', 0.9900000000000008), ('wc_6', 0.8600000000000007)]",0.999608,,,35.0,0.049735,['Fail'],Fail,0.7200000000000005,0.07999999999999952,0.0,0.0,0.6
120.0,10.0,wc_10,,0.0,,,,0.0,,,,Pass,,,,,
120.0,10.0,wc_10,,0.0,,,66.0,,,,,Pass,,,,,
120.0,10.0,wc_10,,0.0,,,,0.0,,,,Pass,,,,,
120.0,10.0,wc_10,wc_10,0.0,"[('wc_10', 0.9900000000000008)]",0.9900000000000008,,,33.0,0.002401,['Pass'],Pass,0.9900000000000008,-0.5455555555555563,4.0,9.0,1.0
120.0,10.0,wc_10,,0.0,,,,0.0,,,,Pass,,,,,
120.0,10.0,wc_10,wc_11,0.0,"[('wc_11', 0.3800000000000002), ('wc_10', 0.9900000000000008)]",0.9938000000000005,,,38.0,0.004306,['Pass'],Pass,0.3800000000000002,-0.18000000000000022,1.0,5.0,0.3
120.0,10.0,wc_10,,0.0,,,,21.0,,,,Pass,,,,,
120.0,10.0,wc_10,wc_6,1.0,"[('wc_6', 0.8600000000000007), ('wc_10', 0.9900000000000008), ('wc_11', 0.3800000000000002)]",0.999132,,,36.0,0.04734,['Pass'],Pass,0.8600000000000007,-0.2236363636363643,0.0,0.0,0.7
124.0,12.0,wc_12,,0.0,,,,162.0,,,,Pass,,,,,
124.0,12.0,wc_12,,0.0,,,77.0,,,,,Pass,,,,,
124.0,12.0,wc_12,,0.0,,,,0.0,,,,Pass,,,,,
124.0,12.0,wc_12,wc_12,0.0,"[('wc_12', 0.18)]",0.17999999999999994,,,26.0,0.002765,['Pass'],Pass,0.18,-0.14153846153846153,0.0,0.0,0.1
124.0,12.0,wc_12,,0.0,,,,0.0,,,,Pass,,,,,
124.0,12.0,wc_12,wc_13,0.0,"[('wc_13', 0.3500000000000002), ('wc_12', 0.18)]",0.4670000000000001,,,27.0,0.004797,['Pass'],Pass,0.3500000000000002,-0.3500000000000002,0.0,0.0,0.2
124.0,12.0,wc_12,,0.0,,,,0.0,,,,Pass,,,,,
124.0,12.0,wc_12,wc_14,0.0,"[('wc_12', 0.18), ('wc_13', 0.3500000000000002)]",0.4670000000000001,,,33.0,0.011797,['Pass'],Pass,0.2200000000000001,-0.2200000000000001,0.0,0.0,0.2
124.0,12.0,wc_12,,0.0,,,,0.0,,,,Pass,,,,,
124.0,12.0,wc_12,wc_15,0.0,"[('wc_15', 0.3700000000000002), ('wc_14', 0.2200000000000001)]",0.5086000000000002,,,40.0,0.008615,['Fail'],Pass,0.3700000000000002,-0.3700000000000002,0.0,0.0,0.2
124.0,12.0,wc_12,,0.0,,,,0.0,,,,Pass,,,,,
124.0,12.0,wc_12,wc_16,0.0,"[('wc_16', 0.1900000000000001), ('wc_12', 0.18), ('wc_13', 0.3500000000000002)]",0.5682700000000003,,,31.0,0.010823,['Pass'],Pass,0.1900000000000001,-0.1500000000000001,0.0,0.0,0.1
124.0,12.0,wc_12,,0.0,,,,0.0,,,,Pass,,,,,
124.0,12.0,wc_12,wc_17,1.0,"[('wc_17', 0.9900000000000008), ('wc_12', 0.18), ('wc_13', 0.3500000000000002), ('wc_16', 0.1900000000000001)]",0.9956827000000004,,,28.0,0.04831900000000001,['Pass'],Pass,0.9900000000000008,-0.9130769230769238,0.0,0.0,0.9
128.0,13.0,wc_13,,0.0,,,,41.0,,,,Pass,,,,,
128.0,13.0,wc_13,,0.0,,,79.0,,,,,Pass,,,,,
128.0,13.0,wc_13,,0.0,,,,0.0,,,,Pass,,,,,
128.0,13.0,wc_13,wc_13,0.0,"[('wc_13', 0.3500000000000002)]",0.3500000000000002,,,26.0,0.002318,['Pass'],Pass,0.3500000000000002,0.6499999999999998,1.0,1.0,0.2
128.0,13.0,wc_13,,0.0,,,,0.0,,,,Pass,,,,,
128.0,13.0,wc_13,wc_14,0.0,"[('wc_14', 0.2200000000000001), ('wc_13', 0.3500000000000002)]",0.4930000000000002,,,29.0,0.005049,['Pass'],Pass,0.2200000000000001,-0.2200000000000001,0.0,1.0,0.2
128.0,13.0,wc_13,,0.0,,,,0.0,,,,Pass,,,,,
128.0,13.0,wc_13,wc_15,0.0,"[('wc_13', 0.3500000000000002), ('wc_14', 0.2200000000000001)]",0.4930000000000002,,,36.0,0.009729,['Pass'],Pass,0.3700000000000002,-0.3700000000000002,0.0,1.0,0.2
128.0,13.0,wc_13,,0.0,,,,0.0,,,,Pass,,,,,
128.0,13.0,wc_13,wc_16,0.0,"[('wc_16', 0.1900000000000001), ('wc_13', 0.3500000000000002), ('wc_14', 0.2200000000000001)]",0.5893300000000002,,,33.0,0.007769,['Pass'],Pass,0.1900000000000001,0.8099999999999998,1.0,1.0,0.1
128.0,13.0,wc_13,,0.0,,,,0.0,,,,Pass,,,,,
128.0,13.0,wc_13,wc_17,1.0,"[('wc_17', 0.9900000000000008), ('wc_13', 0.3500000000000002), ('wc_14', 0.2200000000000001), ('wc_16', 0.1900000000000001)]",0.9958933000000003,,,32.0,0.049859999999999995,['Pass'],Pass,0.9900000000000008,0.009999999999999232,1.0,1.0,0.9
131.0,14.0,wc_14,,0.0,,,,61.0,,,,Fail,,,,,
131.0,14.0,wc_14,,0.0,,,73.0,,,,,Fail,,,,,
131.0,14.0,wc_14,,0.0,,,,0.0,,,,Fail,,,,,
131.0,14.0,wc_14,wc_14,0.0,"[('wc_14', 0.2200000000000001)]",0.22000000000000008,,,28.0,0.002238,['Fail'],Fail,0.2200000000000001,0.2799999999999999,1.0,2.0,0.2
131.0,14.0,wc_14,,0.0,,,,0.0,,,,Fail,,,,,
131.0,14.0,wc_14,wc_15,0.0,"[('wc_15', 0.3700000000000002), ('wc_14', 0.2200000000000001)]",0.5086000000000002,,,32.0,0.007039,['Fail'],Fail,0.3700000000000002,-0.3700000000000002,0.0,2.0,0.2
131.0,14.0,wc_14,,0.0,,,,0.0,,,,Fail,,,,,
131.0,14.0,wc_14,wc_16,0.0,"[('wc_16', 0.1900000000000001), ('wc_14', 0.2200000000000001), ('wc_15', 0.3700000000000002)]",0.6019660000000002,,,34.0,0.009101,['Fail'],Fail,0.1900000000000001,0.8099999999999998,2.0,2.0,0.1
131.0,14.0,wc_14,,0.0,,,,0.0,,,,Fail,,,,,
131.0,14.0,wc_14,wc_17,1.0,"[('wc_17', 0.9900000000000008), ('wc_14', 0.2200000000000001), ('wc_15', 0.3700000000000002), ('wc_16', 0.1900000000000001)]",0.9960196600000003,,,35.0,0.059659,['Fail'],Fail,0.9900000000000008,0.009999999999999232,2.0,2.0,0.9
133.0,16.0,wc_16,,0.0,,,,103.0,,,,Fail,,,,,
133.0,16.0,wc_16,,0.0,,,59.0,,,,,Fail,,,,,
133.0,16.0,wc_16,,0.0,,,,0.0,,,,Fail,,,,,
133.0,16.0,wc_16,wc_16,0.0,"[('wc_16', 0.1900000000000001)]",0.19000000000000017,,,25.0,0.003066,['Fail'],Fail,0.1900000000000001,0.8099999999999998,3.0,3.0,0.1
133.0,16.0,wc_16,,0.0,,,,0.0,,,,Fail,,,,,
133.0,16.0,wc_16,wc_17,0.0,"[('wc_17', 0.9900000000000008), ('wc_16', 0.1900000000000001)]",0.9919000000000007,,,28.0,0.00496,['Fail'],Fail,0.9900000000000008,0.009999999999999232,2.0,2.0,0.9
133.0,16.0,wc_16,,0.0,,,,21.0,,,,Fail,,,,,
133.0,16.0,wc_16,wc_12,0.0,"[('wc_16', 0.1900000000000001), ('wc_17', 0.9900000000000008)]",0.9919000000000007,,,34.0,0.009291,['Fail'],Fail,0.18,0.15333333333333332,1.0,3.0,0.1
133.0,16.0,wc_16,,0.0,,,,0.0,,,,Fail,,,,,
133.0,16.0,wc_16,wc_13,1.0,"[('wc_13', 0.3500000000000002), ('wc_16', 0.1900000000000001), ('wc_17', 0.9900000000000008)]",0.9947350000000004,,,38.0,0.04887999999999999,['Fail'],Fail,0.3500000000000002,0.3999999999999998,3.0,4.0,0.2
138.0,14.0,wc_14,,0.0,,,,0.0,,,,Pass,,,,,
138.0,14.0,wc_14,,0.0,,,74.0,,,,,Pass,,,,,
138.0,14.0,wc_14,,0.0,,,,0.0,,,,Pass,,,,,
138.0,14.0,wc_14,wc_14,0.0,"[('wc_14', 0.2200000000000001)]",0.22000000000000008,,,32.0,0.003026,['Pass'],Pass,0.2200000000000001,0.2799999999999999,2.0,4.0,0.2
138.0,14.0,wc_14,,0.0,,,,0.0,,,,Pass,,,,,
138.0,14.0,wc_14,wc_15,0.0,"[('wc_15', 0.3700000000000002), ('wc_14', 0.2200000000000001)]",0.5086000000000002,,,31.0,0.006394,['Pass'],Pass,0.3700000000000002,-0.12000000000000022,1.0,4.0,0.2
138.0,14.0,wc_14,,0.0,,,,0.0,,,,Pass,,,,,
138.0,14.0,wc_14,wc_16,0.0,"[('wc_16', 0.1900000000000001), ('wc_14', 0.2200000000000001), ('wc_15', 0.3700000000000002)]",0.6019660000000002,,,34.0,0.005823,['Pass'],Pass,0.1900000000000001,0.8099999999999998,4.0,4.0,0.1
138.0,14.0,wc_14,,0.0,,,,0.0,,,,Pass,,,,,
138.0,14.0,wc_14,wc_17,1.0,"[('wc_17', 0.9900000000000008), ('wc_14', 0.2200000000000001), ('wc_15', 0.3700000000000002), ('wc_16', 0.1900000000000001)]",0.9960196600000003,,,27.0,0.055198000000000004,['Pass'],Pass,0.9900000000000008,0.009999999999999232,4.0,4.0,0.9
139.0,16.0,wc_16,,0.0,,,,103.0,,,,Pass,,,,,
139.0,16.0,wc_16,,0.0,,,50.0,,,,,Pass,,,,,
139.0,16.0,wc_16,,0.0,,,,0.0,,,,Pass,,,,,
139.0,16.0,wc_16,wc_16,0.0,"[('wc_16', 0.1900000000000001)]",0.19000000000000017,,,27.0,0.003048,['Pass'],Pass,0.1900000000000001,0.8099999999999998,5.0,5.0,0.1
139.0,16.0,wc_16,,0.0,,,,0.0,,,,Pass,,,,,
139.0,16.0,wc_16,wc_17,0.0,"[('wc_17', 0.9900000000000008), ('wc_16', 0.1900000000000001)]",0.9919000000000007,,,28.0,0.005301,['Pass'],Pass,0.9900000000000008,0.009999999999999232,4.0,4.0,0.9
139.0,16.0,wc_16,,0.0,,,,21.0,,,,Pass,,,,,
139.0,16.0,wc_16,wc_12,1.0,"[('wc_12', 0.18), ('wc_16', 0.1900000000000001), ('wc_17', 0.9900000000000008)]",0.9933580000000005,,,38.0,0.04985,['Pass'],Pass,0.18,0.15333333333333332,2.0,6.0,0.1
143.0,15.0,wc_15,,0.0,,,,0.0,,,,Fail,,,,,
143.0,15.0,wc_15,,0.0,,,64.0,,,,,Fail,,,,,
143.0,15.0,wc_15,,0.0,,,,0.0,,,,Fail,,,,,
143.0,15.0,wc_15,wc_15,0.0,"[('wc_15', 0.3700000000000002)]",0.3700000000000002,,,20.0,0.002345,['Fail'],Fail,0.3700000000000002,-0.0366666666666669,2.0,6.0,0.2
143.0,15.0,wc_15,,0.0,,,,0.0,,,,Fail,,,,,
143.0,15.0,wc_15,wc_16,0.0,"[('wc_16', 0.1900000000000001), ('wc_15', 0.3700000000000002)]",0.48970000000000025,,,22.0,0.004195,['Fail'],Fail,0.1900000000000001,0.8099999999999998,6.0,6.0,0.1
143.0,15.0,wc_15,,0.0,,,,0.0,,,,Fail,,,,,
143.0,15.0,wc_15,wc_17,1.0,"[('wc_17', 0.9900000000000008), ('wc_15', 0.3700000000000002), ('wc_16', 0.1900000000000001)]",0.9948970000000004,,,23.0,0.040697,['Fail'],Fail,0.9900000000000008,0.009999999999999232,6.0,6.0,0.9
146.0,15.0,wc_15,,0.0,,,,83.0,,,,Pass,,,,,
146.0,15.0,wc_15,,0.0,,,54.0,,,,,Pass,,,,,
146.0,15.0,wc_15,,0.0,,,,0.0,,,,Pass,,,,,
146.0,15.0,wc_15,wc_15,0.0,"[('wc_15', 0.3700000000000002)]",0.3700000000000002,,,24.0,0.002123,['Fail'],Pass,0.3700000000000002,0.05857142857142833,3.0,7.0,0.2
146.0,15.0,wc_15,,0.0,,,,0.0,,,,Pass,,,,,
146.0,15.0,wc_15,wc_16,0.0,"[('wc_15', 0.3700000000000002)]",0.3700000000000002,,,24.0,0.004502,['Fail'],Pass,0.1900000000000001,0.8099999999999998,7.0,7.0,0.1
146.0,15.0,wc_15,,0.0,,,,0.0,,,,Pass,,,,,
146.0,15.0,wc_15,wc_17,0.0,"[('wc_17', 0.9900000000000008), ('wc_16', 0.1900000000000001)]",0.9919000000000007,,,35.0,0.006097,['Pass'],Pass,0.9900000000000008,0.009999999999999232,6.0,6.0,0.9
146.0,15.0,wc_15,,0.0,,,,21.0,,,,Pass,,,,,
146.0,15.0,wc_15,wc_12,1.0,"[('wc_12', 0.18), ('wc_16', 0.1900000000000001), ('wc_17', 0.9900000000000008)]",0.9933580000000005,,,32.0,0.045417,['Pass'],Pass,0.18,0.195,3.0,8.0,0.1
149.0,17.0,wc_17,,0.0,,,,0.0,,,,Pass,,,,,
149.0,17.0,wc_17,,0.0,,,75.0,,,,,Pass,,,,,
149.0,17.0,wc_17,,0.0,,,,0.0,,,,Pass,,,,,
149.0,17.0,wc_17,wc_17,0.0,"[('wc_17', 0.9900000000000008)]",0.9900000000000008,,,25.0,0.002266,['Pass'],Pass,0.9900000000000008,0.009999999999999232,7.0,7.0,0.9
149.0,17.0,wc_17,,0.0,,,,21.0,,,,Pass,,,,,
149.0,17.0,wc_17,wc_12,0.0,"[('wc_17', 0.9900000000000008)]",0.9900000000000008,,,40.0,0.004255999999999999,['Pass'],Pass,0.18,0.195,3.0,8.0,0.1
149.0,17.0,wc_17,,0.0,,,,0.0,,,,Pass,,,,,
149.0,17.0,wc_17,wc_13,0.0,"[('wc_13', 0.3500000000000002), ('wc_17', 0.9900000000000008)]",0.9935000000000005,,,38.0,0.005919,['Pass'],Pass,0.3500000000000002,0.0249999999999998,3.0,8.0,0.2
149.0,17.0,wc_17,,0.0,,,,0.0,,,,Pass,,,,,
149.0,17.0,wc_17,wc_14,0.0,"[('wc_17', 0.9900000000000008), ('wc_13', 0.3500000000000002)]",0.9935000000000005,,,33.0,0.009151,['Pass'],Pass,0.2200000000000001,0.1549999999999999,3.0,8.0,0.2
149.0,17.0,wc_17,,0.0,,,,0.0,,,,Pass,,,,,
149.0,17.0,wc_17,wc_15,0.0,"[('wc_17', 0.9900000000000008), ('wc_13', 0.3500000000000002)]",0.9935000000000005,,,29.0,0.009871,['Pass'],Pass,0.3700000000000002,0.004999999999999782,3.0,8.0,0.2
149.0,17.0,wc_17,,0.0,,,,0.0,,,,Pass,,,,,
149.0,17.0,wc_17,wc_16,1.0,"[('wc_16', 0.1900000000000001), ('wc_17', 0.9900000000000008), ('wc_13', 0.3500000000000002)]",0.9947350000000004,,,37.0,0.046375,['Pass'],Pass,0.1900000000000001,0.8099999999999998,9.0,9.0,0.1
