mpecck/BCQC/bcqc_with_qdt/results/raw/input_16/independent_qc/score/5_workpiece/20200429_105837/wp_3_qc_majority_0.9.csv
production_index,step_idx,production_workcell,qc,consent,winner_qc_list,score,production_time,transport_time,inspection_time,network_time,qc_results,actual_quality,qc_score,score_error,in_winner_counter,in_qc_counter,qc_capability
2.0,1.0,wc_1,,0.0,,,72.0,,,,,Fail,,,,,
2.0,1.0,wc_1,,0.0,,,,0.0,,,,Fail,,,,,
2.0,1.0,wc_1,wc_1,0.0,"[('wc_1', 0.7900000000000006)]",0.7900000000000006,,,27.0,0.002,['Fail'],Fail,0.7900000000000006,-0.7465217391304354,0.0,0.0,0.7
2.0,1.0,wc_1,,0.0,,,,0.0,,,,Fail,,,,,
2.0,1.0,wc_1,wc_2,0.0,"[('wc_1', 0.7900000000000006)]",0.7900000000000006,,,26.0,0.004229,['Fail'],Fail,0.4300000000000003,-0.2995652173913047,0.0,0.0,0.3
2.0,1.0,wc_1,,0.0,,,,0.0,,,,Fail,,,,,
2.0,1.0,wc_1,wc_3,0.0,"[('wc_1', 0.7900000000000006)]",0.7900000000000006,,,38.0,0.007012,['Fail'],Fail,0.2900000000000001,-0.2900000000000001,0.0,0.0,0.2
2.0,1.0,wc_1,,0.0,,,,0.0,,,,Fail,,,,,
2.0,1.0,wc_1,wc_4,0.0,"[('wc_4', 0.6200000000000004), ('wc_1', 0.7900000000000006)]",0.9202000000000004,,,26.0,0.009055,['Fail'],Fail,0.6200000000000004,-0.53304347826087,0.0,0.0,0.5
2.0,1.0,wc_1,,0.0,,,,0.0,,,,Fail,,,,,
2.0,1.0,wc_1,wc_5,1.0,"[('wc_5', 0.6800000000000005), ('wc_1', 0.7900000000000006), ('wc_4', 0.6200000000000004)]",0.9744640000000001,,,22.0,0.043201,['Fail'],Fail,0.6800000000000005,-0.5495652173913048,0.0,0.0,0.5
10.0,1.0,wc_1,,0.0,,,,41.0,,,,Pass,,,,,
10.0,1.0,wc_1,,0.0,,,79.0,,,,,Pass,,,,,
10.0,1.0,wc_1,,0.0,,,,0.0,,,,Pass,,,,,
10.0,1.0,wc_1,wc_1,0.0,"[('wc_1', 0.7900000000000006)]",0.7900000000000006,,,36.0,0.002293,['Pass'],Pass,0.7900000000000006,0.2099999999999994,1.0,1.0,0.7
10.0,1.0,wc_1,,0.0,,,,0.0,,,,Pass,,,,,
10.0,1.0,wc_1,wc_2,0.0,"[('wc_2', 0.4300000000000003), ('wc_1', 0.7900000000000006)]",0.8803000000000004,,,36.0,0.006657,['Pass'],Pass,0.4300000000000003,-0.4300000000000003,0.0,1.0,0.3
10.0,1.0,wc_1,,0.0,,,,0.0,,,,Pass,,,,,
10.0,1.0,wc_1,wc_3,1.0,"[('wc_3', 0.2900000000000001), ('wc_1', 0.7900000000000006), ('wc_2', 0.4300000000000003)]",0.9150130000000003,,,36.0,0.040518,['Pass'],Pass,0.2900000000000001,0.2099999999999999,1.0,2.0,0.2
14.0,2.0,wc_2,,0.0,,,,101.0,,,,Pass,,,,,
14.0,2.0,wc_2,,0.0,,,67.0,,,,,Pass,,,,,
14.0,2.0,wc_2,,0.0,,,,0.0,,,,Pass,,,,,
14.0,2.0,wc_2,wc_2,0.0,"[('wc_2', 0.4300000000000003)]",0.4300000000000004,,,27.0,0.002437,['Pass'],Pass,0.4300000000000003,0.06999999999999967,1.0,2.0,0.3
14.0,2.0,wc_2,,0.0,,,,0.0,,,,Pass,,,,,
14.0,2.0,wc_2,wc_3,0.0,"[('wc_3', 0.2900000000000001), ('wc_2', 0.4300000000000003)]",0.5953000000000003,,,35.0,0.004294,['Pass'],Pass,0.2900000000000001,0.2099999999999999,1.0,2.0,0.2
14.0,2.0,wc_2,,0.0,,,,0.0,,,,Pass,,,,,
14.0,2.0,wc_2,wc_4,0.0,"[('wc_4', 0.6200000000000004), ('wc_2', 0.4300000000000003), ('wc_3', 0.2900000000000001)]",0.8462140000000002,,,24.0,0.006946,['Pass'],Pass,0.6200000000000004,-0.12000000000000044,1.0,2.0,0.5
14.0,2.0,wc_2,,0.0,,,,0.0,,,,Pass,,,,,
14.0,2.0,wc_2,wc_5,1.0,"[('wc_5', 0.6800000000000005), ('wc_2', 0.4300000000000003), ('wc_3', 0.2900000000000001), ('wc_4', 0.6200000000000004)]",0.9507884800000002,,,27.0,0.043080999999999994,['Pass'],Pass,0.6800000000000005,-0.1800000000000005,1.0,2.0,0.5
20.0,4.0,wc_4,,0.0,,,,103.0,,,,Pass,,,,,
20.0,4.0,wc_4,,0.0,,,80.0,,,,,Pass,,,,,
20.0,4.0,wc_4,,0.0,,,,0.0,,,,Pass,,,,,
20.0,4.0,wc_4,wc_4,0.0,"[('wc_4', 0.6200000000000004)]",0.6200000000000004,,,38.0,0.002375,['Pass'],Pass,0.6200000000000004,0.04666666666666619,2.0,3.0,0.5
20.0,4.0,wc_4,,0.0,,,,0.0,,,,Pass,,,,,
20.0,4.0,wc_4,wc_5,0.0,"[('wc_5', 0.6800000000000005), ('wc_4', 0.6200000000000004)]",0.8784000000000003,,,35.0,0.005122,['Pass'],Pass,0.6800000000000005,-0.1800000000000005,1.0,2.0,0.5
20.0,4.0,wc_4,,0.0,,,,41.0,,,,Pass,,,,,
20.0,4.0,wc_4,wc_1,1.0,"[('wc_1', 0.7900000000000006), ('wc_4', 0.6200000000000004), ('wc_5', 0.6800000000000005)]",0.9744640000000001,,,31.0,0.036480000000000005,['Pass'],Pass,0.7900000000000006,-0.04000000000000059,3.0,4.0,0.7
26.0,3.0,wc_3,,0.0,,,,0.0,,,,Fail,,,,,
26.0,3.0,wc_3,,0.0,,,56.0,,,,,Fail,,,,,
26.0,3.0,wc_3,,0.0,,,,0.0,,,,Fail,,,,,
26.0,3.0,wc_3,wc_3,0.0,"[('wc_3', 0.2900000000000001)]",0.29000000000000004,,,36.0,0.002111,['Pass'],Fail,0.2900000000000001,0.2099999999999999,2.0,4.0,0.2
26.0,3.0,wc_3,,0.0,,,,0.0,,,,Fail,,,,,
26.0,3.0,wc_3,wc_4,0.0,"[('wc_4', 0.6200000000000004)]",0.6200000000000004,,,39.0,0.004717,['Fail'],Fail,0.6200000000000004,0.12999999999999956,3.0,4.0,0.5
26.0,3.0,wc_3,,0.0,,,,0.0,,,,Fail,,,,,
26.0,3.0,wc_3,wc_5,0.0,"[('wc_5', 0.6800000000000005), ('wc_4', 0.6200000000000004)]",0.8784000000000003,,,40.0,0.005858,['Fail'],Fail,0.6800000000000005,-0.013333333333333863,2.0,3.0,0.5
26.0,3.0,wc_3,,0.0,,,,41.0,,,,Fail,,,,,
26.0,3.0,wc_3,wc_1,1.0,"[('wc_1', 0.7900000000000006), ('wc_4', 0.6200000000000004), ('wc_5', 0.6800000000000005)]",0.9744640000000001,,,33.0,0.03964399999999999,['Fail'],Fail,0.7900000000000006,0.009999999999999454,4.0,5.0,0.7
33.0,3.0,wc_3,,0.0,,,,0.0,,,,Fail,,,,,
33.0,3.0,wc_3,,0.0,,,65.0,,,,,Fail,,,,,
33.0,3.0,wc_3,,0.0,,,,0.0,,,,Fail,,,,,
33.0,3.0,wc_3,wc_3,0.0,"[('wc_3', 0.2900000000000001)]",0.29000000000000004,,,32.0,0.002343,['Pass'],Fail,0.2900000000000001,0.10999999999999993,2.0,5.0,0.2
33.0,3.0,wc_3,,0.0,,,,0.0,,,,Fail,,,,,
33.0,3.0,wc_3,wc_4,0.0,"[('wc_4', 0.6200000000000004)]",0.6200000000000004,,,32.0,0.0071,['Fail'],Fail,0.6200000000000004,0.1799999999999996,4.0,5.0,0.5
33.0,3.0,wc_3,,0.0,,,,0.0,,,,Fail,,,,,
33.0,3.0,wc_3,wc_5,0.0,"[('wc_5', 0.6800000000000005), ('wc_3', 0.2900000000000001)]",0.7728000000000004,,,34.0,0.005907,['Pass'],Fail,0.6800000000000005,0.06999999999999951,3.0,4.0,0.5
33.0,3.0,wc_3,,0.0,,,,41.0,,,,Fail,,,,,
33.0,3.0,wc_3,wc_1,0.0,"[('wc_1', 0.7900000000000006), ('wc_4', 0.6200000000000004)]",0.9202000000000004,,,28.0,0.008156,['Fail'],Fail,0.7900000000000006,0.009999999999999454,4.0,5.0,0.7
33.0,3.0,wc_3,,0.0,,,,0.0,,,,Fail,,,,,
33.0,3.0,wc_3,wc_2,1.0,"[('wc_2', 0.4300000000000003), ('wc_4', 0.6200000000000004), ('wc_1', 0.7900000000000006)]",0.9545140000000002,,,35.0,0.041513,['Fail'],Fail,0.4300000000000003,0.06999999999999967,3.0,6.0,0.3
38.0,3.0,wc_3,,0.0,,,,0.0,,,,Pass,,,,,
38.0,3.0,wc_3,,0.0,,,56.0,,,,,Pass,,,,,
38.0,3.0,wc_3,,0.0,,,,0.0,,,,Pass,,,,,
38.0,3.0,wc_3,wc_3,0.0,"[('wc_3', 0.2900000000000001)]",0.29000000000000004,,,34.0,0.002393,['Fail'],Pass,0.2900000000000001,0.043333333333333224,2.0,6.0,0.2
38.0,3.0,wc_3,,0.0,,,,0.0,,,,Pass,,,,,
38.0,3.0,wc_3,wc_4,0.0,"[('wc_4', 0.6200000000000004)]",0.6200000000000004,,,33.0,0.004356,['Pass'],Pass,0.6200000000000004,0.21333333333333293,5.0,6.0,0.5
38.0,3.0,wc_3,,0.0,,,,0.0,,,,Pass,,,,,
38.0,3.0,wc_3,wc_5,0.0,"[('wc_5', 0.6800000000000005), ('wc_4', 0.6200000000000004)]",0.8784000000000003,,,40.0,0.0061340000000000006,['Pass'],Pass,0.6800000000000005,-0.08000000000000052,3.0,5.0,0.5
38.0,3.0,wc_3,,0.0,,,,41.0,,,,Pass,,,,,
38.0,3.0,wc_3,wc_1,1.0,"[('wc_1', 0.7900000000000006), ('wc_4', 0.6200000000000004), ('wc_5', 0.6800000000000005)]",0.9744640000000001,,,20.0,0.038868,['Pass'],Pass,0.7900000000000006,0.0671428571428565,6.0,7.0,0.7
42.0,5.0,wc_5,,0.0,,,,0.0,,,,Fail,,,,,
42.0,5.0,wc_5,,0.0,,,50.0,,,,,Fail,,,,,
42.0,5.0,wc_5,,0.0,,,,0.0,,,,Fail,,,,,
42.0,5.0,wc_5,wc_5,0.0,"[('wc_5', 0.6800000000000005)]",0.6800000000000005,,,33.0,0.002304,['Pass'],Fail,0.6800000000000005,-0.013333333333333863,4.0,6.0,0.5
42.0,5.0,wc_5,,0.0,,,,41.0,,,,Fail,,,,,
42.0,5.0,wc_5,wc_1,0.0,"[('wc_1', 0.7900000000000006), ('wc_5', 0.6800000000000005)]",0.9328000000000003,,,35.0,0.009412,['Pass'],Fail,0.7900000000000006,0.0671428571428565,6.0,7.0,0.7
42.0,5.0,wc_5,,0.0,,,,0.0,,,,Fail,,,,,
42.0,5.0,wc_5,wc_2,0.0,"[('wc_5', 0.6800000000000005), ('wc_1', 0.7900000000000006)]",0.9328000000000003,,,35.0,0.006135,['Pass'],Fail,0.4300000000000003,-0.0014285714285717788,3.0,7.0,0.3
42.0,5.0,wc_5,,0.0,,,,0.0,,,,Fail,,,,,
42.0,5.0,wc_5,wc_3,1.0,"[('wc_3', 0.2900000000000001), ('wc_5', 0.6800000000000005), ('wc_1', 0.7900000000000006)]",0.9522880000000002,,,35.0,0.044218,['Pass'],Fail,0.2900000000000001,0.08499999999999991,3.0,8.0,0.2
48.0,5.0,wc_5,,0.0,,,,0.0,,,,Pass,,,,,
48.0,5.0,wc_5,,0.0,,,53.0,,,,,Pass,,,,,
48.0,5.0,wc_5,,0.0,,,,0.0,,,,Pass,,,,,
48.0,5.0,wc_5,wc_5,0.0,"[('wc_5', 0.6800000000000005)]",0.6800000000000005,,,35.0,0.002203,['Pass'],Pass,0.6800000000000005,0.03428571428571381,5.0,7.0,0.5
48.0,5.0,wc_5,,0.0,,,,41.0,,,,Pass,,,,,
48.0,5.0,wc_5,wc_1,0.0,"[('wc_1', 0.7900000000000006), ('wc_5', 0.6800000000000005)]",0.9328000000000003,,,39.0,0.0038250000000000003,['Pass'],Pass,0.7900000000000006,0.08499999999999941,7.0,8.0,0.7
48.0,5.0,wc_5,,0.0,,,,0.0,,,,Pass,,,,,
48.0,5.0,wc_5,wc_2,0.0,"[('wc_5', 0.6800000000000005), ('wc_1', 0.7900000000000006)]",0.9328000000000003,,,30.0,0.006241999999999999,['Pass'],Pass,0.4300000000000003,-0.055000000000000326,3.0,8.0,0.3
48.0,5.0,wc_5,,0.0,,,,0.0,,,,Pass,,,,,
48.0,5.0,wc_5,wc_3,1.0,"[('wc_3', 0.2900000000000001), ('wc_5', 0.6800000000000005), ('wc_1', 0.7900000000000006)]",0.9522880000000002,,,38.0,0.039792999999999995,['Pass'],Pass,0.2900000000000001,0.15444444444444433,4.0,9.0,0.2
53.0,6.0,wc_6,,0.0,,,,101.0,,,,Fail,,,,,
53.0,6.0,wc_6,,0.0,,,60.0,,,,,Fail,,,,,
53.0,6.0,wc_6,,0.0,,,,0.0,,,,Fail,,,,,
53.0,6.0,wc_6,wc_6,0.0,"[('wc_6', 0.8600000000000007)]",0.8600000000000007,,,34.0,0.003407,['Fail'],Fail,0.8600000000000007,-0.8600000000000007,0.0,0.0,0.7
53.0,6.0,wc_6,,0.0,,,,0.0,,,,Fail,,,,,
53.0,6.0,wc_6,wc_7,0.0,"[('wc_7', 0.7200000000000005), ('wc_6', 0.8600000000000007)]",0.9608000000000002,,,24.0,0.004858,['Fail'],Fail,0.7200000000000005,-0.7200000000000005,0.0,0.0,0.6
53.0,6.0,wc_6,,0.0,,,,0.0,,,,Fail,,,,,
53.0,6.0,wc_6,wc_8,1.0,"[('wc_8', 0.4400000000000003), ('wc_6', 0.8600000000000007), ('wc_7', 0.7200000000000005)]",0.9780480000000001,,,35.0,0.039174999999999995,['Fail'],Fail,0.4400000000000003,-0.24000000000000027,0.0,0.0,0.3
57.0,6.0,wc_6,,0.0,,,,82.0,,,,Pass,,,,,
57.0,6.0,wc_6,,0.0,,,71.0,,,,,Pass,,,,,
57.0,6.0,wc_6,,0.0,,,,0.0,,,,Pass,,,,,
57.0,6.0,wc_6,wc_6,0.0,"[('wc_6', 0.8600000000000007)]",0.8600000000000007,,,21.0,0.002293,['Pass'],Pass,0.8600000000000007,0.13999999999999935,1.0,1.0,0.7
57.0,6.0,wc_6,,0.0,,,,0.0,,,,Pass,,,,,
57.0,6.0,wc_6,wc_7,0.0,"[('wc_7', 0.7200000000000005), ('wc_6', 0.8600000000000007)]",0.9608000000000002,,,37.0,0.0045249999999999995,['Pass'],Pass,0.7200000000000005,0.27999999999999947,1.0,1.0,0.6
57.0,6.0,wc_6,,0.0,,,,0.0,,,,Pass,,,,,
57.0,6.0,wc_6,wc_8,0.0,"[('wc_6', 0.8600000000000007), ('wc_7', 0.7200000000000005)]",0.9608000000000002,,,36.0,0.006971,['Pass'],Pass,0.4400000000000003,-0.4400000000000003,0.0,0.0,0.3
57.0,6.0,wc_6,,0.0,,,,0.0,,,,Pass,,,,,
57.0,6.0,wc_6,wc_9,1.0,"[('wc_9', 0.8300000000000006), ('wc_6', 0.8600000000000007), ('wc_7', 0.7200000000000005)]",0.9933360000000001,,,25.0,0.041539999999999994,['Pass'],Pass,0.8300000000000006,-0.6687096774193555,0.0,0.0,0.8
63.0,9.0,wc_9,,0.0,,,,0.0,,,,Pass,,,,,
63.0,9.0,wc_9,,0.0,,,80.0,,,,,Pass,,,,,
63.0,9.0,wc_9,,0.0,,,,0.0,,,,Pass,,,,,
63.0,9.0,wc_9,wc_9,0.0,"[('wc_9', 0.8300000000000006)]",0.8300000000000006,,,34.0,0.002458,['Pass'],Pass,0.8300000000000006,-0.8300000000000006,0.0,0.0,0.8
63.0,9.0,wc_9,,0.0,,,,0.0,,,,Pass,,,,,
63.0,9.0,wc_9,wc_10,0.0,"[('wc_10', 0.9900000000000008), ('wc_9', 0.8300000000000006)]",0.9983000000000002,,,40.0,0.00418,['Pass'],Pass,0.9900000000000008,-0.8233333333333341,0.0,0.0,1.0
63.0,9.0,wc_9,,0.0,,,,0.0,,,,Pass,,,,,
63.0,9.0,wc_9,wc_11,1.0,"[('wc_11', 0.3800000000000002), ('wc_9', 0.8300000000000006), ('wc_10', 0.9900000000000008)]",0.9989460000000001,,,24.0,0.03828099999999999,['Pass'],Pass,0.3800000000000002,-0.2688888888888891,0.0,0.0,0.3
66.0,8.0,wc_8,,0.0,,,,61.0,,,,Fail,,,,,
66.0,8.0,wc_8,,0.0,,,53.0,,,,,Fail,,,,,
66.0,8.0,wc_8,,0.0,,,,0.0,,,,Fail,,,,,
66.0,8.0,wc_8,wc_8,0.0,"[('wc_8', 0.4400000000000003)]",0.4400000000000003,,,34.0,0.002254,['Fail'],Fail,0.4400000000000003,-0.4400000000000003,0.0,2.0,0.3
66.0,8.0,wc_8,,0.0,,,,0.0,,,,Fail,,,,,
66.0,8.0,wc_8,wc_9,0.0,"[('wc_9', 0.8300000000000006)]",0.8300000000000006,,,27.0,0.004375,['Pass'],Fail,0.8300000000000006,0.16999999999999937,1.0,1.0,0.8
66.0,8.0,wc_8,,0.0,,,,0.0,,,,Fail,,,,,
66.0,8.0,wc_8,wc_10,0.0,"[('wc_10', 0.9900000000000008), ('wc_8', 0.4400000000000003)]",0.9944000000000004,,,36.0,0.007049000000000001,['Fail'],Fail,0.9900000000000008,0.009999999999999232,1.0,1.0,1.0
66.0,8.0,wc_8,,0.0,,,,0.0,,,,Fail,,,,,
66.0,8.0,wc_8,wc_11,1.0,"[('wc_11', 0.3800000000000002), ('wc_8', 0.4400000000000003), ('wc_10', 0.9900000000000008)]",0.9965280000000003,,,23.0,0.04761,['Fail'],Fail,0.3800000000000002,0.6199999999999998,1.0,1.0,0.3
70.0,8.0,wc_8,,0.0,,,,61.0,,,,Fail,,,,,
70.0,8.0,wc_8,,0.0,,,51.0,,,,,Fail,,,,,
70.0,8.0,wc_8,,0.0,,,,0.0,,,,Fail,,,,,
70.0,8.0,wc_8,wc_8,0.0,"[('wc_8', 0.4400000000000003)]",0.4400000000000003,,,24.0,0.002194,['Fail'],Fail,0.4400000000000003,-0.10666666666666696,1.0,3.0,0.3
70.0,8.0,wc_8,,0.0,,,,0.0,,,,Fail,,,,,
70.0,8.0,wc_8,wc_9,0.0,"[('wc_9', 0.8300000000000006), ('wc_8', 0.4400000000000003)]",0.9048000000000004,,,21.0,0.010131,['Fail'],Fail,0.8300000000000006,-0.3300000000000006,1.0,2.0,0.8
70.0,8.0,wc_8,,0.0,,,,0.0,,,,Fail,,,,,
70.0,8.0,wc_8,wc_10,1.0,"[('wc_10', 0.9900000000000008), ('wc_8', 0.4400000000000003), ('wc_9', 0.8300000000000006)]",0.999048,,,26.0,0.042506,['Fail'],Fail,0.9900000000000008,0.009999999999999232,3.0,3.0,1.0
75.0,8.0,wc_8,,0.0,,,,81.0,,,,Pass,,,,,
75.0,8.0,wc_8,,0.0,,,54.0,,,,,Pass,,,,,
75.0,8.0,wc_8,,0.0,,,,0.0,,,,Pass,,,,,
75.0,8.0,wc_8,wc_8,0.0,"[('wc_8', 0.4400000000000003)]",0.4400000000000003,,,29.0,0.002103,['Fail'],Pass,0.4400000000000003,0.05999999999999972,2.0,4.0,0.3
75.0,8.0,wc_8,,0.0,,,,0.0,,,,Pass,,,,,
75.0,8.0,wc_8,wc_9,0.0,"[('wc_9', 0.8300000000000006)]",0.8300000000000006,,,29.0,0.004437,['Pass'],Pass,0.8300000000000006,-0.163333333333334,2.0,3.0,0.8
75.0,8.0,wc_8,,0.0,,,,0.0,,,,Pass,,,,,
75.0,8.0,wc_8,wc_10,0.0,"[('wc_10', 0.9900000000000008), ('wc_9', 0.8300000000000006)]",0.9983000000000002,,,26.0,0.007005,['Pass'],Pass,0.9900000000000008,0.009999999999999232,3.0,3.0,1.0
75.0,8.0,wc_8,,0.0,,,,0.0,,,,Pass,,,,,
75.0,8.0,wc_8,wc_11,1.0,"[('wc_11', 0.3800000000000002), ('wc_9', 0.8300000000000006), ('wc_10', 0.9900000000000008)]",0.9989460000000001,,,28.0,0.05278000000000001,['Pass'],Pass,0.3800000000000002,0.2866666666666664,2.0,3.0,0.3
80.0,10.0,wc_10,,0.0,,,,103.0,,,,Pass,,,,,
80.0,10.0,wc_10,,0.0,,,54.0,,,,,Pass,,,,,
80.0,10.0,wc_10,,0.0,,,,0.0,,,,Pass,,,,,
80.0,10.0,wc_10,wc_10,0.0,"[('wc_10', 0.9900000000000008)]",0.9900000000000008,,,31.0,0.002735,['Pass'],Pass,0.9900000000000008,0.009999999999999232,4.0,4.0,1.0
80.0,10.0,wc_10,,0.0,,,,0.0,,,,Pass,,,,,
80.0,10.0,wc_10,wc_11,0.0,"[('wc_11', 0.3800000000000002), ('wc_10', 0.9900000000000008)]",0.9938000000000005,,,23.0,0.004232,['Pass'],Pass,0.3800000000000002,0.2866666666666664,2.0,3.0,0.3
80.0,10.0,wc_10,,0.0,,,,21.0,,,,Pass,,,,,
80.0,10.0,wc_10,wc_6,1.0,"[('wc_6', 0.8600000000000007), ('wc_10', 0.9900000000000008), ('wc_11', 0.3800000000000002)]",0.999132,,,31.0,0.037056000000000006,['Pass'],Pass,0.8600000000000007,-0.4314285714285721,3.0,7.0,0.7
85.0,7.0,wc_7,,0.0,,,,0.0,,,,Pass,,,,,
85.0,7.0,wc_7,,0.0,,,74.0,,,,,Pass,,,,,
85.0,7.0,wc_7,,0.0,,,,0.0,,,,Pass,,,,,
85.0,7.0,wc_7,wc_7,0.0,"[('wc_7', 0.7200000000000005)]",0.7200000000000005,,,27.0,0.003265,['Pass'],Pass,0.7200000000000005,-0.43428571428571483,2.0,7.0,0.6
85.0,7.0,wc_7,,0.0,,,,0.0,,,,Pass,,,,,
85.0,7.0,wc_7,wc_8,0.0,"[('wc_7', 0.7200000000000005)]",0.7200000000000005,,,32.0,0.004228,['Pass'],Pass,0.4400000000000003,-0.10666666666666696,2.0,6.0,0.3
85.0,7.0,wc_7,,0.0,,,,0.0,,,,Pass,,,,,
85.0,7.0,wc_7,wc_9,0.0,"[('wc_9', 0.8300000000000006), ('wc_8', 0.4400000000000003)]",0.9048000000000004,,,20.0,0.0057669999999999996,['Fail'],Pass,0.8300000000000006,-0.23000000000000065,3.0,5.0,0.8
85.0,7.0,wc_7,,0.0,,,,0.0,,,,Pass,,,,,
85.0,7.0,wc_7,wc_10,0.0,"[('wc_10', 0.9900000000000008), ('wc_7', 0.7200000000000005)]",0.9972000000000002,,,31.0,0.008654,['Pass'],Pass,0.9900000000000008,0.009999999999999232,5.0,5.0,1.0
85.0,7.0,wc_7,,0.0,,,,0.0,,,,Pass,,,,,
85.0,7.0,wc_7,wc_11,0.0,"[('wc_7', 0.7200000000000005), ('wc_10', 0.9900000000000008)]",0.9972000000000002,,,26.0,0.01029,['Pass'],Pass,0.3800000000000002,0.3699999999999998,3.0,4.0,0.3
85.0,7.0,wc_7,,0.0,,,,21.0,,,,Pass,,,,,
85.0,7.0,wc_7,wc_6,1.0,"[('wc_6', 0.8600000000000007), ('wc_7', 0.7200000000000005), ('wc_10', 0.9900000000000008)]",0.999608,,,29.0,0.045592999999999995,['Pass'],Pass,0.8600000000000007,-0.36000000000000065,4.0,8.0,0.7
89.0,11.0,wc_11,,0.0,,,,0.0,,,,Pass,,,,,
89.0,11.0,wc_11,,0.0,,,57.0,,,,,Pass,,,,,
89.0,11.0,wc_11,,0.0,,,,0.0,,,,Pass,,,,,
89.0,11.0,wc_11,wc_11,0.0,"[('wc_11', 0.3800000000000002)]",0.3800000000000002,,,22.0,0.002287,['Fail'],Pass,0.3800000000000002,0.21999999999999975,3.0,5.0,0.3
89.0,11.0,wc_11,,0.0,,,,21.0,,,,Pass,,,,,
89.0,11.0,wc_11,wc_6,0.0,"[('wc_6', 0.8600000000000007)]",0.8600000000000007,,,32.0,0.0055,['Pass'],Pass,0.8600000000000007,-0.36000000000000065,4.0,8.0,0.7
89.0,11.0,wc_11,,0.0,,,,0.0,,,,Pass,,,,,
89.0,11.0,wc_11,wc_7,0.0,"[('wc_6', 0.8600000000000007)]",0.8600000000000007,,,23.0,0.006574,['Pass'],Pass,0.7200000000000005,-0.34500000000000053,3.0,8.0,0.6
89.0,11.0,wc_11,,0.0,,,,0.0,,,,Pass,,,,,
89.0,11.0,wc_11,wc_8,1.0,"[('wc_8', 0.4400000000000003), ('wc_11', 0.3800000000000002), ('wc_7', 0.7200000000000005)]",0.9027840000000003,,,24.0,0.040155,['Fail'],Pass,0.4400000000000003,-0.06500000000000028,3.0,8.0,0.3
94.0,12.0,wc_12,,0.0,,,,122.0,,,,Pass,,,,,
94.0,12.0,wc_12,,0.0,,,79.0,,,,,Pass,,,,,
94.0,12.0,wc_12,,0.0,,,,0.0,,,,Pass,,,,,
94.0,12.0,wc_12,wc_12,0.0,"[('wc_12', 0.18)]",0.17999999999999994,,,29.0,0.002738,['Fail'],Pass,0.18,-0.06888888888888889,0.0,0.0,0.1
94.0,12.0,wc_12,,0.0,,,,0.0,,,,Pass,,,,,
94.0,12.0,wc_12,wc_13,0.0,"[('wc_13', 0.3500000000000002)]",0.3500000000000002,,,34.0,0.004246,['Pass'],Pass,0.3500000000000002,-0.20185185185185206,0.0,0.0,0.2
94.0,12.0,wc_12,,0.0,,,,0.0,,,,Pass,,,,,
94.0,12.0,wc_12,wc_14,0.0,"[('wc_14', 0.2200000000000001), ('wc_12', 0.18)]",0.36040000000000005,,,27.0,0.007657000000000001,['Fail'],Pass,0.2200000000000001,-0.10888888888888901,0.0,0.0,0.2
94.0,12.0,wc_12,,0.0,,,,0.0,,,,Pass,,,,,
94.0,12.0,wc_12,wc_15,0.0,"[('wc_15', 0.3700000000000002), ('wc_13', 0.3500000000000002)]",0.5905000000000002,,,35.0,0.01005,['Pass'],Pass,0.3700000000000002,-0.2588888888888891,0.0,0.0,0.2
94.0,12.0,wc_12,,0.0,,,,0.0,,,,Pass,,,,,
94.0,12.0,wc_12,wc_16,0.0,"[('wc_16', 0.1900000000000001), ('wc_13', 0.3500000000000002), ('wc_15', 0.3700000000000002)]",0.6683050000000003,,,22.0,0.011297999999999999,['Pass'],Pass,0.1900000000000001,0.1433333333333332,0.0,0.0,0.1
94.0,12.0,wc_12,,0.0,,,,0.0,,,,Pass,,,,,
94.0,12.0,wc_12,wc_17,1.0,"[('wc_17', 0.9900000000000008), ('wc_13', 0.3500000000000002), ('wc_15', 0.3700000000000002), ('wc_16', 0.1900000000000001)]",0.9966830500000002,,,20.0,0.048637,['Pass'],Pass,0.9900000000000008,-0.6566666666666674,0.0,0.0,0.9
100.0,13.0,wc_13,,0.0,,,,41.0,,,,Fail,,,,,
100.0,13.0,wc_13,,0.0,,,67.0,,,,,Fail,,,,,
100.0,13.0,wc_13,,0.0,,,,0.0,,,,Fail,,,,,
100.0,13.0,wc_13,wc_13,0.0,"[('wc_13', 0.3500000000000002)]",0.3500000000000002,,,32.0,0.002144,['Pass'],Fail,0.3500000000000002,0.6499999999999998,1.0,1.0,0.2
100.0,13.0,wc_13,,0.0,,,,0.0,,,,Fail,,,,,
100.0,13.0,wc_13,wc_14,0.0,"[('wc_13', 0.3500000000000002)]",0.3500000000000002,,,31.0,0.003882,['Pass'],Fail,0.2200000000000001,-0.2200000000000001,0.0,1.0,0.2
100.0,13.0,wc_13,,0.0,,,,0.0,,,,Fail,,,,,
100.0,13.0,wc_13,wc_15,0.0,"[('wc_15', 0.3700000000000002), ('wc_14', 0.2200000000000001)]",0.5086000000000002,,,33.0,0.006327,['Fail'],Fail,0.3700000000000002,0.6299999999999998,1.0,1.0,0.2
100.0,13.0,wc_13,,0.0,,,,0.0,,,,Fail,,,,,
100.0,13.0,wc_13,wc_16,0.0,"[('wc_14', 0.2200000000000001), ('wc_15', 0.3700000000000002)]",0.5086000000000002,,,37.0,0.009460000000000001,['Fail'],Fail,0.1900000000000001,0.8099999999999998,1.0,1.0,0.1
100.0,13.0,wc_13,,0.0,,,,0.0,,,,Fail,,,,,
100.0,13.0,wc_13,wc_17,1.0,"[('wc_17', 0.9900000000000008), ('wc_14', 0.2200000000000001), ('wc_15', 0.3700000000000002)]",0.9950860000000004,,,25.0,0.05153,['Fail'],Fail,0.9900000000000008,0.009999999999999232,1.0,1.0,0.9
107.0,13.0,wc_13,,0.0,,,,41.0,,,,Fail,,,,,
107.0,13.0,wc_13,,0.0,,,57.0,,,,,Fail,,,,,
107.0,13.0,wc_13,,0.0,,,,0.0,,,,Fail,,,,,
107.0,13.0,wc_13,wc_13,0.0,"[('wc_13', 0.3500000000000002)]",0.3500000000000002,,,25.0,0.002168,['Pass'],Fail,0.3500000000000002,0.1499999999999998,1.0,2.0,0.2
107.0,13.0,wc_13,,0.0,,,,0.0,,,,Fail,,,,,
107.0,13.0,wc_13,wc_14,0.0,"[('wc_13', 0.3500000000000002)]",0.3500000000000002,,,27.0,0.00424,['Pass'],Fail,0.2200000000000001,0.2799999999999999,1.0,2.0,0.2
107.0,13.0,wc_13,,0.0,,,,0.0,,,,Fail,,,,,
107.0,13.0,wc_13,wc_15,0.0,"[('wc_15', 0.3700000000000002), ('wc_13', 0.3500000000000002)]",0.5905000000000002,,,24.0,0.006385,['Pass'],Fail,0.3700000000000002,0.6299999999999998,2.0,2.0,0.2
107.0,13.0,wc_13,,0.0,,,,0.0,,,,Fail,,,,,
107.0,13.0,wc_13,wc_16,0.0,"[('wc_16', 0.1900000000000001), ('wc_13', 0.3500000000000002), ('wc_15', 0.3700000000000002)]",0.6683050000000003,,,25.0,0.010881,['Pass'],Fail,0.1900000000000001,0.3099999999999999,1.0,2.0,0.1
107.0,13.0,wc_13,,0.0,,,,0.0,,,,Fail,,,,,
107.0,13.0,wc_13,wc_17,0.0,"[('wc_17', 0.9900000000000008), ('wc_14', 0.2200000000000001)]",0.9922000000000006,,,30.0,0.011227000000000001,['Fail'],Fail,0.9900000000000008,0.009999999999999232,1.0,1.0,0.9
107.0,13.0,wc_13,,0.0,,,,21.0,,,,Fail,,,,,
107.0,13.0,wc_13,wc_12,0.0,"[('wc_14', 0.2200000000000001), ('wc_17', 0.9900000000000008)]",0.9922000000000006,,,28.0,0.012792000000000001,['Fail'],Fail,0.18,-0.18,0.0,2.0,0.1
107.0,13.0,wc_13,,0.0,,,,182.0,,,,Fail,,,,,
107.0,13.0,wc_13,wc_6,1.0,"[('wc_6', 0.8600000000000007), ('wc_14', 0.2200000000000001), ('wc_17', 0.9900000000000008)]",0.9989080000000001,,,23.0,0.048427000000000005,['Fail'],Fail,0.8600000000000007,-0.44333333333333397,0.0,0.0,0.7
114.0,13.0,wc_13,,0.0,,,,182.0,,,,Fail,,,,,
114.0,13.0,wc_13,,0.0,,,77.0,,,,,Fail,,,,,
114.0,13.0,wc_13,,0.0,,,,0.0,,,,Fail,,,,,
114.0,13.0,wc_13,wc_13,0.0,"[('wc_13', 0.3500000000000002)]",0.3500000000000002,,,29.0,0.002307,['Fail'],Fail,0.3500000000000002,-0.016666666666666885,1.0,3.0,0.2
114.0,13.0,wc_13,,0.0,,,,0.0,,,,Fail,,,,,
114.0,13.0,wc_13,wc_14,0.0,"[('wc_14', 0.2200000000000001), ('wc_13', 0.3500000000000002)]",0.4930000000000002,,,24.0,0.00447,['Fail'],Fail,0.2200000000000001,0.44666666666666655,2.0,3.0,0.2
114.0,13.0,wc_13,,0.0,,,,0.0,,,,Fail,,,,,
114.0,13.0,wc_13,wc_15,0.0,"[('wc_15', 0.3700000000000002), ('wc_13', 0.3500000000000002), ('wc_14', 0.2200000000000001)]",0.6805900000000003,,,26.0,0.008487000000000001,['Fail'],Fail,0.3700000000000002,0.2966666666666664,2.0,3.0,0.2
114.0,13.0,wc_13,,0.0,,,,0.0,,,,Fail,,,,,
114.0,13.0,wc_13,wc_16,0.0,"[('wc_13', 0.3500000000000002), ('wc_14', 0.2200000000000001), ('wc_15', 0.3700000000000002)]",0.6805900000000003,,,21.0,0.0074979999999999995,['Fail'],Fail,0.1900000000000001,0.1433333333333332,1.0,3.0,0.1
114.0,13.0,wc_13,,0.0,,,,0.0,,,,Fail,,,,,
114.0,13.0,wc_13,wc_17,1.0,"[('wc_17', 0.9900000000000008), ('wc_13', 0.3500000000000002), ('wc_14', 0.2200000000000001), ('wc_15', 0.3700000000000002)]",0.9968059000000002,,,26.0,0.044731,['Fail'],Fail,0.9900000000000008,0.009999999999999232,3.0,3.0,0.9
119.0,13.0,wc_13,,0.0,,,,41.0,,,,Pass,,,,,
119.0,13.0,wc_13,,0.0,,,64.0,,,,,Pass,,,,,
119.0,13.0,wc_13,,0.0,,,,0.0,,,,Pass,,,,,
119.0,13.0,wc_13,wc_13,0.0,"[('wc_13', 0.3500000000000002)]",0.3500000000000002,,,26.0,0.002316,['Pass'],Pass,0.3500000000000002,0.1499999999999998,2.0,4.0,0.2
119.0,13.0,wc_13,,0.0,,,,0.0,,,,Pass,,,,,
119.0,13.0,wc_13,wc_14,0.0,"[('wc_13', 0.3500000000000002)]",0.3500000000000002,,,30.0,0.003845,['Pass'],Pass,0.2200000000000001,0.5299999999999999,3.0,4.0,0.2
119.0,13.0,wc_13,,0.0,,,,0.0,,,,Pass,,,,,
119.0,13.0,wc_13,wc_15,0.0,"[('wc_15', 0.3700000000000002), ('wc_14', 0.2200000000000001)]",0.5086000000000002,,,37.0,0.006229,['Fail'],Pass,0.3700000000000002,0.3799999999999998,3.0,4.0,0.2
119.0,13.0,wc_13,,0.0,,,,0.0,,,,Pass,,,,,
119.0,13.0,wc_13,wc_16,0.0,"[('wc_16', 0.1900000000000001), ('wc_14', 0.2200000000000001), ('wc_15', 0.3700000000000002)]",0.6019660000000002,,,20.0,0.007888,['Fail'],Pass,0.1900000000000001,0.05999999999999989,1.0,4.0,0.1
119.0,13.0,wc_13,,0.0,,,,0.0,,,,Pass,,,,,
119.0,13.0,wc_13,wc_17,0.0,"[('wc_17', 0.9900000000000008), ('wc_13', 0.3500000000000002)]",0.9935000000000005,,,35.0,0.010895,['Pass'],Pass,0.9900000000000008,0.009999999999999232,3.0,3.0,0.9
119.0,13.0,wc_13,,0.0,,,,21.0,,,,Pass,,,,,
119.0,13.0,wc_13,wc_12,0.0,"[('wc_13', 0.3500000000000002), ('wc_17', 0.9900000000000008)]",0.9935000000000005,,,28.0,0.011236000000000001,['Pass'],Pass,0.18,-0.18,0.0,4.0,0.1
119.0,13.0,wc_13,,0.0,,,,182.0,,,,Pass,,,,,
119.0,13.0,wc_13,wc_6,1.0,"[('wc_6', 0.8600000000000007), ('wc_13', 0.3500000000000002), ('wc_17', 0.9900000000000008)]",0.99909,,,38.0,0.050954000000000006,['Pass'],Pass,0.8600000000000007,-0.36000000000000065,1.0,2.0,0.7
122.0,15.0,wc_15,,0.0,,,,223.0,,,,Fail,,,,,
122.0,15.0,wc_15,,0.0,,,50.0,,,,,Fail,,,,,
122.0,15.0,wc_15,,0.0,,,,0.0,,,,Fail,,,,,
122.0,15.0,wc_15,wc_15,0.0,"[('wc_15', 0.3700000000000002)]",0.3700000000000002,,,20.0,0.002228,['Fail'],Fail,0.3700000000000002,0.22999999999999976,3.0,5.0,0.2
122.0,15.0,wc_15,,0.0,,,,0.0,,,,Fail,,,,,
122.0,15.0,wc_15,wc_16,0.0,"[('wc_15', 0.3700000000000002)]",0.3700000000000002,,,34.0,0.0056749999999999995,['Fail'],Fail,0.1900000000000001,0.009999999999999898,1.0,5.0,0.1
122.0,15.0,wc_15,,0.0,,,,0.0,,,,Fail,,,,,
122.0,15.0,wc_15,wc_17,0.0,"[('wc_17', 0.9900000000000008), ('wc_15', 0.3700000000000002)]",0.9937000000000005,,,37.0,0.005751,['Fail'],Fail,0.9900000000000008,0.009999999999999232,4.0,4.0,0.9
122.0,15.0,wc_15,,0.0,,,,21.0,,,,Fail,,,,,
122.0,15.0,wc_15,wc_12,1.0,"[('wc_12', 0.18), ('wc_15', 0.3700000000000002), ('wc_17', 0.9900000000000008)]",0.9948340000000004,,,40.0,0.04642999999999999,['Fail'],Fail,0.18,-0.013333333333333336,1.0,6.0,0.1
126.0,16.0,wc_16,,0.0,,,,0.0,,,,Fail,,,,,
126.0,16.0,wc_16,,0.0,,,76.0,,,,,Fail,,,,,
126.0,16.0,wc_16,,0.0,,,,0.0,,,,Fail,,,,,
126.0,16.0,wc_16,wc_16,0.0,"[('wc_16', 0.1900000000000001)]",0.19000000000000017,,,37.0,0.002195,['Pass'],Fail,0.1900000000000001,-0.023333333333333456,1.0,6.0,0.1
126.0,16.0,wc_16,,0.0,,,,0.0,,,,Fail,,,,,
126.0,16.0,wc_16,wc_17,0.0,"[('wc_17', 0.9900000000000008), ('wc_16', 0.1900000000000001)]",0.9919000000000007,,,29.0,0.004828,['Pass'],Fail,0.9900000000000008,0.009999999999999232,5.0,5.0,0.9
126.0,16.0,wc_16,,0.0,,,,21.0,,,,Fail,,,,,
126.0,16.0,wc_16,wc_12,1.0,"[('wc_12', 0.18), ('wc_16', 0.1900000000000001), ('wc_17', 0.9900000000000008)]",0.9933580000000005,,,37.0,0.047738,['Pass'],Fail,0.18,0.1057142857142857,2.0,7.0,0.1
130.0,16.0,wc_16,,0.0,,,,0.0,,,,Pass,,,,,
130.0,16.0,wc_16,,0.0,,,50.0,,,,,Pass,,,,,
130.0,16.0,wc_16,,0.0,,,,0.0,,,,Pass,,,,,
130.0,16.0,wc_16,wc_16,0.0,"[('wc_16', 0.1900000000000001)]",0.19000000000000017,,,24.0,0.002657,['Pass'],Pass,0.1900000000000001,0.09571428571428559,2.0,7.0,0.1
130.0,16.0,wc_16,,0.0,,,,0.0,,,,Pass,,,,,
130.0,16.0,wc_16,wc_17,0.0,"[('wc_17', 0.9900000000000008), ('wc_16', 0.1900000000000001)]",0.9919000000000007,,,28.0,0.00425,['Pass'],Pass,0.9900000000000008,0.009999999999999232,6.0,6.0,0.9
130.0,16.0,wc_16,,0.0,,,,21.0,,,,Pass,,,,,
130.0,16.0,wc_16,wc_12,1.0,"[('wc_12', 0.18), ('wc_16', 0.1900000000000001), ('wc_17', 0.9900000000000008)]",0.9933580000000005,,,26.0,0.05911099999999999,['Pass'],Pass,0.18,0.195,3.0,8.0,0.1
134.0,14.0,wc_14,,0.0,,,,0.0,,,,Fail,,,,,
134.0,14.0,wc_14,,0.0,,,60.0,,,,,Fail,,,,,
134.0,14.0,wc_14,,0.0,,,,0.0,,,,Fail,,,,,
134.0,14.0,wc_14,wc_14,0.0,"[('wc_14', 0.2200000000000001)]",0.22000000000000008,,,23.0,0.00254,['Pass'],Fail,0.2200000000000001,0.1549999999999999,3.0,8.0,0.2
134.0,14.0,wc_14,,0.0,,,,0.0,,,,Fail,,,,,
134.0,14.0,wc_14,wc_15,0.0,"[('wc_15', 0.3700000000000002), ('wc_14', 0.2200000000000001)]",0.5086000000000002,,,33.0,0.004269,['Pass'],Fail,0.3700000000000002,0.12999999999999978,4.0,8.0,0.2
134.0,14.0,wc_14,,0.0,,,,0.0,,,,Fail,,,,,
134.0,14.0,wc_14,wc_16,0.0,"[('wc_16', 0.1900000000000001), ('wc_14', 0.2200000000000001), ('wc_15', 0.3700000000000002)]",0.6019660000000002,,,27.0,0.007438999999999999,['Pass'],Fail,0.1900000000000001,0.1849999999999999,3.0,8.0,0.1
134.0,14.0,wc_14,,0.0,,,,0.0,,,,Fail,,,,,
134.0,14.0,wc_14,wc_17,0.0,"[('wc_17', 0.9900000000000008)]",0.9900000000000008,,,39.0,0.010145999999999999,['Fail'],Fail,0.9900000000000008,0.009999999999999232,7.0,7.0,0.9
134.0,14.0,wc_14,,0.0,,,,21.0,,,,Fail,,,,,
134.0,14.0,wc_14,wc_12,0.0,"[('wc_17', 0.9900000000000008)]",0.9900000000000008,,,34.0,0.009214,['Fail'],Fail,0.18,0.195,3.0,8.0,0.1
134.0,14.0,wc_14,,0.0,,,,0.0,,,,Fail,,,,,
134.0,14.0,wc_14,wc_13,0.0,"[('wc_13', 0.3500000000000002), ('wc_17', 0.9900000000000008)]",0.9935000000000005,,,26.0,0.011224,['Fail'],Fail,0.3500000000000002,0.0249999999999998,3.0,8.0,0.2
134.0,14.0,wc_14,,0.0,,,,162.0,,,,Fail,,,,,
134.0,14.0,wc_14,wc_6,1.0,"[('wc_6', 0.8600000000000007), ('wc_17', 0.9900000000000008), ('wc_13', 0.3500000000000002)]",0.99909,,,20.0,0.05476299999999999,['Fail'],Fail,0.8600000000000007,-0.5266666666666673,2.0,6.0,0.7
136.0,15.0,wc_15,,0.0,,,,223.0,,,,Pass,,,,,
136.0,15.0,wc_15,,0.0,,,58.0,,,,,Pass,,,,,
136.0,15.0,wc_15,,0.0,,,,0.0,,,,Pass,,,,,
136.0,15.0,wc_15,wc_15,0.0,"[('wc_15', 0.3700000000000002)]",0.3700000000000002,,,40.0,0.001987,['Pass'],Pass,0.3700000000000002,0.0744444444444442,4.0,9.0,0.2
136.0,15.0,wc_15,,0.0,,,,0.0,,,,Pass,,,,,
136.0,15.0,wc_15,wc_16,0.0,"[('wc_15', 0.3700000000000002)]",0.3700000000000002,,,31.0,0.004402,['Pass'],Pass,0.1900000000000001,0.1433333333333332,3.0,9.0,0.1
136.0,15.0,wc_15,,0.0,,,,0.0,,,,Pass,,,,,
136.0,15.0,wc_15,wc_17,0.0,"[('wc_17', 0.9900000000000008), ('wc_15', 0.3700000000000002)]",0.9937000000000005,,,39.0,0.0058,['Pass'],Pass,0.9900000000000008,0.009999999999999232,8.0,8.0,0.9
136.0,15.0,wc_15,,0.0,,,,21.0,,,,Pass,,,,,
136.0,15.0,wc_15,wc_12,1.0,"[('wc_12', 0.18), ('wc_15', 0.3700000000000002), ('wc_17', 0.9900000000000008)]",0.9948340000000004,,,23.0,0.050095,['Pass'],Pass,0.18,0.22000000000000003,0.0,0.0,0.1
142.0,14.0,wc_14,,0.0,,,,0.0,,,,Fail,,,,,
142.0,14.0,wc_14,,0.0,,,80.0,,,,,Fail,,,,,
142.0,14.0,wc_14,,0.0,,,,0.0,,,,Fail,,,,,
142.0,14.0,wc_14,wc_14,0.0,"[('wc_14', 0.2200000000000001)]",0.22000000000000008,,,23.0,0.002265,['Fail'],Fail,0.2200000000000001,0.07999999999999988,0.0,0.0,0.2
142.0,14.0,wc_14,,0.0,,,,0.0,,,,Fail,,,,,
142.0,14.0,wc_14,wc_15,0.0,"[('wc_15', 0.3700000000000002), ('wc_14', 0.2200000000000001)]",0.5086000000000002,,,39.0,0.004674,['Fail'],Fail,0.3700000000000002,0.12999999999999978,0.0,0.0,0.2
142.0,14.0,wc_14,,0.0,,,,0.0,,,,Fail,,,,,
142.0,14.0,wc_14,wc_16,0.0,"[('wc_14', 0.2200000000000001), ('wc_15', 0.3700000000000002)]",0.5086000000000002,,,38.0,0.007285999999999999,['Fail'],Fail,0.1900000000000001,0.10999999999999988,0.0,0.0,0.1
142.0,14.0,wc_14,,0.0,,,,0.0,,,,Fail,,,,,
142.0,14.0,wc_14,wc_17,1.0,"[('wc_17', 0.9900000000000008), ('wc_14', 0.2200000000000001), ('wc_15', 0.3700000000000002)]",0.9950860000000004,,,32.0,0.05103099999999999,['Fail'],Fail,0.9900000000000008,0.009999999999999232,0.0,0.0,0.9
145.0,14.0,wc_14,,0.0,,,,61.0,,,,Fail,,,,,
145.0,14.0,wc_14,,0.0,,,72.0,,,,,Fail,,,,,
145.0,14.0,wc_14,,0.0,,,,0.0,,,,Fail,,,,,
145.0,14.0,wc_14,wc_14,0.0,"[('wc_14', 0.2200000000000001)]",0.22000000000000008,,,29.0,0.002125,['Pass'],Fail,0.2200000000000001,0.7799999999999999,1.0,1.0,0.2
145.0,14.0,wc_14,,0.0,,,,0.0,,,,Fail,,,,,
145.0,14.0,wc_14,wc_15,0.0,"[('wc_15', 0.3700000000000002)]",0.3700000000000002,,,23.0,0.005161000000000001,['Fail'],Fail,0.3700000000000002,0.6299999999999998,1.0,1.0,0.2
145.0,14.0,wc_14,,0.0,,,,0.0,,,,Fail,,,,,
145.0,14.0,wc_14,wc_16,0.0,"[('wc_16', 0.1900000000000001), ('wc_15', 0.3700000000000002)]",0.48970000000000025,,,40.0,0.006634000000000001,['Fail'],Fail,0.1900000000000001,-0.1900000000000001,0.0,1.0,0.1
145.0,14.0,wc_14,,0.0,,,,0.0,,,,Fail,,,,,
145.0,14.0,wc_14,wc_17,1.0,"[('wc_17', 0.9900000000000008), ('wc_15', 0.3700000000000002), ('wc_16', 0.1900000000000001)]",0.9948970000000004,,,23.0,0.050036,['Fail'],Fail,0.9900000000000008,0.009999999999999232,1.0,1.0,0.9
148.0,14.0,wc_14,,0.0,,,,61.0,,,,Pass,,,,,
148.0,14.0,wc_14,,0.0,,,74.0,,,,,Pass,,,,,
148.0,14.0,wc_14,,0.0,,,,0.0,,,,Pass,,,,,
148.0,14.0,wc_14,wc_14,0.0,"[('wc_14', 0.2200000000000001)]",0.22000000000000008,,,38.0,0.002207,['Fail'],Pass,0.2200000000000001,0.2799999999999999,1.0,2.0,0.2
148.0,14.0,wc_14,,0.0,,,,0.0,,,,Pass,,,,,
148.0,14.0,wc_14,wc_15,0.0,"[('wc_15', 0.3700000000000002)]",0.3700000000000002,,,28.0,0.004963,['Pass'],Pass,0.3700000000000002,0.6299999999999998,2.0,2.0,0.2
148.0,14.0,wc_14,,0.0,,,,0.0,,,,Pass,,,,,
148.0,14.0,wc_14,wc_16,0.0,"[('wc_16', 0.1900000000000001), ('wc_15', 0.3700000000000002)]",0.48970000000000025,,,33.0,0.006085,['Pass'],Pass,0.1900000000000001,0.3099999999999999,1.0,2.0,0.1
148.0,14.0,wc_14,,0.0,,,,0.0,,,,Pass,,,,,
148.0,14.0,wc_14,wc_17,1.0,"[('wc_17', 0.9900000000000008), ('wc_15', 0.3700000000000002), ('wc_16', 0.1900000000000001)]",0.9948970000000004,,,38.0,0.04663,['Pass'],Pass,0.9900000000000008,0.009999999999999232,2.0,2.0,0.9
150.0,17.0,wc_17,,0.0,,,,0.0,,,,Pass,,,,,
150.0,17.0,wc_17,,0.0,,,70.0,,,,,Pass,,,,,
150.0,17.0,wc_17,,0.0,,,,0.0,,,,Pass,,,,,
150.0,17.0,wc_17,wc_17,0.0,"[('wc_17', 0.9900000000000008)]",0.9900000000000008,,,20.0,0.002542,['Pass'],Pass,0.9900000000000008,0.009999999999999232,2.0,2.0,0.9
150.0,17.0,wc_17,,0.0,,,,21.0,,,,Pass,,,,,
150.0,17.0,wc_17,wc_12,0.0,"[('wc_17', 0.9900000000000008)]",0.9900000000000008,,,24.0,0.0044150000000000005,['Pass'],Pass,0.18,-0.18,0.0,3.0,0.1
150.0,17.0,wc_17,,0.0,,,,0.0,,,,Pass,,,,,
150.0,17.0,wc_17,wc_13,0.0,"[('wc_13', 0.3500000000000002), ('wc_17', 0.9900000000000008)]",0.9935000000000005,,,28.0,0.005842,['Pass'],Pass,0.3500000000000002,-0.04230769230769249,0.0,0.0,0.2
150.0,17.0,wc_17,,0.0,,,,0.0,,,,Pass,,,,,
150.0,17.0,wc_17,wc_14,0.0,"[('wc_17', 0.9900000000000008), ('wc_13', 0.3500000000000002)]",0.9935000000000005,,,26.0,0.008003,['Pass'],Pass,0.2200000000000001,0.1133333333333332,1.0,3.0,0.2
150.0,17.0,wc_17,,0.0,,,,0.0,,,,Pass,,,,,
150.0,17.0,wc_17,wc_15,0.0,"[('wc_17', 0.9900000000000008), ('wc_13', 0.3500000000000002)]",0.9935000000000005,,,30.0,0.020413,['Pass'],Pass,0.3700000000000002,0.6299999999999998,3.0,3.0,0.2
150.0,17.0,wc_17,,0.0,,,,0.0,,,,Pass,,,,,
150.0,17.0,wc_17,wc_16,0.0,"[('wc_17', 0.9900000000000008), ('wc_13', 0.3500000000000002)]",0.9935000000000005,,,30.0,0.016832,['Pass'],Pass,0.1900000000000001,0.4766666666666665,2.0,3.0,0.1
150.0,17.0,wc_17,,0.0,,,,203.0,,,,Pass,,,,,
150.0,17.0,wc_17,wc_6,1.0,"[('wc_6', 0.8600000000000007), ('wc_17', 0.9900000000000008), ('wc_13', 0.3500000000000002)]",0.99909,,,24.0,0.05951700000000001,['Pass'],Pass,0.8600000000000007,-0.587272727272728,0.0,0.0,0.7
