mpecck/BCQC/bcqc_with_qdt/results/raw/input_16/independent_qc/score/5_workpiece/20200429_105837/wp_4_qc_majority_0.9.csv
production_index,step_idx,production_workcell,qc,consent,winner_qc_list,score,production_time,transport_time,inspection_time,network_time,qc_results,actual_quality,qc_score,score_error,in_winner_counter,in_qc_counter,qc_capability
3.0,1.0,wc_1,,0.0,,,59.0,,,,,Pass,,,,,
3.0,1.0,wc_1,,0.0,,,,0.0,,,,Pass,,,,,
3.0,1.0,wc_1,wc_1,0.0,"[('wc_1', 0.7900000000000006)]",0.7900000000000006,,,40.0,0.002368,['Pass'],Pass,0.7900000000000006,-0.5400000000000006,0.0,0.0,0.7
3.0,1.0,wc_1,,0.0,,,,0.0,,,,Pass,,,,,
3.0,1.0,wc_1,wc_2,0.0,"[('wc_2', 0.4300000000000003), ('wc_1', 0.7900000000000006)]",0.8803000000000004,,,37.0,0.011387000000000001,['Pass'],Pass,0.4300000000000003,-0.3362500000000003,0.0,0.0,0.3
3.0,1.0,wc_1,,0.0,,,,0.0,,,,Pass,,,,,
3.0,1.0,wc_1,wc_3,0.0,"[('wc_1', 0.7900000000000006), ('wc_2', 0.4300000000000003)]",0.8803000000000004,,,24.0,0.005814,['Pass'],Pass,0.2900000000000001,-0.1650000000000001,0.0,0.0,0.2
3.0,1.0,wc_1,,0.0,,,,0.0,,,,Pass,,,,,
3.0,1.0,wc_1,wc_4,0.0,"[('wc_1', 0.7900000000000006), ('wc_2', 0.4300000000000003)]",0.8803000000000004,,,29.0,0.007841,['Pass'],Pass,0.6200000000000004,-0.43250000000000044,0.0,0.0,0.5
3.0,1.0,wc_1,,0.0,,,,0.0,,,,Pass,,,,,
3.0,1.0,wc_1,wc_5,1.0,"[('wc_5', 0.6800000000000005), ('wc_1', 0.7900000000000006), ('wc_2', 0.4300000000000003)]",0.9616960000000002,,,24.0,0.039899,['Pass'],Pass,0.6800000000000005,-0.4612500000000005,0.0,0.0,0.5
5.0,4.0,wc_4,,0.0,,,,103.0,,,,Pass,,,,,
5.0,4.0,wc_4,,0.0,,,73.0,,,,,Pass,,,,,
5.0,4.0,wc_4,,0.0,,,,0.0,,,,Pass,,,,,
5.0,4.0,wc_4,wc_4,0.0,"[('wc_4', 0.6200000000000004)]",0.6200000000000004,,,23.0,0.002862,['Pass'],Pass,0.6200000000000004,-0.6200000000000004,0.0,1.0,0.5
5.0,4.0,wc_4,,0.0,,,,0.0,,,,Pass,,,,,
5.0,4.0,wc_4,wc_5,0.0,"[('wc_5', 0.6800000000000005)]",0.6800000000000005,,,36.0,0.0041069999999999995,['Fail'],Pass,0.6800000000000005,-0.6800000000000005,0.0,0.0,0.5
5.0,4.0,wc_4,,0.0,,,,41.0,,,,Pass,,,,,
5.0,4.0,wc_4,wc_1,0.0,"[('wc_1', 0.7900000000000006), ('wc_4', 0.6200000000000004)]",0.9202000000000004,,,25.0,0.006531,['Pass'],Pass,0.7900000000000006,0.2099999999999994,1.0,1.0,0.7
5.0,4.0,wc_4,,0.0,,,,0.0,,,,Pass,,,,,
5.0,4.0,wc_4,wc_2,1.0,"[('wc_2', 0.4300000000000003), ('wc_4', 0.6200000000000004), ('wc_1', 0.7900000000000006)]",0.9545140000000002,,,40.0,0.040584999999999996,['Pass'],Pass,0.4300000000000003,0.5699999999999996,2.0,2.0,0.3
7.0,2.0,wc_2,,0.0,,,,0.0,,,,Pass,,,,,
7.0,2.0,wc_2,,0.0,,,65.0,,,,,Pass,,,,,
7.0,2.0,wc_2,,0.0,,,,0.0,,,,Pass,,,,,
7.0,2.0,wc_2,wc_2,0.0,"[('wc_2', 0.4300000000000003)]",0.4300000000000004,,,29.0,0.002436,['Pass'],Pass,0.4300000000000003,0.5699999999999996,2.0,2.0,0.3
7.0,2.0,wc_2,,0.0,,,,0.0,,,,Pass,,,,,
7.0,2.0,wc_2,wc_3,0.0,"[('wc_2', 0.4300000000000003)]",0.4300000000000004,,,39.0,0.004246,['Pass'],Pass,0.2900000000000001,-0.2900000000000001,0.0,2.0,0.2
7.0,2.0,wc_2,,0.0,,,,0.0,,,,Pass,,,,,
7.0,2.0,wc_2,wc_4,0.0,"[('wc_4', 0.6200000000000004), ('wc_3', 0.2900000000000001)]",0.7302000000000004,,,39.0,0.006621,['Fail'],Pass,0.6200000000000004,-0.12000000000000044,1.0,2.0,0.5
7.0,2.0,wc_2,,0.0,,,,0.0,,,,Pass,,,,,
7.0,2.0,wc_2,wc_5,0.0,"[('wc_5', 0.6800000000000005), ('wc_2', 0.4300000000000003)]",0.8176000000000004,,,36.0,0.007268000000000001,['Pass'],Pass,0.6800000000000005,-0.6800000000000005,0.0,1.0,0.5
7.0,2.0,wc_2,,0.0,,,,41.0,,,,Pass,,,,,
7.0,2.0,wc_2,wc_1,1.0,"[('wc_1', 0.7900000000000006), ('wc_2', 0.4300000000000003), ('wc_5', 0.6800000000000005)]",0.9616960000000002,,,31.0,0.039878,['Pass'],Pass,0.7900000000000006,0.2099999999999994,3.0,3.0,0.7
11.0,3.0,wc_3,,0.0,,,,0.0,,,,Pass,,,,,
11.0,3.0,wc_3,,0.0,,,72.0,,,,,Pass,,,,,
11.0,3.0,wc_3,,0.0,,,,0.0,,,,Pass,,,,,
11.0,3.0,wc_3,wc_3,0.0,"[('wc_3', 0.2900000000000001)]",0.29000000000000004,,,25.0,0.002412,['Fail'],Pass,0.2900000000000001,-0.2900000000000001,0.0,3.0,0.2
11.0,3.0,wc_3,,0.0,,,,0.0,,,,Pass,,,,,
11.0,3.0,wc_3,wc_4,0.0,"[('wc_4', 0.6200000000000004)]",0.6200000000000004,,,34.0,0.006557,['Pass'],Pass,0.6200000000000004,-0.2866666666666671,1.0,3.0,0.5
11.0,3.0,wc_3,,0.0,,,,0.0,,,,Pass,,,,,
11.0,3.0,wc_3,wc_5,0.0,"[('wc_5', 0.6800000000000005), ('wc_4', 0.6200000000000004)]",0.8784000000000003,,,21.0,0.0057209999999999995,['Pass'],Pass,0.6800000000000005,-0.1800000000000005,1.0,2.0,0.5
11.0,3.0,wc_3,,0.0,,,,41.0,,,,Pass,,,,,
11.0,3.0,wc_3,wc_1,1.0,"[('wc_1', 0.7900000000000006), ('wc_4', 0.6200000000000004), ('wc_5', 0.6800000000000005)]",0.9744640000000001,,,36.0,0.038589,['Pass'],Pass,0.7900000000000006,0.2099999999999994,4.0,4.0,0.7
16.0,5.0,wc_5,,0.0,,,,0.0,,,,Pass,,,,,
16.0,5.0,wc_5,,0.0,,,77.0,,,,,Pass,,,,,
16.0,5.0,wc_5,,0.0,,,,0.0,,,,Pass,,,,,
16.0,5.0,wc_5,wc_5,0.0,"[('wc_5', 0.6800000000000005)]",0.6800000000000005,,,30.0,0.002373,['Pass'],Pass,0.6800000000000005,-0.013333333333333863,2.0,3.0,0.5
16.0,5.0,wc_5,,0.0,,,,41.0,,,,Pass,,,,,
16.0,5.0,wc_5,wc_1,0.0,"[('wc_1', 0.7900000000000006), ('wc_5', 0.6800000000000005)]",0.9328000000000003,,,22.0,0.004623,['Pass'],Pass,0.7900000000000006,0.2099999999999994,4.0,4.0,0.7
16.0,5.0,wc_5,,0.0,,,,0.0,,,,Pass,,,,,
16.0,5.0,wc_5,wc_2,1.0,"[('wc_2', 0.4300000000000003), ('wc_5', 0.6800000000000005), ('wc_1', 0.7900000000000006)]",0.9616960000000002,,,39.0,0.040831,['Pass'],Pass,0.4300000000000003,0.3699999999999997,4.0,5.0,0.3
21.0,6.0,wc_6,,0.0,,,,122.0,,,,Fail,,,,,
21.0,6.0,wc_6,,0.0,,,78.0,,,,,Fail,,,,,
21.0,6.0,wc_6,,0.0,,,,0.0,,,,Fail,,,,,
21.0,6.0,wc_6,wc_6,0.0,"[('wc_6', 0.8600000000000007)]",0.8600000000000007,,,23.0,0.002446,['Fail'],Fail,0.8600000000000007,-0.8600000000000007,0.0,5.0,0.7
21.0,6.0,wc_6,,0.0,,,,0.0,,,,Fail,,,,,
21.0,6.0,wc_6,wc_7,0.0,"[('wc_6', 0.8600000000000007)]",0.8600000000000007,,,26.0,0.004319,['Fail'],Fail,0.7200000000000005,-0.5771428571428576,0.0,0.0,0.6
21.0,6.0,wc_6,,0.0,,,,0.0,,,,Fail,,,,,
21.0,6.0,wc_6,wc_8,0.0,"[('wc_6', 0.8600000000000007)]",0.8600000000000007,,,40.0,0.0059629999999999996,['Fail'],Fail,0.4400000000000003,-0.3288888888888892,0.0,0.0,0.3
21.0,6.0,wc_6,,0.0,,,,0.0,,,,Fail,,,,,
21.0,6.0,wc_6,wc_9,0.0,"[('wc_9', 0.8300000000000006), ('wc_6', 0.8600000000000007)]",0.9762000000000002,,,29.0,0.008413,['Fail'],Fail,0.8300000000000006,-0.7146153846153852,0.0,0.0,0.8
21.0,6.0,wc_6,,0.0,,,,0.0,,,,Fail,,,,,
21.0,6.0,wc_6,wc_10,1.0,"[('wc_10', 0.9900000000000008), ('wc_6', 0.8600000000000007), ('wc_9', 0.8300000000000006)]",0.999762,,,23.0,0.040568999999999994,['Fail'],Fail,0.9900000000000008,-0.7307407407407416,0.0,0.0,1.0
24.0,6.0,wc_6,,0.0,,,,41.0,,,,Pass,,,,,
24.0,6.0,wc_6,,0.0,,,54.0,,,,,Pass,,,,,
24.0,6.0,wc_6,,0.0,,,,0.0,,,,Pass,,,,,
24.0,6.0,wc_6,wc_6,0.0,"[('wc_6', 0.8600000000000007)]",0.8600000000000007,,,32.0,0.002177,['Fail'],Pass,0.8600000000000007,-0.693333333333334,1.0,6.0,0.7
24.0,6.0,wc_6,,0.0,,,,0.0,,,,Pass,,,,,
24.0,6.0,wc_6,wc_7,0.0,"[('wc_6', 0.8600000000000007)]",0.8600000000000007,,,28.0,0.004534,['Fail'],Pass,0.7200000000000005,-0.7200000000000005,0.0,1.0,0.6
24.0,6.0,wc_6,,0.0,,,,0.0,,,,Pass,,,,,
24.0,6.0,wc_6,wc_8,0.0,"[('wc_6', 0.8600000000000007)]",0.8600000000000007,,,26.0,0.007586,['Fail'],Pass,0.4400000000000003,-0.4400000000000003,0.0,1.0,0.3
24.0,6.0,wc_6,,0.0,,,,0.0,,,,Pass,,,,,
24.0,6.0,wc_6,wc_9,1.0,"[('wc_9', 0.8300000000000006), ('wc_7', 0.7200000000000005), ('wc_8', 0.4400000000000003)]",0.9733440000000002,,,22.0,0.047089000000000006,['Pass'],Pass,0.8300000000000006,0.16999999999999937,2.0,2.0,0.8
27.0,7.0,wc_7,,0.0,,,,81.0,,,,Fail,,,,,
27.0,7.0,wc_7,,0.0,,,59.0,,,,,Fail,,,,,
27.0,7.0,wc_7,,0.0,,,,0.0,,,,Fail,,,,,
27.0,7.0,wc_7,wc_7,0.0,"[('wc_7', 0.7200000000000005)]",0.7200000000000005,,,31.0,0.002312,['Fail'],Fail,0.7200000000000005,-0.22000000000000053,1.0,2.0,0.6
27.0,7.0,wc_7,,0.0,,,,0.0,,,,Fail,,,,,
27.0,7.0,wc_7,wc_8,0.0,"[('wc_7', 0.7200000000000005)]",0.7200000000000005,,,20.0,0.004574,['Fail'],Fail,0.4400000000000003,0.05999999999999972,1.0,2.0,0.3
27.0,7.0,wc_7,,0.0,,,,0.0,,,,Fail,,,,,
27.0,7.0,wc_7,wc_9,0.0,"[('wc_9', 0.8300000000000006), ('wc_7', 0.7200000000000005)]",0.9524000000000002,,,40.0,0.006867,['Fail'],Fail,0.8300000000000006,0.16999999999999937,2.0,2.0,0.8
27.0,7.0,wc_7,,0.0,,,,0.0,,,,Fail,,,,,
27.0,7.0,wc_7,wc_10,1.0,"[('wc_10', 0.9900000000000008), ('wc_7', 0.7200000000000005), ('wc_9', 0.8300000000000006)]",0.9995240000000001,,,23.0,0.042543000000000004,['Fail'],Fail,0.9900000000000008,-0.49000000000000077,1.0,2.0,1.0
31.0,7.0,wc_7,,0.0,,,,61.0,,,,Pass,,,,,
31.0,7.0,wc_7,,0.0,,,70.0,,,,,Pass,,,,,
31.0,7.0,wc_7,,0.0,,,,0.0,,,,Pass,,,,,
31.0,7.0,wc_7,wc_7,0.0,"[('wc_7', 0.7200000000000005)]",0.7200000000000005,,,34.0,0.002644,['Fail'],Pass,0.7200000000000005,-0.0533333333333339,2.0,3.0,0.6
31.0,7.0,wc_7,,0.0,,,,0.0,,,,Pass,,,,,
31.0,7.0,wc_7,wc_8,0.0,"[('wc_8', 0.4400000000000003), ('wc_7', 0.7200000000000005)]",0.8432000000000004,,,36.0,0.003954,['Fail'],Pass,0.4400000000000003,-0.10666666666666696,1.0,3.0,0.3
31.0,7.0,wc_7,,0.0,,,,0.0,,,,Pass,,,,,
31.0,7.0,wc_7,wc_9,0.0,"[('wc_7', 0.7200000000000005), ('wc_8', 0.4400000000000003)]",0.8432000000000004,,,28.0,0.006994,['Fail'],Pass,0.8300000000000006,0.16999999999999937,3.0,3.0,0.8
31.0,7.0,wc_7,,0.0,,,,0.0,,,,Pass,,,,,
31.0,7.0,wc_7,wc_10,0.0,"[('wc_10', 0.9900000000000008), ('wc_9', 0.8300000000000006)]",0.9983000000000002,,,37.0,0.008386000000000001,['Pass'],Pass,0.9900000000000008,-0.49000000000000077,1.0,2.0,1.0
31.0,7.0,wc_7,,0.0,,,,0.0,,,,Pass,,,,,
31.0,7.0,wc_7,wc_11,0.0,"[('wc_9', 0.8300000000000006), ('wc_10', 0.9900000000000008)]",0.9983000000000002,,,28.0,0.010198,['Pass'],Pass,0.3800000000000002,-0.23714285714285738,0.0,0.0,0.3
31.0,7.0,wc_7,,0.0,,,,21.0,,,,Pass,,,,,
31.0,7.0,wc_7,wc_6,1.0,"[('wc_6', 0.8600000000000007), ('wc_9', 0.8300000000000006), ('wc_10', 0.9900000000000008)]",0.999762,,,31.0,0.05044900000000001,['Pass'],Pass,0.8600000000000007,-0.6377777777777784,2.0,9.0,0.7
35.0,11.0,wc_11,,0.0,,,,0.0,,,,Pass,,,,,
35.0,11.0,wc_11,,0.0,,,56.0,,,,,Pass,,,,,
35.0,11.0,wc_11,,0.0,,,,0.0,,,,Pass,,,,,
35.0,11.0,wc_11,wc_11,0.0,"[('wc_11', 0.3800000000000002)]",0.3800000000000002,,,38.0,0.002123,['Pass'],Pass,0.3800000000000002,-0.3800000000000002,0.0,1.0,0.3
35.0,11.0,wc_11,,0.0,,,,21.0,,,,Pass,,,,,
35.0,11.0,wc_11,wc_6,0.0,"[('wc_6', 0.8600000000000007), ('wc_11', 0.3800000000000002)]",0.9132000000000005,,,34.0,0.004507000000000001,['Pass'],Pass,0.8600000000000007,-0.6377777777777784,2.0,9.0,0.7
35.0,11.0,wc_11,,0.0,,,,0.0,,,,Pass,,,,,
35.0,11.0,wc_11,wc_7,1.0,"[('wc_7', 0.7200000000000005), ('wc_11', 0.3800000000000002), ('wc_6', 0.8600000000000007)]",0.9756960000000001,,,28.0,0.040581,['Pass'],Pass,0.7200000000000005,-0.12000000000000055,3.0,5.0,0.6
40.0,9.0,wc_9,,0.0,,,,0.0,,,,Fail,,,,,
40.0,9.0,wc_9,,0.0,,,60.0,,,,,Fail,,,,,
40.0,9.0,wc_9,,0.0,,,,0.0,,,,Fail,,,,,
40.0,9.0,wc_9,wc_9,0.0,"[('wc_9', 0.8300000000000006)]",0.8300000000000006,,,35.0,0.002498,['Fail'],Fail,0.8300000000000006,-0.030000000000000582,4.0,5.0,0.8
40.0,9.0,wc_9,,0.0,,,,0.0,,,,Fail,,,,,
40.0,9.0,wc_9,wc_10,0.0,"[('wc_10', 0.9900000000000008), ('wc_9', 0.8300000000000006)]",0.9983000000000002,,,20.0,0.004163,['Fail'],Fail,0.9900000000000008,-0.49000000000000077,2.0,4.0,1.0
40.0,9.0,wc_9,,0.0,,,,0.0,,,,Fail,,,,,
40.0,9.0,wc_9,wc_11,1.0,"[('wc_11', 0.3800000000000002), ('wc_9', 0.8300000000000006), ('wc_10', 0.9900000000000008)]",0.9989460000000001,,,35.0,0.043203,['Fail'],Fail,0.3800000000000002,0.2866666666666664,2.0,3.0,0.3
44.0,9.0,wc_9,,0.0,,,,83.0,,,,Pass,,,,,
44.0,9.0,wc_9,,0.0,,,77.0,,,,,Pass,,,,,
44.0,9.0,wc_9,,0.0,,,,0.0,,,,Pass,,,,,
44.0,9.0,wc_9,wc_9,0.0,"[('wc_9', 0.8300000000000006)]",0.8300000000000006,,,37.0,0.002594,['Pass'],Pass,0.8300000000000006,0.003333333333332744,5.0,6.0,0.8
44.0,9.0,wc_9,,0.0,,,,0.0,,,,Pass,,,,,
44.0,9.0,wc_9,wc_10,0.0,"[('wc_10', 0.9900000000000008), ('wc_9', 0.8300000000000006)]",0.9983000000000002,,,33.0,0.004066,['Pass'],Pass,0.9900000000000008,-0.3900000000000008,3.0,5.0,1.0
44.0,9.0,wc_9,,0.0,,,,0.0,,,,Pass,,,,,
44.0,9.0,wc_9,wc_11,0.0,"[('wc_9', 0.8300000000000006), ('wc_10', 0.9900000000000008)]",0.9983000000000002,,,39.0,0.005831,['Pass'],Pass,0.3800000000000002,0.2866666666666664,2.0,3.0,0.3
44.0,9.0,wc_9,,0.0,,,,21.0,,,,Pass,,,,,
44.0,9.0,wc_9,wc_6,1.0,"[('wc_6', 0.8600000000000007), ('wc_9', 0.8300000000000006), ('wc_10', 0.9900000000000008)]",0.999762,,,31.0,0.047909,['Pass'],Pass,0.8600000000000007,-0.5266666666666673,0.0,0.0,0.7
49.0,10.0,wc_10,,0.0,,,,0.0,,,,Fail,,,,,
49.0,10.0,wc_10,,0.0,,,75.0,,,,,Fail,,,,,
49.0,10.0,wc_10,,0.0,,,,0.0,,,,Fail,,,,,
49.0,10.0,wc_10,wc_10,0.0,"[('wc_10', 0.9900000000000008)]",0.9900000000000008,,,34.0,0.002377,['Fail'],Fail,0.9900000000000008,-0.32333333333333414,4.0,6.0,1.0
49.0,10.0,wc_10,,0.0,,,,0.0,,,,Fail,,,,,
49.0,10.0,wc_10,wc_11,0.0,"[('wc_11', 0.3800000000000002), ('wc_10', 0.9900000000000008)]",0.9938000000000005,,,36.0,0.0045590000000000006,['Fail'],Fail,0.3800000000000002,0.11999999999999977,2.0,4.0,0.3
49.0,10.0,wc_10,,0.0,,,,21.0,,,,Fail,,,,,
49.0,10.0,wc_10,wc_6,1.0,"[('wc_6', 0.8600000000000007), ('wc_10', 0.9900000000000008), ('wc_11', 0.3800000000000002)]",0.999132,,,38.0,0.042964,['Fail'],Fail,0.8600000000000007,0.13999999999999935,1.0,1.0,0.7
54.0,8.0,wc_8,,0.0,,,,0.0,,,,Pass,,,,,
54.0,8.0,wc_8,,0.0,,,63.0,,,,,Pass,,,,,
54.0,8.0,wc_8,,0.0,,,,0.0,,,,Pass,,,,,
54.0,8.0,wc_8,wc_8,0.0,"[('wc_8', 0.4400000000000003)]",0.4400000000000003,,,32.0,0.002605,['Fail'],Pass,0.4400000000000003,-0.3150000000000003,1.0,8.0,0.3
54.0,8.0,wc_8,,0.0,,,,0.0,,,,Pass,,,,,
54.0,8.0,wc_8,wc_9,0.0,"[('wc_9', 0.8300000000000006), ('wc_8', 0.4400000000000003)]",0.9048000000000004,,,35.0,0.003994,['Fail'],Pass,0.8300000000000006,-0.08000000000000063,6.0,8.0,0.8
54.0,8.0,wc_8,,0.0,,,,0.0,,,,Pass,,,,,
54.0,8.0,wc_8,wc_10,0.0,"[('wc_10', 0.9900000000000008)]",0.9900000000000008,,,23.0,0.008473,['Pass'],Pass,0.9900000000000008,-0.27571428571428647,5.0,7.0,1.0
54.0,8.0,wc_8,,0.0,,,,0.0,,,,Pass,,,,,
54.0,8.0,wc_8,wc_11,0.0,"[('wc_11', 0.3800000000000002), ('wc_10', 0.9900000000000008)]",0.9938000000000005,,,25.0,0.007968999999999999,['Pass'],Pass,0.3800000000000002,0.21999999999999975,3.0,5.0,0.3
54.0,8.0,wc_8,,0.0,,,,21.0,,,,Pass,,,,,
54.0,8.0,wc_8,wc_6,1.0,"[('wc_6', 0.8600000000000007), ('wc_10', 0.9900000000000008), ('wc_11', 0.3800000000000002)]",0.999132,,,28.0,0.049784999999999996,['Pass'],Pass,0.8600000000000007,0.13999999999999935,2.0,2.0,0.7
59.0,10.0,wc_10,,0.0,,,,0.0,,,,Fail,,,,,
59.0,10.0,wc_10,,0.0,,,72.0,,,,,Fail,,,,,
59.0,10.0,wc_10,,0.0,,,,0.0,,,,Fail,,,,,
59.0,10.0,wc_10,wc_10,0.0,"[('wc_10', 0.9900000000000008)]",0.9900000000000008,,,28.0,0.003153,['Fail'],Fail,0.9900000000000008,-0.24000000000000077,6.0,8.0,1.0
59.0,10.0,wc_10,,0.0,,,,0.0,,,,Fail,,,,,
59.0,10.0,wc_10,wc_11,0.0,"[('wc_10', 0.9900000000000008)]",0.9900000000000008,,,34.0,0.004464,['Fail'],Fail,0.3800000000000002,0.2866666666666664,4.0,6.0,0.3
59.0,10.0,wc_10,,0.0,,,,21.0,,,,Fail,,,,,
59.0,10.0,wc_10,wc_6,0.0,"[('wc_10', 0.9900000000000008)]",0.9900000000000008,,,35.0,0.005468,['Fail'],Fail,0.8600000000000007,0.13999999999999935,2.0,2.0,0.7
59.0,10.0,wc_10,,0.0,,,,0.0,,,,Fail,,,,,
59.0,10.0,wc_10,wc_7,0.0,"[('wc_7', 0.7200000000000005), ('wc_10', 0.9900000000000008)]",0.9972000000000002,,,34.0,0.007206,['Fail'],Fail,0.7200000000000005,-0.3866666666666672,3.0,9.0,0.6
59.0,10.0,wc_10,,0.0,,,,0.0,,,,Fail,,,,,
59.0,10.0,wc_10,wc_8,1.0,"[('wc_8', 0.4400000000000003), ('wc_10', 0.9900000000000008), ('wc_7', 0.7200000000000005)]",0.9984320000000001,,,28.0,0.04362800000000001,['Fail'],Fail,0.4400000000000003,-0.24000000000000027,0.0,0.0,0.3
64.0,10.0,wc_10,,0.0,,,,0.0,,,,Fail,,,,,
64.0,10.0,wc_10,,0.0,,,71.0,,,,,Fail,,,,,
64.0,10.0,wc_10,,0.0,,,,0.0,,,,Fail,,,,,
64.0,10.0,wc_10,wc_10,0.0,"[('wc_10', 0.9900000000000008)]",0.9900000000000008,,,26.0,0.002471,['Fail'],Fail,0.9900000000000008,-0.21222222222222298,7.0,9.0,1.0
64.0,10.0,wc_10,,0.0,,,,0.0,,,,Fail,,,,,
64.0,10.0,wc_10,wc_11,0.0,"[('wc_10', 0.9900000000000008)]",0.9900000000000008,,,40.0,0.004261,['Fail'],Fail,0.3800000000000002,0.19142857142857117,4.0,7.0,0.3
64.0,10.0,wc_10,,0.0,,,,21.0,,,,Fail,,,,,
64.0,10.0,wc_10,wc_6,0.0,"[('wc_6', 0.8600000000000007), ('wc_10', 0.9900000000000008)]",0.9986000000000002,,,36.0,0.010894000000000001,['Fail'],Fail,0.8600000000000007,-0.19333333333333402,2.0,3.0,0.7
64.0,10.0,wc_10,,0.0,,,,0.0,,,,Fail,,,,,
64.0,10.0,wc_10,wc_7,0.0,"[('wc_10', 0.9900000000000008), ('wc_6', 0.8600000000000007)]",0.9986000000000002,,,25.0,0.009212000000000001,['Fail'],Fail,0.7200000000000005,-0.3200000000000005,0.0,0.0,0.6
64.0,10.0,wc_10,,0.0,,,,0.0,,,,Fail,,,,,
64.0,10.0,wc_10,wc_8,0.0,"[('wc_10', 0.9900000000000008), ('wc_6', 0.8600000000000007)]",0.9986000000000002,,,20.0,0.009511,['Fail'],Fail,0.4400000000000003,-0.4400000000000003,0.0,0.0,0.3
64.0,10.0,wc_10,,0.0,,,,0.0,,,,Fail,,,,,
64.0,10.0,wc_10,wc_9,1.0,"[('wc_9', 0.8300000000000006), ('wc_10', 0.9900000000000008), ('wc_6', 0.8600000000000007)]",0.999762,,,25.0,0.048201,['Fail'],Fail,0.8300000000000006,-0.19363636363636427,0.0,0.0,0.8
69.0,10.0,wc_10,,0.0,,,,0.0,,,,Fail,,,,,
69.0,10.0,wc_10,,0.0,,,60.0,,,,,Fail,,,,,
69.0,10.0,wc_10,,0.0,,,,0.0,,,,Fail,,,,,
69.0,10.0,wc_10,wc_10,0.0,"[('wc_10', 0.9900000000000008)]",0.9900000000000008,,,37.0,0.002332,['Fail'],Fail,0.9900000000000008,-0.19000000000000072,0.0,0.0,1.0
69.0,10.0,wc_10,,0.0,,,,0.0,,,,Fail,,,,,
69.0,10.0,wc_10,wc_11,0.0,"[('wc_11', 0.3800000000000002), ('wc_10', 0.9900000000000008)]",0.9938000000000005,,,32.0,0.003978,['Fail'],Fail,0.3800000000000002,0.11999999999999977,4.0,8.0,0.3
69.0,10.0,wc_10,,0.0,,,,21.0,,,,Fail,,,,,
69.0,10.0,wc_10,wc_6,1.0,"[('wc_6', 0.8600000000000007), ('wc_10', 0.9900000000000008), ('wc_11', 0.3800000000000002)]",0.999132,,,34.0,0.039585999999999996,['Fail'],Fail,0.8600000000000007,-0.06000000000000061,4.0,5.0,0.7
74.0,10.0,wc_10,,0.0,,,,0.0,,,,Pass,,,,,
74.0,10.0,wc_10,,0.0,,,65.0,,,,,Pass,,,,,
74.0,10.0,wc_10,,0.0,,,,0.0,,,,Pass,,,,,
74.0,10.0,wc_10,wc_10,0.0,"[('wc_10', 0.9900000000000008)]",0.9900000000000008,,,29.0,0.002828,['Pass'],Pass,0.9900000000000008,0.009999999999999232,1.0,1.0,1.0
74.0,10.0,wc_10,,0.0,,,,0.0,,,,Pass,,,,,
74.0,10.0,wc_10,wc_11,0.0,"[('wc_10', 0.9900000000000008)]",0.9900000000000008,,,20.0,0.006796,['Pass'],Pass,0.3800000000000002,0.17555555555555535,5.0,9.0,0.3
74.0,10.0,wc_10,,0.0,,,,21.0,,,,Pass,,,,,
74.0,10.0,wc_10,wc_6,0.0,"[('wc_6', 0.8600000000000007), ('wc_10', 0.9900000000000008)]",0.9986000000000002,,,20.0,0.006049,['Pass'],Pass,0.8600000000000007,-0.06000000000000061,4.0,5.0,0.7
74.0,10.0,wc_10,,0.0,,,,0.0,,,,Pass,,,,,
74.0,10.0,wc_10,wc_7,1.0,"[('wc_7', 0.7200000000000005), ('wc_10', 0.9900000000000008), ('wc_6', 0.8600000000000007)]",0.999608,,,25.0,0.053243999999999986,['Pass'],Pass,0.7200000000000005,-0.3866666666666672,1.0,3.0,0.6
78.0,12.0,wc_12,,0.0,,,,142.0,,,,Fail,,,,,
78.0,12.0,wc_12,,0.0,,,50.0,,,,,Fail,,,,,
78.0,12.0,wc_12,,0.0,,,,0.0,,,,Fail,,,,,
78.0,12.0,wc_12,wc_12,0.0,"[('wc_12', 0.18)]",0.17999999999999994,,,36.0,0.002217,['Pass'],Fail,0.18,-0.18,0.0,0.0,0.1
78.0,12.0,wc_12,,0.0,,,,0.0,,,,Fail,,,,,
78.0,12.0,wc_12,wc_13,0.0,"[('wc_13', 0.3500000000000002)]",0.3500000000000002,,,36.0,0.005074,['Fail'],Fail,0.3500000000000002,-0.2973684210526318,0.0,0.0,0.2
78.0,12.0,wc_12,,0.0,,,,0.0,,,,Fail,,,,,
78.0,12.0,wc_12,wc_14,0.0,"[('wc_14', 0.2200000000000001), ('wc_12', 0.18)]",0.36040000000000005,,,35.0,0.005704,['Pass'],Fail,0.2200000000000001,-0.17454545454545467,0.0,0.0,0.2
78.0,12.0,wc_12,,0.0,,,,0.0,,,,Fail,,,,,
78.0,12.0,wc_12,wc_15,0.0,"[('wc_15', 0.3700000000000002), ('wc_13', 0.3500000000000002)]",0.5905000000000002,,,37.0,0.008983,['Fail'],Fail,0.3700000000000002,-0.23363636363636386,0.0,0.0,0.2
78.0,12.0,wc_12,,0.0,,,,0.0,,,,Fail,,,,,
78.0,12.0,wc_12,wc_16,0.0,"[('wc_16', 0.1900000000000001), ('wc_13', 0.3500000000000002), ('wc_15', 0.3700000000000002)]",0.6683050000000003,,,21.0,0.00908,['Fail'],Fail,0.1900000000000001,-0.0990909090909092,0.0,0.0,0.1
78.0,12.0,wc_12,,0.0,,,,0.0,,,,Fail,,,,,
78.0,12.0,wc_12,wc_17,1.0,"[('wc_17', 0.9900000000000008), ('wc_13', 0.3500000000000002), ('wc_15', 0.3700000000000002), ('wc_16', 0.1900000000000001)]",0.9966830500000002,,,30.0,0.04958,['Fail'],Fail,0.9900000000000008,-0.808181818181819,0.0,0.0,0.9
81.0,12.0,wc_12,,0.0,,,,21.0,,,,Fail,,,,,
81.0,12.0,wc_12,,0.0,,,53.0,,,,,Fail,,,,,
81.0,12.0,wc_12,,0.0,,,,0.0,,,,Fail,,,,,
81.0,12.0,wc_12,wc_12,0.0,"[('wc_12', 0.18)]",0.17999999999999994,,,21.0,0.002249,['Pass'],Fail,0.18,-0.18,0.0,1.0,0.1
81.0,12.0,wc_12,,0.0,,,,0.0,,,,Fail,,,,,
81.0,12.0,wc_12,wc_13,0.0,"[('wc_13', 0.3500000000000002), ('wc_12', 0.18)]",0.4670000000000001,,,26.0,0.004714,['Pass'],Fail,0.3500000000000002,0.6499999999999998,1.0,1.0,0.2
81.0,12.0,wc_12,,0.0,,,,0.0,,,,Fail,,,,,
81.0,12.0,wc_12,wc_14,0.0,"[('wc_14', 0.2200000000000001), ('wc_12', 0.18), ('wc_13', 0.3500000000000002)]",0.5842600000000002,,,26.0,0.007332999999999999,['Pass'],Fail,0.2200000000000001,-0.2200000000000001,0.0,1.0,0.2
81.0,12.0,wc_12,,0.0,,,,0.0,,,,Fail,,,,,
81.0,12.0,wc_12,wc_15,0.0,"[('wc_15', 0.3700000000000002), ('wc_12', 0.18), ('wc_13', 0.3500000000000002), ('wc_14', 0.2200000000000001)]",0.7380838000000002,,,30.0,0.007849000000000002,['Pass'],Fail,0.3700000000000002,0.6299999999999998,1.0,1.0,0.2
81.0,12.0,wc_12,,0.0,,,,0.0,,,,Fail,,,,,
81.0,12.0,wc_12,wc_16,0.0,"[('wc_16', 0.1900000000000001), ('wc_12', 0.18), ('wc_13', 0.3500000000000002), ('wc_14', 0.2200000000000001), ('wc_15', 0.3700000000000002)]",0.7878478780000002,,,32.0,0.014440000000000001,['Pass'],Fail,0.1900000000000001,0.8099999999999998,1.0,1.0,0.1
81.0,12.0,wc_12,,0.0,,,,0.0,,,,Fail,,,,,
81.0,12.0,wc_12,wc_17,0.0,"[('wc_17', 0.9900000000000008)]",0.9900000000000008,,,25.0,0.013306,['Fail'],Fail,0.9900000000000008,-0.9900000000000008,0.0,0.0,0.9
81.0,12.0,wc_12,,0.0,,,,183.0,,,,Fail,,,,,
81.0,12.0,wc_12,wc_6,0.0,"[('wc_6', 0.8600000000000007), ('wc_17', 0.9900000000000008)]",0.9986000000000002,,,27.0,0.017072,['Fail'],Fail,0.8600000000000007,-0.14571428571428635,5.0,7.0,0.7
81.0,12.0,wc_12,,0.0,,,,0.0,,,,Fail,,,,,
81.0,12.0,wc_12,wc_7,1.0,"[('wc_7', 0.7200000000000005), ('wc_17', 0.9900000000000008), ('wc_6', 0.8600000000000007)]",0.999608,,,23.0,0.05939100000000001,['Fail'],Fail,0.7200000000000005,-0.3200000000000005,2.0,5.0,0.6
86.0,12.0,wc_12,,0.0,,,,142.0,,,,Pass,,,,,
86.0,12.0,wc_12,,0.0,,,58.0,,,,,Pass,,,,,
86.0,12.0,wc_12,,0.0,,,,0.0,,,,Pass,,,,,
86.0,12.0,wc_12,wc_12,0.0,"[('wc_12', 0.18)]",0.17999999999999994,,,28.0,0.003437,['Fail'],Pass,0.18,-0.18,0.0,2.0,0.1
86.0,12.0,wc_12,,0.0,,,,0.0,,,,Pass,,,,,
86.0,12.0,wc_12,wc_13,0.0,"[('wc_13', 0.3500000000000002), ('wc_12', 0.18)]",0.4670000000000001,,,35.0,0.004767,['Fail'],Pass,0.3500000000000002,0.1499999999999998,1.0,2.0,0.2
86.0,12.0,wc_12,,0.0,,,,0.0,,,,Pass,,,,,
86.0,12.0,wc_12,wc_14,0.0,"[('wc_14', 0.2200000000000001), ('wc_12', 0.18), ('wc_13', 0.3500000000000002)]",0.5842600000000002,,,21.0,0.006182999999999999,['Fail'],Pass,0.2200000000000001,-0.2200000000000001,0.0,2.0,0.2
86.0,12.0,wc_12,,0.0,,,,0.0,,,,Pass,,,,,
86.0,12.0,wc_12,wc_15,0.0,"[('wc_12', 0.18), ('wc_13', 0.3500000000000002), ('wc_14', 0.2200000000000001)]",0.5842600000000001,,,30.0,0.008791,['Fail'],Pass,0.3700000000000002,0.12999999999999978,1.0,2.0,0.2
86.0,12.0,wc_12,,0.0,,,,0.0,,,,Pass,,,,,
86.0,12.0,wc_12,wc_16,0.0,"[('wc_16', 0.1900000000000001), ('wc_12', 0.18), ('wc_13', 0.3500000000000002), ('wc_14', 0.2200000000000001)]",0.6632506000000002,,,28.0,0.011342000000000001,['Fail'],Pass,0.1900000000000001,0.3099999999999999,1.0,2.0,0.1
86.0,12.0,wc_12,,0.0,,,,0.0,,,,Pass,,,,,
86.0,12.0,wc_12,wc_17,0.0,"[('wc_17', 0.9900000000000008), ('wc_15', 0.3700000000000002)]",0.9937000000000005,,,24.0,0.011839,['Pass'],Pass,0.9900000000000008,0.009999999999999232,1.0,1.0,0.9
86.0,12.0,wc_12,,0.0,,,,183.0,,,,Pass,,,,,
86.0,12.0,wc_12,wc_6,1.0,"[('wc_6', 0.8600000000000007), ('wc_15', 0.3700000000000002), ('wc_17', 0.9900000000000008)]",0.9991180000000001,,,37.0,0.056125,['Pass'],Pass,0.8600000000000007,-0.08222222222222286,7.0,9.0,0.7
91.0,13.0,wc_13,,0.0,,,,182.0,,,,Pass,,,,,
91.0,13.0,wc_13,,0.0,,,63.0,,,,,Pass,,,,,
91.0,13.0,wc_13,,0.0,,,,0.0,,,,Pass,,,,,
91.0,13.0,wc_13,wc_13,0.0,"[('wc_13', 0.3500000000000002)]",0.3500000000000002,,,26.0,0.002538,['Pass'],Pass,0.3500000000000002,-0.016666666666666885,1.0,3.0,0.2
91.0,13.0,wc_13,,0.0,,,,0.0,,,,Pass,,,,,
91.0,13.0,wc_13,wc_14,0.0,"[('wc_13', 0.3500000000000002)]",0.3500000000000002,,,22.0,0.004299,['Pass'],Pass,0.2200000000000001,-0.2200000000000001,0.0,3.0,0.2
91.0,13.0,wc_13,,0.0,,,,0.0,,,,Pass,,,,,
91.0,13.0,wc_13,wc_15,0.0,"[('wc_15', 0.3700000000000002), ('wc_14', 0.2200000000000001)]",0.5086000000000002,,,28.0,0.006354,['Fail'],Pass,0.3700000000000002,0.2966666666666664,2.0,3.0,0.2
91.0,13.0,wc_13,,0.0,,,,0.0,,,,Pass,,,,,
91.0,13.0,wc_13,wc_16,0.0,"[('wc_16', 0.1900000000000001), ('wc_14', 0.2200000000000001), ('wc_15', 0.3700000000000002)]",0.6019660000000002,,,37.0,0.008461,['Fail'],Pass,0.1900000000000001,0.1433333333333332,1.0,3.0,0.1
91.0,13.0,wc_13,,0.0,,,,0.0,,,,Pass,,,,,
91.0,13.0,wc_13,wc_17,0.0,"[('wc_17', 0.9900000000000008), ('wc_13', 0.3500000000000002)]",0.9935000000000005,,,24.0,0.010726999999999999,['Pass'],Pass,0.9900000000000008,0.009999999999999232,2.0,2.0,0.9
91.0,13.0,wc_13,,0.0,,,,21.0,,,,Pass,,,,,
91.0,13.0,wc_13,wc_12,0.0,"[('wc_13', 0.3500000000000002), ('wc_17', 0.9900000000000008)]",0.9935000000000005,,,37.0,0.014056000000000003,['Pass'],Pass,0.18,-0.18,0.0,3.0,0.1
91.0,13.0,wc_13,,0.0,,,,182.0,,,,Pass,,,,,
91.0,13.0,wc_13,wc_6,1.0,"[('wc_6', 0.8600000000000007), ('wc_13', 0.3500000000000002), ('wc_17', 0.9900000000000008)]",0.99909,,,38.0,0.049135,['Pass'],Pass,0.8600000000000007,-0.06000000000000061,0.0,0.0,0.7
95.0,16.0,wc_16,,0.0,,,,243.0,,,,Pass,,,,,
95.0,16.0,wc_16,,0.0,,,61.0,,,,,Pass,,,,,
95.0,16.0,wc_16,,0.0,,,,0.0,,,,Pass,,,,,
95.0,16.0,wc_16,wc_16,0.0,"[('wc_16', 0.1900000000000001)]",0.19000000000000017,,,28.0,0.003329,['Fail'],Pass,0.1900000000000001,0.05999999999999989,1.0,4.0,0.1
95.0,16.0,wc_16,,0.0,,,,0.0,,,,Pass,,,,,
95.0,16.0,wc_16,wc_17,0.0,"[('wc_17', 0.9900000000000008)]",0.9900000000000008,,,23.0,0.0040939999999999995,['Pass'],Pass,0.9900000000000008,0.009999999999999232,3.0,3.0,0.9
95.0,16.0,wc_16,,0.0,,,,21.0,,,,Pass,,,,,
95.0,16.0,wc_16,wc_12,0.0,"[('wc_17', 0.9900000000000008)]",0.9900000000000008,,,27.0,0.006636999999999999,['Pass'],Pass,0.18,-0.18,0.0,4.0,0.1
95.0,16.0,wc_16,,0.0,,,,0.0,,,,Pass,,,,,
95.0,16.0,wc_16,wc_13,0.0,"[('wc_17', 0.9900000000000008)]",0.9900000000000008,,,35.0,0.007955,['Pass'],Pass,0.3500000000000002,0.1499999999999998,2.0,4.0,0.2
95.0,16.0,wc_16,,0.0,,,,0.0,,,,Pass,,,,,
95.0,16.0,wc_16,wc_14,0.0,"[('wc_14', 0.2200000000000001), ('wc_17', 0.9900000000000008)]",0.9922000000000006,,,26.0,0.009448,['Pass'],Pass,0.2200000000000001,-0.2200000000000001,0.0,4.0,0.2
95.0,16.0,wc_16,,0.0,,,,0.0,,,,Pass,,,,,
95.0,16.0,wc_16,wc_15,0.0,"[('wc_17', 0.9900000000000008), ('wc_14', 0.2200000000000001)]",0.9922000000000006,,,33.0,0.011179999999999999,['Pass'],Pass,0.3700000000000002,0.12999999999999978,2.0,4.0,0.2
95.0,16.0,wc_16,,0.0,,,,223.0,,,,Pass,,,,,
95.0,16.0,wc_16,wc_6,1.0,"[('wc_6', 0.8600000000000007), ('wc_17', 0.9900000000000008), ('wc_14', 0.2200000000000001)]",0.9989080000000001,,,21.0,0.058301000000000006,['Pass'],Pass,0.8600000000000007,0.13999999999999935,1.0,1.0,0.7
99.0,14.0,wc_14,,0.0,,,,202.0,,,,Pass,,,,,
99.0,14.0,wc_14,,0.0,,,56.0,,,,,Pass,,,,,
99.0,14.0,wc_14,,0.0,,,,0.0,,,,Pass,,,,,
99.0,14.0,wc_14,wc_14,0.0,"[('wc_14', 0.2200000000000001)]",0.22000000000000008,,,23.0,0.002355,['Pass'],Pass,0.2200000000000001,-0.0200000000000001,1.0,5.0,0.2
99.0,14.0,wc_14,,0.0,,,,0.0,,,,Pass,,,,,
99.0,14.0,wc_14,wc_15,0.0,"[('wc_15', 0.3700000000000002)]",0.3700000000000002,,,33.0,0.005358,['Fail'],Pass,0.3700000000000002,0.029999999999999805,2.0,5.0,0.2
99.0,14.0,wc_14,,0.0,,,,0.0,,,,Pass,,,,,
99.0,14.0,wc_14,wc_16,0.0,"[('wc_15', 0.3700000000000002)]",0.3700000000000002,,,27.0,0.011796,['Fail'],Pass,0.1900000000000001,0.009999999999999898,1.0,5.0,0.1
99.0,14.0,wc_14,,0.0,,,,0.0,,,,Pass,,,,,
99.0,14.0,wc_14,wc_17,1.0,"[('wc_17', 0.9900000000000008), ('wc_14', 0.2200000000000001), ('wc_16', 0.1900000000000001)]",0.9936820000000005,,,36.0,0.044992,['Pass'],Pass,0.9900000000000008,0.009999999999999232,5.0,5.0,0.9
102.0,15.0,wc_15,,0.0,,,,83.0,,,,Fail,,,,,
102.0,15.0,wc_15,,0.0,,,62.0,,,,,Fail,,,,,
102.0,15.0,wc_15,,0.0,,,,0.0,,,,Fail,,,,,
102.0,15.0,wc_15,wc_15,0.0,"[('wc_15', 0.3700000000000002)]",0.3700000000000002,,,38.0,0.002217,['Pass'],Fail,0.3700000000000002,-0.0366666666666669,2.0,6.0,0.2
102.0,15.0,wc_15,,0.0,,,,0.0,,,,Fail,,,,,
102.0,15.0,wc_15,wc_16,0.0,"[('wc_16', 0.1900000000000001), ('wc_15', 0.3700000000000002)]",0.48970000000000025,,,22.0,0.004824,['Pass'],Fail,0.1900000000000001,0.1433333333333332,2.0,6.0,0.1
102.0,15.0,wc_15,,0.0,,,,0.0,,,,Fail,,,,,
102.0,15.0,wc_15,wc_17,0.0,"[('wc_17', 0.9900000000000008)]",0.9900000000000008,,,24.0,0.016937999999999998,['Fail'],Fail,0.9900000000000008,0.009999999999999232,5.0,5.0,0.9
102.0,15.0,wc_15,,0.0,,,,21.0,,,,Fail,,,,,
102.0,15.0,wc_15,wc_12,0.0,"[('wc_17', 0.9900000000000008)]",0.9900000000000008,,,39.0,0.00835,['Fail'],Fail,0.18,-0.18,0.0,6.0,0.1
102.0,15.0,wc_15,,0.0,,,,0.0,,,,Fail,,,,,
102.0,15.0,wc_15,wc_13,0.0,"[('wc_17', 0.9900000000000008)]",0.9900000000000008,,,34.0,0.011421,['Fail'],Fail,0.3500000000000002,-0.016666666666666885,2.0,6.0,0.2
102.0,15.0,wc_15,,0.0,,,,0.0,,,,Fail,,,,,
102.0,15.0,wc_15,wc_14,0.0,"[('wc_17', 0.9900000000000008)]",0.9900000000000008,,,29.0,0.016186,['Fail'],Fail,0.2200000000000001,0.1133333333333332,2.0,6.0,0.2
102.0,15.0,wc_15,,0.0,,,,142.0,,,,Fail,,,,,
102.0,15.0,wc_15,wc_6,0.0,"[('wc_17', 0.9900000000000008)]",0.9900000000000008,,,35.0,0.012376,['Fail'],Fail,0.8600000000000007,-0.36000000000000065,1.0,2.0,0.7
102.0,15.0,wc_15,,0.0,,,,0.0,,,,Fail,,,,,
102.0,15.0,wc_15,wc_7,0.0,"[('wc_7', 0.7200000000000005), ('wc_17', 0.9900000000000008)]",0.9972000000000002,,,28.0,0.016582,['Fail'],Fail,0.7200000000000005,-0.4977777777777783,2.0,9.0,0.6
102.0,15.0,wc_15,,0.0,,,,0.0,,,,Fail,,,,,
102.0,15.0,wc_15,wc_8,1.0,"[('wc_8', 0.4400000000000003), ('wc_17', 0.9900000000000008), ('wc_7', 0.7200000000000005)]",0.9984320000000001,,,36.0,0.057334,['Fail'],Fail,0.4400000000000003,-0.3400000000000003,0.0,0.0,0.3
105.0,15.0,wc_15,,0.0,,,,183.0,,,,Pass,,,,,
105.0,15.0,wc_15,,0.0,,,56.0,,,,,Pass,,,,,
105.0,15.0,wc_15,,0.0,,,,0.0,,,,Pass,,,,,
105.0,15.0,wc_15,wc_15,0.0,"[('wc_15', 0.3700000000000002)]",0.3700000000000002,,,27.0,0.002369,['Fail'],Pass,0.3700000000000002,-0.08428571428571452,2.0,7.0,0.2
105.0,15.0,wc_15,,0.0,,,,0.0,,,,Pass,,,,,
105.0,15.0,wc_15,wc_16,0.0,"[('wc_16', 0.1900000000000001), ('wc_15', 0.3700000000000002)]",0.48970000000000025,,,31.0,0.0038190000000000003,['Fail'],Pass,0.1900000000000001,0.09571428571428559,2.0,7.0,0.1
105.0,15.0,wc_15,,0.0,,,,0.0,,,,Pass,,,,,
105.0,15.0,wc_15,wc_17,0.0,"[('wc_17', 0.9900000000000008)]",0.9900000000000008,,,38.0,0.006741,['Pass'],Pass,0.9900000000000008,0.009999999999999232,6.0,6.0,0.9
105.0,15.0,wc_15,,0.0,,,,21.0,,,,Pass,,,,,
105.0,15.0,wc_15,wc_12,0.0,"[('wc_17', 0.9900000000000008)]",0.9900000000000008,,,24.0,0.008999,['Pass'],Pass,0.18,-0.18,0.0,7.0,0.1
105.0,15.0,wc_15,,0.0,,,,0.0,,,,Pass,,,,,
105.0,15.0,wc_15,wc_13,0.0,"[('wc_13', 0.3500000000000002), ('wc_17', 0.9900000000000008)]",0.9935000000000005,,,29.0,0.010472,['Pass'],Pass,0.3500000000000002,-0.0642857142857145,2.0,7.0,0.2
105.0,15.0,wc_15,,0.0,,,,0.0,,,,Pass,,,,,
105.0,15.0,wc_15,wc_14,1.0,"[('wc_14', 0.2200000000000001), ('wc_17', 0.9900000000000008), ('wc_13', 0.3500000000000002)]",0.9949300000000004,,,40.0,0.052212,['Pass'],Pass,0.2200000000000001,0.1549999999999999,3.0,8.0,0.2
111.0,17.0,wc_17,,0.0,,,,0.0,,,,Fail,,,,,
111.0,17.0,wc_17,,0.0,,,70.0,,,,,Fail,,,,,
111.0,17.0,wc_17,,0.0,,,,0.0,,,,Fail,,,,,
111.0,17.0,wc_17,wc_17,0.0,"[('wc_17', 0.9900000000000008)]",0.9900000000000008,,,30.0,0.002161,['Fail'],Fail,0.9900000000000008,0.009999999999999232,7.0,7.0,0.9
111.0,17.0,wc_17,,0.0,,,,21.0,,,,Fail,,,,,
111.0,17.0,wc_17,wc_12,0.0,"[('wc_17', 0.9900000000000008)]",0.9900000000000008,,,27.0,0.004028,['Fail'],Fail,0.18,-0.18,0.0,8.0,0.1
111.0,17.0,wc_17,,0.0,,,,0.0,,,,Fail,,,,,
111.0,17.0,wc_17,wc_13,0.0,"[('wc_17', 0.9900000000000008)]",0.9900000000000008,,,37.0,0.006658,['Fail'],Fail,0.3500000000000002,0.0249999999999998,3.0,8.0,0.2
111.0,17.0,wc_17,,0.0,,,,0.0,,,,Fail,,,,,
111.0,17.0,wc_17,wc_14,0.0,"[('wc_17', 0.9900000000000008)]",0.9900000000000008,,,31.0,0.009517000000000001,['Fail'],Fail,0.2200000000000001,0.1549999999999999,3.0,8.0,0.2
111.0,17.0,wc_17,,0.0,,,,0.0,,,,Fail,,,,,
111.0,17.0,wc_17,wc_15,0.0,"[('wc_15', 0.3700000000000002), ('wc_17', 0.9900000000000008)]",0.9937000000000005,,,20.0,0.011437,['Fail'],Fail,0.3700000000000002,-0.12000000000000022,2.0,8.0,0.2
111.0,17.0,wc_17,,0.0,,,,0.0,,,,Fail,,,,,
111.0,17.0,wc_17,wc_16,1.0,"[('wc_16', 0.1900000000000001), ('wc_17', 0.9900000000000008), ('wc_15', 0.3700000000000002)]",0.9948970000000004,,,31.0,0.052015000000000006,['Fail'],Fail,0.1900000000000001,0.1433333333333332,3.0,9.0,0.1
118.0,17.0,wc_17,,0.0,,,,0.0,,,,Pass,,,,,
118.0,17.0,wc_17,,0.0,,,74.0,,,,,Pass,,,,,
118.0,17.0,wc_17,,0.0,,,,0.0,,,,Pass,,,,,
118.0,17.0,wc_17,wc_17,0.0,"[('wc_17', 0.9900000000000008)]",0.9900000000000008,,,32.0,0.002594,['Pass'],Pass,0.9900000000000008,0.009999999999999232,8.0,8.0,0.9
118.0,17.0,wc_17,,0.0,,,,21.0,,,,Pass,,,,,
118.0,17.0,wc_17,wc_12,0.0,"[('wc_17', 0.9900000000000008)]",0.9900000000000008,,,21.0,0.004258,['Pass'],Pass,0.18,-0.18,0.0,9.0,0.1
118.0,17.0,wc_17,,0.0,,,,0.0,,,,Pass,,,,,
118.0,17.0,wc_17,wc_13,0.0,"[('wc_17', 0.9900000000000008)]",0.9900000000000008,,,22.0,0.006353000000000001,['Pass'],Pass,0.3500000000000002,-0.016666666666666885,3.0,9.0,0.2
118.0,17.0,wc_17,,0.0,,,,0.0,,,,Pass,,,,,
118.0,17.0,wc_17,wc_14,0.0,"[('wc_17', 0.9900000000000008)]",0.9900000000000008,,,23.0,0.008465,['Pass'],Pass,0.2200000000000001,0.1133333333333332,3.0,9.0,0.2
118.0,17.0,wc_17,,0.0,,,,0.0,,,,Pass,,,,,
118.0,17.0,wc_17,wc_15,0.0,"[('wc_17', 0.9900000000000008)]",0.9900000000000008,,,25.0,0.010105999999999999,['Pass'],Pass,0.3700000000000002,-0.0366666666666669,3.0,9.0,0.2
118.0,17.0,wc_17,,0.0,,,,0.0,,,,Pass,,,,,
118.0,17.0,wc_17,wc_16,0.0,"[('wc_17', 0.9900000000000008)]",0.9900000000000008,,,21.0,0.01474,['Pass'],Pass,0.1900000000000001,0.1433333333333332,3.0,9.0,0.1
118.0,17.0,wc_17,,0.0,,,,203.0,,,,Pass,,,,,
118.0,17.0,wc_17,wc_6,0.0,"[('wc_6', 0.8600000000000007), ('wc_17', 0.9900000000000008)]",0.9986000000000002,,,37.0,0.017440999999999998,['Pass'],Pass,0.8600000000000007,-0.6600000000000006,1.0,5.0,0.7
118.0,17.0,wc_17,,0.0,,,,0.0,,,,Pass,,,,,
118.0,17.0,wc_17,wc_7,0.0,"[('wc_17', 0.9900000000000008), ('wc_6', 0.8600000000000007)]",0.9986000000000002,,,39.0,0.015175999999999999,['Pass'],Pass,0.7200000000000005,-0.47000000000000053,0.0,0.0,0.6
118.0,17.0,wc_17,,0.0,,,,0.0,,,,Pass,,,,,
118.0,17.0,wc_17,wc_8,1.0,"[('wc_8', 0.4400000000000003), ('wc_17', 0.9900000000000008), ('wc_6', 0.8600000000000007)]",0.9992160000000001,,,26.0,0.063844,['Pass'],Pass,0.4400000000000003,-0.10666666666666696,1.0,3.0,0.3
