mpecck/BCQC/bcqc_with_qdt/results/raw/input_17/independent_qc/training/20_workpiece/20200429_095231/wp_4_qc_majority_0.9.csv
production_index,step_idx,production_workcell,qc,consent,winner_qc_list,score,production_time,transport_time,inspection_time,network_time,qc_results,actual_quality,qc_score,score_error,in_winner_counter,in_qc_counter,qc_capability
4.0,1.0,wc_1,,0.0,,,61.0,,,,,Fail,,,,,
4.0,1.0,wc_1,,0.0,,,,0.0,,,,Fail,,,,,
4.0,1.0,wc_1,wc_1,0.0,"[('wc_1', 0.5700000000000004)]",0.5700000000000004,,,29.0,0.002214,['Fail'],Fail,0.5700000000000004,0.09666666666666623,6.0,9.0,0.7
4.0,1.0,wc_1,,0.0,,,,0.0,,,,Fail,,,,,
4.0,1.0,wc_1,wc_4,0.0,"[('wc_4', 0.08000000000000003), ('wc_1', 0.5700000000000004)]",0.6044000000000004,,,34.0,0.005399,['Fail'],Fail,0.08000000000000003,-0.08000000000000003,0.0,6.0,0.1
4.0,1.0,wc_1,,0.0,,,,81.0,,,,Fail,,,,,
4.0,1.0,wc_1,wc_6,0.0,"[('wc_6', 0.4900000000000003), ('wc_1', 0.5700000000000004), ('wc_4', 0.08000000000000003)]",0.7982440000000003,,,30.0,0.009883,['Fail'],Fail,0.4900000000000003,-0.39000000000000035,0.0,0.0,1.0
4.0,1.0,wc_1,,0.0,,,,321.0,,,,Fail,,,,,
4.0,1.0,wc_1,wc_3,0.0,"[('wc_1', 0.5700000000000004), ('wc_4', 0.08000000000000003), ('wc_6', 0.4900000000000003)]",0.7982440000000003,,,28.0,0.017316,['Fail'],Fail,0.3500000000000002,0.1499999999999998,2.0,4.0,0.4
4.0,1.0,wc_1,,0.0,,,,182.0,,,,Fail,,,,,
4.0,1.0,wc_1,wc_10,0.0,"[('wc_1', 0.5700000000000004), ('wc_4', 0.08000000000000003), ('wc_6', 0.4900000000000003)]",0.7982440000000003,,,36.0,0.009834,['Fail'],Fail,0.3700000000000002,-0.3700000000000002,0.0,8.0,0.3
4.0,1.0,wc_1,,0.0,,,,81.0,,,,Fail,,,,,
4.0,1.0,wc_1,wc_12,1.0,"[('wc_12', 0.5600000000000004), ('wc_1', 0.5700000000000004), ('wc_4', 0.08000000000000003), ('wc_6', 0.4900000000000003)]",0.9112273600000003,,,39.0,0.046613,['Fail'],Fail,0.5600000000000004,-0.060000000000000386,4.0,8.0,0.9
106.0,1.0,wc_1,,0.0,,,,242.0,,,,Fail,,,,,
106.0,1.0,wc_1,,0.0,,,60.0,,,,,Fail,,,,,
106.0,1.0,wc_1,,0.0,,,,0.0,,,,Fail,,,,,
106.0,1.0,wc_1,wc_1,0.0,"[('wc_1', 0.5800000000000004)]",0.5800000000000004,,,32.0,0.002398,['Fail'],Fail,0.5800000000000004,-0.5800000000000004,0.0,0.0,0.7
106.0,1.0,wc_1,,0.0,,,,243.0,,,,Fail,,,,,
106.0,1.0,wc_1,wc_11,0.0,"[('wc_11', 0.6200000000000004), ('wc_1', 0.5800000000000004)]",0.8404000000000004,,,31.0,0.0060669999999999995,['Fail'],Fail,0.6200000000000004,-0.24500000000000044,3.0,8.0,0.8
106.0,1.0,wc_1,,0.0,,,,362.0,,,,Fail,,,,,
106.0,1.0,wc_1,wc_5,0.0,"[('wc_5', 0.14), ('wc_1', 0.5800000000000004), ('wc_11', 0.6200000000000004)]",0.8627440000000003,,,26.0,0.00595,['Fail'],Fail,0.14,-0.14,0.0,8.0,0.1
106.0,1.0,wc_1,,0.0,,,,141.0,,,,Fail,,,,,
106.0,1.0,wc_1,wc_14,0.0,"[('wc_1', 0.5800000000000004), ('wc_11', 0.6200000000000004), ('wc_5', 0.14)]",0.8627440000000003,,,28.0,0.009605,['Fail'],Fail,0.13,0.05181818181818182,0.0,0.0,0.2
106.0,1.0,wc_1,,0.0,,,,0.0,,,,Fail,,,,,
106.0,1.0,wc_1,wc_15,1.0,"[('wc_15', 0.5200000000000004), ('wc_1', 0.5800000000000004), ('wc_11', 0.6200000000000004), ('wc_5', 0.14)]",0.9341171200000002,,,33.0,0.039542999999999995,['Fail'],Fail,0.5200000000000004,-0.27000000000000035,1.0,4.0,0.9
211.0,1.0,wc_1,,0.0,,,,283.0,,,,Pass,,,,,
211.0,1.0,wc_1,,0.0,,,78.0,,,,,Pass,,,,,
211.0,1.0,wc_1,,0.0,,,,0.0,,,,Pass,,,,,
211.0,1.0,wc_1,wc_1,0.0,"[('wc_1', 0.5900000000000004)]",0.5900000000000004,,,27.0,0.008977,['Pass'],Pass,0.5900000000000004,0.4099999999999996,1.0,1.0,0.7
211.0,1.0,wc_1,,0.0,,,,243.0,,,,Pass,,,,,
211.0,1.0,wc_1,wc_15,0.0,"[('wc_15', 0.5200000000000004), ('wc_1', 0.5900000000000004)]",0.8032000000000004,,,35.0,0.006221,['Pass'],Pass,0.5200000000000004,-0.27000000000000035,1.0,4.0,0.9
211.0,1.0,wc_1,,0.0,,,,61.0,,,,Pass,,,,,
211.0,1.0,wc_1,wc_12,1.0,"[('wc_12', 0.5600000000000004), ('wc_1', 0.5900000000000004), ('wc_15', 0.5200000000000004)]",0.9134080000000002,,,24.0,0.034579000000000006,['Pass'],Pass,0.5600000000000004,-0.5600000000000004,0.0,0.0,0.9
223.0,4.0,wc_4,,0.0,,,,381.0,,,,Fail,,,,,
223.0,4.0,wc_4,,0.0,,,59.0,,,,,Fail,,,,,
223.0,4.0,wc_4,,0.0,,,,0.0,,,,Fail,,,,,
223.0,4.0,wc_4,wc_4,0.0,"[('wc_4', 0.09000000000000002)]",0.09000000000000008,,,37.0,0.002224,['Fail'],Fail,0.09000000000000002,0.02111111111111108,1.0,9.0,0.1
223.0,4.0,wc_4,,0.0,,,,101.0,,,,Fail,,,,,
223.0,4.0,wc_4,wc_7,0.0,"[('wc_7', 0.5800000000000004), ('wc_4', 0.09000000000000002)]",0.6178000000000003,,,28.0,0.00429,['Fail'],Fail,0.5800000000000004,-0.5800000000000004,0.0,0.0,1.0
223.0,4.0,wc_4,,0.0,,,,301.0,,,,Fail,,,,,
223.0,4.0,wc_4,wc_3,0.0,"[('wc_3', 0.3500000000000002), ('wc_4', 0.09000000000000002), ('wc_7', 0.5800000000000004)]",0.7515700000000003,,,27.0,0.005907000000000001,['Fail'],Fail,0.3500000000000002,-0.0642857142857145,2.0,7.0,0.4
223.0,4.0,wc_4,,0.0,,,,182.0,,,,Fail,,,,,
223.0,4.0,wc_4,wc_10,0.0,"[('wc_10', 0.3600000000000002), ('wc_4', 0.09000000000000002), ('wc_7', 0.5800000000000004), ('wc_3', 0.3500000000000002)]",0.8410048000000002,,,22.0,0.026302,['Fail'],Fail,0.3600000000000002,-0.3600000000000002,0.0,0.0,0.3
223.0,4.0,wc_4,,0.0,,,,81.0,,,,Fail,,,,,
223.0,4.0,wc_4,wc_8,0.0,"[('wc_8', 0.17000000000000004), ('wc_4', 0.09000000000000002), ('wc_7', 0.5800000000000004), ('wc_3', 0.3500000000000002), ('wc_10', 0.3600000000000002)]",0.8680339840000002,,,20.0,0.017372,['Fail'],Fail,0.17000000000000004,-0.02714285714285719,1.0,7.0,0.1
223.0,4.0,wc_4,,0.0,,,,321.0,,,,Fail,,,,,
223.0,4.0,wc_4,wc_5,0.0,"[('wc_5', 0.14), ('wc_4', 0.09000000000000002), ('wc_7', 0.5800000000000004), ('wc_3', 0.3500000000000002), ('wc_10', 0.3600000000000002), ('wc_8', 0.17000000000000004)]",0.8865092262400002,,,23.0,0.016801999999999997,['Fail'],Fail,0.14,-0.04000000000000001,0.0,0.0,0.1
223.0,4.0,wc_4,,0.0,,,,202.0,,,,Fail,,,,,
223.0,4.0,wc_4,wc_17,1.0,"[('wc_17', 0.41000000000000025), ('wc_4', 0.09000000000000002), ('wc_7', 0.5800000000000004), ('wc_3', 0.3500000000000002), ('wc_10', 0.3600000000000002), ('wc_8', 0.17000000000000004), ('wc_5', 0.14)]",0.9330404434816001,,,25.0,0.054189,['Fail'],Fail,0.41000000000000025,-0.12428571428571455,2.0,7.0,0.6
235.0,4.0,wc_4,,0.0,,,,382.0,,,,Pass,,,,,
235.0,4.0,wc_4,,0.0,,,59.0,,,,,Pass,,,,,
235.0,4.0,wc_4,,0.0,,,,0.0,,,,Pass,,,,,
235.0,4.0,wc_4,wc_4,0.0,"[('wc_4', 0.10000000000000002)]",0.09999999999999998,,,21.0,0.002583,['Fail'],Pass,0.10000000000000002,-0.10000000000000002,0.0,0.0,0.1
235.0,4.0,wc_4,,0.0,,,,61.0,,,,Pass,,,,,
235.0,4.0,wc_4,wc_1,0.0,"[('wc_1', 0.6000000000000004)]",0.6000000000000004,,,28.0,0.006253,['Pass'],Pass,0.6000000000000004,0.06666666666666621,2.0,3.0,0.7
235.0,4.0,wc_4,,0.0,,,,222.0,,,,Pass,,,,,
235.0,4.0,wc_4,wc_14,0.0,"[('wc_1', 0.6000000000000004)]",0.6000000000000004,,,38.0,0.008134,['Pass'],Pass,0.12000000000000001,-0.12000000000000001,0.0,3.0,0.2
235.0,4.0,wc_4,,0.0,,,,162.0,,,,Pass,,,,,
235.0,4.0,wc_4,wc_7,0.0,"[('wc_7', 0.5900000000000004), ('wc_1', 0.6000000000000004)]",0.8360000000000003,,,26.0,0.007929,['Pass'],Pass,0.5900000000000004,0.4099999999999996,1.0,1.0,1.0
235.0,4.0,wc_4,,0.0,,,,341.0,,,,Pass,,,,,
235.0,4.0,wc_4,wc_5,0.0,"[('wc_1', 0.6000000000000004), ('wc_7', 0.5900000000000004)]",0.8360000000000003,,,30.0,0.008924000000000001,['Pass'],Pass,0.15000000000000002,0.85,1.0,1.0,0.1
235.0,4.0,wc_4,,0.0,,,,101.0,,,,Pass,,,,,
235.0,4.0,wc_4,wc_12,1.0,"[('wc_12', 0.5600000000000004), ('wc_1', 0.6000000000000004), ('wc_7', 0.5900000000000004)]",0.9278400000000002,,,36.0,0.052613999999999994,['Pass'],Pass,0.5600000000000004,-0.060000000000000386,1.0,2.0,0.9
252.0,3.0,wc_3,,0.0,,,,361.0,,,,Pass,,,,,
252.0,3.0,wc_3,,0.0,,,74.0,,,,,Pass,,,,,
252.0,3.0,wc_3,,0.0,,,,0.0,,,,Pass,,,,,
252.0,3.0,wc_3,wc_3,0.0,"[('wc_3', 0.3600000000000002)]",0.3600000000000002,,,28.0,0.002363,['Pass'],Pass,0.3600000000000002,-0.026666666666666894,3.0,9.0,0.4
252.0,3.0,wc_3,,0.0,,,,181.0,,,,Pass,,,,,
252.0,3.0,wc_3,wc_14,0.0,"[('wc_14', 0.11000000000000001), ('wc_3', 0.3600000000000002)]",0.4304000000000002,,,22.0,0.005353,['Pass'],Pass,0.11000000000000001,-0.11000000000000001,0.0,4.0,0.2
252.0,3.0,wc_3,,0.0,,,,0.0,,,,Pass,,,,,
252.0,3.0,wc_3,wc_15,0.0,"[('wc_15', 0.5200000000000004), ('wc_3', 0.3600000000000002), ('wc_14', 0.11000000000000001)]",0.7265920000000003,,,33.0,0.007134000000000001,['Pass'],Pass,0.5200000000000004,-0.23428571428571465,2.0,7.0,0.9
252.0,3.0,wc_3,,0.0,,,,263.0,,,,Pass,,,,,
252.0,3.0,wc_3,wc_8,0.0,"[('wc_8', 0.18000000000000005), ('wc_3', 0.3600000000000002), ('wc_14', 0.11000000000000001), ('wc_15', 0.5200000000000004)]",0.7758054400000003,,,20.0,0.009263,['Pass'],Pass,0.18000000000000005,0.04222222222222216,2.0,9.0,0.1
252.0,3.0,wc_3,,0.0,,,,102.0,,,,Pass,,,,,
252.0,3.0,wc_3,wc_7,1.0,"[('wc_7', 0.6000000000000004), ('wc_3', 0.3600000000000002), ('wc_14', 0.11000000000000001), ('wc_15', 0.5200000000000004), ('wc_8', 0.18000000000000005)]",0.9103221760000002,,,22.0,0.046397999999999995,['Pass'],Pass,0.6100000000000004,0.38999999999999957,3.0,3.0,1.0
270.0,2.0,wc_2,,0.0,,,,202.0,,,,Fail,,,,,
270.0,2.0,wc_2,,0.0,,,60.0,,,,,Fail,,,,,
270.0,2.0,wc_2,,0.0,,,,0.0,,,,Fail,,,,,
270.0,2.0,wc_2,wc_2,0.0,"[('wc_2', 0.4700000000000003)]",0.4700000000000003,,,21.0,0.002198,['Fail'],Fail,0.4700000000000003,-0.3588888888888892,0.0,0.0,0.8
270.0,2.0,wc_2,,0.0,,,,0.0,,,,Fail,,,,,
270.0,2.0,wc_2,wc_5,0.0,"[('wc_5', 0.15000000000000002), ('wc_2', 0.4700000000000003)]",0.5495000000000003,,,24.0,0.005818,['Fail'],Fail,0.15000000000000002,0.1833333333333333,1.0,3.0,0.1
270.0,2.0,wc_2,,0.0,,,,103.0,,,,Fail,,,,,
270.0,2.0,wc_2,wc_4,0.0,"[('wc_4', 0.09000000000000002), ('wc_2', 0.4700000000000003), ('wc_5', 0.15000000000000002)]",0.5900450000000003,,,33.0,0.008366,['Fail'],Fail,0.09000000000000002,-0.09000000000000002,0.0,2.0,0.1
270.0,2.0,wc_2,,0.0,,,,142.0,,,,Fail,,,,,
270.0,2.0,wc_2,wc_9,0.0,"[('wc_9', 0.4700000000000003), ('wc_2', 0.4700000000000003), ('wc_5', 0.15000000000000002), ('wc_4', 0.09000000000000002)]",0.7827238500000003,,,27.0,0.017662999999999998,['Fail'],Fail,0.4700000000000003,-0.32714285714285746,1.0,7.0,0.6
270.0,2.0,wc_2,,0.0,,,,162.0,,,,Fail,,,,,
270.0,2.0,wc_2,wc_15,0.0,"[('wc_15', 0.5200000000000004), ('wc_2', 0.4700000000000003), ('wc_5', 0.15000000000000002), ('wc_4', 0.09000000000000002), ('wc_9', 0.4700000000000003)]",0.8957074480000002,,,22.0,0.014636999999999999,['Fail'],Fail,0.5200000000000004,-0.14500000000000035,3.0,8.0,0.9
270.0,2.0,wc_2,,0.0,,,,0.0,,,,Fail,,,,,
270.0,2.0,wc_2,wc_17,1.0,"[('wc_17', 0.41000000000000025), ('wc_2', 0.4700000000000003), ('wc_5', 0.15000000000000002), ('wc_4', 0.09000000000000002), ('wc_9', 0.4700000000000003), ('wc_15', 0.5200000000000004)]",0.9384673943200001,,,26.0,0.040781,['Fail'],Fail,0.41000000000000025,-0.41000000000000025,0.0,0.0,0.6
300.0,2.0,wc_2,,0.0,,,,263.0,,,,Pass,,,,,
300.0,2.0,wc_2,,0.0,,,50.0,,,,,Pass,,,,,
300.0,2.0,wc_2,,0.0,,,,0.0,,,,Pass,,,,,
300.0,2.0,wc_2,wc_2,0.0,"[('wc_2', 0.4800000000000003)]",0.4800000000000003,,,35.0,0.002204,['Pass'],Pass,0.4800000000000003,0.5199999999999997,1.0,1.0,0.8
300.0,2.0,wc_2,,0.0,,,,142.0,,,,Pass,,,,,
300.0,2.0,wc_2,wc_7,0.0,"[('wc_7', 0.6100000000000004), ('wc_2', 0.4800000000000003)]",0.7972000000000004,,,22.0,0.004372,['Pass'],Pass,0.6100000000000004,0.13999999999999957,3.0,4.0,1.0
300.0,2.0,wc_2,,0.0,,,,182.0,,,,Pass,,,,,
300.0,2.0,wc_2,wc_14,0.0,"[('wc_14', 0.12000000000000001), ('wc_2', 0.4800000000000003), ('wc_7', 0.6100000000000004)]",0.8215360000000003,,,23.0,0.005685,['Pass'],Pass,0.12000000000000001,0.04666666666666665,1.0,6.0,0.2
300.0,2.0,wc_2,,0.0,,,,0.0,,,,Pass,,,,,
300.0,2.0,wc_2,wc_15,1.0,"[('wc_15', 0.5200000000000004), ('wc_2', 0.4800000000000003), ('wc_7', 0.6100000000000004), ('wc_14', 0.12000000000000001)]",0.9143372800000003,,,25.0,0.03709200000000001,['Pass'],Pass,0.5200000000000004,-0.5200000000000004,0.0,0.0,0.9
313.0,5.0,wc_5,,0.0,,,,442.0,,,,Pass,,,,,
313.0,5.0,wc_5,,0.0,,,79.0,,,,,Pass,,,,,
313.0,5.0,wc_5,,0.0,,,,0.0,,,,Pass,,,,,
313.0,5.0,wc_5,wc_5,0.0,"[('wc_5', 0.16000000000000003)]",0.16000000000000003,,,23.0,0.002197,['Pass'],Pass,0.16000000000000003,0.24,2.0,5.0,0.1
313.0,5.0,wc_5,,0.0,,,,141.0,,,,Pass,,,,,
313.0,5.0,wc_5,wc_14,0.0,"[('wc_14', 0.13), ('wc_5', 0.16000000000000003)]",0.2692,,,26.0,0.005272,['Pass'],Pass,0.13,0.1557142857142857,2.0,7.0,0.2
313.0,5.0,wc_5,,0.0,,,,82.0,,,,Pass,,,,,
313.0,5.0,wc_5,wc_12,0.0,"[('wc_12', 0.5600000000000004), ('wc_5', 0.16000000000000003), ('wc_14', 0.13)]",0.6784480000000004,,,34.0,0.007685999999999999,['Pass'],Pass,0.5600000000000004,-0.3600000000000004,1.0,5.0,0.9
313.0,5.0,wc_5,,0.0,,,,182.0,,,,Pass,,,,,
313.0,5.0,wc_5,wc_6,0.0,"[('wc_6', 0.5000000000000003), ('wc_5', 0.16000000000000003), ('wc_14', 0.13), ('wc_12', 0.5600000000000004)]",0.8392240000000003,,,39.0,0.008839,['Pass'],Pass,0.5000000000000003,-0.37500000000000033,1.0,8.0,1.0
313.0,5.0,wc_5,,0.0,,,,0.0,,,,Pass,,,,,
313.0,5.0,wc_5,wc_8,0.0,"[('wc_8', 0.19000000000000006), ('wc_5', 0.16000000000000003), ('wc_14', 0.13), ('wc_12', 0.5600000000000004), ('wc_6', 0.5000000000000003)]",0.8697714400000003,,,22.0,0.009217,['Pass'],Pass,0.19000000000000006,-0.19000000000000006,0.0,2.0,0.1
313.0,5.0,wc_5,,0.0,,,,301.0,,,,Pass,,,,,
313.0,5.0,wc_5,wc_4,0.0,"[('wc_5', 0.16000000000000003), ('wc_14', 0.13), ('wc_12', 0.5600000000000004), ('wc_6', 0.5000000000000003), ('wc_8', 0.19000000000000006)]",0.8697714400000002,,,27.0,0.012081,['Pass'],Pass,0.10000000000000002,0.14999999999999997,1.0,4.0,0.1
313.0,5.0,wc_5,,0.0,,,,141.0,,,,Pass,,,,,
313.0,5.0,wc_5,wc_13,1.0,"[('wc_13', 0.39000000000000024), ('wc_5', 0.16000000000000003), ('wc_14', 0.13), ('wc_12', 0.5600000000000004), ('wc_6', 0.5000000000000003), ('wc_8', 0.19000000000000006)]",0.9205605784000002,,,31.0,0.044999,['Pass'],Pass,0.39000000000000024,-0.39000000000000024,0.0,0.0,0.8
332.0,6.0,wc_6,,0.0,,,,162.0,,,,Pass,,,,,
332.0,6.0,wc_6,,0.0,,,66.0,,,,,Pass,,,,,
332.0,6.0,wc_6,,0.0,,,,0.0,,,,Pass,,,,,
332.0,6.0,wc_6,wc_6,0.0,"[('wc_6', 0.5000000000000003)]",0.5000000000000003,,,32.0,0.002184,['Fail'],Pass,0.5000000000000003,-0.2777777777777781,2.0,9.0,1.0
332.0,6.0,wc_6,,0.0,,,,202.0,,,,Pass,,,,,
332.0,6.0,wc_6,wc_14,0.0,"[('wc_14', 0.14), ('wc_6', 0.5000000000000003)]",0.5700000000000003,,,29.0,0.00417,['Fail'],Pass,0.14,0.235,3.0,8.0,0.2
332.0,6.0,wc_6,,0.0,,,,341.0,,,,Pass,,,,,
332.0,6.0,wc_6,wc_4,0.0,"[('wc_6', 0.5000000000000003), ('wc_14', 0.14)]",0.5700000000000003,,,33.0,0.005583,['Fail'],Pass,0.10000000000000002,0.09999999999999999,1.0,5.0,0.1
332.0,6.0,wc_6,,0.0,,,,141.0,,,,Pass,,,,,
332.0,6.0,wc_6,wc_13,0.0,"[('wc_6', 0.5000000000000003), ('wc_14', 0.14)]",0.5700000000000003,,,27.0,0.007585,['Fail'],Pass,0.39000000000000024,-0.39000000000000024,0.0,0.0,0.8
332.0,6.0,wc_6,,0.0,,,,321.0,,,,Pass,,,,,
332.0,6.0,wc_6,wc_10,0.0,"[('wc_10', 0.3700000000000002), ('wc_4', 0.10000000000000002), ('wc_13', 0.39000000000000024)]",0.6541300000000002,,,34.0,0.016286000000000002,['Pass'],Pass,0.3700000000000002,-0.20333333333333356,1.0,6.0,0.3
332.0,6.0,wc_6,,0.0,,,,382.0,,,,Pass,,,,,
332.0,6.0,wc_6,wc_5,0.0,"[('wc_5', 0.17000000000000004), ('wc_4', 0.10000000000000002), ('wc_13', 0.39000000000000024), ('wc_10', 0.3700000000000002)]",0.7129279000000002,,,22.0,0.011342000000000001,['Pass'],Pass,0.17000000000000004,0.32999999999999996,3.0,6.0,0.1
332.0,6.0,wc_6,,0.0,,,,81.0,,,,Pass,,,,,
332.0,6.0,wc_6,wc_7,0.0,"[('wc_7', 0.6200000000000004), ('wc_4', 0.10000000000000002), ('wc_13', 0.39000000000000024), ('wc_10', 0.3700000000000002), ('wc_5', 0.17000000000000004)]",0.8909126020000002,,,32.0,0.013352999999999999,['Pass'],Pass,0.6200000000000004,0.04666666666666619,4.0,6.0,1.0
332.0,6.0,wc_6,,0.0,,,,142.0,,,,Pass,,,,,
332.0,6.0,wc_6,wc_12,1.0,"[('wc_12', 0.5600000000000004), ('wc_4', 0.10000000000000002), ('wc_13', 0.39000000000000024), ('wc_10', 0.3700000000000002), ('wc_5', 0.17000000000000004), ('wc_7', 0.6200000000000004)]",0.9520015448800001,,,39.0,0.060663999999999996,['Pass'],Pass,0.5600000000000004,-0.13142857142857184,3.0,7.0,0.9
349.0,10.0,wc_10,,0.0,,,,341.0,,,,Fail,,,,,
349.0,10.0,wc_10,,0.0,,,76.0,,,,,Fail,,,,,
349.0,10.0,wc_10,,0.0,,,,0.0,,,,Fail,,,,,
349.0,10.0,wc_10,wc_10,0.0,"[('wc_10', 0.3700000000000002)]",0.3700000000000002,,,29.0,0.002191,['Fail'],Fail,0.3700000000000002,-0.08428571428571452,2.0,7.0,0.3
349.0,10.0,wc_10,,0.0,,,,162.0,,,,Fail,,,,,
349.0,10.0,wc_10,wc_16,0.0,"[('wc_16', 0.5600000000000004), ('wc_10', 0.3700000000000002)]",0.7228000000000003,,,29.0,0.006979,['Fail'],Fail,0.5600000000000004,-0.4266666666666671,0.0,0.0,0.8
349.0,10.0,wc_10,,0.0,,,,243.0,,,,Fail,,,,,
349.0,10.0,wc_10,wc_8,0.0,"[('wc_8', 0.20000000000000007), ('wc_10', 0.3700000000000002), ('wc_16', 0.5600000000000004)]",0.7782400000000003,,,34.0,0.005807,['Fail'],Fail,0.20000000000000007,0.04999999999999993,1.0,4.0,0.1
349.0,10.0,wc_10,,0.0,,,,162.0,,,,Fail,,,,,
349.0,10.0,wc_10,wc_1,0.0,"[('wc_10', 0.3700000000000002), ('wc_16', 0.5600000000000004), ('wc_8', 0.20000000000000007)]",0.7782400000000003,,,29.0,0.007907,['Fail'],Fail,0.6100000000000004,-0.2766666666666671,3.0,9.0,0.7
349.0,10.0,wc_10,,0.0,,,,0.0,,,,Fail,,,,,
349.0,10.0,wc_10,wc_4,0.0,"[('wc_4', 0.11000000000000001), ('wc_10', 0.3700000000000002), ('wc_16', 0.5600000000000004), ('wc_8', 0.20000000000000007)]",0.8026336000000003,,,31.0,0.010228000000000001,['Fail'],Fail,0.11000000000000001,0.2233333333333333,2.0,6.0,0.1
349.0,10.0,wc_10,,0.0,,,,161.0,,,,Fail,,,,,
349.0,10.0,wc_10,wc_14,0.0,"[('wc_14', 0.14), ('wc_10', 0.3700000000000002), ('wc_16', 0.5600000000000004), ('wc_8', 0.20000000000000007), ('wc_4', 0.11000000000000001)]",0.8302648960000002,,,28.0,0.011027,['Fail'],Fail,0.14,0.1933333333333333,3.0,9.0,0.2
349.0,10.0,wc_10,,0.0,,,,361.0,,,,Fail,,,,,
349.0,10.0,wc_10,wc_5,0.0,"[('wc_10', 0.3700000000000002), ('wc_16', 0.5600000000000004), ('wc_8', 0.20000000000000007), ('wc_4', 0.11000000000000001), ('wc_14', 0.14)]",0.8302648960000002,,,22.0,0.015816999999999998,['Fail'],Fail,0.18000000000000005,0.39142857142857135,4.0,7.0,0.1
349.0,10.0,wc_10,,0.0,,,,162.0,,,,Fail,,,,,
349.0,10.0,wc_10,wc_11,1.0,"[('wc_11', 0.6200000000000004), ('wc_10', 0.3700000000000002), ('wc_16', 0.5600000000000004), ('wc_8', 0.20000000000000007), ('wc_4', 0.11000000000000001), ('wc_14', 0.14)]",0.9355006604800001,,,25.0,0.049112,['Fail'],Fail,0.6200000000000004,-0.6200000000000004,0.0,0.0,0.8
359.0,8.0,wc_8,,0.0,,,,61.0,,,,Pass,,,,,
359.0,8.0,wc_8,,0.0,,,65.0,,,,,Pass,,,,,
359.0,8.0,wc_8,,0.0,,,,0.0,,,,Pass,,,,,
359.0,8.0,wc_8,wc_8,0.0,"[('wc_8', 0.21000000000000008)]",0.21000000000000008,,,22.0,0.002229,['Fail'],Pass,0.21000000000000008,0.18999999999999995,2.0,5.0,0.1
359.0,8.0,wc_8,,0.0,,,,301.0,,,,Pass,,,,,
359.0,8.0,wc_8,wc_4,0.0,"[('wc_8', 0.21000000000000008)]",0.21000000000000008,,,27.0,0.003954,['Fail'],Pass,0.12000000000000001,0.30857142857142855,3.0,7.0,0.1
359.0,8.0,wc_8,,0.0,,,,81.0,,,,Pass,,,,,
359.0,8.0,wc_8,wc_2,0.0,"[('wc_2', 0.4900000000000003), ('wc_4', 0.12000000000000001)]",0.5512000000000004,,,22.0,0.006017,['Pass'],Pass,0.4900000000000003,-0.0900000000000003,2.0,5.0,0.8
359.0,8.0,wc_8,,0.0,,,,203.0,,,,Pass,,,,,
359.0,8.0,wc_8,wc_10,0.0,"[('wc_4', 0.12000000000000001), ('wc_2', 0.4900000000000003)]",0.5512000000000004,,,36.0,0.007742,['Pass'],Pass,0.3700000000000002,0.004999999999999782,3.0,8.0,0.3
359.0,8.0,wc_8,,0.0,,,,0.0,,,,Pass,,,,,
359.0,8.0,wc_8,wc_11,0.0,"[('wc_11', 0.6200000000000004), ('wc_4', 0.12000000000000001), ('wc_2', 0.4900000000000003)]",0.8294560000000003,,,22.0,0.019964,['Pass'],Pass,0.6200000000000004,-0.6200000000000004,0.0,0.0,0.8
359.0,8.0,wc_8,,0.0,,,,162.0,,,,Pass,,,,,
359.0,8.0,wc_8,wc_17,0.0,"[('wc_17', 0.41000000000000025), ('wc_4', 0.12000000000000001), ('wc_2', 0.4900000000000003), ('wc_11', 0.6200000000000004)]",0.8993790400000002,,,37.0,0.014313000000000001,['Pass'],Pass,0.41000000000000025,-0.41000000000000025,0.0,4.0,0.6
359.0,8.0,wc_8,,0.0,,,,243.0,,,,Pass,,,,,
359.0,8.0,wc_8,wc_1,1.0,"[('wc_1', 0.6000000000000004), ('wc_4', 0.12000000000000001), ('wc_2', 0.4900000000000003), ('wc_11', 0.6200000000000004), ('wc_17', 0.41000000000000025)]",0.9597516160000001,,,34.0,0.04429999999999999,['Pass'],Pass,0.6100000000000004,0.38999999999999957,1.0,1.0,0.7
370.0,10.0,wc_10,,0.0,,,,223.0,,,,Pass,,,,,
370.0,10.0,wc_10,,0.0,,,52.0,,,,,Pass,,,,,
370.0,10.0,wc_10,,0.0,,,,0.0,,,,Pass,,,,,
370.0,10.0,wc_10,wc_10,0.0,"[('wc_10', 0.3600000000000002)]",0.3600000000000002,,,34.0,0.002191,['Fail'],Pass,0.3600000000000002,-0.026666666666666894,3.0,9.0,0.3
370.0,10.0,wc_10,,0.0,,,,103.0,,,,Pass,,,,,
370.0,10.0,wc_10,wc_9,0.0,"[('wc_9', 0.4700000000000003)]",0.4700000000000003,,,29.0,0.005781,['Pass'],Pass,0.4700000000000003,-0.31615384615384645,0.0,0.0,0.6
370.0,10.0,wc_10,,0.0,,,,362.0,,,,Pass,,,,,
370.0,10.0,wc_10,wc_3,0.0,"[('wc_3', 0.3700000000000002), ('wc_10', 0.3600000000000002)]",0.5968000000000002,,,32.0,0.006025,['Fail'],Pass,0.3700000000000002,-0.3700000000000002,0.0,6.0,0.4
370.0,10.0,wc_10,,0.0,,,,101.0,,,,Pass,,,,,
370.0,10.0,wc_10,wc_2,0.0,"[('wc_2', 0.4900000000000003), ('wc_10', 0.3600000000000002), ('wc_3', 0.3700000000000002)]",0.7943680000000003,,,40.0,0.010476,['Fail'],Pass,0.4900000000000003,0.009999999999999676,3.0,6.0,0.8
370.0,10.0,wc_10,,0.0,,,,162.0,,,,Pass,,,,,
370.0,10.0,wc_10,wc_8,0.0,"[('wc_10', 0.3600000000000002), ('wc_3', 0.3700000000000002), ('wc_2', 0.4900000000000003)]",0.7943680000000003,,,33.0,0.009755999999999999,['Fail'],Pass,0.21000000000000008,0.12333333333333324,2.0,6.0,0.1
370.0,10.0,wc_10,,0.0,,,,122.0,,,,Pass,,,,,
370.0,10.0,wc_10,wc_12,0.0,"[('wc_12', 0.5600000000000004), ('wc_9', 0.4700000000000003), ('wc_8', 0.21000000000000008)]",0.8157720000000003,,,26.0,0.010922,['Pass'],Pass,0.5600000000000004,-0.22666666666666707,3.0,9.0,0.9
370.0,10.0,wc_10,,0.0,,,,202.0,,,,Pass,,,,,
370.0,10.0,wc_10,wc_7,1.0,"[('wc_7', 0.6300000000000004), ('wc_9', 0.4700000000000003), ('wc_8', 0.21000000000000008), ('wc_12', 0.5600000000000004)]",0.9318356400000002,,,21.0,0.043372999999999995,['Pass'],Pass,0.6300000000000004,-0.6300000000000004,0.0,0.0,1.0
382.0,9.0,wc_9,,0.0,,,,0.0,,,,Fail,,,,,
382.0,9.0,wc_9,,0.0,,,73.0,,,,,Fail,,,,,
382.0,9.0,wc_9,,0.0,,,,0.0,,,,Fail,,,,,
382.0,9.0,wc_9,wc_9,0.0,"[('wc_9', 0.4800000000000003)]",0.4800000000000003,,,31.0,0.00224,['Fail'],Fail,0.4800000000000003,0.5199999999999997,1.0,1.0,0.6
382.0,9.0,wc_9,,0.0,,,,362.0,,,,Fail,,,,,
382.0,9.0,wc_9,wc_3,0.0,"[('wc_9', 0.4800000000000003)]",0.4800000000000003,,,39.0,0.003821,['Fail'],Fail,0.3600000000000002,-0.3600000000000002,0.0,7.0,0.4
382.0,9.0,wc_9,,0.0,,,,141.0,,,,Fail,,,,,
382.0,9.0,wc_9,wc_8,0.0,"[('wc_8', 0.22000000000000008), ('wc_3', 0.3600000000000002)]",0.5008000000000001,,,28.0,0.006102,['Pass'],Fail,0.22000000000000008,0.20857142857142846,3.0,7.0,0.1
382.0,9.0,wc_9,,0.0,,,,301.0,,,,Fail,,,,,
382.0,9.0,wc_9,wc_4,0.0,"[('wc_4', 0.13), ('wc_9', 0.4800000000000003)]",0.5476000000000003,,,27.0,0.007418,['Fail'],Fail,0.13,0.3144444444444444,4.0,9.0,0.1
382.0,9.0,wc_9,,0.0,,,,222.0,,,,Fail,,,,,
382.0,9.0,wc_9,wc_17,0.0,"[('wc_17', 0.41000000000000025), ('wc_9', 0.4800000000000003), ('wc_4', 0.13)]",0.7330840000000003,,,26.0,0.010362,['Fail'],Fail,0.41000000000000025,-0.2433333333333336,1.0,6.0,0.6
382.0,9.0,wc_9,,0.0,,,,103.0,,,,Fail,,,,,
382.0,9.0,wc_9,wc_16,0.0,"[('wc_16', 0.5700000000000004), ('wc_9', 0.4800000000000003), ('wc_4', 0.13), ('wc_17', 0.41000000000000025)]",0.8852261200000002,,,38.0,0.011276,['Fail'],Fail,0.5700000000000004,-0.23666666666666708,1.0,3.0,0.8
382.0,9.0,wc_9,,0.0,,,,223.0,,,,Fail,,,,,
382.0,9.0,wc_9,wc_7,1.0,"[('wc_7', 0.6300000000000004), ('wc_9', 0.4800000000000003), ('wc_4', 0.13), ('wc_17', 0.41000000000000025), ('wc_16', 0.5700000000000004)]",0.9575336644000001,,,22.0,0.044561,['Fail'],Fail,0.6400000000000005,0.35999999999999954,1.0,1.0,1.0
394.0,9.0,wc_9,,0.0,,,,0.0,,,,Fail,,,,,
394.0,9.0,wc_9,,0.0,,,72.0,,,,,Fail,,,,,
394.0,9.0,wc_9,,0.0,,,,0.0,,,,Fail,,,,,
394.0,9.0,wc_9,wc_9,0.0,"[('wc_9', 0.4900000000000003)]",0.4900000000000003,,,29.0,0.002365,['Fail'],Fail,0.4900000000000003,0.5099999999999997,2.0,2.0,0.6
394.0,9.0,wc_9,,0.0,,,,61.0,,,,Fail,,,,,
394.0,9.0,wc_9,wc_6,0.0,"[('wc_6', 0.4900000000000003), ('wc_9', 0.4900000000000003)]",0.7399000000000003,,,25.0,0.003981999999999999,['Fail'],Fail,0.4900000000000003,-0.4900000000000003,0.0,4.0,1.0
394.0,9.0,wc_9,,0.0,,,,0.0,,,,Fail,,,,,
394.0,9.0,wc_9,wc_7,1.0,"[('wc_7', 0.6400000000000005), ('wc_9', 0.4900000000000003), ('wc_6', 0.4900000000000003)]",0.9063640000000003,,,35.0,0.037212,['Fail'],Fail,0.6500000000000005,0.34999999999999953,2.0,2.0,1.0
405.0,9.0,wc_9,,0.0,,,,0.0,,,,Fail,,,,,
405.0,9.0,wc_9,,0.0,,,64.0,,,,,Fail,,,,,
405.0,9.0,wc_9,,0.0,,,,0.0,,,,Fail,,,,,
405.0,9.0,wc_9,wc_9,0.0,"[('wc_9', 0.5000000000000003)]",0.5000000000000003,,,25.0,0.002351,['Fail'],Fail,0.5000000000000003,0.49999999999999967,3.0,3.0,0.6
405.0,9.0,wc_9,,0.0,,,,101.0,,,,Fail,,,,,
405.0,9.0,wc_9,wc_12,0.0,"[('wc_12', 0.5600000000000004), ('wc_9', 0.5000000000000003)]",0.7800000000000004,,,36.0,0.004086,['Fail'],Fail,0.5600000000000004,-0.5600000000000004,0.0,2.0,0.9
405.0,9.0,wc_9,,0.0,,,,222.0,,,,Fail,,,,,
405.0,9.0,wc_9,wc_8,0.0,"[('wc_9', 0.5000000000000003), ('wc_12', 0.5600000000000004)]",0.7800000000000004,,,39.0,0.006014,['Fail'],Fail,0.22000000000000008,0.11333333333333323,3.0,9.0,0.1
405.0,9.0,wc_9,,0.0,,,,162.0,,,,Fail,,,,,
405.0,9.0,wc_9,wc_1,1.0,"[('wc_1', 0.6100000000000004), ('wc_9', 0.5000000000000003), ('wc_12', 0.5600000000000004)]",0.9142000000000002,,,27.0,0.04247,['Fail'],Fail,0.6100000000000004,-0.2100000000000004,2.0,5.0,0.7
416.0,11.0,wc_11,,0.0,,,,243.0,,,,Fail,,,,,
416.0,11.0,wc_11,,0.0,,,70.0,,,,,Fail,,,,,
416.0,11.0,wc_11,,0.0,,,,0.0,,,,Fail,,,,,
416.0,11.0,wc_11,wc_11,0.0,"[('wc_11', 0.6300000000000004)]",0.6300000000000004,,,39.0,0.002071,['Fail'],Fail,0.6300000000000004,-0.43000000000000044,1.0,5.0,0.8
416.0,11.0,wc_11,,0.0,,,,83.0,,,,Fail,,,,,
416.0,11.0,wc_11,wc_9,0.0,"[('wc_9', 0.5100000000000003), ('wc_11', 0.6300000000000004)]",0.8187000000000003,,,20.0,0.004018,['Fail'],Fail,0.5100000000000003,0.48999999999999966,4.0,4.0,0.6
416.0,11.0,wc_11,,0.0,,,,362.0,,,,Fail,,,,,
416.0,11.0,wc_11,wc_3,0.0,"[('wc_3', 0.3500000000000002), ('wc_11', 0.6300000000000004), ('wc_9', 0.5100000000000003)]",0.8821550000000002,,,34.0,0.006281999999999999,['Fail'],Fail,0.3500000000000002,-0.3500000000000002,0.0,0.0,0.4
416.0,11.0,wc_11,,0.0,,,,0.0,,,,Fail,,,,,
416.0,11.0,wc_11,wc_4,0.0,"[('wc_11', 0.6300000000000004), ('wc_9', 0.5100000000000003), ('wc_3', 0.3500000000000002)]",0.8821550000000002,,,24.0,0.008558,['Fail'],Fail,0.14,-0.14,0.0,2.0,0.1
416.0,11.0,wc_11,,0.0,,,,222.0,,,,Fail,,,,,
416.0,11.0,wc_11,wc_17,1.0,"[('wc_17', 0.41000000000000025), ('wc_11', 0.6300000000000004), ('wc_9', 0.5100000000000003), ('wc_3', 0.3500000000000002)]",0.9304714500000002,,,28.0,0.05217899999999999,['Fail'],Fail,0.41000000000000025,-0.41000000000000025,0.0,0.0,0.6
429.0,11.0,wc_11,,0.0,,,,362.0,,,,Fail,,,,,
429.0,11.0,wc_11,,0.0,,,80.0,,,,,Fail,,,,,
429.0,11.0,wc_11,,0.0,,,,0.0,,,,Fail,,,,,
429.0,11.0,wc_11,wc_11,0.0,"[('wc_11', 0.6300000000000004)]",0.6300000000000004,,,26.0,0.002288,['Fail'],Fail,0.6300000000000004,-0.29666666666666713,2.0,6.0,0.8
429.0,11.0,wc_11,,0.0,,,,61.0,,,,Fail,,,,,
429.0,11.0,wc_11,wc_12,0.0,"[('wc_12', 0.5600000000000004), ('wc_11', 0.6300000000000004)]",0.8372000000000004,,,39.0,0.004044,['Fail'],Fail,0.5600000000000004,-0.3100000000000004,1.0,4.0,0.9
429.0,11.0,wc_11,,0.0,,,,0.0,,,,Fail,,,,,
429.0,11.0,wc_11,wc_13,1.0,"[('wc_13', 0.40000000000000024), ('wc_11', 0.6300000000000004), ('wc_12', 0.5600000000000004)]",0.9023200000000002,,,31.0,0.040785,['Fail'],Fail,0.40000000000000024,-0.17777777777777803,2.0,9.0,0.8
442.0,11.0,wc_11,,0.0,,,,341.0,,,,Fail,,,,,
442.0,11.0,wc_11,,0.0,,,78.0,,,,,Fail,,,,,
442.0,11.0,wc_11,,0.0,,,,0.0,,,,Fail,,,,,
442.0,11.0,wc_11,wc_11,0.0,"[('wc_11', 0.6300000000000004)]",0.6300000000000004,,,29.0,0.002332,['Fail'],Fail,0.6300000000000004,-0.2014285714285719,3.0,7.0,0.8
442.0,11.0,wc_11,,0.0,,,,41.0,,,,Fail,,,,,
442.0,11.0,wc_11,wc_7,0.0,"[('wc_7', 0.6500000000000005), ('wc_11', 0.6300000000000004)]",0.8705000000000003,,,39.0,0.003993,['Fail'],Fail,0.6500000000000005,-0.25000000000000044,2.0,5.0,1.0
442.0,11.0,wc_11,,0.0,,,,162.0,,,,Fail,,,,,
442.0,11.0,wc_11,wc_13,1.0,"[('wc_13', 0.40000000000000024), ('wc_11', 0.6300000000000004), ('wc_7', 0.6500000000000005)]",0.9223000000000002,,,33.0,0.037286999999999994,['Fail'],Fail,0.40000000000000024,-0.40000000000000024,0.0,0.0,0.8
452.0,7.0,wc_7,,0.0,,,,182.0,,,,Pass,,,,,
452.0,7.0,wc_7,,0.0,,,51.0,,,,,Pass,,,,,
452.0,7.0,wc_7,,0.0,,,,0.0,,,,Pass,,,,,
452.0,7.0,wc_7,wc_7,0.0,"[('wc_7', 0.6500000000000005)]",0.6500000000000005,,,36.0,0.002153,['Pass'],Pass,0.6500000000000005,-0.15000000000000047,3.0,6.0,1.0
452.0,7.0,wc_7,,0.0,,,,102.0,,,,Pass,,,,,
452.0,7.0,wc_7,wc_6,0.0,"[('wc_6', 0.4900000000000003), ('wc_7', 0.6500000000000005)]",0.8215000000000003,,,36.0,0.004871,['Pass'],Pass,0.4900000000000003,-0.3788888888888892,1.0,9.0,1.0
452.0,7.0,wc_7,,0.0,,,,361.0,,,,Pass,,,,,
452.0,7.0,wc_7,wc_5,0.0,"[('wc_7', 0.6500000000000005), ('wc_6', 0.4900000000000003)]",0.8215000000000003,,,20.0,0.00637,['Pass'],Pass,0.18000000000000005,0.06999999999999995,0.0,0.0,0.1
452.0,7.0,wc_7,,0.0,,,,101.0,,,,Pass,,,,,
452.0,7.0,wc_7,wc_8,0.0,"[('wc_8', 0.22000000000000008), ('wc_7', 0.6500000000000005), ('wc_6', 0.4900000000000003)]",0.8607700000000003,,,37.0,0.00831,['Pass'],Pass,0.22000000000000008,-0.22000000000000008,0.0,3.0,0.1
452.0,7.0,wc_7,,0.0,,,,281.0,,,,Pass,,,,,
452.0,7.0,wc_7,wc_3,1.0,"[('wc_3', 0.3600000000000002), ('wc_7', 0.6500000000000005), ('wc_6', 0.4900000000000003), ('wc_8', 0.22000000000000008)]",0.9108928000000003,,,34.0,0.04035999999999999,['Pass'],Pass,0.3700000000000002,0.12999999999999978,2.0,4.0,0.4
460.0,9.0,wc_9,,0.0,,,,162.0,,,,Pass,,,,,
460.0,9.0,wc_9,,0.0,,,59.0,,,,,Pass,,,,,
460.0,9.0,wc_9,,0.0,,,,0.0,,,,Pass,,,,,
460.0,9.0,wc_9,wc_9,0.0,"[('wc_9', 0.5200000000000004)]",0.5200000000000004,,,29.0,0.002252,['Pass'],Pass,0.5200000000000004,0.10499999999999965,5.0,8.0,0.6
460.0,9.0,wc_9,,0.0,,,,101.0,,,,Pass,,,,,
460.0,9.0,wc_9,wc_12,0.0,"[('wc_12', 0.5600000000000004), ('wc_9', 0.5200000000000004)]",0.7888000000000004,,,37.0,0.004142,['Pass'],Pass,0.5600000000000004,-0.2742857142857147,2.0,7.0,0.9
460.0,9.0,wc_9,,0.0,,,,381.0,,,,Pass,,,,,
460.0,9.0,wc_9,wc_4,0.0,"[('wc_9', 0.5200000000000004), ('wc_12', 0.5600000000000004)]",0.7888000000000004,,,36.0,0.005634,['Pass'],Pass,0.13,-0.13,0.0,6.0,0.1
460.0,9.0,wc_9,,0.0,,,,202.0,,,,Pass,,,,,
460.0,9.0,wc_9,wc_16,1.0,"[('wc_16', 0.5700000000000004), ('wc_9', 0.5200000000000004), ('wc_12', 0.5600000000000004)]",0.9091840000000002,,,22.0,0.040552000000000005,['Pass'],Pass,0.5700000000000004,-0.5700000000000004,0.0,0.0,0.8
471.0,11.0,wc_11,,0.0,,,,382.0,,,,Pass,,,,,
471.0,11.0,wc_11,,0.0,,,56.0,,,,,Pass,,,,,
471.0,11.0,wc_11,,0.0,,,,0.0,,,,Pass,,,,,
471.0,11.0,wc_11,wc_11,0.0,"[('wc_11', 0.6300000000000004)]",0.6300000000000004,,,20.0,0.002374,['Pass'],Pass,0.6300000000000004,-0.23000000000000043,0.0,0.0,0.8
471.0,11.0,wc_11,,0.0,,,,101.0,,,,Pass,,,,,
471.0,11.0,wc_11,wc_14,0.0,"[('wc_11', 0.6300000000000004)]",0.6300000000000004,,,29.0,0.005993,['Pass'],Pass,0.15000000000000002,-0.15000000000000002,0.0,0.0,0.2
471.0,11.0,wc_11,,0.0,,,,321.0,,,,Pass,,,,,
471.0,11.0,wc_11,wc_3,0.0,"[('wc_3', 0.3700000000000002), ('wc_11', 0.6300000000000004)]",0.7669000000000004,,,28.0,0.005559,['Pass'],Pass,0.3700000000000002,0.029999999999999805,2.0,5.0,0.4
471.0,11.0,wc_11,,0.0,,,,141.0,,,,Pass,,,,,
471.0,11.0,wc_11,wc_12,0.0,"[('wc_11', 0.6300000000000004), ('wc_3', 0.3700000000000002)]",0.7669000000000004,,,24.0,0.007390999999999999,['Pass'],Pass,0.5600000000000004,-0.1850000000000004,3.0,8.0,0.9
471.0,11.0,wc_11,,0.0,,,,401.0,,,,Pass,,,,,
471.0,11.0,wc_11,wc_5,0.0,"[('wc_11', 0.6300000000000004), ('wc_3', 0.3700000000000002)]",0.7669000000000004,,,31.0,0.012569,['Pass'],Pass,0.17000000000000004,-0.17000000000000004,0.0,2.0,0.1
471.0,11.0,wc_11,,0.0,,,,122.0,,,,Pass,,,,,
471.0,11.0,wc_11,wc_9,0.0,"[('wc_9', 0.5300000000000004), ('wc_14', 0.15000000000000002), ('wc_12', 0.5600000000000004), ('wc_5', 0.17000000000000004)]",0.8541026000000003,,,36.0,0.011862000000000001,['Fail'],Pass,0.5300000000000004,0.13666666666666627,6.0,9.0,0.6
471.0,11.0,wc_11,,0.0,,,,382.0,,,,Pass,,,,,
471.0,11.0,wc_11,wc_4,0.0,"[('wc_14', 0.15000000000000002), ('wc_12', 0.5600000000000004), ('wc_5', 0.17000000000000004), ('wc_9', 0.5300000000000004)]",0.8541026000000003,,,37.0,0.013424,['Fail'],Pass,0.12000000000000001,-0.12000000000000001,0.0,7.0,0.1
471.0,11.0,wc_11,,0.0,,,,141.0,,,,Pass,,,,,
471.0,11.0,wc_11,wc_13,0.0,"[('wc_13', 0.40000000000000024), ('wc_11', 0.6300000000000004), ('wc_3', 0.3700000000000002), ('wc_4', 0.12000000000000001)]",0.8769232000000002,,,33.0,0.014141,['Pass'],Pass,0.40000000000000024,-0.40000000000000024,0.0,2.0,0.8
471.0,11.0,wc_11,,0.0,,,,202.0,,,,Pass,,,,,
471.0,11.0,wc_11,wc_8,1.0,"[('wc_8', 0.2300000000000001), ('wc_11', 0.6300000000000004), ('wc_3', 0.3700000000000002), ('wc_4', 0.12000000000000001), ('wc_13', 0.40000000000000024)]",0.9052308640000002,,,24.0,0.050058,['Pass'],Pass,0.2400000000000001,0.09333333333333321,2.0,6.0,0.1
490.0,12.0,wc_12,,0.0,,,,122.0,,,,Pass,,,,,
490.0,12.0,wc_12,,0.0,,,80.0,,,,,Pass,,,,,
490.0,12.0,wc_12,,0.0,,,,0.0,,,,Pass,,,,,
490.0,12.0,wc_12,wc_12,0.0,"[('wc_12', 0.5500000000000004)]",0.5500000000000004,,,27.0,0.002368,['Pass'],Pass,0.5500000000000004,-0.21666666666666706,3.0,9.0,0.9
490.0,12.0,wc_12,,0.0,,,,202.0,,,,Pass,,,,,
490.0,12.0,wc_12,wc_7,0.0,"[('wc_7', 0.6500000000000005), ('wc_12', 0.5500000000000004)]",0.8425000000000004,,,23.0,0.0042380000000000004,['Pass'],Pass,0.6500000000000005,-0.20555555555555605,4.0,9.0,1.0
490.0,12.0,wc_12,,0.0,,,,162.0,,,,Pass,,,,,
490.0,12.0,wc_12,wc_13,1.0,"[('wc_13', 0.40000000000000024), ('wc_12', 0.5500000000000004), ('wc_7', 0.6500000000000005)]",0.9055000000000002,,,23.0,0.045649999999999996,['Pass'],Pass,0.41000000000000025,0.08999999999999975,2.0,4.0,0.8
508.0,13.0,wc_13,,0.0,,,,0.0,,,,Fail,,,,,
508.0,13.0,wc_13,,0.0,,,72.0,,,,,Fail,,,,,
508.0,13.0,wc_13,,0.0,,,,0.0,,,,Fail,,,,,
508.0,13.0,wc_13,wc_13,0.0,"[('wc_13', 0.41000000000000025)]",0.41000000000000025,,,23.0,0.002082,['Fail'],Fail,0.41000000000000025,0.08999999999999975,2.0,4.0,0.8
508.0,13.0,wc_13,,0.0,,,,0.0,,,,Fail,,,,,
508.0,13.0,wc_13,wc_15,0.0,"[('wc_15', 0.5200000000000004), ('wc_13', 0.41000000000000025)]",0.7168000000000003,,,28.0,0.004128,['Fail'],Fail,0.5200000000000004,-0.5200000000000004,0.0,0.0,0.9
508.0,13.0,wc_13,,0.0,,,,382.0,,,,Fail,,,,,
508.0,13.0,wc_13,wc_10,0.0,"[('wc_10', 0.3500000000000002), ('wc_13', 0.41000000000000025), ('wc_15', 0.5200000000000004)]",0.8159200000000002,,,21.0,0.011213,['Fail'],Fail,0.3500000000000002,-0.3500000000000002,0.0,0.0,0.3
508.0,13.0,wc_13,,0.0,,,,121.0,,,,Fail,,,,,
508.0,13.0,wc_13,wc_14,0.0,"[('wc_13', 0.41000000000000025), ('wc_15', 0.5200000000000004), ('wc_10', 0.3500000000000002)]",0.8159200000000002,,,36.0,0.008678,['Fail'],Fail,0.14,-0.14,0.0,2.0,0.2
508.0,13.0,wc_13,,0.0,,,,0.0,,,,Fail,,,,,
508.0,13.0,wc_13,wc_16,1.0,"[('wc_16', 0.5700000000000004), ('wc_13', 0.41000000000000025), ('wc_15', 0.5200000000000004), ('wc_10', 0.3500000000000002)]",0.9208456000000002,,,38.0,0.04371300000000001,['Fail'],Fail,0.5700000000000004,-0.23666666666666708,1.0,3.0,0.8
526.0,13.0,wc_13,,0.0,,,,61.0,,,,Fail,,,,,
526.0,13.0,wc_13,,0.0,,,60.0,,,,,Fail,,,,,
526.0,13.0,wc_13,,0.0,,,,0.0,,,,Fail,,,,,
526.0,13.0,wc_13,wc_13,0.0,"[('wc_13', 0.42000000000000026)]",0.42000000000000026,,,38.0,0.002129,['Fail'],Fail,0.42000000000000026,0.17999999999999972,3.0,5.0,0.8
526.0,13.0,wc_13,,0.0,,,,341.0,,,,Fail,,,,,
526.0,13.0,wc_13,wc_11,0.0,"[('wc_11', 0.6400000000000005), ('wc_13', 0.42000000000000026)]",0.7912000000000003,,,20.0,0.004053,['Fail'],Fail,0.6400000000000005,-0.30666666666666714,1.0,3.0,0.8
526.0,13.0,wc_13,,0.0,,,,21.0,,,,Fail,,,,,
526.0,13.0,wc_13,wc_6,0.0,"[('wc_6', 0.4900000000000003), ('wc_13', 0.42000000000000026), ('wc_11', 0.6400000000000005)]",0.8935120000000003,,,29.0,0.005434,['Fail'],Fail,0.4900000000000003,-0.4900000000000003,0.0,4.0,1.0
526.0,13.0,wc_13,,0.0,,,,202.0,,,,Fail,,,,,
526.0,13.0,wc_13,wc_14,0.0,"[('wc_13', 0.42000000000000026), ('wc_11', 0.6400000000000005), ('wc_6', 0.4900000000000003)]",0.8935120000000003,,,36.0,0.008172,['Fail'],Fail,0.13,-0.13,0.0,3.0,0.2
526.0,13.0,wc_13,,0.0,,,,0.0,,,,Fail,,,,,
526.0,13.0,wc_13,wc_16,1.0,"[('wc_16', 0.5700000000000004), ('wc_13', 0.42000000000000026), ('wc_11', 0.6400000000000005), ('wc_6', 0.4900000000000003)]",0.9542101600000001,,,26.0,0.044060999999999996,['Fail'],Fail,0.5700000000000004,-0.0700000000000004,2.0,4.0,0.8
538.0,13.0,wc_13,,0.0,,,,61.0,,,,Pass,,,,,
538.0,13.0,wc_13,,0.0,,,76.0,,,,,Pass,,,,,
538.0,13.0,wc_13,,0.0,,,,0.0,,,,Pass,,,,,
538.0,13.0,wc_13,wc_13,0.0,"[('wc_13', 0.43000000000000027)]",0.43000000000000027,,,28.0,0.002178,['Pass'],Pass,0.43000000000000027,0.23666666666666636,4.0,6.0,0.8
538.0,13.0,wc_13,,0.0,,,,0.0,,,,Pass,,,,,
538.0,13.0,wc_13,wc_17,0.0,"[('wc_17', 0.41000000000000025), ('wc_13', 0.43000000000000027)]",0.6637000000000003,,,37.0,0.0037949999999999998,['Pass'],Pass,0.41000000000000025,-0.41000000000000025,0.0,8.0,0.6
538.0,13.0,wc_13,,0.0,,,,21.0,,,,Pass,,,,,
538.0,13.0,wc_13,wc_12,0.0,"[('wc_12', 0.5500000000000004), ('wc_13', 0.43000000000000027), ('wc_17', 0.41000000000000025)]",0.8486650000000002,,,30.0,0.005637,['Pass'],Pass,0.5500000000000004,-0.5500000000000004,0.0,2.0,0.9
538.0,13.0,wc_13,,0.0,,,,401.0,,,,Pass,,,,,
538.0,13.0,wc_13,wc_5,0.0,"[('wc_13', 0.43000000000000027), ('wc_17', 0.41000000000000025), ('wc_12', 0.5500000000000004)]",0.8486650000000002,,,37.0,0.007738,['Pass'],Pass,0.16000000000000003,-0.16000000000000003,0.0,6.0,0.1
538.0,13.0,wc_13,,0.0,,,,61.0,,,,Pass,,,,,
538.0,13.0,wc_13,wc_2,1.0,"[('wc_2', 0.4800000000000003), ('wc_13', 0.43000000000000027), ('wc_17', 0.41000000000000025), ('wc_12', 0.5500000000000004)]",0.9213058000000002,,,21.0,0.043187,['Pass'],Pass,0.4800000000000003,-0.4800000000000003,0.0,0.0,0.8
546.0,14.0,wc_14,,0.0,,,,202.0,,,,Pass,,,,,
546.0,14.0,wc_14,,0.0,,,54.0,,,,,Pass,,,,,
546.0,14.0,wc_14,,0.0,,,,0.0,,,,Pass,,,,,
546.0,14.0,wc_14,wc_14,0.0,"[('wc_14', 0.12000000000000001)]",0.12,,,34.0,0.002457,['Pass'],Pass,0.12000000000000001,-0.12000000000000001,0.0,5.0,0.2
546.0,14.0,wc_14,,0.0,,,,202.0,,,,Pass,,,,,
546.0,14.0,wc_14,wc_1,0.0,"[('wc_1', 0.6100000000000004), ('wc_14', 0.12000000000000001)]",0.6568000000000004,,,38.0,0.004516,['Pass'],Pass,0.6100000000000004,-0.4766666666666671,0.0,0.0,0.7
546.0,14.0,wc_14,,0.0,,,,243.0,,,,Pass,,,,,
546.0,14.0,wc_14,wc_15,0.0,"[('wc_15', 0.5300000000000004), ('wc_14', 0.12000000000000001), ('wc_1', 0.6100000000000004)]",0.8386960000000003,,,33.0,0.005476,['Pass'],Pass,0.5300000000000004,-0.19666666666666704,1.0,3.0,0.9
546.0,14.0,wc_14,,0.0,,,,61.0,,,,Pass,,,,,
546.0,14.0,wc_14,wc_12,1.0,"[('wc_12', 0.5500000000000004), ('wc_14', 0.12000000000000001), ('wc_1', 0.6100000000000004), ('wc_15', 0.5300000000000004)]",0.9274132000000002,,,22.0,0.043358999999999995,['Pass'],Pass,0.5500000000000004,-0.05000000000000038,2.0,4.0,0.9
554.0,16.0,wc_16,,0.0,,,,0.0,,,,Pass,,,,,
554.0,16.0,wc_16,,0.0,,,71.0,,,,,Pass,,,,,
554.0,16.0,wc_16,,0.0,,,,0.0,,,,Pass,,,,,
554.0,16.0,wc_16,wc_16,0.0,"[('wc_16', 0.5700000000000004)]",0.5700000000000004,,,20.0,0.002204,['Pass'],Pass,0.5700000000000004,-0.23666666666666708,2.0,6.0,0.8
554.0,16.0,wc_16,,0.0,,,,422.0,,,,Pass,,,,,
554.0,16.0,wc_16,wc_5,0.0,"[('wc_5', 0.15000000000000002), ('wc_16', 0.5700000000000004)]",0.6345000000000003,,,37.0,0.0038209999999999997,['Pass'],Pass,0.15000000000000002,-0.15000000000000002,0.0,8.0,0.1
554.0,16.0,wc_16,,0.0,,,,202.0,,,,Pass,,,,,
554.0,16.0,wc_16,wc_17,0.0,"[('wc_17', 0.41000000000000025), ('wc_16', 0.5700000000000004), ('wc_5', 0.15000000000000002)]",0.7843550000000004,,,26.0,0.00591,['Pass'],Pass,0.41000000000000025,-0.3100000000000003,0.0,0.0,0.6
554.0,16.0,wc_16,,0.0,,,,41.0,,,,Pass,,,,,
554.0,16.0,wc_16,wc_13,0.0,"[('wc_13', 0.4400000000000003), ('wc_16', 0.5700000000000004), ('wc_5', 0.15000000000000002), ('wc_17', 0.41000000000000025)]",0.8792388000000002,,,39.0,0.007947,['Pass'],Pass,0.4400000000000003,0.18499999999999972,5.0,8.0,0.8
554.0,16.0,wc_16,,0.0,,,,102.0,,,,Pass,,,,,
554.0,16.0,wc_16,wc_12,1.0,"[('wc_12', 0.5500000000000004), ('wc_16', 0.5700000000000004), ('wc_5', 0.15000000000000002), ('wc_17', 0.41000000000000025), ('wc_13', 0.4400000000000003)]",0.9456574600000002,,,32.0,0.043977999999999996,['Pass'],Pass,0.5600000000000004,0.03999999999999959,3.0,5.0,0.9
568.0,15.0,wc_15,,0.0,,,,0.0,,,,Fail,,,,,
568.0,15.0,wc_15,,0.0,,,67.0,,,,,Fail,,,,,
568.0,15.0,wc_15,,0.0,,,,0.0,,,,Fail,,,,,
568.0,15.0,wc_15,wc_15,0.0,"[('wc_15', 0.5300000000000004)]",0.5300000000000004,,,30.0,0.003436,['Fail'],Fail,0.5300000000000004,-0.13000000000000034,2.0,5.0,0.9
568.0,15.0,wc_15,,0.0,,,,283.0,,,,Fail,,,,,
568.0,15.0,wc_15,wc_1,0.0,"[('wc_1', 0.6200000000000004), ('wc_15', 0.5300000000000004)]",0.8214000000000004,,,24.0,0.004043,['Fail'],Fail,0.6200000000000004,-0.12000000000000044,1.0,2.0,0.7
568.0,15.0,wc_15,,0.0,,,,0.0,,,,Fail,,,,,
568.0,15.0,wc_15,wc_2,1.0,"[('wc_2', 0.4800000000000003), ('wc_15', 0.5300000000000004), ('wc_1', 0.6200000000000004)]",0.9071280000000003,,,30.0,0.04035,['Fail'],Fail,0.4800000000000003,-0.146666666666667,1.0,3.0,0.8
579.0,15.0,wc_15,,0.0,,,,223.0,,,,Fail,,,,,
579.0,15.0,wc_15,,0.0,,,78.0,,,,,Fail,,,,,
579.0,15.0,wc_15,,0.0,,,,0.0,,,,Fail,,,,,
579.0,15.0,wc_15,wc_15,0.0,"[('wc_15', 0.5300000000000004)]",0.5300000000000004,,,30.0,0.002482,['Fail'],Fail,0.5300000000000004,-0.03000000000000036,3.0,6.0,0.9
579.0,15.0,wc_15,,0.0,,,,223.0,,,,Fail,,,,,
579.0,15.0,wc_15,wc_6,0.0,"[('wc_6', 0.4900000000000003), ('wc_15', 0.5300000000000004)]",0.7603000000000003,,,23.0,0.004688,['Fail'],Fail,0.4900000000000003,-0.3788888888888892,1.0,9.0,1.0
579.0,15.0,wc_15,,0.0,,,,0.0,,,,Fail,,,,,
579.0,15.0,wc_15,wc_10,0.0,"[('wc_10', 0.3600000000000002), ('wc_15', 0.5300000000000004), ('wc_6', 0.4900000000000003)]",0.8465920000000002,,,28.0,0.007915,['Fail'],Fail,0.3600000000000002,-0.19333333333333355,1.0,6.0,0.3
579.0,15.0,wc_15,,0.0,,,,243.0,,,,Fail,,,,,
579.0,15.0,wc_15,wc_2,1.0,"[('wc_2', 0.4800000000000003), ('wc_15', 0.5300000000000004), ('wc_6', 0.4900000000000003), ('wc_10', 0.3600000000000002)]",0.9202278400000001,,,25.0,0.06242100000000001,['Fail'],Fail,0.4900000000000003,0.009999999999999676,2.0,4.0,0.8
585.0,15.0,wc_15,,0.0,,,,223.0,,,,Fail,,,,,
585.0,15.0,wc_15,,0.0,,,64.0,,,,,Fail,,,,,
585.0,15.0,wc_15,,0.0,,,,0.0,,,,Fail,,,,,
585.0,15.0,wc_15,wc_15,0.0,"[('wc_15', 0.5400000000000004)]",0.5400000000000004,,,27.0,0.008244,['Fail'],Fail,0.5400000000000004,0.03142857142857103,4.0,7.0,0.9
585.0,15.0,wc_15,,0.0,,,,101.0,,,,Fail,,,,,
585.0,15.0,wc_15,wc_14,0.0,"[('wc_14', 0.13), ('wc_15', 0.5400000000000004)]",0.5998000000000003,,,32.0,0.004155,['Fail'],Fail,0.13,-0.0188888888888889,1.0,9.0,0.2
585.0,15.0,wc_15,,0.0,,,,361.0,,,,Fail,,,,,
585.0,15.0,wc_15,wc_5,0.0,"[('wc_5', 0.15000000000000002), ('wc_15', 0.5400000000000004), ('wc_14', 0.13)]",0.6598300000000004,,,35.0,0.006032,['Fail'],Fail,0.15000000000000002,-0.05909090909090911,0.0,0.0,0.1
585.0,15.0,wc_15,,0.0,,,,122.0,,,,Fail,,,,,
585.0,15.0,wc_15,wc_9,0.0,"[('wc_9', 0.5300000000000004), ('wc_15', 0.5400000000000004), ('wc_14', 0.13), ('wc_5', 0.15000000000000002)]",0.8401201000000003,,,22.0,0.008041,['Fail'],Fail,0.5300000000000004,-0.5300000000000004,0.0,8.0,0.6
585.0,15.0,wc_15,,0.0,,,,243.0,,,,Fail,,,,,
585.0,15.0,wc_15,wc_1,1.0,"[('wc_1', 0.6300000000000004), ('wc_15', 0.5400000000000004), ('wc_14', 0.13), ('wc_5', 0.15000000000000002), ('wc_9', 0.5300000000000004)]",0.9408444370000002,,,36.0,0.046946999999999996,['Fail'],Fail,0.6300000000000004,-0.03000000000000047,3.0,5.0,0.7
601.0,15.0,wc_15,,0.0,,,,243.0,,,,Pass,,,,,
601.0,15.0,wc_15,,0.0,,,60.0,,,,,Pass,,,,,
601.0,15.0,wc_15,,0.0,,,,0.0,,,,Pass,,,,,
601.0,15.0,wc_15,wc_15,0.0,"[('wc_15', 0.5500000000000004)]",0.5500000000000004,,,28.0,0.002372,['Pass'],Pass,0.5500000000000004,0.07499999999999962,5.0,8.0,0.9
601.0,15.0,wc_15,,0.0,,,,0.0,,,,Pass,,,,,
601.0,15.0,wc_15,wc_17,0.0,"[('wc_17', 0.42000000000000026), ('wc_15', 0.5500000000000004)]",0.7390000000000003,,,30.0,0.005333,['Pass'],Pass,0.42000000000000026,-0.17000000000000026,1.0,4.0,0.6
601.0,15.0,wc_15,,0.0,,,,41.0,,,,Pass,,,,,
601.0,15.0,wc_15,wc_13,0.0,"[('wc_13', 0.4500000000000003), ('wc_15', 0.5500000000000004), ('wc_17', 0.42000000000000026)]",0.8564500000000003,,,21.0,0.005883,['Pass'],Pass,0.4500000000000003,0.04999999999999971,0.0,0.0,0.8
601.0,15.0,wc_15,,0.0,,,,301.0,,,,Pass,,,,,
601.0,15.0,wc_15,wc_9,1.0,"[('wc_9', 0.5300000000000004), ('wc_15', 0.5500000000000004), ('wc_17', 0.42000000000000026), ('wc_13', 0.4500000000000003)]",0.9325315000000002,,,39.0,0.041949,['Pass'],Pass,0.5300000000000004,-0.5300000000000004,0.0,0.0,0.6
607.0,17.0,wc_17,,0.0,,,,202.0,,,,Pass,,,,,
607.0,17.0,wc_17,,0.0,,,59.0,,,,,Pass,,,,,
607.0,17.0,wc_17,,0.0,,,,0.0,,,,Pass,,,,,
607.0,17.0,wc_17,wc_17,0.0,"[('wc_17', 0.42000000000000026)]",0.42000000000000026,,,38.0,0.002382,['Pass'],Pass,0.42000000000000026,-0.02000000000000024,2.0,5.0,0.6
607.0,17.0,wc_17,,0.0,,,,322.0,,,,Pass,,,,,
607.0,17.0,wc_17,wc_9,0.0,"[('wc_9', 0.5300000000000004), ('wc_17', 0.42000000000000026)]",0.7274000000000003,,,31.0,0.004381,['Pass'],Pass,0.5300000000000004,-0.5300000000000004,0.0,0.0,0.6
607.0,17.0,wc_17,,0.0,,,,141.0,,,,Pass,,,,,
607.0,17.0,wc_17,wc_14,0.0,"[('wc_14', 0.14), ('wc_17', 0.42000000000000026), ('wc_9', 0.5300000000000004)]",0.7655640000000004,,,21.0,0.006295,['Pass'],Pass,0.14,-0.14,0.0,1.0,0.2
607.0,17.0,wc_17,,0.0,,,,162.0,,,,Pass,,,,,
607.0,17.0,wc_17,wc_7,1.0,"[('wc_7', 0.6500000000000005), ('wc_17', 0.42000000000000026), ('wc_9', 0.5300000000000004), ('wc_14', 0.14)]",0.9179474000000002,,,26.0,0.04347100000000001,['Pass'],Pass,0.6500000000000005,-0.6500000000000005,0.0,0.0,1.0
