mpecck/BCQC/bcqc_with_qdt/results/raw/input_8/independent_qc/score/5_workpiece/20200429_104652/wp_3_qc_majority_0.9.csv
production_index,step_idx,production_workcell,qc,consent,winner_qc_list,score,production_time,transport_time,inspection_time,network_time,qc_results,actual_quality,qc_score,score_error,in_winner_counter,in_qc_counter,qc_capability
3.0,1.0,wc_1,,0.0,,,65.0,,,,,Fail,,,,,
3.0,1.0,wc_1,,0.0,,,,0.0,,,,Fail,,,,,
3.0,1.0,wc_1,wc_1,0.0,"[('wc_1', 0.6000000000000004)]",0.6000000000000004,,,37.0,0.002179,['Pass'],Fail,0.6000000000000004,-0.516666666666667,0.0,0.0,0.5
3.0,1.0,wc_1,,0.0,,,,0.0,,,,Fail,,,,,
3.0,1.0,wc_1,wc_2,0.0,"[('wc_1', 0.6000000000000004)]",0.6000000000000004,,,33.0,0.006294,['Pass'],Fail,0.2300000000000001,-0.2300000000000001,0.0,0.0,0.2
3.0,1.0,wc_1,,0.0,,,,0.0,,,,Fail,,,,,
3.0,1.0,wc_1,wc_3,0.0,"[('wc_3', 0.5200000000000004), ('wc_2', 0.2300000000000001)]",0.6304000000000003,,,22.0,0.007229,['Fail'],Fail,0.5200000000000004,-0.39500000000000035,0.0,0.0,0.4
3.0,1.0,wc_1,,0.0,,,,0.0,,,,Fail,,,,,
3.0,1.0,wc_1,wc_4,0.0,"[('wc_4', 0.6700000000000005), ('wc_2', 0.2300000000000001), ('wc_3', 0.5200000000000004)]",0.8780320000000003,,,23.0,0.014861,['Fail'],Fail,0.6700000000000005,-0.58304347826087,0.0,0.0,0.6
3.0,1.0,wc_1,,0.0,,,,0.0,,,,Fail,,,,,
3.0,1.0,wc_1,wc_5,0.0,"[('wc_2', 0.2300000000000001), ('wc_3', 0.5200000000000004), ('wc_4', 0.6700000000000005)]",0.8780320000000003,,,31.0,0.010801,['Fail'],Fail,0.3000000000000002,-0.3000000000000002,0.0,0.0,0.2
3.0,1.0,wc_1,,0.0,,,,61.0,,,,Fail,,,,,
3.0,1.0,wc_1,wc_6,1.0,"[('wc_6', 0.4800000000000003), ('wc_2', 0.2300000000000001), ('wc_3', 0.5200000000000004), ('wc_4', 0.6700000000000005)]",0.9365766400000002,,,25.0,0.059683,['Fail'],Fail,0.4800000000000003,-0.2981818181818185,0.0,0.0,0.4
11.0,1.0,wc_1,,0.0,,,,202.0,,,,Fail,,,,,
11.0,1.0,wc_1,,0.0,,,51.0,,,,,Fail,,,,,
11.0,1.0,wc_1,,0.0,,,,0.0,,,,Fail,,,,,
11.0,1.0,wc_1,wc_1,0.0,"[('wc_1', 0.6000000000000004)]",0.6000000000000004,,,33.0,0.002244,['Fail'],Fail,0.6000000000000004,-0.6000000000000004,0.0,1.0,0.5
11.0,1.0,wc_1,,0.0,,,,0.0,,,,Fail,,,,,
11.0,1.0,wc_1,wc_2,0.0,"[('wc_1', 0.6000000000000004)]",0.6000000000000004,,,23.0,0.014469000000000001,['Fail'],Fail,0.2300000000000001,0.7699999999999999,1.0,1.0,0.2
11.0,1.0,wc_1,,0.0,,,,0.0,,,,Fail,,,,,
11.0,1.0,wc_1,wc_3,0.0,"[('wc_3', 0.5200000000000004), ('wc_2', 0.2300000000000001)]",0.6304000000000003,,,33.0,0.009746,['Pass'],Fail,0.5200000000000004,0.47999999999999965,1.0,1.0,0.4
11.0,1.0,wc_1,,0.0,,,,0.0,,,,Fail,,,,,
11.0,1.0,wc_1,wc_4,0.0,"[('wc_4', 0.6700000000000005), ('wc_1', 0.6000000000000004)]",0.8680000000000003,,,21.0,0.011666,['Fail'],Fail,0.6700000000000005,0.3299999999999995,1.0,1.0,0.6
11.0,1.0,wc_1,,0.0,,,,0.0,,,,Fail,,,,,
11.0,1.0,wc_1,wc_5,0.0,"[('wc_1', 0.6000000000000004), ('wc_4', 0.6700000000000005)]",0.8680000000000003,,,39.0,0.01214,['Fail'],Fail,0.3000000000000002,-0.3000000000000002,0.0,1.0,0.2
11.0,1.0,wc_1,,0.0,,,,61.0,,,,Fail,,,,,
11.0,1.0,wc_1,wc_6,1.0,"[('wc_6', 0.4800000000000003), ('wc_1', 0.6000000000000004), ('wc_4', 0.6700000000000005)]",0.9313600000000002,,,37.0,0.046299999999999994,['Fail'],Fail,0.4800000000000003,0.5199999999999997,1.0,1.0,0.4
22.0,1.0,wc_1,,0.0,,,,202.0,,,,Pass,,,,,
22.0,1.0,wc_1,,0.0,,,59.0,,,,,Pass,,,,,
22.0,1.0,wc_1,,0.0,,,,0.0,,,,Pass,,,,,
22.0,1.0,wc_1,wc_1,0.0,"[('wc_1', 0.6000000000000004)]",0.6000000000000004,,,33.0,0.001922,['Pass'],Pass,0.6000000000000004,-0.10000000000000042,1.0,2.0,0.5
22.0,1.0,wc_1,,0.0,,,,0.0,,,,Pass,,,,,
22.0,1.0,wc_1,wc_2,0.0,"[('wc_1', 0.6000000000000004)]",0.6000000000000004,,,37.0,0.004875000000000001,['Pass'],Pass,0.2300000000000001,0.2699999999999999,1.0,2.0,0.2
22.0,1.0,wc_1,,0.0,,,,0.0,,,,Pass,,,,,
22.0,1.0,wc_1,wc_3,0.0,"[('wc_3', 0.5200000000000004), ('wc_1', 0.6000000000000004)]",0.8080000000000003,,,37.0,0.005478,['Pass'],Pass,0.5200000000000004,-0.02000000000000035,1.0,2.0,0.4
22.0,1.0,wc_1,,0.0,,,,0.0,,,,Pass,,,,,
22.0,1.0,wc_1,wc_4,1.0,"[('wc_4', 0.6700000000000005), ('wc_1', 0.6000000000000004), ('wc_3', 0.5200000000000004)]",0.9366400000000003,,,38.0,0.04181,['Pass'],Pass,0.6700000000000005,0.3299999999999995,3.0,3.0,0.6
27.0,3.0,wc_3,,0.0,,,,103.0,,,,Pass,,,,,
27.0,3.0,wc_3,,0.0,,,66.0,,,,,Pass,,,,,
27.0,3.0,wc_3,,0.0,,,,0.0,,,,Pass,,,,,
27.0,3.0,wc_3,wc_3,0.0,"[('wc_3', 0.5200000000000004)]",0.5200000000000004,,,20.0,0.00317,['Pass'],Pass,0.5200000000000004,0.14666666666666628,2.0,3.0,0.4
27.0,3.0,wc_3,,0.0,,,,0.0,,,,Pass,,,,,
27.0,3.0,wc_3,wc_4,0.0,"[('wc_4', 0.6700000000000005), ('wc_3', 0.5200000000000004)]",0.8416000000000003,,,23.0,0.00407,['Pass'],Pass,0.6700000000000005,0.3299999999999995,3.0,3.0,0.6
27.0,3.0,wc_3,,0.0,,,,0.0,,,,Pass,,,,,
27.0,3.0,wc_3,wc_5,0.0,"[('wc_3', 0.5200000000000004), ('wc_4', 0.6700000000000005)]",0.8416000000000003,,,30.0,0.006226000000000001,['Pass'],Pass,0.3000000000000002,-0.3000000000000002,0.0,3.0,0.2
27.0,3.0,wc_3,,0.0,,,,41.0,,,,Pass,,,,,
27.0,3.0,wc_3,wc_1,1.0,"[('wc_1', 0.6000000000000004), ('wc_3', 0.5200000000000004), ('wc_4', 0.6700000000000005)]",0.9366400000000001,,,32.0,0.047163000000000004,['Pass'],Pass,0.6000000000000004,0.14999999999999958,3.0,4.0,0.5
32.0,4.0,wc_4,,0.0,,,,0.0,,,,Pass,,,,,
32.0,4.0,wc_4,,0.0,,,71.0,,,,,Pass,,,,,
32.0,4.0,wc_4,,0.0,,,,0.0,,,,Pass,,,,,
32.0,4.0,wc_4,wc_4,0.0,"[('wc_4', 0.6700000000000005)]",0.6700000000000005,,,39.0,0.002796,['Pass'],Pass,0.6700000000000005,0.3299999999999995,4.0,4.0,0.6
32.0,4.0,wc_4,,0.0,,,,0.0,,,,Pass,,,,,
32.0,4.0,wc_4,wc_5,0.0,"[('wc_4', 0.6700000000000005)]",0.6700000000000005,,,27.0,0.004035,['Pass'],Pass,0.3000000000000002,-0.3000000000000002,0.0,4.0,0.2
32.0,4.0,wc_4,,0.0,,,,41.0,,,,Pass,,,,,
32.0,4.0,wc_4,wc_1,0.0,"[('wc_1', 0.6000000000000004), ('wc_4', 0.6700000000000005)]",0.8680000000000003,,,25.0,0.006831,['Pass'],Pass,0.6000000000000004,0.14999999999999958,3.0,4.0,0.5
32.0,4.0,wc_4,,0.0,,,,0.0,,,,Pass,,,,,
32.0,4.0,wc_4,wc_2,0.0,"[('wc_2', 0.2300000000000001), ('wc_4', 0.6700000000000005), ('wc_1', 0.6000000000000004)]",0.8983600000000003,,,22.0,0.012314,['Pass'],Pass,0.2300000000000001,0.019999999999999907,1.0,4.0,0.2
32.0,4.0,wc_4,,0.0,,,,0.0,,,,Pass,,,,,
32.0,4.0,wc_4,wc_3,1.0,"[('wc_3', 0.5200000000000004), ('wc_4', 0.6700000000000005), ('wc_1', 0.6000000000000004), ('wc_2', 0.2300000000000001)]",0.9512128000000002,,,40.0,0.044931,['Pass'],Pass,0.5200000000000004,0.2799999999999997,4.0,5.0,0.4
38.0,2.0,wc_2,,0.0,,,,101.0,,,,Pass,,,,,
38.0,2.0,wc_2,,0.0,,,65.0,,,,,Pass,,,,,
38.0,2.0,wc_2,,0.0,,,,0.0,,,,Pass,,,,,
38.0,2.0,wc_2,wc_2,0.0,"[('wc_2', 0.2300000000000001)]",0.2300000000000001,,,31.0,0.002648,['Pass'],Pass,0.2300000000000001,0.16999999999999993,2.0,5.0,0.2
38.0,2.0,wc_2,,0.0,,,,0.0,,,,Pass,,,,,
38.0,2.0,wc_2,wc_3,0.0,"[('wc_3', 0.5200000000000004)]",0.5200000000000004,,,37.0,0.006796,['Fail'],Pass,0.5200000000000004,0.2799999999999997,4.0,5.0,0.4
38.0,2.0,wc_2,,0.0,,,,0.0,,,,Pass,,,,,
38.0,2.0,wc_2,wc_4,0.0,"[('wc_4', 0.6700000000000005), ('wc_2', 0.2300000000000001)]",0.7459000000000005,,,25.0,0.007907,['Pass'],Pass,0.6700000000000005,0.3299999999999995,5.0,5.0,0.6
38.0,2.0,wc_2,,0.0,,,,0.0,,,,Pass,,,,,
38.0,2.0,wc_2,wc_5,0.0,"[('wc_5', 0.3000000000000002), ('wc_2', 0.2300000000000001), ('wc_4', 0.6700000000000005)]",0.8221300000000004,,,34.0,0.008421999999999999,['Pass'],Pass,0.3000000000000002,-0.3000000000000002,0.0,5.0,0.2
38.0,2.0,wc_2,,0.0,,,,41.0,,,,Pass,,,,,
38.0,2.0,wc_2,wc_1,1.0,"[('wc_1', 0.6000000000000004), ('wc_2', 0.2300000000000001), ('wc_4', 0.6700000000000005), ('wc_5', 0.3000000000000002)]",0.9288520000000002,,,36.0,0.054266999999999996,['Pass'],Pass,0.6000000000000004,0.23333333333333295,5.0,6.0,0.5
45.0,5.0,wc_5,,0.0,,,,0.0,,,,Pass,,,,,
45.0,5.0,wc_5,,0.0,,,66.0,,,,,Pass,,,,,
45.0,5.0,wc_5,,0.0,,,,0.0,,,,Pass,,,,,
45.0,5.0,wc_5,wc_5,0.0,"[('wc_5', 0.3000000000000002)]",0.30000000000000027,,,22.0,0.002208,['Fail'],Pass,0.3000000000000002,-0.13333333333333355,1.0,6.0,0.2
45.0,5.0,wc_5,,0.0,,,,41.0,,,,Pass,,,,,
45.0,5.0,wc_5,wc_1,0.0,"[('wc_1', 0.6000000000000004)]",0.6000000000000004,,,34.0,0.00447,['Pass'],Pass,0.6000000000000004,0.23333333333333295,5.0,6.0,0.5
45.0,5.0,wc_5,,0.0,,,,0.0,,,,Pass,,,,,
45.0,5.0,wc_5,wc_2,0.0,"[('wc_2', 0.2300000000000001), ('wc_1', 0.6000000000000004)]",0.6920000000000004,,,24.0,0.005575,['Pass'],Pass,0.2300000000000001,0.2699999999999999,3.0,6.0,0.2
45.0,5.0,wc_5,,0.0,,,,0.0,,,,Pass,,,,,
45.0,5.0,wc_5,wc_3,0.0,"[('wc_3', 0.5200000000000004), ('wc_1', 0.6000000000000004), ('wc_2', 0.2300000000000001)]",0.8521600000000003,,,28.0,0.018103,['Pass'],Pass,0.5200000000000004,0.14666666666666628,4.0,6.0,0.4
45.0,5.0,wc_5,,0.0,,,,0.0,,,,Pass,,,,,
45.0,5.0,wc_5,wc_4,1.0,"[('wc_4', 0.6700000000000005), ('wc_1', 0.6000000000000004), ('wc_2', 0.2300000000000001), ('wc_3', 0.5200000000000004)]",0.9512128000000002,,,39.0,0.045245999999999995,['Pass'],Pass,0.6700000000000005,0.3299999999999995,7.0,7.0,0.6
48.0,6.0,wc_6,,0.0,,,,81.0,,,,Fail,,,,,
48.0,6.0,wc_6,,0.0,,,78.0,,,,,Fail,,,,,
48.0,6.0,wc_6,,0.0,,,,0.0,,,,Fail,,,,,
48.0,6.0,wc_6,wc_6,0.0,"[('wc_6', 0.4800000000000003)]",0.4800000000000003,,,39.0,0.002183,['Pass'],Fail,0.4800000000000003,-0.3133333333333337,1.0,6.0,0.4
48.0,6.0,wc_6,,0.0,,,,0.0,,,,Fail,,,,,
48.0,6.0,wc_6,wc_7,0.0,"[('wc_6', 0.4800000000000003)]",0.4800000000000003,,,22.0,0.003937,['Pass'],Fail,0.3700000000000002,-0.3223809523809526,0.0,0.0,0.3
48.0,6.0,wc_6,,0.0,,,,0.0,,,,Fail,,,,,
48.0,6.0,wc_6,wc_8,0.0,"[('wc_6', 0.4800000000000003)]",0.4800000000000003,,,35.0,0.006581999999999999,['Pass'],Fail,0.1600000000000001,-0.05285714285714295,0.0,0.0,0.2
48.0,6.0,wc_6,,0.0,,,,0.0,,,,Fail,,,,,
48.0,6.0,wc_6,wc_9,1.0,"[('wc_9', 0.9900000000000008), ('wc_7', 0.3700000000000002), ('wc_8', 0.1600000000000001)]",0.9947080000000004,,,35.0,0.04922699999999999,['Fail'],Fail,0.9900000000000008,-0.7400000000000008,0.0,0.0,1.0
51.0,6.0,wc_6,,0.0,,,,61.0,,,,Pass,,,,,
51.0,6.0,wc_6,,0.0,,,59.0,,,,,Pass,,,,,
51.0,6.0,wc_6,,0.0,,,,0.0,,,,Pass,,,,,
51.0,6.0,wc_6,wc_6,0.0,"[('wc_6', 0.4800000000000003)]",0.4800000000000003,,,25.0,0.002511,['Fail'],Pass,0.4800000000000003,-0.33714285714285747,1.0,7.0,0.4
51.0,6.0,wc_6,,0.0,,,,0.0,,,,Pass,,,,,
51.0,6.0,wc_6,wc_7,0.0,"[('wc_6', 0.4800000000000003)]",0.4800000000000003,,,34.0,0.006069,['Fail'],Pass,0.3700000000000002,0.6299999999999998,1.0,1.0,0.3
51.0,6.0,wc_6,,0.0,,,,0.0,,,,Pass,,,,,
51.0,6.0,wc_6,wc_8,0.0,"[('wc_8', 0.1600000000000001), ('wc_6', 0.4800000000000003)]",0.5632000000000004,,,23.0,0.007692,['Fail'],Pass,0.1600000000000001,0.8399999999999999,1.0,1.0,0.2
51.0,6.0,wc_6,,0.0,,,,0.0,,,,Pass,,,,,
51.0,6.0,wc_6,wc_9,0.0,"[('wc_9', 0.9900000000000008), ('wc_7', 0.3700000000000002)]",0.9937000000000005,,,21.0,0.008486,['Pass'],Pass,0.9900000000000008,-0.9900000000000008,0.0,0.0,1.0
51.0,6.0,wc_6,,0.0,,,,0.0,,,,Pass,,,,,
51.0,6.0,wc_6,wc_10,0.0,"[('wc_7', 0.3700000000000002), ('wc_9', 0.9900000000000008)]",0.9937000000000005,,,23.0,0.009457,['Pass'],Pass,0.8300000000000006,-0.7188888888888896,0.0,0.0,0.5
51.0,6.0,wc_6,,0.0,,,,0.0,,,,Pass,,,,,
51.0,6.0,wc_6,wc_11,0.0,"[('wc_7', 0.3700000000000002), ('wc_9', 0.9900000000000008)]",0.9937000000000005,,,38.0,0.012469,['Pass'],Pass,0.6900000000000005,-0.5114285714285719,0.0,0.0,0.6
51.0,6.0,wc_6,,0.0,,,,61.0,,,,Pass,,,,,
51.0,6.0,wc_6,wc_12,1.0,"[('wc_12', 0.6400000000000005), ('wc_7', 0.3700000000000002), ('wc_9', 0.9900000000000008)]",0.9977320000000002,,,30.0,0.043496,['Pass'],Pass,0.6400000000000005,-0.36727272727272775,0.0,0.0,0.6
54.0,10.0,wc_10,,0.0,,,,341.0,,,,Pass,,,,,
54.0,10.0,wc_10,,0.0,,,56.0,,,,,Pass,,,,,
54.0,10.0,wc_10,,0.0,,,,0.0,,,,Pass,,,,,
54.0,10.0,wc_10,wc_10,0.0,"[('wc_10', 0.8300000000000006)]",0.8300000000000006,,,37.0,0.002083,['Fail'],Pass,0.8300000000000006,-0.8300000000000006,0.0,1.0,0.5
54.0,10.0,wc_10,,0.0,,,,0.0,,,,Pass,,,,,
54.0,10.0,wc_10,wc_11,0.0,"[('wc_10', 0.8300000000000006)]",0.8300000000000006,,,29.0,0.006702,['Fail'],Pass,0.6900000000000005,-0.6900000000000005,0.0,1.0,0.6
54.0,10.0,wc_10,,0.0,,,,21.0,,,,Pass,,,,,
54.0,10.0,wc_10,wc_6,0.0,"[('wc_6', 0.4800000000000003), ('wc_11', 0.6900000000000005)]",0.8388000000000003,,,23.0,0.008236,['Pass'],Pass,0.4800000000000003,-0.3550000000000003,1.0,8.0,0.4
54.0,10.0,wc_10,,0.0,,,,0.0,,,,Pass,,,,,
54.0,10.0,wc_10,wc_7,0.0,"[('wc_7', 0.3700000000000002), ('wc_11', 0.6900000000000005), ('wc_6', 0.4800000000000003)]",0.8984440000000002,,,35.0,0.012021,['Pass'],Pass,0.3700000000000002,0.6299999999999998,2.0,2.0,0.3
54.0,10.0,wc_10,,0.0,,,,0.0,,,,Pass,,,,,
54.0,10.0,wc_10,wc_8,1.0,"[('wc_8', 0.1600000000000001), ('wc_11', 0.6900000000000005), ('wc_6', 0.4800000000000003), ('wc_7', 0.3700000000000002)]",0.9146929600000002,,,40.0,0.05002199999999999,['Pass'],Pass,0.1600000000000001,0.5066666666666666,2.0,3.0,0.2
59.0,8.0,wc_8,,0.0,,,,0.0,,,,Fail,,,,,
59.0,8.0,wc_8,,0.0,,,80.0,,,,,Fail,,,,,
59.0,8.0,wc_8,,0.0,,,,0.0,,,,Fail,,,,,
59.0,8.0,wc_8,wc_8,0.0,"[('wc_8', 0.1600000000000001)]",0.16000000000000014,,,25.0,0.00225,['Fail'],Fail,0.1600000000000001,0.5066666666666666,2.0,3.0,0.2
59.0,8.0,wc_8,,0.0,,,,0.0,,,,Fail,,,,,
59.0,8.0,wc_8,wc_9,0.0,"[('wc_9', 0.9900000000000008), ('wc_8', 0.1600000000000001)]",0.9916000000000007,,,26.0,0.004861000000000001,['Fail'],Fail,0.9900000000000008,-0.49000000000000077,1.0,2.0,1.0
59.0,8.0,wc_8,,0.0,,,,0.0,,,,Fail,,,,,
59.0,8.0,wc_8,wc_10,1.0,"[('wc_10', 0.8300000000000006), ('wc_8', 0.1600000000000001), ('wc_9', 0.9900000000000008)]",0.9985720000000001,,,25.0,0.041336,['Fail'],Fail,0.8300000000000006,-0.4966666666666673,1.0,3.0,0.5
63.0,9.0,wc_9,,0.0,,,,103.0,,,,Fail,,,,,
63.0,9.0,wc_9,,0.0,,,57.0,,,,,Fail,,,,,
63.0,9.0,wc_9,,0.0,,,,0.0,,,,Fail,,,,,
63.0,9.0,wc_9,wc_9,0.0,"[('wc_9', 0.9900000000000008)]",0.9900000000000008,,,23.0,0.003374,['Fail'],Fail,0.9900000000000008,-0.32333333333333414,2.0,3.0,1.0
63.0,9.0,wc_9,,0.0,,,,0.0,,,,Fail,,,,,
63.0,9.0,wc_9,wc_10,0.0,"[('wc_10', 0.8300000000000006), ('wc_9', 0.9900000000000008)]",0.9983000000000002,,,24.0,0.0046029999999999995,['Fail'],Fail,0.8300000000000006,-0.4966666666666673,1.0,3.0,0.5
63.0,9.0,wc_9,,0.0,,,,0.0,,,,Fail,,,,,
63.0,9.0,wc_9,wc_11,1.0,"[('wc_11', 0.6900000000000005), ('wc_9', 0.9900000000000008), ('wc_10', 0.8300000000000006)]",0.9994730000000001,,,28.0,0.047553,['Fail'],Fail,0.6900000000000005,-0.1900000000000005,2.0,4.0,0.6
69.0,11.0,wc_11,,0.0,,,,0.0,,,,Fail,,,,,
69.0,11.0,wc_11,,0.0,,,71.0,,,,,Fail,,,,,
69.0,11.0,wc_11,,0.0,,,,0.0,,,,Fail,,,,,
69.0,11.0,wc_11,wc_11,0.0,"[('wc_11', 0.6900000000000005)]",0.6900000000000005,,,33.0,0.002208,['Fail'],Fail,0.6900000000000005,-0.1900000000000005,2.0,4.0,0.6
69.0,11.0,wc_11,,0.0,,,,21.0,,,,Fail,,,,,
69.0,11.0,wc_11,wc_6,0.0,"[('wc_6', 0.4800000000000003), ('wc_11', 0.6900000000000005)]",0.8388000000000003,,,28.0,0.004197,['Fail'],Fail,0.4800000000000003,-0.2981818181818185,0.0,0.0,0.4
69.0,11.0,wc_11,,0.0,,,,0.0,,,,Fail,,,,,
69.0,11.0,wc_11,wc_7,0.0,"[('wc_11', 0.6900000000000005), ('wc_6', 0.4800000000000003)]",0.8388000000000003,,,34.0,0.006447999999999999,['Fail'],Fail,0.3700000000000002,0.22999999999999976,3.0,5.0,0.3
69.0,11.0,wc_11,,0.0,,,,0.0,,,,Fail,,,,,
69.0,11.0,wc_11,wc_8,0.0,"[('wc_11', 0.6900000000000005), ('wc_6', 0.4800000000000003)]",0.8388000000000003,,,22.0,0.007321,['Fail'],Fail,0.1600000000000001,0.4399999999999999,3.0,5.0,0.2
69.0,11.0,wc_11,,0.0,,,,0.0,,,,Fail,,,,,
69.0,11.0,wc_11,wc_9,1.0,"[('wc_9', 0.9900000000000008), ('wc_11', 0.6900000000000005), ('wc_6', 0.4800000000000003)]",0.9983880000000002,,,22.0,0.047135,['Fail'],Fail,0.9900000000000008,-0.19000000000000072,4.0,5.0,1.0
74.0,7.0,wc_7,,0.0,,,,81.0,,,,Pass,,,,,
74.0,7.0,wc_7,,0.0,,,79.0,,,,,Pass,,,,,
74.0,7.0,wc_7,,0.0,,,,0.0,,,,Pass,,,,,
74.0,7.0,wc_7,wc_7,0.0,"[('wc_7', 0.3700000000000002)]",0.3700000000000002,,,36.0,0.002289,['Fail'],Pass,0.3700000000000002,0.12999999999999978,3.0,6.0,0.3
74.0,7.0,wc_7,,0.0,,,,0.0,,,,Pass,,,,,
74.0,7.0,wc_7,wc_8,0.0,"[('wc_7', 0.3700000000000002)]",0.3700000000000002,,,38.0,0.0044069999999999995,['Fail'],Pass,0.1600000000000001,0.3399999999999999,3.0,6.0,0.2
74.0,7.0,wc_7,,0.0,,,,0.0,,,,Pass,,,,,
74.0,7.0,wc_7,wc_9,0.0,"[('wc_9', 0.9900000000000008), ('wc_8', 0.1600000000000001)]",0.9916000000000007,,,35.0,0.007268,['Pass'],Pass,0.9900000000000008,-0.19000000000000072,4.0,5.0,1.0
74.0,7.0,wc_7,,0.0,,,,0.0,,,,Pass,,,,,
74.0,7.0,wc_7,wc_10,0.0,"[('wc_8', 0.1600000000000001), ('wc_9', 0.9900000000000008)]",0.9916000000000007,,,22.0,0.009602000000000001,['Pass'],Pass,0.8300000000000006,-0.4300000000000006,2.0,5.0,0.5
74.0,7.0,wc_7,,0.0,,,,0.0,,,,Pass,,,,,
74.0,7.0,wc_7,wc_11,1.0,"[('wc_11', 0.6900000000000005), ('wc_8', 0.1600000000000001), ('wc_9', 0.9900000000000008)]",0.9973960000000002,,,27.0,0.04887,['Pass'],Pass,0.6900000000000005,-0.023333333333333872,4.0,6.0,0.6
78.0,8.0,wc_8,,0.0,,,,61.0,,,,Fail,,,,,
78.0,8.0,wc_8,,0.0,,,63.0,,,,,Fail,,,,,
78.0,8.0,wc_8,,0.0,,,,0.0,,,,Fail,,,,,
78.0,8.0,wc_8,wc_8,0.0,"[('wc_8', 0.1600000000000001)]",0.16000000000000014,,,40.0,0.00218,['Fail'],Fail,0.1600000000000001,0.4114285714285713,4.0,7.0,0.2
78.0,8.0,wc_8,,0.0,,,,0.0,,,,Fail,,,,,
78.0,8.0,wc_8,wc_9,0.0,"[('wc_9', 0.9900000000000008), ('wc_8', 0.1600000000000001)]",0.9916000000000007,,,38.0,0.004069,['Fail'],Fail,0.9900000000000008,-0.1566666666666674,5.0,6.0,1.0
78.0,8.0,wc_8,,0.0,,,,0.0,,,,Fail,,,,,
78.0,8.0,wc_8,wc_10,1.0,"[('wc_10', 0.8300000000000006), ('wc_8', 0.1600000000000001), ('wc_9', 0.9900000000000008)]",0.9985720000000001,,,32.0,0.043858999999999995,['Fail'],Fail,0.8300000000000006,-0.4014285714285721,3.0,7.0,0.5
84.0,8.0,wc_8,,0.0,,,,81.0,,,,Fail,,,,,
84.0,8.0,wc_8,,0.0,,,78.0,,,,,Fail,,,,,
84.0,8.0,wc_8,,0.0,,,,0.0,,,,Fail,,,,,
84.0,8.0,wc_8,wc_8,0.0,"[('wc_8', 0.1600000000000001)]",0.16000000000000014,,,29.0,0.00209,['Pass'],Fail,0.1600000000000001,0.4649999999999999,5.0,8.0,0.2
84.0,8.0,wc_8,,0.0,,,,0.0,,,,Fail,,,,,
84.0,8.0,wc_8,wc_9,0.0,"[('wc_9', 0.9900000000000008)]",0.9900000000000008,,,38.0,0.004897,['Fail'],Fail,0.9900000000000008,-0.13285714285714367,6.0,7.0,1.0
84.0,8.0,wc_8,,0.0,,,,0.0,,,,Fail,,,,,
84.0,8.0,wc_8,wc_10,0.0,"[('wc_10', 0.8300000000000006), ('wc_9', 0.9900000000000008)]",0.9983000000000002,,,22.0,0.0063349999999999995,['Fail'],Fail,0.8300000000000006,-0.4014285714285721,3.0,7.0,0.5
84.0,8.0,wc_8,,0.0,,,,0.0,,,,Fail,,,,,
84.0,8.0,wc_8,wc_11,1.0,"[('wc_11', 0.6900000000000005), ('wc_9', 0.9900000000000008), ('wc_10', 0.8300000000000006)]",0.9994730000000001,,,33.0,0.040495,['Fail'],Fail,0.6900000000000005,-0.0650000000000005,5.0,8.0,0.6
88.0,11.0,wc_11,,0.0,,,,0.0,,,,Pass,,,,,
88.0,11.0,wc_11,,0.0,,,61.0,,,,,Pass,,,,,
88.0,11.0,wc_11,,0.0,,,,0.0,,,,Pass,,,,,
88.0,11.0,wc_11,wc_11,0.0,"[('wc_11', 0.6900000000000005)]",0.6900000000000005,,,28.0,0.002532,['Pass'],Pass,0.6900000000000005,-0.0650000000000005,5.0,8.0,0.6
88.0,11.0,wc_11,,0.0,,,,21.0,,,,Pass,,,,,
88.0,11.0,wc_11,wc_6,0.0,"[('wc_11', 0.6900000000000005)]",0.6900000000000005,,,33.0,0.003975,['Pass'],Pass,0.4800000000000003,-0.23000000000000032,1.0,4.0,0.4
88.0,11.0,wc_11,,0.0,,,,0.0,,,,Pass,,,,,
88.0,11.0,wc_11,wc_7,0.0,"[('wc_7', 0.3700000000000002), ('wc_11', 0.6900000000000005)]",0.8047000000000004,,,37.0,0.008116000000000002,['Pass'],Pass,0.3700000000000002,-0.0366666666666669,3.0,9.0,0.3
88.0,11.0,wc_11,,0.0,,,,0.0,,,,Pass,,,,,
88.0,11.0,wc_11,wc_8,0.0,"[('wc_8', 0.1600000000000001), ('wc_11', 0.6900000000000005), ('wc_7', 0.3700000000000002)]",0.8359480000000004,,,29.0,0.009063000000000002,['Pass'],Pass,0.1600000000000001,0.3955555555555555,5.0,9.0,0.2
88.0,11.0,wc_11,,0.0,,,,0.0,,,,Pass,,,,,
88.0,11.0,wc_11,wc_9,1.0,"[('wc_9', 0.9900000000000008), ('wc_11', 0.6900000000000005), ('wc_7', 0.3700000000000002), ('wc_8', 0.1600000000000001)]",0.9983594800000001,,,22.0,0.052484,['Pass'],Pass,0.9900000000000008,-0.10111111111111193,8.0,9.0,1.0
92.0,8.0,wc_8,,0.0,,,,101.0,,,,Fail,,,,,
92.0,8.0,wc_8,,0.0,,,56.0,,,,,Fail,,,,,
92.0,8.0,wc_8,,0.0,,,,0.0,,,,Fail,,,,,
92.0,8.0,wc_8,wc_8,0.0,"[('wc_8', 0.1600000000000001)]",0.16000000000000014,,,29.0,0.002222,['Pass'],Fail,0.1600000000000001,0.4399999999999999,0.0,0.0,0.2
92.0,8.0,wc_8,,0.0,,,,0.0,,,,Fail,,,,,
92.0,8.0,wc_8,wc_9,0.0,"[('wc_9', 0.9900000000000008)]",0.9900000000000008,,,35.0,0.0042710000000000005,['Fail'],Fail,0.9900000000000008,-0.10111111111111193,8.0,9.0,1.0
92.0,8.0,wc_8,,0.0,,,,0.0,,,,Fail,,,,,
92.0,8.0,wc_8,wc_10,0.0,"[('wc_10', 0.8300000000000006), ('wc_9', 0.9900000000000008)]",0.9983000000000002,,,39.0,0.006599,['Fail'],Fail,0.8300000000000006,-0.3855555555555562,4.0,9.0,0.5
92.0,8.0,wc_8,,0.0,,,,0.0,,,,Fail,,,,,
92.0,8.0,wc_8,wc_11,1.0,"[('wc_11', 0.6900000000000005), ('wc_9', 0.9900000000000008), ('wc_10', 0.8300000000000006)]",0.9994730000000001,,,28.0,0.048934000000000005,['Fail'],Fail,0.6900000000000005,0.009999999999999454,0.0,0.0,0.6
97.0,9.0,wc_9,,0.0,,,,83.0,,,,Fail,,,,,
97.0,9.0,wc_9,,0.0,,,78.0,,,,,Fail,,,,,
97.0,9.0,wc_9,,0.0,,,,0.0,,,,Fail,,,,,
97.0,9.0,wc_9,wc_9,0.0,"[('wc_9', 0.9900000000000008)]",0.9900000000000008,,,21.0,0.002075,['Fail'],Fail,0.9900000000000008,-0.09000000000000075,0.0,0.0,1.0
97.0,9.0,wc_9,,0.0,,,,0.0,,,,Fail,,,,,
97.0,9.0,wc_9,wc_10,0.0,"[('wc_10', 0.8300000000000006), ('wc_9', 0.9900000000000008)]",0.9983000000000002,,,34.0,0.004509,['Fail'],Fail,0.8300000000000006,-0.3300000000000006,0.0,0.0,0.5
97.0,9.0,wc_9,,0.0,,,,0.0,,,,Fail,,,,,
97.0,9.0,wc_9,wc_11,1.0,"[('wc_11', 0.6900000000000005), ('wc_9', 0.9900000000000008), ('wc_10', 0.8300000000000006)]",0.9994730000000001,,,21.0,0.037402,['Fail'],Fail,0.6900000000000005,0.3099999999999995,1.0,1.0,0.6
101.0,9.0,wc_9,,0.0,,,,83.0,,,,Fail,,,,,
101.0,9.0,wc_9,,0.0,,,65.0,,,,,Fail,,,,,
101.0,9.0,wc_9,,0.0,,,,0.0,,,,Fail,,,,,
101.0,9.0,wc_9,wc_9,0.0,"[('wc_9', 0.9900000000000008)]",0.9900000000000008,,,21.0,0.002043,['Fail'],Fail,0.9900000000000008,0.009999999999999232,1.0,1.0,1.0
101.0,9.0,wc_9,,0.0,,,,0.0,,,,Fail,,,,,
101.0,9.0,wc_9,wc_10,0.0,"[('wc_10', 0.8300000000000006), ('wc_9', 0.9900000000000008)]",0.9983000000000002,,,36.0,0.003978000000000001,['Fail'],Fail,0.8300000000000006,0.16999999999999937,1.0,1.0,0.5
101.0,9.0,wc_9,,0.0,,,,0.0,,,,Fail,,,,,
101.0,9.0,wc_9,wc_11,1.0,"[('wc_11', 0.6900000000000005), ('wc_9', 0.9900000000000008), ('wc_10', 0.8300000000000006)]",0.9994730000000001,,,22.0,0.039749,['Fail'],Fail,0.6900000000000005,0.3099999999999995,2.0,2.0,0.6
104.0,9.0,wc_9,,0.0,,,,83.0,,,,Pass,,,,,
104.0,9.0,wc_9,,0.0,,,77.0,,,,,Pass,,,,,
104.0,9.0,wc_9,,0.0,,,,0.0,,,,Pass,,,,,
104.0,9.0,wc_9,wc_9,0.0,"[('wc_9', 0.9900000000000008)]",0.9900000000000008,,,36.0,0.00209,['Pass'],Pass,0.9900000000000008,0.009999999999999232,2.0,2.0,1.0
104.0,9.0,wc_9,,0.0,,,,0.0,,,,Pass,,,,,
104.0,9.0,wc_9,wc_10,0.0,"[('wc_10', 0.8300000000000006), ('wc_9', 0.9900000000000008)]",0.9983000000000002,,,29.0,0.004495,['Pass'],Pass,0.8300000000000006,0.16999999999999937,2.0,2.0,0.5
104.0,9.0,wc_9,,0.0,,,,0.0,,,,Pass,,,,,
104.0,9.0,wc_9,wc_11,1.0,"[('wc_11', 0.6900000000000005), ('wc_9', 0.9900000000000008), ('wc_10', 0.8300000000000006)]",0.9994730000000001,,,26.0,0.042519,['Pass'],Pass,0.6900000000000005,0.3099999999999995,3.0,3.0,0.6
109.0,8.0,wc_8,,0.0,,,,61.0,,,,Pass,,,,,
109.0,8.0,wc_8,,0.0,,,56.0,,,,,Pass,,,,,
109.0,8.0,wc_8,,0.0,,,,0.0,,,,Pass,,,,,
109.0,8.0,wc_8,wc_8,0.0,"[('wc_8', 0.1600000000000001)]",0.16000000000000014,,,32.0,0.002909,['Fail'],Pass,0.1600000000000001,-0.1600000000000001,0.0,4.0,0.2
109.0,8.0,wc_8,,0.0,,,,0.0,,,,Pass,,,,,
109.0,8.0,wc_8,wc_9,0.0,"[('wc_9', 0.9900000000000008)]",0.9900000000000008,,,31.0,0.003853,['Pass'],Pass,0.9900000000000008,0.009999999999999232,3.0,3.0,1.0
109.0,8.0,wc_8,,0.0,,,,0.0,,,,Pass,,,,,
109.0,8.0,wc_8,wc_10,0.0,"[('wc_10', 0.8300000000000006), ('wc_9', 0.9900000000000008)]",0.9983000000000002,,,36.0,0.006503,['Pass'],Pass,0.8300000000000006,0.16999999999999937,3.0,3.0,0.5
109.0,8.0,wc_8,,0.0,,,,0.0,,,,Pass,,,,,
109.0,8.0,wc_8,wc_11,1.0,"[('wc_11', 0.6900000000000005), ('wc_9', 0.9900000000000008), ('wc_10', 0.8300000000000006)]",0.9994730000000001,,,30.0,0.04542,['Pass'],Pass,0.6900000000000005,0.3099999999999995,4.0,4.0,0.6
112.0,12.0,wc_12,,0.0,,,,61.0,,,,Fail,,,,,
112.0,12.0,wc_12,,0.0,,,72.0,,,,,Fail,,,,,
112.0,12.0,wc_12,,0.0,,,,0.0,,,,Fail,,,,,
112.0,12.0,wc_12,wc_12,0.0,"[('wc_12', 0.6400000000000005)]",0.6400000000000005,,,24.0,0.001998,['Fail'],Fail,0.6400000000000005,-0.6400000000000005,0.0,0.0,0.6
112.0,12.0,wc_12,,0.0,,,,0.0,,,,Fail,,,,,
112.0,12.0,wc_12,wc_13,0.0,"[('wc_13', 0.7700000000000006), ('wc_12', 0.6400000000000005)]",0.9172000000000003,,,30.0,0.004104999999999999,['Fail'],Fail,0.7700000000000006,-0.6866666666666672,0.0,0.0,0.8
112.0,12.0,wc_12,,0.0,,,,0.0,,,,Fail,,,,,
112.0,12.0,wc_12,wc_14,1.0,"[('wc_14', 0.9400000000000008), ('wc_12', 0.6400000000000005), ('wc_13', 0.7700000000000006)]",0.9950320000000001,,,37.0,0.04825800000000001,['Fail'],Fail,0.9400000000000008,-0.8983333333333342,0.0,0.0,1.0
118.0,12.0,wc_12,,0.0,,,,82.0,,,,Fail,,,,,
118.0,12.0,wc_12,,0.0,,,61.0,,,,,Fail,,,,,
118.0,12.0,wc_12,,0.0,,,,0.0,,,,Fail,,,,,
118.0,12.0,wc_12,wc_12,0.0,"[('wc_12', 0.6400000000000005)]",0.6400000000000005,,,34.0,0.002258,['Fail'],Fail,0.6400000000000005,0.35999999999999954,1.0,1.0,0.6
118.0,12.0,wc_12,,0.0,,,,0.0,,,,Fail,,,,,
118.0,12.0,wc_12,wc_13,0.0,"[('wc_13', 0.7700000000000006), ('wc_12', 0.6400000000000005)]",0.9172000000000003,,,33.0,0.0038580000000000003,['Fail'],Fail,0.7700000000000006,0.22999999999999943,1.0,1.0,0.8
118.0,12.0,wc_12,,0.0,,,,0.0,,,,Fail,,,,,
118.0,12.0,wc_12,wc_14,1.0,"[('wc_14', 0.9400000000000008), ('wc_12', 0.6400000000000005), ('wc_13', 0.7700000000000006)]",0.9950320000000001,,,36.0,0.043938,['Fail'],Fail,0.9400000000000008,0.059999999999999165,1.0,1.0,1.0
124.0,12.0,wc_12,,0.0,,,,82.0,,,,Pass,,,,,
124.0,12.0,wc_12,,0.0,,,64.0,,,,,Pass,,,,,
124.0,12.0,wc_12,,0.0,,,,0.0,,,,Pass,,,,,
124.0,12.0,wc_12,wc_12,0.0,"[('wc_12', 0.6400000000000005)]",0.6400000000000005,,,29.0,0.004822,['Pass'],Pass,0.6400000000000005,0.35999999999999954,2.0,2.0,0.6
124.0,12.0,wc_12,,0.0,,,,0.0,,,,Pass,,,,,
124.0,12.0,wc_12,wc_13,0.0,"[('wc_13', 0.7700000000000006), ('wc_12', 0.6400000000000005)]",0.9172000000000003,,,26.0,0.005041,['Pass'],Pass,0.7700000000000006,0.22999999999999943,2.0,2.0,0.8
124.0,12.0,wc_12,,0.0,,,,0.0,,,,Pass,,,,,
124.0,12.0,wc_12,wc_14,1.0,"[('wc_14', 0.9400000000000008), ('wc_12', 0.6400000000000005), ('wc_13', 0.7700000000000006)]",0.9950320000000001,,,27.0,0.041304999999999994,['Pass'],Pass,0.9400000000000008,0.059999999999999165,2.0,2.0,1.0
126.0,13.0,wc_13,,0.0,,,,102.0,,,,Fail,,,,,
126.0,13.0,wc_13,,0.0,,,55.0,,,,,Fail,,,,,
126.0,13.0,wc_13,,0.0,,,,0.0,,,,Fail,,,,,
126.0,13.0,wc_13,wc_13,0.0,"[('wc_13', 0.7700000000000006)]",0.7700000000000006,,,38.0,0.002895,['Fail'],Fail,0.7700000000000006,0.22999999999999943,3.0,3.0,0.8
126.0,13.0,wc_13,,0.0,,,,0.0,,,,Fail,,,,,
126.0,13.0,wc_13,wc_14,0.0,"[('wc_14', 0.9400000000000008), ('wc_13', 0.7700000000000006)]",0.9862000000000002,,,27.0,0.005999,['Fail'],Fail,0.9400000000000008,0.059999999999999165,2.0,2.0,1.0
126.0,13.0,wc_13,,0.0,,,,0.0,,,,Fail,,,,,
126.0,13.0,wc_13,wc_15,1.0,"[('wc_15', 0.7100000000000005), ('wc_13', 0.7700000000000006), ('wc_14', 0.9400000000000008)]",0.995998,,,28.0,0.05987799999999999,['Fail'],Fail,0.7100000000000005,-0.5711111111111116,0.0,0.0,0.6
129.0,13.0,wc_13,,0.0,,,,81.0,,,,Pass,,,,,
129.0,13.0,wc_13,,0.0,,,71.0,,,,,Pass,,,,,
129.0,13.0,wc_13,,0.0,,,,0.0,,,,Pass,,,,,
129.0,13.0,wc_13,wc_13,0.0,"[('wc_13', 0.7700000000000006)]",0.7700000000000006,,,36.0,0.002077,['Fail'],Pass,0.7700000000000006,0.22999999999999943,4.0,4.0,0.8
129.0,13.0,wc_13,,0.0,,,,0.0,,,,Pass,,,,,
129.0,13.0,wc_13,wc_14,0.0,"[('wc_14', 0.9400000000000008)]",0.9400000000000008,,,26.0,0.004224,['Pass'],Pass,0.9400000000000008,0.059999999999999165,3.0,3.0,1.0
129.0,13.0,wc_13,,0.0,,,,0.0,,,,Pass,,,,,
129.0,13.0,wc_13,wc_15,0.0,"[('wc_15', 0.7100000000000005), ('wc_14', 0.9400000000000008)]",0.9826000000000003,,,34.0,0.006458,['Pass'],Pass,0.7100000000000005,-0.7100000000000005,0.0,0.0,0.6
129.0,13.0,wc_13,,0.0,,,,0.0,,,,Pass,,,,,
129.0,13.0,wc_13,wc_16,1.0,"[('wc_16', 0.8500000000000006), ('wc_14', 0.9400000000000008), ('wc_15', 0.7100000000000005)]",0.99739,,,26.0,0.046076,['Pass'],Pass,0.8500000000000006,-0.683333333333334,0.0,0.0,0.8
131.0,16.0,wc_16,,0.0,,,,0.0,,,,Pass,,,,,
131.0,16.0,wc_16,,0.0,,,80.0,,,,,Pass,,,,,
131.0,16.0,wc_16,,0.0,,,,0.0,,,,Pass,,,,,
131.0,16.0,wc_16,wc_16,0.0,"[('wc_16', 0.8500000000000006)]",0.8500000000000006,,,26.0,0.002071,['Pass'],Pass,0.8500000000000006,-0.8500000000000006,0.0,0.0,0.8
131.0,16.0,wc_16,,0.0,,,,0.0,,,,Pass,,,,,
131.0,16.0,wc_16,wc_17,0.0,"[('wc_17', 0.7700000000000006), ('wc_16', 0.8500000000000006)]",0.9655000000000002,,,23.0,0.006657,['Pass'],Pass,0.7700000000000006,-0.6033333333333339,0.0,0.0,0.5
131.0,16.0,wc_16,,0.0,,,,21.0,,,,Pass,,,,,
131.0,16.0,wc_16,wc_12,0.0,"[('wc_16', 0.8500000000000006), ('wc_17', 0.7700000000000006)]",0.9655000000000002,,,21.0,0.006054,['Pass'],Pass,0.6400000000000005,-0.04000000000000048,3.0,5.0,0.6
131.0,16.0,wc_16,,0.0,,,,0.0,,,,Pass,,,,,
131.0,16.0,wc_16,wc_13,1.0,"[('wc_13', 0.7700000000000006), ('wc_16', 0.8500000000000006), ('wc_17', 0.7700000000000006)]",0.9920650000000001,,,30.0,0.043094999999999994,['Pass'],Pass,0.7700000000000006,0.0633333333333328,5.0,6.0,0.8
134.0,15.0,wc_15,,0.0,,,,0.0,,,,Pass,,,,,
134.0,15.0,wc_15,,0.0,,,72.0,,,,,Pass,,,,,
134.0,15.0,wc_15,,0.0,,,,0.0,,,,Pass,,,,,
134.0,15.0,wc_15,wc_15,0.0,"[('wc_15', 0.7100000000000005)]",0.7100000000000005,,,33.0,0.00249,['Pass'],Pass,0.7100000000000005,-0.21000000000000052,1.0,2.0,0.6
134.0,15.0,wc_15,,0.0,,,,0.0,,,,Pass,,,,,
134.0,15.0,wc_15,wc_16,0.0,"[('wc_16', 0.8500000000000006), ('wc_15', 0.7100000000000005)]",0.9565000000000002,,,26.0,0.004234,['Pass'],Pass,0.8500000000000006,0.14999999999999936,1.0,1.0,0.8
134.0,15.0,wc_15,,0.0,,,,0.0,,,,Pass,,,,,
134.0,15.0,wc_15,wc_17,1.0,"[('wc_17', 0.7700000000000006), ('wc_15', 0.7100000000000005), ('wc_16', 0.8500000000000006)]",0.9899950000000001,,,23.0,0.042075,['Pass'],Pass,0.7700000000000006,0.22999999999999943,2.0,2.0,0.5
137.0,14.0,wc_14,,0.0,,,,61.0,,,,Fail,,,,,
137.0,14.0,wc_14,,0.0,,,50.0,,,,,Fail,,,,,
137.0,14.0,wc_14,,0.0,,,,0.0,,,,Fail,,,,,
137.0,14.0,wc_14,wc_14,0.0,"[('wc_14', 0.9400000000000008)]",0.9400000000000008,,,34.0,0.002433,['Fail'],Fail,0.9400000000000008,-0.2733333333333342,4.0,6.0,1.0
137.0,14.0,wc_14,,0.0,,,,0.0,,,,Fail,,,,,
137.0,14.0,wc_14,wc_15,0.0,"[('wc_15', 0.7100000000000005), ('wc_14', 0.9400000000000008)]",0.9826000000000003,,,25.0,0.004171,['Fail'],Fail,0.7100000000000005,-0.04333333333333389,2.0,3.0,0.6
137.0,14.0,wc_14,,0.0,,,,0.0,,,,Fail,,,,,
137.0,14.0,wc_14,wc_16,1.0,"[('wc_16', 0.8500000000000006), ('wc_14', 0.9400000000000008), ('wc_15', 0.7100000000000005)]",0.99739,,,30.0,0.041549,['Fail'],Fail,0.8500000000000006,0.14999999999999936,3.0,3.0,0.8
140.0,14.0,wc_14,,0.0,,,,81.0,,,,Pass,,,,,
140.0,14.0,wc_14,,0.0,,,63.0,,,,,Pass,,,,,
140.0,14.0,wc_14,,0.0,,,,0.0,,,,Pass,,,,,
140.0,14.0,wc_14,wc_14,0.0,"[('wc_14', 0.9400000000000008)]",0.9400000000000008,,,28.0,0.002444,['Pass'],Pass,0.9400000000000008,-0.22571428571428653,5.0,7.0,1.0
140.0,14.0,wc_14,,0.0,,,,0.0,,,,Pass,,,,,
140.0,14.0,wc_14,wc_15,0.0,"[('wc_15', 0.7100000000000005), ('wc_14', 0.9400000000000008)]",0.9826000000000003,,,39.0,0.003945,['Pass'],Pass,0.7100000000000005,0.03999999999999948,3.0,4.0,0.6
140.0,14.0,wc_14,,0.0,,,,0.0,,,,Pass,,,,,
140.0,14.0,wc_14,wc_16,0.0,"[('wc_14', 0.9400000000000008), ('wc_15', 0.7100000000000005)]",0.9826000000000003,,,27.0,0.006109999999999999,['Pass'],Pass,0.8500000000000006,0.14999999999999936,3.0,3.0,0.8
140.0,14.0,wc_14,,0.0,,,,0.0,,,,Pass,,,,,
140.0,14.0,wc_14,wc_17,0.0,"[('wc_14', 0.9400000000000008), ('wc_15', 0.7100000000000005)]",0.9826000000000003,,,25.0,0.011718,['Pass'],Pass,0.7700000000000006,-0.10333333333333394,2.0,3.0,0.5
140.0,14.0,wc_14,,0.0,,,,21.0,,,,Pass,,,,,
140.0,14.0,wc_14,wc_12,1.0,"[('wc_12', 0.6400000000000005), ('wc_14', 0.9400000000000008), ('wc_15', 0.7100000000000005)]",0.9937360000000001,,,25.0,0.04793599999999999,['Pass'],Pass,0.6400000000000005,-0.19555555555555604,4.0,9.0,0.6
143.0,17.0,wc_17,,0.0,,,,0.0,,,,Pass,,,,,
143.0,17.0,wc_17,,0.0,,,69.0,,,,,Pass,,,,,
143.0,17.0,wc_17,,0.0,,,,0.0,,,,Pass,,,,,
143.0,17.0,wc_17,wc_17,0.0,"[('wc_17', 0.7700000000000006)]",0.7700000000000006,,,35.0,0.002634,['Pass'],Pass,0.7700000000000006,-0.2700000000000006,2.0,4.0,0.5
143.0,17.0,wc_17,,0.0,,,,21.0,,,,Pass,,,,,
143.0,17.0,wc_17,wc_12,0.0,"[('wc_12', 0.6400000000000005), ('wc_17', 0.7700000000000006)]",0.9172000000000003,,,30.0,0.005329,['Pass'],Pass,0.6400000000000005,-0.19555555555555604,4.0,9.0,0.6
143.0,17.0,wc_17,,0.0,,,,0.0,,,,Pass,,,,,
143.0,17.0,wc_17,wc_13,1.0,"[('wc_13', 0.7700000000000006), ('wc_17', 0.7700000000000006), ('wc_12', 0.6400000000000005)]",0.9809560000000002,,,25.0,0.046821,['Pass'],Pass,0.7700000000000006,-0.1700000000000006,0.0,0.0,0.8
