mpecck/BCQC/bcqc_with_qdt/results/raw/input_8/independent_qc/score/5_workpiece/20200429_104652/wp_4_qc_majority_0.9.csv
production_index,step_idx,production_workcell,qc,consent,winner_qc_list,score,production_time,transport_time,inspection_time,network_time,qc_results,actual_quality,qc_score,score_error,in_winner_counter,in_qc_counter,qc_capability
5.0,1.0,wc_1,,0.0,,,67.0,,,,,Fail,,,,,
5.0,1.0,wc_1,,0.0,,,,0.0,,,,Fail,,,,,
5.0,1.0,wc_1,wc_1,0.0,"[('wc_1', 0.6000000000000004)]",0.6000000000000004,,,38.0,0.002268,['Fail'],Fail,0.6000000000000004,-0.4125000000000004,0.0,0.0,0.5
5.0,1.0,wc_1,,0.0,,,,0.0,,,,Fail,,,,,
5.0,1.0,wc_1,wc_2,0.0,"[('wc_1', 0.6000000000000004)]",0.6000000000000004,,,37.0,0.005353,['Fail'],Fail,0.2300000000000001,-0.1050000000000001,0.0,0.0,0.2
5.0,1.0,wc_1,,0.0,,,,0.0,,,,Fail,,,,,
5.0,1.0,wc_1,wc_3,0.0,"[('wc_3', 0.5200000000000004), ('wc_1', 0.6000000000000004)]",0.8080000000000003,,,35.0,0.010844000000000001,['Fail'],Fail,0.5200000000000004,-0.36375000000000035,0.0,0.0,0.4
5.0,1.0,wc_1,,0.0,,,,0.0,,,,Fail,,,,,
5.0,1.0,wc_1,wc_4,1.0,"[('wc_4', 0.6700000000000005), ('wc_1', 0.6000000000000004), ('wc_3', 0.5200000000000004)]",0.9366400000000003,,,35.0,0.043068999999999996,['Fail'],Fail,0.6700000000000005,-0.42757575757575805,0.0,0.0,0.6
13.0,1.0,wc_1,,0.0,,,,61.0,,,,Pass,,,,,
13.0,1.0,wc_1,,0.0,,,65.0,,,,,Pass,,,,,
13.0,1.0,wc_1,,0.0,,,,0.0,,,,Pass,,,,,
13.0,1.0,wc_1,wc_1,0.0,"[('wc_1', 0.6000000000000004)]",0.6000000000000004,,,20.0,0.009053,['Fail'],Pass,0.6000000000000004,0.3999999999999996,1.0,1.0,0.5
13.0,1.0,wc_1,,0.0,,,,0.0,,,,Pass,,,,,
13.0,1.0,wc_1,wc_2,0.0,"[('wc_2', 0.2300000000000001), ('wc_1', 0.6000000000000004)]",0.6920000000000004,,,34.0,0.00409,['Fail'],Pass,0.2300000000000001,-0.2300000000000001,0.0,1.0,0.2
13.0,1.0,wc_1,,0.0,,,,0.0,,,,Pass,,,,,
13.0,1.0,wc_1,wc_3,0.0,"[('wc_1', 0.6000000000000004), ('wc_2', 0.2300000000000001)]",0.6920000000000004,,,23.0,0.019367,['Fail'],Pass,0.5200000000000004,0.47999999999999965,1.0,1.0,0.4
13.0,1.0,wc_1,,0.0,,,,0.0,,,,Pass,,,,,
13.0,1.0,wc_1,wc_4,0.0,"[('wc_4', 0.6700000000000005), ('wc_3', 0.5200000000000004)]",0.8416000000000003,,,28.0,0.008538,['Pass'],Pass,0.6700000000000005,-0.6700000000000005,0.0,0.0,0.6
13.0,1.0,wc_1,,0.0,,,,0.0,,,,Pass,,,,,
13.0,1.0,wc_1,wc_5,0.0,"[('wc_5', 0.3000000000000002), ('wc_3', 0.5200000000000004), ('wc_4', 0.6700000000000005)]",0.8891200000000002,,,35.0,0.018617,['Pass'],Pass,0.3000000000000002,-0.2696969696969699,0.0,0.0,0.2
13.0,1.0,wc_1,,0.0,,,,61.0,,,,Pass,,,,,
13.0,1.0,wc_1,wc_6,0.0,"[('wc_3', 0.5200000000000004), ('wc_4', 0.6700000000000005), ('wc_5', 0.3000000000000002)]",0.8891200000000002,,,26.0,0.027161,['Pass'],Pass,0.4800000000000003,-0.4323809523809527,0.0,0.0,0.4
13.0,1.0,wc_1,,0.0,,,,0.0,,,,Pass,,,,,
13.0,1.0,wc_1,wc_7,0.0,"[('wc_7', 0.3700000000000002), ('wc_1', 0.6000000000000004), ('wc_2', 0.2300000000000001), ('wc_6', 0.4800000000000003)]",0.8990992000000002,,,29.0,0.013683999999999998,['Fail'],Pass,0.3700000000000002,-0.21615384615384636,0.0,0.0,0.3
13.0,1.0,wc_1,,0.0,,,,0.0,,,,Pass,,,,,
13.0,1.0,wc_1,wc_8,1.0,"[('wc_8', 0.1600000000000001), ('wc_3', 0.5200000000000004), ('wc_4', 0.6700000000000005), ('wc_5', 0.3000000000000002)]",0.9068608000000002,,,27.0,0.054164000000000004,['Pass'],Pass,0.1600000000000001,-0.10117647058823538,0.0,0.0,0.2
15.0,4.0,wc_4,,0.0,,,,301.0,,,,Fail,,,,,
15.0,4.0,wc_4,,0.0,,,59.0,,,,,Fail,,,,,
15.0,4.0,wc_4,,0.0,,,,0.0,,,,Fail,,,,,
15.0,4.0,wc_4,wc_4,0.0,"[('wc_4', 0.6700000000000005)]",0.6700000000000005,,,36.0,0.002341,['Fail'],Fail,0.6700000000000005,0.3299999999999995,1.0,1.0,0.6
15.0,4.0,wc_4,,0.0,,,,0.0,,,,Fail,,,,,
15.0,4.0,wc_4,wc_5,0.0,"[('wc_4', 0.6700000000000005)]",0.6700000000000005,,,34.0,0.004419,['Fail'],Fail,0.3000000000000002,0.6999999999999997,1.0,1.0,0.2
15.0,4.0,wc_4,,0.0,,,,41.0,,,,Fail,,,,,
15.0,4.0,wc_4,wc_1,0.0,"[('wc_1', 0.6000000000000004), ('wc_4', 0.6700000000000005)]",0.8680000000000003,,,28.0,0.012692,['Fail'],Fail,0.6000000000000004,-0.10000000000000042,1.0,2.0,0.5
15.0,4.0,wc_4,,0.0,,,,0.0,,,,Fail,,,,,
15.0,4.0,wc_4,wc_2,0.0,"[('wc_2', 0.2300000000000001), ('wc_4', 0.6700000000000005), ('wc_1', 0.6000000000000004)]",0.8983600000000003,,,23.0,0.010618,['Fail'],Fail,0.2300000000000001,-0.2300000000000001,0.0,2.0,0.2
15.0,4.0,wc_4,,0.0,,,,0.0,,,,Fail,,,,,
15.0,4.0,wc_4,wc_3,1.0,"[('wc_3', 0.5200000000000004), ('wc_4', 0.6700000000000005), ('wc_1', 0.6000000000000004), ('wc_2', 0.2300000000000001)]",0.9512128000000002,,,29.0,0.041812999999999996,['Fail'],Fail,0.5200000000000004,0.47999999999999965,3.0,3.0,0.4
18.0,4.0,wc_4,,0.0,,,,0.0,,,,Pass,,,,,
18.0,4.0,wc_4,,0.0,,,53.0,,,,,Pass,,,,,
18.0,4.0,wc_4,,0.0,,,,0.0,,,,Pass,,,,,
18.0,4.0,wc_4,wc_4,0.0,"[('wc_4', 0.6700000000000005)]",0.6700000000000005,,,25.0,0.005137,['Pass'],Pass,0.6700000000000005,0.3299999999999995,2.0,2.0,0.6
18.0,4.0,wc_4,,0.0,,,,0.0,,,,Pass,,,,,
18.0,4.0,wc_4,wc_5,0.0,"[('wc_4', 0.6700000000000005)]",0.6700000000000005,,,23.0,0.003917,['Pass'],Pass,0.3000000000000002,0.1999999999999998,1.0,2.0,0.2
18.0,4.0,wc_4,,0.0,,,,41.0,,,,Pass,,,,,
18.0,4.0,wc_4,wc_1,0.0,"[('wc_1', 0.6000000000000004), ('wc_4', 0.6700000000000005)]",0.8680000000000003,,,38.0,0.012672000000000001,['Pass'],Pass,0.6000000000000004,0.06666666666666621,2.0,3.0,0.5
18.0,4.0,wc_4,,0.0,,,,0.0,,,,Pass,,,,,
18.0,4.0,wc_4,wc_2,0.0,"[('wc_2', 0.2300000000000001), ('wc_4', 0.6700000000000005), ('wc_1', 0.6000000000000004)]",0.8983600000000003,,,36.0,0.007927,['Pass'],Pass,0.2300000000000001,0.10333333333333322,1.0,3.0,0.2
18.0,4.0,wc_4,,0.0,,,,0.0,,,,Pass,,,,,
18.0,4.0,wc_4,wc_3,0.0,"[('wc_4', 0.6700000000000005), ('wc_1', 0.6000000000000004), ('wc_2', 0.2300000000000001)]",0.8983600000000003,,,24.0,0.00987,['Pass'],Pass,0.5200000000000004,0.47999999999999965,3.0,3.0,0.4
18.0,4.0,wc_4,,0.0,,,,101.0,,,,Pass,,,,,
18.0,4.0,wc_4,wc_6,0.0,"[('wc_4', 0.6700000000000005), ('wc_1', 0.6000000000000004), ('wc_2', 0.2300000000000001)]",0.8983600000000003,,,25.0,0.01141,['Pass'],Pass,0.4800000000000003,-0.4800000000000003,0.0,2.0,0.4
18.0,4.0,wc_4,,0.0,,,,0.0,,,,Pass,,,,,
18.0,4.0,wc_4,wc_7,0.0,"[('wc_4', 0.6700000000000005), ('wc_1', 0.6000000000000004), ('wc_2', 0.2300000000000001)]",0.8983600000000003,,,30.0,0.014001999999999999,['Pass'],Pass,0.3700000000000002,-0.3700000000000002,0.0,2.0,0.3
18.0,4.0,wc_4,,0.0,,,,0.0,,,,Pass,,,,,
18.0,4.0,wc_4,wc_8,1.0,"[('wc_8', 0.1600000000000001), ('wc_5', 0.3000000000000002), ('wc_3', 0.5200000000000004), ('wc_6', 0.4800000000000003), ('wc_7', 0.3700000000000002)]",0.9075381760000002,,,35.0,0.048766,['Fail'],Pass,0.1600000000000001,0.3399999999999999,1.0,2.0,0.2
23.0,2.0,wc_2,,0.0,,,,182.0,,,,Pass,,,,,
23.0,2.0,wc_2,,0.0,,,78.0,,,,,Pass,,,,,
23.0,2.0,wc_2,,0.0,,,,0.0,,,,Pass,,,,,
23.0,2.0,wc_2,wc_2,0.0,"[('wc_2', 0.2300000000000001)]",0.2300000000000001,,,32.0,0.002069,['Fail'],Pass,0.2300000000000001,0.019999999999999907,1.0,4.0,0.2
23.0,2.0,wc_2,,0.0,,,,0.0,,,,Pass,,,,,
23.0,2.0,wc_2,wc_3,0.0,"[('wc_3', 0.5200000000000004), ('wc_2', 0.2300000000000001)]",0.6304000000000003,,,36.0,0.0042439999999999995,['Fail'],Pass,0.5200000000000004,0.47999999999999965,4.0,4.0,0.4
23.0,2.0,wc_2,,0.0,,,,0.0,,,,Pass,,,,,
23.0,2.0,wc_2,wc_4,0.0,"[('wc_4', 0.6700000000000005)]",0.6700000000000005,,,20.0,0.006519999999999999,['Pass'],Pass,0.6700000000000005,-0.0033333333333338544,2.0,3.0,0.6
23.0,2.0,wc_2,,0.0,,,,0.0,,,,Pass,,,,,
23.0,2.0,wc_2,wc_5,0.0,"[('wc_5', 0.3000000000000002), ('wc_4', 0.6700000000000005)]",0.7690000000000005,,,36.0,0.007541000000000001,['Pass'],Pass,0.3000000000000002,0.3666666666666664,2.0,3.0,0.2
23.0,2.0,wc_2,,0.0,,,,41.0,,,,Pass,,,,,
23.0,2.0,wc_2,wc_1,0.0,"[('wc_1', 0.6000000000000004), ('wc_2', 0.2300000000000001), ('wc_3', 0.5200000000000004)]",0.8521600000000003,,,39.0,0.012802000000000001,['Fail'],Pass,0.6000000000000004,-0.10000000000000042,2.0,4.0,0.5
23.0,2.0,wc_2,,0.0,,,,142.0,,,,Pass,,,,,
23.0,2.0,wc_2,wc_6,1.0,"[('wc_6', 0.4800000000000003), ('wc_2', 0.2300000000000001), ('wc_3', 0.5200000000000004), ('wc_1', 0.6000000000000004)]",0.9231232000000001,,,22.0,0.04697899999999999,['Fail'],Pass,0.4800000000000003,0.019999999999999685,2.0,4.0,0.4
29.0,2.0,wc_2,,0.0,,,,222.0,,,,Pass,,,,,
29.0,2.0,wc_2,,0.0,,,80.0,,,,,Pass,,,,,
29.0,2.0,wc_2,,0.0,,,,0.0,,,,Pass,,,,,
29.0,2.0,wc_2,wc_2,0.0,"[('wc_2', 0.2300000000000001)]",0.2300000000000001,,,24.0,0.002318,['Fail'],Pass,0.2300000000000001,0.16999999999999993,2.0,5.0,0.2
29.0,2.0,wc_2,,0.0,,,,0.0,,,,Pass,,,,,
29.0,2.0,wc_2,wc_3,0.0,"[('wc_3', 0.5200000000000004), ('wc_2', 0.2300000000000001)]",0.6304000000000003,,,21.0,0.006406,['Fail'],Pass,0.5200000000000004,0.47999999999999965,5.0,5.0,0.4
29.0,2.0,wc_2,,0.0,,,,0.0,,,,Pass,,,,,
29.0,2.0,wc_2,wc_4,0.0,"[('wc_4', 0.6700000000000005)]",0.6700000000000005,,,21.0,0.00657,['Pass'],Pass,0.6700000000000005,-0.17000000000000048,2.0,4.0,0.6
29.0,2.0,wc_2,,0.0,,,,0.0,,,,Pass,,,,,
29.0,2.0,wc_2,wc_5,0.0,"[('wc_5', 0.3000000000000002), ('wc_2', 0.2300000000000001), ('wc_3', 0.5200000000000004)]",0.7412800000000004,,,20.0,0.0075190000000000005,['Fail'],Pass,0.3000000000000002,0.1999999999999998,2.0,4.0,0.2
29.0,2.0,wc_2,,0.0,,,,41.0,,,,Pass,,,,,
29.0,2.0,wc_2,wc_1,0.0,"[('wc_1', 0.6000000000000004), ('wc_4', 0.6700000000000005)]",0.8680000000000003,,,21.0,0.01035,['Pass'],Pass,0.6000000000000004,-4.440892098500626e-16,3.0,5.0,0.5
29.0,2.0,wc_2,,0.0,,,,142.0,,,,Pass,,,,,
29.0,2.0,wc_2,wc_6,0.0,"[('wc_4', 0.6700000000000005), ('wc_1', 0.6000000000000004)]",0.8680000000000003,,,21.0,0.015238999999999999,['Pass'],Pass,0.4800000000000003,0.019999999999999685,2.0,4.0,0.4
29.0,2.0,wc_2,,0.0,,,,0.0,,,,Pass,,,,,
29.0,2.0,wc_2,wc_7,1.0,"[('wc_7', 0.3700000000000002), ('wc_4', 0.6700000000000005), ('wc_1', 0.6000000000000004)]",0.9168400000000002,,,39.0,0.043523000000000006,['Pass'],Pass,0.3700000000000002,0.029999999999999805,2.0,5.0,0.3
34.0,3.0,wc_3,,0.0,,,,301.0,,,,Fail,,,,,
34.0,3.0,wc_3,,0.0,,,61.0,,,,,Fail,,,,,
34.0,3.0,wc_3,,0.0,,,,0.0,,,,Fail,,,,,
34.0,3.0,wc_3,wc_3,0.0,"[('wc_3', 0.5200000000000004)]",0.5200000000000004,,,29.0,0.00215,['Fail'],Fail,0.5200000000000004,0.313333333333333,5.0,6.0,0.4
34.0,3.0,wc_3,,0.0,,,,0.0,,,,Fail,,,,,
34.0,3.0,wc_3,wc_4,0.0,"[('wc_4', 0.6700000000000005), ('wc_3', 0.5200000000000004)]",0.8416000000000003,,,38.0,0.004149999999999999,['Fail'],Fail,0.6700000000000005,-0.0700000000000005,3.0,5.0,0.6
34.0,3.0,wc_3,,0.0,,,,0.0,,,,Fail,,,,,
34.0,3.0,wc_3,wc_5,0.0,"[('wc_3', 0.5200000000000004), ('wc_4', 0.6700000000000005)]",0.8416000000000003,,,22.0,0.005816999999999999,['Fail'],Fail,0.3000000000000002,0.09999999999999981,2.0,5.0,0.2
34.0,3.0,wc_3,,0.0,,,,41.0,,,,Fail,,,,,
34.0,3.0,wc_3,wc_1,0.0,"[('wc_3', 0.5200000000000004), ('wc_4', 0.6700000000000005)]",0.8416000000000003,,,31.0,0.009063,['Fail'],Fail,0.6000000000000004,0.06666666666666621,4.0,6.0,0.5
34.0,3.0,wc_3,,0.0,,,,0.0,,,,Fail,,,,,
34.0,3.0,wc_3,wc_2,0.0,"[('wc_3', 0.5200000000000004), ('wc_4', 0.6700000000000005)]",0.8416000000000003,,,21.0,0.013272000000000003,['Fail'],Fail,0.2300000000000001,0.10333333333333322,2.0,6.0,0.2
34.0,3.0,wc_3,,0.0,,,,122.0,,,,Fail,,,,,
34.0,3.0,wc_3,wc_6,0.0,"[('wc_6', 0.4800000000000003), ('wc_5', 0.3000000000000002), ('wc_1', 0.6000000000000004), ('wc_2', 0.2300000000000001)]",0.8878880000000002,,,22.0,0.012790999999999999,['Pass'],Fail,0.4800000000000003,-0.0800000000000003,2.0,5.0,0.4
34.0,3.0,wc_3,,0.0,,,,0.0,,,,Fail,,,,,
34.0,3.0,wc_3,wc_7,1.0,"[('wc_7', 0.3700000000000002), ('wc_3', 0.5200000000000004), ('wc_4', 0.6700000000000005)]",0.9002080000000002,,,21.0,0.044389,['Fail'],Fail,0.3700000000000002,0.12999999999999978,3.0,6.0,0.3
39.0,3.0,wc_3,,0.0,,,,301.0,,,,Pass,,,,,
39.0,3.0,wc_3,,0.0,,,50.0,,,,,Pass,,,,,
39.0,3.0,wc_3,,0.0,,,,0.0,,,,Pass,,,,,
39.0,3.0,wc_3,wc_3,0.0,"[('wc_3', 0.5200000000000004)]",0.5200000000000004,,,31.0,0.002175,['Pass'],Pass,0.5200000000000004,0.33714285714285674,6.0,7.0,0.4
39.0,3.0,wc_3,,0.0,,,,0.0,,,,Pass,,,,,
39.0,3.0,wc_3,wc_4,0.0,"[('wc_4', 0.6700000000000005), ('wc_3', 0.5200000000000004)]",0.8416000000000003,,,28.0,0.005258,['Pass'],Pass,0.6700000000000005,-0.0033333333333338544,4.0,6.0,0.6
39.0,3.0,wc_3,,0.0,,,,0.0,,,,Pass,,,,,
39.0,3.0,wc_3,wc_5,0.0,"[('wc_3', 0.5200000000000004), ('wc_4', 0.6700000000000005)]",0.8416000000000003,,,36.0,0.006057,['Pass'],Pass,0.3000000000000002,0.033333333333333104,2.0,6.0,0.2
39.0,3.0,wc_3,,0.0,,,,41.0,,,,Pass,,,,,
39.0,3.0,wc_3,wc_1,1.0,"[('wc_1', 0.6000000000000004), ('wc_3', 0.5200000000000004), ('wc_4', 0.6700000000000005)]",0.9366400000000001,,,33.0,0.041819999999999996,['Pass'],Pass,0.6000000000000004,0.024999999999999578,5.0,8.0,0.5
49.0,5.0,wc_5,,0.0,,,,0.0,,,,Pass,,,,,
49.0,5.0,wc_5,,0.0,,,80.0,,,,,Pass,,,,,
49.0,5.0,wc_5,,0.0,,,,0.0,,,,Pass,,,,,
49.0,5.0,wc_5,wc_5,0.0,"[('wc_5', 0.3000000000000002)]",0.30000000000000027,,,36.0,0.002453,['Fail'],Pass,0.3000000000000002,-0.014285714285714513,2.0,7.0,0.2
49.0,5.0,wc_5,,0.0,,,,41.0,,,,Pass,,,,,
49.0,5.0,wc_5,wc_1,0.0,"[('wc_1', 0.6000000000000004)]",0.6000000000000004,,,25.0,0.004182,['Pass'],Pass,0.6000000000000004,0.024999999999999578,5.0,8.0,0.5
49.0,5.0,wc_5,,0.0,,,,0.0,,,,Pass,,,,,
49.0,5.0,wc_5,wc_2,0.0,"[('wc_2', 0.2300000000000001), ('wc_1', 0.6000000000000004)]",0.6920000000000004,,,25.0,0.00641,['Pass'],Pass,0.2300000000000001,0.019999999999999907,2.0,8.0,0.2
49.0,5.0,wc_5,,0.0,,,,0.0,,,,Pass,,,,,
49.0,5.0,wc_5,wc_3,0.0,"[('wc_3', 0.5200000000000004), ('wc_1', 0.6000000000000004), ('wc_2', 0.2300000000000001)]",0.8521600000000003,,,39.0,0.008149,['Pass'],Pass,0.5200000000000004,0.35499999999999965,7.0,8.0,0.4
49.0,5.0,wc_5,,0.0,,,,0.0,,,,Pass,,,,,
49.0,5.0,wc_5,wc_4,1.0,"[('wc_4', 0.6700000000000005), ('wc_1', 0.6000000000000004), ('wc_2', 0.2300000000000001), ('wc_3', 0.5200000000000004)]",0.9512128000000002,,,27.0,0.043293,['Pass'],Pass,0.6700000000000005,0.07999999999999952,6.0,8.0,0.6
55.0,6.0,wc_6,,0.0,,,,81.0,,,,Fail,,,,,
55.0,6.0,wc_6,,0.0,,,65.0,,,,,Fail,,,,,
55.0,6.0,wc_6,,0.0,,,,0.0,,,,Fail,,,,,
55.0,6.0,wc_6,wc_6,0.0,"[('wc_6', 0.4800000000000003)]",0.4800000000000003,,,27.0,0.002062,['Pass'],Fail,0.4800000000000003,-0.23000000000000032,2.0,8.0,0.4
55.0,6.0,wc_6,,0.0,,,,0.0,,,,Fail,,,,,
55.0,6.0,wc_6,wc_7,0.0,"[('wc_6', 0.4800000000000003)]",0.4800000000000003,,,32.0,0.004455,['Pass'],Fail,0.3700000000000002,0.004999999999999782,3.0,8.0,0.3
55.0,6.0,wc_6,,0.0,,,,0.0,,,,Fail,,,,,
55.0,6.0,wc_6,wc_8,0.0,"[('wc_6', 0.4800000000000003)]",0.4800000000000003,,,32.0,0.006261999999999999,['Pass'],Fail,0.1600000000000001,-0.017142857142857237,1.0,7.0,0.2
55.0,6.0,wc_6,,0.0,,,,0.0,,,,Fail,,,,,
55.0,6.0,wc_6,wc_9,1.0,"[('wc_9', 0.9900000000000008), ('wc_7', 0.3700000000000002), ('wc_8', 0.1600000000000001)]",0.9947080000000004,,,28.0,0.039847,['Fail'],Fail,0.9900000000000008,-0.7816666666666674,0.0,0.0,1.0
58.0,6.0,wc_6,,0.0,,,,61.0,,,,Fail,,,,,
58.0,6.0,wc_6,,0.0,,,65.0,,,,,Fail,,,,,
58.0,6.0,wc_6,,0.0,,,,0.0,,,,Fail,,,,,
58.0,6.0,wc_6,wc_6,0.0,"[('wc_6', 0.4800000000000003)]",0.4800000000000003,,,40.0,0.00262,['Fail'],Fail,0.4800000000000003,-0.2577777777777781,2.0,9.0,0.4
58.0,6.0,wc_6,,0.0,,,,0.0,,,,Fail,,,,,
58.0,6.0,wc_6,wc_7,0.0,"[('wc_7', 0.3700000000000002), ('wc_6', 0.4800000000000003)]",0.6724000000000003,,,20.0,0.004978,['Fail'],Fail,0.3700000000000002,0.0744444444444442,4.0,9.0,0.3
58.0,6.0,wc_6,,0.0,,,,0.0,,,,Fail,,,,,
58.0,6.0,wc_6,wc_8,0.0,"[('wc_8', 0.1600000000000001), ('wc_6', 0.4800000000000003), ('wc_7', 0.3700000000000002)]",0.7248160000000003,,,32.0,0.006735,['Fail'],Fail,0.1600000000000001,0.08999999999999991,2.0,8.0,0.2
58.0,6.0,wc_6,,0.0,,,,0.0,,,,Fail,,,,,
58.0,6.0,wc_6,wc_9,1.0,"[('wc_9', 0.9900000000000008), ('wc_6', 0.4800000000000003), ('wc_7', 0.3700000000000002), ('wc_8', 0.1600000000000001)]",0.9972481600000002,,,29.0,0.043533999999999996,['Fail'],Fail,0.9900000000000008,0.009999999999999232,1.0,1.0,1.0
62.0,6.0,wc_6,,0.0,,,,61.0,,,,Pass,,,,,
62.0,6.0,wc_6,,0.0,,,62.0,,,,,Pass,,,,,
62.0,6.0,wc_6,,0.0,,,,0.0,,,,Pass,,,,,
62.0,6.0,wc_6,wc_6,0.0,"[('wc_6', 0.4800000000000003)]",0.4800000000000003,,,33.0,0.002245,['Pass'],Pass,0.4800000000000003,-0.18000000000000033,0.0,0.0,0.4
62.0,6.0,wc_6,,0.0,,,,0.0,,,,Pass,,,,,
62.0,6.0,wc_6,wc_7,0.0,"[('wc_7', 0.3700000000000002), ('wc_6', 0.4800000000000003)]",0.6724000000000003,,,33.0,0.00391,['Pass'],Pass,0.3700000000000002,0.12999999999999978,0.0,0.0,0.3
62.0,6.0,wc_6,,0.0,,,,0.0,,,,Pass,,,,,
62.0,6.0,wc_6,wc_8,0.0,"[('wc_6', 0.4800000000000003), ('wc_7', 0.3700000000000002)]",0.6724000000000003,,,38.0,0.006056000000000001,['Pass'],Pass,0.1600000000000001,0.17333333333333323,3.0,9.0,0.2
62.0,6.0,wc_6,,0.0,,,,0.0,,,,Pass,,,,,
62.0,6.0,wc_6,wc_9,1.0,"[('wc_9', 0.9900000000000008), ('wc_6', 0.4800000000000003), ('wc_7', 0.3700000000000002)]",0.9967240000000003,,,25.0,0.044152,['Pass'],Pass,0.9900000000000008,0.009999999999999232,2.0,2.0,1.0
66.0,8.0,wc_8,,0.0,,,,101.0,,,,Pass,,,,,
66.0,8.0,wc_8,,0.0,,,56.0,,,,,Pass,,,,,
66.0,8.0,wc_8,,0.0,,,,0.0,,,,Pass,,,,,
66.0,8.0,wc_8,wc_8,0.0,"[('wc_8', 0.1600000000000001)]",0.16000000000000014,,,28.0,0.002183,['Fail'],Pass,0.1600000000000001,0.1399999999999999,0.0,0.0,0.2
66.0,8.0,wc_8,,0.0,,,,0.0,,,,Pass,,,,,
66.0,8.0,wc_8,wc_9,0.0,"[('wc_9', 0.9900000000000008)]",0.9900000000000008,,,38.0,0.0038859999999999997,['Pass'],Pass,0.9900000000000008,0.009999999999999232,2.0,2.0,1.0
66.0,8.0,wc_8,,0.0,,,,0.0,,,,Pass,,,,,
66.0,8.0,wc_8,wc_10,0.0,"[('wc_10', 0.8300000000000006), ('wc_9', 0.9900000000000008)]",0.9983000000000002,,,25.0,0.006777999999999999,['Pass'],Pass,0.8300000000000006,-0.6761538461538468,0.0,0.0,0.5
66.0,8.0,wc_8,,0.0,,,,0.0,,,,Pass,,,,,
66.0,8.0,wc_8,wc_11,1.0,"[('wc_11', 0.6900000000000005), ('wc_9', 0.9900000000000008), ('wc_10', 0.8300000000000006)]",0.9994730000000001,,,28.0,0.038750999999999994,['Pass'],Pass,0.6900000000000005,-0.5048148148148153,0.0,0.0,0.6
71.0,9.0,wc_9,,0.0,,,,83.0,,,,Pass,,,,,
71.0,9.0,wc_9,,0.0,,,69.0,,,,,Pass,,,,,
71.0,9.0,wc_9,,0.0,,,,0.0,,,,Pass,,,,,
71.0,9.0,wc_9,wc_9,0.0,"[('wc_9', 0.9900000000000008)]",0.9900000000000008,,,38.0,0.002131,['Pass'],Pass,0.9900000000000008,0.009999999999999232,3.0,3.0,1.0
71.0,9.0,wc_9,,0.0,,,,0.0,,,,Pass,,,,,
71.0,9.0,wc_9,wc_10,0.0,"[('wc_10', 0.8300000000000006), ('wc_9', 0.9900000000000008)]",0.9983000000000002,,,39.0,0.00412,['Pass'],Pass,0.8300000000000006,0.16999999999999937,1.0,1.0,0.5
71.0,9.0,wc_9,,0.0,,,,0.0,,,,Pass,,,,,
71.0,9.0,wc_9,wc_11,1.0,"[('wc_11', 0.6900000000000005), ('wc_9', 0.9900000000000008), ('wc_10', 0.8300000000000006)]",0.9994730000000001,,,21.0,0.043160000000000004,['Pass'],Pass,0.6900000000000005,0.3099999999999995,1.0,1.0,0.6
76.0,11.0,wc_11,,0.0,,,,0.0,,,,Fail,,,,,
76.0,11.0,wc_11,,0.0,,,58.0,,,,,Fail,,,,,
76.0,11.0,wc_11,,0.0,,,,0.0,,,,Fail,,,,,
76.0,11.0,wc_11,wc_11,0.0,"[('wc_11', 0.6900000000000005)]",0.6900000000000005,,,28.0,0.002225,['Fail'],Fail,0.6900000000000005,0.3099999999999995,1.0,1.0,0.6
76.0,11.0,wc_11,,0.0,,,,21.0,,,,Fail,,,,,
76.0,11.0,wc_11,wc_6,0.0,"[('wc_6', 0.4800000000000003), ('wc_11', 0.6900000000000005)]",0.8388000000000003,,,37.0,0.004051,['Fail'],Fail,0.4800000000000003,-0.146666666666667,1.0,3.0,0.4
76.0,11.0,wc_11,,0.0,,,,0.0,,,,Fail,,,,,
76.0,11.0,wc_11,wc_7,0.0,"[('wc_7', 0.3700000000000002), ('wc_11', 0.6900000000000005), ('wc_6', 0.4800000000000003)]",0.8984440000000002,,,25.0,0.006829,['Fail'],Fail,0.3700000000000002,-0.0366666666666669,1.0,3.0,0.3
76.0,11.0,wc_11,,0.0,,,,0.0,,,,Fail,,,,,
76.0,11.0,wc_11,wc_8,1.0,"[('wc_8', 0.1600000000000001), ('wc_11', 0.6900000000000005), ('wc_6', 0.4800000000000003), ('wc_7', 0.3700000000000002)]",0.9146929600000002,,,40.0,0.044856,['Fail'],Fail,0.1600000000000001,0.17333333333333323,1.0,3.0,0.2
81.0,10.0,wc_10,,0.0,,,,0.0,,,,Pass,,,,,
81.0,10.0,wc_10,,0.0,,,65.0,,,,,Pass,,,,,
81.0,10.0,wc_10,,0.0,,,,0.0,,,,Pass,,,,,
81.0,10.0,wc_10,wc_10,0.0,"[('wc_10', 0.8300000000000006)]",0.8300000000000006,,,39.0,0.002237,['Pass'],Pass,0.8300000000000006,-0.163333333333334,2.0,3.0,0.5
81.0,10.0,wc_10,,0.0,,,,0.0,,,,Pass,,,,,
81.0,10.0,wc_10,wc_11,0.0,"[('wc_11', 0.6900000000000005), ('wc_10', 0.8300000000000006)]",0.9473000000000003,,,23.0,0.005134,['Pass'],Pass,0.6900000000000005,0.3099999999999995,2.0,2.0,0.6
81.0,10.0,wc_10,,0.0,,,,21.0,,,,Pass,,,,,
81.0,10.0,wc_10,wc_6,1.0,"[('wc_6', 0.4800000000000003), ('wc_10', 0.8300000000000006), ('wc_11', 0.6900000000000005)]",0.9725960000000001,,,25.0,0.041352999999999994,['Pass'],Pass,0.4800000000000003,0.11999999999999966,3.0,5.0,0.4
86.0,7.0,wc_7,,0.0,,,,0.0,,,,Fail,,,,,
86.0,7.0,wc_7,,0.0,,,64.0,,,,,Fail,,,,,
86.0,7.0,wc_7,,0.0,,,,0.0,,,,Fail,,,,,
86.0,7.0,wc_7,wc_7,0.0,"[('wc_7', 0.3700000000000002)]",0.3700000000000002,,,23.0,0.002366,['Fail'],Fail,0.3700000000000002,0.029999999999999805,2.0,5.0,0.3
86.0,7.0,wc_7,,0.0,,,,0.0,,,,Fail,,,,,
86.0,7.0,wc_7,wc_8,0.0,"[('wc_7', 0.3700000000000002)]",0.3700000000000002,,,36.0,0.005155,['Fail'],Fail,0.1600000000000001,0.08999999999999991,1.0,4.0,0.2
86.0,7.0,wc_7,,0.0,,,,0.0,,,,Fail,,,,,
86.0,7.0,wc_7,wc_9,0.0,"[('wc_9', 0.9900000000000008), ('wc_7', 0.3700000000000002)]",0.9937000000000005,,,24.0,0.007999,['Fail'],Fail,0.9900000000000008,-0.32333333333333414,4.0,6.0,1.0
86.0,7.0,wc_7,,0.0,,,,0.0,,,,Fail,,,,,
86.0,7.0,wc_7,wc_10,1.0,"[('wc_10', 0.8300000000000006), ('wc_7', 0.3700000000000002), ('wc_9', 0.9900000000000008)]",0.9989290000000001,,,21.0,0.04687300000000001,['Fail'],Fail,0.8300000000000006,-0.030000000000000582,4.0,5.0,0.5
91.0,7.0,wc_7,,0.0,,,,61.0,,,,Fail,,,,,
91.0,7.0,wc_7,,0.0,,,51.0,,,,,Fail,,,,,
91.0,7.0,wc_7,,0.0,,,,0.0,,,,Fail,,,,,
91.0,7.0,wc_7,wc_7,0.0,"[('wc_7', 0.3700000000000002)]",0.3700000000000002,,,39.0,0.002437,['Fail'],Fail,0.3700000000000002,0.12999999999999978,3.0,6.0,0.3
91.0,7.0,wc_7,,0.0,,,,0.0,,,,Fail,,,,,
91.0,7.0,wc_7,wc_8,0.0,"[('wc_7', 0.3700000000000002)]",0.3700000000000002,,,36.0,0.004272,['Fail'],Fail,0.1600000000000001,0.039999999999999925,1.0,5.0,0.2
91.0,7.0,wc_7,,0.0,,,,0.0,,,,Fail,,,,,
91.0,7.0,wc_7,wc_9,0.0,"[('wc_9', 0.9900000000000008), ('wc_7', 0.3700000000000002)]",0.9937000000000005,,,24.0,0.009649,['Fail'],Fail,0.9900000000000008,-0.27571428571428647,5.0,7.0,1.0
91.0,7.0,wc_7,,0.0,,,,0.0,,,,Fail,,,,,
91.0,7.0,wc_7,wc_10,0.0,"[('wc_7', 0.3700000000000002), ('wc_9', 0.9900000000000008)]",0.9937000000000005,,,21.0,0.009139999999999999,['Fail'],Fail,0.8300000000000006,-0.030000000000000582,4.0,5.0,0.5
91.0,7.0,wc_7,,0.0,,,,0.0,,,,Fail,,,,,
91.0,7.0,wc_7,wc_11,1.0,"[('wc_11', 0.6900000000000005), ('wc_7', 0.3700000000000002), ('wc_9', 0.9900000000000008)]",0.9980470000000001,,,31.0,0.044474,['Fail'],Fail,0.6900000000000005,0.10999999999999954,4.0,5.0,0.6
95.0,7.0,wc_7,,0.0,,,,41.0,,,,Pass,,,,,
95.0,7.0,wc_7,,0.0,,,65.0,,,,,Pass,,,,,
95.0,7.0,wc_7,,0.0,,,,0.0,,,,Pass,,,,,
95.0,7.0,wc_7,wc_7,0.0,"[('wc_7', 0.3700000000000002)]",0.3700000000000002,,,32.0,0.00199,['Fail'],Pass,0.3700000000000002,0.20142857142857118,4.0,7.0,0.3
95.0,7.0,wc_7,,0.0,,,,0.0,,,,Pass,,,,,
95.0,7.0,wc_7,wc_8,0.0,"[('wc_7', 0.3700000000000002)]",0.3700000000000002,,,27.0,0.004998,['Fail'],Pass,0.1600000000000001,0.006666666666666571,1.0,6.0,0.2
95.0,7.0,wc_7,,0.0,,,,0.0,,,,Pass,,,,,
95.0,7.0,wc_7,wc_9,0.0,"[('wc_9', 0.9900000000000008), ('wc_8', 0.1600000000000001)]",0.9916000000000007,,,33.0,0.005717,['Pass'],Pass,0.9900000000000008,-0.24000000000000077,6.0,8.0,1.0
95.0,7.0,wc_7,,0.0,,,,0.0,,,,Pass,,,,,
95.0,7.0,wc_7,wc_10,1.0,"[('wc_10', 0.8300000000000006), ('wc_8', 0.1600000000000001), ('wc_9', 0.9900000000000008)]",0.9985720000000001,,,30.0,0.041797999999999995,['Pass'],Pass,0.8300000000000006,-0.11571428571428632,5.0,7.0,0.5
100.0,11.0,wc_11,,0.0,,,,0.0,,,,Fail,,,,,
100.0,11.0,wc_11,,0.0,,,77.0,,,,,Fail,,,,,
100.0,11.0,wc_11,,0.0,,,,0.0,,,,Fail,,,,,
100.0,11.0,wc_11,wc_11,0.0,"[('wc_11', 0.6900000000000005)]",0.6900000000000005,,,31.0,0.002485,['Fail'],Fail,0.6900000000000005,-0.023333333333333872,4.0,6.0,0.6
100.0,11.0,wc_11,,0.0,,,,21.0,,,,Fail,,,,,
100.0,11.0,wc_11,wc_6,0.0,"[('wc_6', 0.4800000000000003), ('wc_11', 0.6900000000000005)]",0.8388000000000003,,,34.0,0.007256,['Fail'],Fail,0.4800000000000003,-0.10500000000000032,3.0,8.0,0.4
100.0,11.0,wc_11,,0.0,,,,0.0,,,,Fail,,,,,
100.0,11.0,wc_11,wc_7,0.0,"[('wc_7', 0.3700000000000002), ('wc_11', 0.6900000000000005), ('wc_6', 0.4800000000000003)]",0.8984440000000002,,,31.0,0.005687,['Fail'],Fail,0.3700000000000002,0.12999999999999978,4.0,8.0,0.3
100.0,11.0,wc_11,,0.0,,,,0.0,,,,Fail,,,,,
100.0,11.0,wc_11,wc_8,1.0,"[('wc_8', 0.1600000000000001), ('wc_11', 0.6900000000000005), ('wc_6', 0.4800000000000003), ('wc_7', 0.3700000000000002)]",0.9146929600000002,,,36.0,0.04817300000000001,['Fail'],Fail,0.1600000000000001,0.2149999999999999,3.0,8.0,0.2
107.0,11.0,wc_11,,0.0,,,,0.0,,,,Fail,,,,,
107.0,11.0,wc_11,,0.0,,,67.0,,,,,Fail,,,,,
107.0,11.0,wc_11,,0.0,,,,0.0,,,,Fail,,,,,
107.0,11.0,wc_11,wc_11,0.0,"[('wc_11', 0.6900000000000005)]",0.6900000000000005,,,38.0,0.002162,['Fail'],Fail,0.6900000000000005,0.0242857142857138,5.0,7.0,0.6
107.0,11.0,wc_11,,0.0,,,,21.0,,,,Fail,,,,,
107.0,11.0,wc_11,wc_6,0.0,"[('wc_11', 0.6900000000000005)]",0.6900000000000005,,,25.0,0.005413,['Fail'],Fail,0.4800000000000003,-0.035555555555555896,4.0,9.0,0.4
107.0,11.0,wc_11,,0.0,,,,0.0,,,,Fail,,,,,
107.0,11.0,wc_11,wc_7,0.0,"[('wc_7', 0.3700000000000002), ('wc_11', 0.6900000000000005)]",0.8047000000000004,,,20.0,0.009207,['Fail'],Fail,0.3700000000000002,0.18555555555555536,5.0,9.0,0.3
107.0,11.0,wc_11,,0.0,,,,0.0,,,,Fail,,,,,
107.0,11.0,wc_11,wc_8,0.0,"[('wc_11', 0.6900000000000005), ('wc_7', 0.3700000000000002)]",0.8047000000000004,,,40.0,0.007873,['Fail'],Fail,0.1600000000000001,0.2149999999999999,3.0,8.0,0.2
107.0,11.0,wc_11,,0.0,,,,0.0,,,,Fail,,,,,
107.0,11.0,wc_11,wc_9,1.0,"[('wc_9', 0.9900000000000008), ('wc_11', 0.6900000000000005), ('wc_7', 0.3700000000000002)]",0.9980470000000001,,,29.0,0.05099500000000001,['Fail'],Fail,0.9900000000000008,-0.2627272727272735,0.0,0.0,1.0
111.0,11.0,wc_11,,0.0,,,,0.0,,,,Pass,,,,,
111.0,11.0,wc_11,,0.0,,,77.0,,,,,Pass,,,,,
111.0,11.0,wc_11,,0.0,,,,0.0,,,,Pass,,,,,
111.0,11.0,wc_11,wc_11,0.0,"[('wc_11', 0.6900000000000005)]",0.6900000000000005,,,25.0,0.002779,['Fail'],Pass,0.6900000000000005,0.0599999999999995,6.0,8.0,0.6
111.0,11.0,wc_11,,0.0,,,,21.0,,,,Pass,,,,,
111.0,11.0,wc_11,wc_6,0.0,"[('wc_11', 0.6900000000000005)]",0.6900000000000005,,,33.0,0.008896,['Fail'],Pass,0.4800000000000003,-0.0800000000000003,0.0,0.0,0.4
111.0,11.0,wc_11,,0.0,,,,0.0,,,,Pass,,,,,
111.0,11.0,wc_11,wc_7,0.0,"[('wc_11', 0.6900000000000005)]",0.6900000000000005,,,23.0,0.013997999999999998,['Fail'],Pass,0.3700000000000002,0.22999999999999976,0.0,0.0,0.3
111.0,11.0,wc_11,,0.0,,,,0.0,,,,Pass,,,,,
111.0,11.0,wc_11,wc_8,0.0,"[('wc_8', 0.1600000000000001), ('wc_11', 0.6900000000000005)]",0.7396000000000005,,,25.0,0.011536,['Fail'],Pass,0.1600000000000001,0.17333333333333323,3.0,9.0,0.2
111.0,11.0,wc_11,,0.0,,,,0.0,,,,Pass,,,,,
111.0,11.0,wc_11,wc_9,1.0,"[('wc_9', 0.9900000000000008), ('wc_6', 0.4800000000000003), ('wc_7', 0.3700000000000002)]",0.9967240000000003,,,20.0,0.048327999999999996,['Pass'],Pass,0.9900000000000008,0.009999999999999232,1.0,1.0,1.0
114.0,12.0,wc_12,,0.0,,,,101.0,,,,Fail,,,,,
114.0,12.0,wc_12,,0.0,,,66.0,,,,,Fail,,,,,
114.0,12.0,wc_12,,0.0,,,,0.0,,,,Fail,,,,,
114.0,12.0,wc_12,wc_12,0.0,"[('wc_12', 0.6400000000000005)]",0.6400000000000005,,,35.0,0.00211,['Fail'],Fail,0.6400000000000005,-0.48375000000000046,0.0,0.0,0.6
114.0,12.0,wc_12,,0.0,,,,0.0,,,,Fail,,,,,
114.0,12.0,wc_12,wc_13,0.0,"[('wc_13', 0.7700000000000006), ('wc_12', 0.6400000000000005)]",0.9172000000000003,,,29.0,0.006994,['Fail'],Fail,0.7700000000000006,-0.7700000000000006,0.0,0.0,0.8
114.0,12.0,wc_12,,0.0,,,,0.0,,,,Fail,,,,,
114.0,12.0,wc_12,wc_14,1.0,"[('wc_14', 0.9400000000000008), ('wc_12', 0.6400000000000005), ('wc_13', 0.7700000000000006)]",0.9950320000000001,,,30.0,0.050474000000000005,['Fail'],Fail,0.9400000000000008,-0.7212500000000008,0.0,0.0,1.0
120.0,12.0,wc_12,,0.0,,,,82.0,,,,Fail,,,,,
120.0,12.0,wc_12,,0.0,,,59.0,,,,,Fail,,,,,
120.0,12.0,wc_12,,0.0,,,,0.0,,,,Fail,,,,,
120.0,12.0,wc_12,wc_12,0.0,"[('wc_12', 0.6400000000000005)]",0.6400000000000005,,,25.0,0.002109,['Fail'],Fail,0.6400000000000005,0.35999999999999954,1.0,1.0,0.6
120.0,12.0,wc_12,,0.0,,,,0.0,,,,Fail,,,,,
120.0,12.0,wc_12,wc_13,0.0,"[('wc_13', 0.7700000000000006), ('wc_12', 0.6400000000000005)]",0.9172000000000003,,,26.0,0.004257,['Fail'],Fail,0.7700000000000006,0.22999999999999943,1.0,1.0,0.8
120.0,12.0,wc_12,,0.0,,,,0.0,,,,Fail,,,,,
120.0,12.0,wc_12,wc_14,1.0,"[('wc_14', 0.9400000000000008), ('wc_12', 0.6400000000000005), ('wc_13', 0.7700000000000006)]",0.9950320000000001,,,23.0,0.04784800000000001,['Fail'],Fail,0.9400000000000008,0.059999999999999165,1.0,1.0,1.0
127.0,12.0,wc_12,,0.0,,,,82.0,,,,Pass,,,,,
127.0,12.0,wc_12,,0.0,,,62.0,,,,,Pass,,,,,
127.0,12.0,wc_12,,0.0,,,,0.0,,,,Pass,,,,,
127.0,12.0,wc_12,wc_12,0.0,"[('wc_12', 0.6400000000000005)]",0.6400000000000005,,,35.0,0.001907,['Pass'],Pass,0.6400000000000005,0.35999999999999954,2.0,2.0,0.6
127.0,12.0,wc_12,,0.0,,,,0.0,,,,Pass,,,,,
127.0,12.0,wc_12,wc_13,0.0,"[('wc_13', 0.7700000000000006), ('wc_12', 0.6400000000000005)]",0.9172000000000003,,,25.0,0.004019,['Pass'],Pass,0.7700000000000006,0.22999999999999943,2.0,2.0,0.8
127.0,12.0,wc_12,,0.0,,,,0.0,,,,Pass,,,,,
127.0,12.0,wc_12,wc_14,1.0,"[('wc_14', 0.9400000000000008), ('wc_12', 0.6400000000000005), ('wc_13', 0.7700000000000006)]",0.9950320000000001,,,36.0,0.045160000000000006,['Pass'],Pass,0.9400000000000008,0.059999999999999165,2.0,2.0,1.0
130.0,13.0,wc_13,,0.0,,,,102.0,,,,Pass,,,,,
130.0,13.0,wc_13,,0.0,,,51.0,,,,,Pass,,,,,
130.0,13.0,wc_13,,0.0,,,,0.0,,,,Pass,,,,,
130.0,13.0,wc_13,wc_13,0.0,"[('wc_13', 0.7700000000000006)]",0.7700000000000006,,,23.0,0.001997,['Pass'],Pass,0.7700000000000006,0.22999999999999943,3.0,3.0,0.8
130.0,13.0,wc_13,,0.0,,,,0.0,,,,Pass,,,,,
130.0,13.0,wc_13,wc_14,0.0,"[('wc_14', 0.9400000000000008), ('wc_13', 0.7700000000000006)]",0.9862000000000002,,,32.0,0.004628,['Pass'],Pass,0.9400000000000008,0.059999999999999165,2.0,2.0,1.0
130.0,13.0,wc_13,,0.0,,,,0.0,,,,Pass,,,,,
130.0,13.0,wc_13,wc_15,0.0,"[('wc_13', 0.7700000000000006), ('wc_14', 0.9400000000000008)]",0.9862000000000002,,,33.0,0.005669,['Pass'],Pass,0.7100000000000005,-0.5809677419354844,0.0,0.0,0.6
130.0,13.0,wc_13,,0.0,,,,0.0,,,,Pass,,,,,
130.0,13.0,wc_13,wc_16,1.0,"[('wc_16', 0.8500000000000006), ('wc_13', 0.7700000000000006), ('wc_14', 0.9400000000000008)]",0.9979300000000001,,,21.0,0.048734,['Pass'],Pass,0.8500000000000006,-0.7209677419354845,0.0,0.0,0.8
132.0,14.0,wc_14,,0.0,,,,81.0,,,,Fail,,,,,
132.0,14.0,wc_14,,0.0,,,54.0,,,,,Fail,,,,,
132.0,14.0,wc_14,,0.0,,,,0.0,,,,Fail,,,,,
132.0,14.0,wc_14,wc_14,0.0,"[('wc_14', 0.9400000000000008)]",0.9400000000000008,,,20.0,0.002147,['Fail'],Fail,0.9400000000000008,0.059999999999999165,3.0,3.0,1.0
132.0,14.0,wc_14,,0.0,,,,0.0,,,,Fail,,,,,
132.0,14.0,wc_14,wc_15,0.0,"[('wc_14', 0.9400000000000008)]",0.9400000000000008,,,24.0,0.003771,['Fail'],Fail,0.7100000000000005,-0.7100000000000005,0.0,1.0,0.6
132.0,14.0,wc_14,,0.0,,,,0.0,,,,Fail,,,,,
132.0,14.0,wc_14,wc_16,0.0,"[('wc_16', 0.8500000000000006), ('wc_14', 0.9400000000000008)]",0.9910000000000002,,,40.0,0.0061459999999999996,['Fail'],Fail,0.8500000000000006,-0.8500000000000006,0.0,0.0,0.8
132.0,14.0,wc_14,,0.0,,,,0.0,,,,Fail,,,,,
132.0,14.0,wc_14,wc_17,1.0,"[('wc_17', 0.7700000000000006), ('wc_14', 0.9400000000000008), ('wc_16', 0.8500000000000006)]",0.9979300000000001,,,24.0,0.047143000000000004,['Fail'],Fail,0.7700000000000006,-0.6450000000000006,0.0,0.0,0.5
135.0,14.0,wc_14,,0.0,,,,61.0,,,,Fail,,,,,
135.0,14.0,wc_14,,0.0,,,69.0,,,,,Fail,,,,,
135.0,14.0,wc_14,,0.0,,,,0.0,,,,Fail,,,,,
135.0,14.0,wc_14,wc_14,0.0,"[('wc_14', 0.9400000000000008)]",0.9400000000000008,,,32.0,0.001929,['Fail'],Fail,0.9400000000000008,0.059999999999999165,4.0,4.0,1.0
135.0,14.0,wc_14,,0.0,,,,0.0,,,,Fail,,,,,
135.0,14.0,wc_14,wc_15,0.0,"[('wc_14', 0.9400000000000008)]",0.9400000000000008,,,34.0,0.003814,['Fail'],Fail,0.7100000000000005,-0.7100000000000005,0.0,2.0,0.6
135.0,14.0,wc_14,,0.0,,,,0.0,,,,Fail,,,,,
135.0,14.0,wc_14,wc_16,0.0,"[('wc_16', 0.8500000000000006), ('wc_14', 0.9400000000000008)]",0.9910000000000002,,,22.0,0.006562,['Fail'],Fail,0.8500000000000006,0.14999999999999936,1.0,1.0,0.8
135.0,14.0,wc_14,,0.0,,,,0.0,,,,Fail,,,,,
135.0,14.0,wc_14,wc_17,1.0,"[('wc_17', 0.7700000000000006), ('wc_14', 0.9400000000000008), ('wc_16', 0.8500000000000006)]",0.9979300000000001,,,32.0,0.043867,['Fail'],Fail,0.7700000000000006,0.22999999999999943,1.0,1.0,0.5
138.0,15.0,wc_15,,0.0,,,,83.0,,,,Pass,,,,,
138.0,15.0,wc_15,,0.0,,,77.0,,,,,Pass,,,,,
138.0,15.0,wc_15,,0.0,,,,0.0,,,,Pass,,,,,
138.0,15.0,wc_15,wc_15,0.0,"[('wc_15', 0.7100000000000005)]",0.7100000000000005,,,31.0,0.002052,['Pass'],Pass,0.7100000000000005,-0.7100000000000005,0.0,3.0,0.6
138.0,15.0,wc_15,,0.0,,,,0.0,,,,Pass,,,,,
138.0,15.0,wc_15,wc_16,0.0,"[('wc_16', 0.8500000000000006), ('wc_15', 0.7100000000000005)]",0.9565000000000002,,,28.0,0.00436,['Pass'],Pass,0.8500000000000006,0.14999999999999936,2.0,2.0,0.8
138.0,15.0,wc_15,,0.0,,,,0.0,,,,Pass,,,,,
138.0,15.0,wc_15,wc_17,1.0,"[('wc_17', 0.7700000000000006), ('wc_15', 0.7100000000000005), ('wc_16', 0.8500000000000006)]",0.9899950000000001,,,30.0,0.039282,['Pass'],Pass,0.7700000000000006,0.22999999999999943,2.0,2.0,0.5
142.0,16.0,wc_16,,0.0,,,,103.0,,,,Pass,,,,,
142.0,16.0,wc_16,,0.0,,,77.0,,,,,Pass,,,,,
142.0,16.0,wc_16,,0.0,,,,0.0,,,,Pass,,,,,
142.0,16.0,wc_16,wc_16,0.0,"[('wc_16', 0.8500000000000006)]",0.8500000000000006,,,24.0,0.001978,['Pass'],Pass,0.8500000000000006,0.14999999999999936,3.0,3.0,0.8
142.0,16.0,wc_16,,0.0,,,,0.0,,,,Pass,,,,,
142.0,16.0,wc_16,wc_17,0.0,"[('wc_17', 0.7700000000000006), ('wc_16', 0.8500000000000006)]",0.9655000000000002,,,26.0,0.0048920000000000005,['Pass'],Pass,0.7700000000000006,0.22999999999999943,2.0,2.0,0.5
142.0,16.0,wc_16,,0.0,,,,21.0,,,,Pass,,,,,
142.0,16.0,wc_16,wc_12,1.0,"[('wc_12', 0.6400000000000005), ('wc_16', 0.8500000000000006), ('wc_17', 0.7700000000000006)]",0.9875800000000001,,,20.0,0.041301000000000004,['Pass'],Pass,0.6400000000000005,-0.14000000000000046,4.0,8.0,0.6
146.0,14.0,wc_14,,0.0,,,,0.0,,,,Pass,,,,,
146.0,14.0,wc_14,,0.0,,,77.0,,,,,Pass,,,,,
146.0,14.0,wc_14,,0.0,,,,0.0,,,,Pass,,,,,
146.0,14.0,wc_14,wc_14,0.0,"[('wc_14', 0.9400000000000008)]",0.9400000000000008,,,25.0,0.002038,['Pass'],Pass,0.9400000000000008,-0.22571428571428653,5.0,7.0,1.0
146.0,14.0,wc_14,,0.0,,,,0.0,,,,Pass,,,,,
146.0,14.0,wc_14,wc_15,0.0,"[('wc_15', 0.7100000000000005), ('wc_14', 0.9400000000000008)]",0.9826000000000003,,,32.0,0.004036,['Pass'],Pass,0.7100000000000005,-0.5100000000000005,1.0,5.0,0.6
146.0,14.0,wc_14,,0.0,,,,0.0,,,,Pass,,,,,
146.0,14.0,wc_14,wc_16,1.0,"[('wc_16', 0.8500000000000006), ('wc_14', 0.9400000000000008), ('wc_15', 0.7100000000000005)]",0.99739,,,22.0,0.04059400000000001,['Pass'],Pass,0.8500000000000006,0.14999999999999936,5.0,5.0,0.8
147.0,17.0,wc_17,,0.0,,,,0.0,,,,Fail,,,,,
147.0,17.0,wc_17,,0.0,,,52.0,,,,,Fail,,,,,
147.0,17.0,wc_17,,0.0,,,,0.0,,,,Fail,,,,,
147.0,17.0,wc_17,wc_17,0.0,"[('wc_17', 0.7700000000000006)]",0.7700000000000006,,,31.0,0.002293,['Fail'],Fail,0.7700000000000006,-0.020000000000000573,3.0,4.0,0.5
147.0,17.0,wc_17,,0.0,,,,21.0,,,,Fail,,,,,
147.0,17.0,wc_17,wc_12,0.0,"[('wc_12', 0.6400000000000005), ('wc_17', 0.7700000000000006)]",0.9172000000000003,,,30.0,0.004692,['Fail'],Fail,0.6400000000000005,-0.19555555555555604,4.0,9.0,0.6
147.0,17.0,wc_17,,0.0,,,,0.0,,,,Fail,,,,,
147.0,17.0,wc_17,wc_13,0.0,"[('wc_17', 0.7700000000000006), ('wc_12', 0.6400000000000005)]",0.9172000000000003,,,37.0,0.006347,['Fail'],Fail,0.7700000000000006,-0.32555555555555615,4.0,9.0,0.8
147.0,17.0,wc_17,,0.0,,,,0.0,,,,Fail,,,,,
147.0,17.0,wc_17,wc_14,1.0,"[('wc_14', 0.9400000000000008), ('wc_17', 0.7700000000000006), ('wc_12', 0.6400000000000005)]",0.9950320000000001,,,23.0,0.045410000000000006,['Fail'],Fail,0.9400000000000008,-0.16222222222222304,7.0,9.0,1.0
149.0,17.0,wc_17,,0.0,,,,0.0,,,,Pass,,,,,
149.0,17.0,wc_17,,0.0,,,65.0,,,,,Pass,,,,,
149.0,17.0,wc_17,,0.0,,,,0.0,,,,Pass,,,,,
149.0,17.0,wc_17,wc_17,0.0,"[('wc_17', 0.7700000000000006)]",0.7700000000000006,,,37.0,0.002356,['Fail'],Pass,0.7700000000000006,0.02999999999999947,4.0,5.0,0.5
149.0,17.0,wc_17,,0.0,,,,21.0,,,,Pass,,,,,
149.0,17.0,wc_17,wc_12,0.0,"[('wc_17', 0.7700000000000006)]",0.7700000000000006,,,35.0,0.004251,['Fail'],Pass,0.6400000000000005,-0.14000000000000046,0.0,0.0,0.6
149.0,17.0,wc_17,,0.0,,,,0.0,,,,Pass,,,,,
149.0,17.0,wc_17,wc_13,0.0,"[('wc_13', 0.7700000000000006), ('wc_17', 0.7700000000000006)]",0.9471000000000003,,,28.0,0.005941,['Fail'],Pass,0.7700000000000006,-0.37000000000000055,0.0,0.0,0.8
149.0,17.0,wc_17,,0.0,,,,0.0,,,,Pass,,,,,
149.0,17.0,wc_17,wc_14,0.0,"[('wc_14', 0.9400000000000008), ('wc_12', 0.6400000000000005)]",0.9784000000000004,,,28.0,0.007712,['Pass'],Pass,0.9400000000000008,-0.16222222222222304,7.0,9.0,1.0
149.0,17.0,wc_17,,0.0,,,,0.0,,,,Pass,,,,,
149.0,17.0,wc_17,wc_15,1.0,"[('wc_15', 0.7100000000000005), ('wc_12', 0.6400000000000005), ('wc_14', 0.9400000000000008)]",0.9937360000000001,,,26.0,0.04578499999999999,['Pass'],Pass,0.7100000000000005,-0.3350000000000005,3.0,8.0,0.6
