mpecck/BCQC/bcqc_with_qdt/results/raw/input_20/independent_qc/training/20_workpiece/20200429_095732/wp_11_qc_majority_0.9.csv
production_index,step_idx,production_workcell,qc,consent,winner_qc_list,score,production_time,transport_time,inspection_time,network_time,qc_results,actual_quality,qc_score,score_error,in_winner_counter,in_qc_counter,qc_capability
42.0,1.0,wc_1,,0.0,,,56.0,,,,,Pass,,,,,
42.0,1.0,wc_1,,0.0,,,,0.0,,,,Pass,,,,,
42.0,1.0,wc_1,wc_1,0.0,"[('wc_1', 0.3200000000000002)]",0.3200000000000002,,,20.0,0.002471,['Pass'],Pass,0.3200000000000002,-0.12000000000000016,1.0,5.0,0.1
42.0,1.0,wc_1,,0.0,,,,243.0,,,,Pass,,,,,
42.0,1.0,wc_1,wc_15,0.0,"[('wc_15', 0.4400000000000003), ('wc_1', 0.3200000000000002)]",0.6192000000000003,,,22.0,0.003874,['Pass'],Pass,0.4400000000000003,0.1599999999999997,3.0,5.0,0.4
42.0,1.0,wc_1,,0.0,,,,61.0,,,,Pass,,,,,
42.0,1.0,wc_1,wc_12,0.0,"[('wc_12', 0.31000000000000016), ('wc_1', 0.3200000000000002), ('wc_15', 0.4400000000000003)]",0.7372480000000002,,,36.0,0.011623,['Pass'],Pass,0.31000000000000016,-0.11000000000000015,1.0,5.0,0.1
42.0,1.0,wc_1,,0.0,,,,381.0,,,,Pass,,,,,
42.0,1.0,wc_1,wc_4,0.0,"[('wc_4', 0.42000000000000026), ('wc_1', 0.3200000000000002), ('wc_15', 0.4400000000000003), ('wc_12', 0.31000000000000016)]",0.8476038400000002,,,28.0,0.007377999999999999,['Pass'],Pass,0.42000000000000026,-0.08666666666666695,1.0,3.0,0.4
42.0,1.0,wc_1,,0.0,,,,222.0,,,,Pass,,,,,
42.0,1.0,wc_1,wc_17,1.0,"[('wc_17', 0.7000000000000005), ('wc_1', 0.3200000000000002), ('wc_15', 0.4400000000000003), ('wc_12', 0.31000000000000016), ('wc_4', 0.42000000000000026)]",0.9542811520000002,,,32.0,0.042374,['Pass'],Pass,0.7000000000000005,-0.1285714285714291,4.0,7.0,0.7
55.0,2.0,wc_2,,0.0,,,,263.0,,,,Pass,,,,,
55.0,2.0,wc_2,,0.0,,,79.0,,,,,Pass,,,,,
55.0,2.0,wc_2,,0.0,,,,0.0,,,,Pass,,,,,
55.0,2.0,wc_2,wc_2,0.0,"[('wc_2', 0.7200000000000005)]",0.7200000000000005,,,38.0,0.003514,['Pass'],Pass,0.7200000000000005,-0.7200000000000005,0.0,1.0,0.9
55.0,2.0,wc_2,,0.0,,,,183.0,,,,Pass,,,,,
55.0,2.0,wc_2,wc_9,0.0,"[('wc_9', 0.6400000000000005), ('wc_2', 0.7200000000000005)]",0.8992000000000003,,,31.0,0.0060409999999999995,['Pass'],Pass,0.6400000000000005,-0.44000000000000045,0.0,0.0,0.7
55.0,2.0,wc_2,,0.0,,,,101.0,,,,Pass,,,,,
55.0,2.0,wc_2,wc_12,1.0,"[('wc_12', 0.3200000000000002), ('wc_2', 0.7200000000000005), ('wc_9', 0.6400000000000005)]",0.9314560000000003,,,39.0,0.038724999999999996,['Pass'],Pass,0.3300000000000002,0.09857142857142837,3.0,7.0,0.1
70.0,4.0,wc_4,,0.0,,,,381.0,,,,Fail,,,,,
70.0,4.0,wc_4,,0.0,,,74.0,,,,,Fail,,,,,
70.0,4.0,wc_4,,0.0,,,,0.0,,,,Fail,,,,,
70.0,4.0,wc_4,wc_4,0.0,"[('wc_4', 0.43000000000000027)]",0.43000000000000027,,,33.0,0.002389,['Fail'],Fail,0.43000000000000027,-0.03000000000000025,2.0,5.0,0.4
70.0,4.0,wc_4,,0.0,,,,103.0,,,,Fail,,,,,
70.0,4.0,wc_4,wc_3,0.0,"[('wc_3', 0.6300000000000004)]",0.6300000000000004,,,39.0,0.004112,['Pass'],Fail,0.6300000000000004,-0.33000000000000046,0.0,0.0,0.6
70.0,4.0,wc_4,,0.0,,,,81.0,,,,Fail,,,,,
70.0,4.0,wc_4,wc_1,0.0,"[('wc_3', 0.6300000000000004)]",0.6300000000000004,,,38.0,0.005647,['Pass'],Fail,0.3300000000000002,-0.044285714285714484,2.0,7.0,0.1
70.0,4.0,wc_4,,0.0,,,,182.0,,,,Fail,,,,,
70.0,4.0,wc_4,wc_8,0.0,"[('wc_8', 0.6500000000000005), ('wc_4', 0.43000000000000027), ('wc_1', 0.3300000000000002)]",0.8663350000000003,,,39.0,0.007239999999999999,['Fail'],Fail,0.6500000000000005,-0.6500000000000005,0.0,0.0,0.6
70.0,4.0,wc_4,,0.0,,,,0.0,,,,Fail,,,,,
70.0,4.0,wc_4,wc_10,1.0,"[('wc_10', 0.7500000000000006), ('wc_4', 0.43000000000000027), ('wc_1', 0.3300000000000002), ('wc_8', 0.6500000000000005)]",0.9665837500000002,,,32.0,0.039748,['Fail'],Fail,0.7500000000000006,-0.7500000000000006,0.0,0.0,1.0
84.0,3.0,wc_3,,0.0,,,,342.0,,,,Fail,,,,,
84.0,3.0,wc_3,,0.0,,,67.0,,,,,Fail,,,,,
84.0,3.0,wc_3,,0.0,,,,0.0,,,,Fail,,,,,
84.0,3.0,wc_3,wc_3,0.0,"[('wc_3', 0.6200000000000004)]",0.6200000000000004,,,40.0,0.003922,['Fail'],Fail,0.6200000000000004,-0.6200000000000004,0.0,1.0,0.6
84.0,3.0,wc_3,,0.0,,,,141.0,,,,Fail,,,,,
84.0,3.0,wc_3,wc_8,0.0,"[('wc_8', 0.6600000000000005), ('wc_3', 0.6200000000000004)]",0.8708000000000004,,,23.0,0.004987,['Fail'],Fail,0.6600000000000005,0.3399999999999995,1.0,1.0,0.6
84.0,3.0,wc_3,,0.0,,,,183.0,,,,Fail,,,,,
84.0,3.0,wc_3,wc_15,1.0,"[('wc_15', 0.4500000000000003), ('wc_3', 0.6200000000000004), ('wc_8', 0.6600000000000005)]",0.9289400000000002,,,29.0,0.06489900000000001,['Fail'],Fail,0.4600000000000003,0.09555555555555528,5.0,9.0,0.4
100.0,4.0,wc_4,,0.0,,,,422.0,,,,Fail,,,,,
100.0,4.0,wc_4,,0.0,,,71.0,,,,,Fail,,,,,
100.0,4.0,wc_4,,0.0,,,,0.0,,,,Fail,,,,,
100.0,4.0,wc_4,wc_4,0.0,"[('wc_4', 0.4400000000000003)]",0.4400000000000003,,,25.0,0.003415,['Fail'],Fail,0.4400000000000003,-0.011428571428571732,3.0,7.0,0.4
100.0,4.0,wc_4,,0.0,,,,161.0,,,,Fail,,,,,
100.0,4.0,wc_4,wc_14,0.0,"[('wc_14', 0.8100000000000006), ('wc_4', 0.4400000000000003)]",0.8936000000000004,,,37.0,0.00459,['Fail'],Fail,0.8100000000000006,-0.45285714285714346,0.0,0.0,1.0
100.0,4.0,wc_4,,0.0,,,,102.0,,,,Fail,,,,,
100.0,4.0,wc_4,wc_13,1.0,"[('wc_13', 0.19000000000000006), ('wc_4', 0.4400000000000003), ('wc_14', 0.8100000000000006)]",0.9138160000000003,,,29.0,0.039288000000000003,['Fail'],Fail,0.19000000000000006,-0.19000000000000006,0.0,0.0,0.1
139.0,3.0,wc_3,,0.0,,,,341.0,,,,Pass,,,,,
139.0,3.0,wc_3,,0.0,,,74.0,,,,,Pass,,,,,
139.0,3.0,wc_3,,0.0,,,,0.0,,,,Pass,,,,,
139.0,3.0,wc_3,wc_3,0.0,"[('wc_3', 0.6200000000000004)]",0.6200000000000004,,,22.0,0.006115,['Pass'],Pass,0.6200000000000004,-0.2866666666666671,1.0,3.0,0.6
139.0,3.0,wc_3,,0.0,,,,182.0,,,,Pass,,,,,
139.0,3.0,wc_3,wc_10,0.0,"[('wc_10', 0.7500000000000006), ('wc_3', 0.6200000000000004)]",0.9050000000000004,,,33.0,0.005507,['Pass'],Pass,0.7500000000000006,-0.7500000000000006,0.0,2.0,1.0
139.0,3.0,wc_3,,0.0,,,,142.0,,,,Pass,,,,,
139.0,3.0,wc_3,wc_15,0.0,"[('wc_3', 0.6200000000000004), ('wc_10', 0.7500000000000006)]",0.9050000000000004,,,35.0,0.005932,['Pass'],Pass,0.4600000000000003,0.0399999999999997,0.0,0.0,0.4
139.0,3.0,wc_3,,0.0,,,,101.0,,,,Pass,,,,,
139.0,3.0,wc_3,wc_14,1.0,"[('wc_14', 0.8200000000000006), ('wc_3', 0.6200000000000004), ('wc_10', 0.7500000000000006)]",0.9829000000000001,,,37.0,0.038329,['Pass'],Pass,0.8300000000000006,0.16999999999999937,2.0,2.0,1.0
179.0,4.0,wc_4,,0.0,,,,341.0,,,,Fail,,,,,
179.0,4.0,wc_4,,0.0,,,76.0,,,,,Fail,,,,,
179.0,4.0,wc_4,,0.0,,,,0.0,,,,Fail,,,,,
179.0,4.0,wc_4,wc_4,0.0,"[('wc_4', 0.4500000000000003)]",0.4500000000000003,,,23.0,0.002368,['Fail'],Fail,0.4500000000000003,-0.005555555555555869,4.0,9.0,0.4
179.0,4.0,wc_4,,0.0,,,,141.0,,,,Fail,,,,,
179.0,4.0,wc_4,wc_13,0.0,"[('wc_4', 0.4500000000000003)]",0.4500000000000003,,,21.0,0.00506,['Fail'],Fail,0.19000000000000006,-0.19000000000000006,0.0,1.0,0.1
179.0,4.0,wc_4,,0.0,,,,202.0,,,,Fail,,,,,
179.0,4.0,wc_4,wc_8,0.0,"[('wc_8', 0.6700000000000005), ('wc_4', 0.4500000000000003)]",0.8185000000000003,,,25.0,0.007379,['Fail'],Fail,0.6700000000000005,-0.17000000000000048,2.0,4.0,0.6
179.0,4.0,wc_4,,0.0,,,,203.0,,,,Fail,,,,,
179.0,4.0,wc_4,wc_16,0.0,"[('wc_16', 0.31000000000000016), ('wc_4', 0.4500000000000003), ('wc_8', 0.6700000000000005)]",0.8747650000000002,,,26.0,0.007443999999999999,['Fail'],Fail,0.31000000000000016,-0.31000000000000016,0.0,0.0,0.1
179.0,4.0,wc_4,,0.0,,,,223.0,,,,Fail,,,,,
179.0,4.0,wc_4,wc_7,1.0,"[('wc_7', 0.7700000000000006), ('wc_4', 0.4500000000000003), ('wc_8', 0.6700000000000005), ('wc_16', 0.31000000000000016)]",0.9711959500000001,,,26.0,0.044277,['Fail'],Fail,0.7700000000000006,-0.7700000000000006,0.0,0.0,0.9
226.0,4.0,wc_4,,0.0,,,,321.0,,,,Pass,,,,,
226.0,4.0,wc_4,,0.0,,,51.0,,,,,Pass,,,,,
226.0,4.0,wc_4,,0.0,,,,0.0,,,,Pass,,,,,
226.0,4.0,wc_4,wc_4,0.0,"[('wc_4', 0.4600000000000003)]",0.4600000000000003,,,20.0,0.002659,['Pass'],Pass,0.4600000000000003,-0.4600000000000003,0.0,0.0,0.4
226.0,4.0,wc_4,,0.0,,,,162.0,,,,Pass,,,,,
226.0,4.0,wc_4,wc_10,0.0,"[('wc_10', 0.7500000000000006), ('wc_4', 0.4600000000000003)]",0.8650000000000004,,,36.0,0.005411,['Pass'],Pass,0.7500000000000006,-0.5000000000000006,1.0,4.0,1.0
226.0,4.0,wc_4,,0.0,,,,41.0,,,,Pass,,,,,
226.0,4.0,wc_4,wc_6,1.0,"[('wc_6', 0.41000000000000025), ('wc_4', 0.4600000000000003), ('wc_10', 0.7500000000000006)]",0.9203500000000002,,,33.0,0.03991499999999999,['Pass'],Pass,0.41000000000000025,-0.41000000000000025,0.0,0.0,0.3
240.0,5.0,wc_5,,0.0,,,,361.0,,,,Pass,,,,,
240.0,5.0,wc_5,,0.0,,,65.0,,,,,Pass,,,,,
240.0,5.0,wc_5,,0.0,,,,0.0,,,,Pass,,,,,
240.0,5.0,wc_5,wc_5,0.0,"[('wc_5', 0.21000000000000008)]",0.21000000000000008,,,26.0,0.002432,['Pass'],Pass,0.21000000000000008,-0.08500000000000008,0.0,0.0,0.1
240.0,5.0,wc_5,,0.0,,,,121.0,,,,Pass,,,,,
240.0,5.0,wc_5,wc_13,0.0,"[('wc_5', 0.21000000000000008)]",0.21000000000000008,,,29.0,0.0040230000000000005,['Pass'],Pass,0.18000000000000005,-0.18000000000000005,0.0,3.0,0.1
240.0,5.0,wc_5,,0.0,,,,102.0,,,,Pass,,,,,
240.0,5.0,wc_5,wc_12,0.0,"[('wc_12', 0.3300000000000002), ('wc_5', 0.21000000000000008)]",0.47070000000000023,,,20.0,0.008140999999999999,['Pass'],Pass,0.3300000000000002,-0.0992307692307694,0.0,0.0,0.1
240.0,5.0,wc_5,,0.0,,,,222.0,,,,Pass,,,,,
240.0,5.0,wc_5,wc_8,0.0,"[('wc_8', 0.6700000000000005), ('wc_5', 0.21000000000000008), ('wc_12', 0.3300000000000002)]",0.8253310000000003,,,26.0,0.008122,['Pass'],Pass,0.6700000000000005,-0.17000000000000048,3.0,6.0,0.6
240.0,5.0,wc_5,,0.0,,,,102.0,,,,Pass,,,,,
240.0,5.0,wc_5,wc_7,1.0,"[('wc_7', 0.7700000000000006), ('wc_5', 0.21000000000000008), ('wc_12', 0.3300000000000002), ('wc_8', 0.6700000000000005)]",0.9598261300000002,,,28.0,0.045398999999999995,['Pass'],Pass,0.7700000000000006,-0.2700000000000006,1.0,2.0,0.9
255.0,6.0,wc_6,,0.0,,,,102.0,,,,Pass,,,,,
255.0,6.0,wc_6,,0.0,,,60.0,,,,,Pass,,,,,
255.0,6.0,wc_6,,0.0,,,,0.0,,,,Pass,,,,,
255.0,6.0,wc_6,wc_6,0.0,"[('wc_6', 0.41000000000000025)]",0.41000000000000025,,,39.0,0.002699,['Pass'],Pass,0.41000000000000025,-0.41000000000000025,0.0,1.0,0.3
255.0,6.0,wc_6,,0.0,,,,0.0,,,,Pass,,,,,
255.0,6.0,wc_6,wc_10,0.0,"[('wc_10', 0.7500000000000006), ('wc_6', 0.41000000000000025)]",0.8525000000000004,,,26.0,0.004003,['Pass'],Pass,0.7500000000000006,-0.41666666666666724,2.0,6.0,1.0
255.0,6.0,wc_6,,0.0,,,,81.0,,,,Pass,,,,,
255.0,6.0,wc_6,wc_12,0.0,"[('wc_6', 0.41000000000000025), ('wc_10', 0.7500000000000006)]",0.8525000000000004,,,33.0,0.005993,['Pass'],Pass,0.3400000000000002,0.6599999999999998,1.0,1.0,0.1
255.0,6.0,wc_6,,0.0,,,,321.0,,,,Pass,,,,,
255.0,6.0,wc_6,wc_9,1.0,"[('wc_9', 0.6500000000000005), ('wc_6', 0.41000000000000025), ('wc_10', 0.7500000000000006)]",0.9483750000000002,,,36.0,0.045093999999999995,['Pass'],Pass,0.6500000000000005,-0.42777777777777826,2.0,9.0,0.7
267.0,8.0,wc_8,,0.0,,,,101.0,,,,Fail,,,,,
267.0,8.0,wc_8,,0.0,,,66.0,,,,,Fail,,,,,
267.0,8.0,wc_8,,0.0,,,,0.0,,,,Fail,,,,,
267.0,8.0,wc_8,wc_8,0.0,"[('wc_8', 0.6700000000000005)]",0.6700000000000005,,,25.0,0.002311,['Fail'],Fail,0.6700000000000005,-0.17000000000000048,4.0,8.0,0.6
267.0,8.0,wc_8,,0.0,,,,142.0,,,,Fail,,,,,
267.0,8.0,wc_8,wc_13,0.0,"[('wc_13', 0.17000000000000004), ('wc_8', 0.6700000000000005)]",0.7261000000000004,,,37.0,0.004152,['Fail'],Fail,0.17000000000000004,-0.17000000000000004,0.0,5.0,0.1
267.0,8.0,wc_8,,0.0,,,,301.0,,,,Fail,,,,,
267.0,8.0,wc_8,wc_9,1.0,"[('wc_9', 0.6500000000000005), ('wc_8', 0.6700000000000005), ('wc_13', 0.17000000000000004)]",0.9041350000000002,,,32.0,0.042790999999999996,['Fail'],Fail,0.6500000000000005,-0.6500000000000005,0.0,0.0,0.7
279.0,9.0,wc_9,,0.0,,,,0.0,,,,Pass,,,,,
279.0,9.0,wc_9,,0.0,,,71.0,,,,,Pass,,,,,
279.0,9.0,wc_9,,0.0,,,,0.0,,,,Pass,,,,,
279.0,9.0,wc_9,wc_9,0.0,"[('wc_9', 0.6500000000000005)]",0.6500000000000005,,,26.0,0.002622,['Pass'],Pass,0.6500000000000005,-0.6500000000000005,0.0,0.0,0.7
279.0,9.0,wc_9,,0.0,,,,0.0,,,,Pass,,,,,
279.0,9.0,wc_9,wc_11,0.0,"[('wc_11', 0.09000000000000002), ('wc_9', 0.6500000000000005)]",0.6815000000000004,,,30.0,0.004183,['Pass'],Pass,0.09000000000000002,-0.09000000000000002,0.0,0.0,0.1
279.0,9.0,wc_9,,0.0,,,,142.0,,,,Pass,,,,,
279.0,9.0,wc_9,wc_16,0.0,"[('wc_9', 0.6500000000000005), ('wc_11', 0.09000000000000002)]",0.6815000000000004,,,33.0,0.006629,['Pass'],Pass,0.3200000000000002,-0.12000000000000016,1.0,5.0,0.1
279.0,9.0,wc_9,,0.0,,,,283.0,,,,Pass,,,,,
279.0,9.0,wc_9,wc_2,1.0,"[('wc_2', 0.7200000000000005), ('wc_9', 0.6500000000000005), ('wc_11', 0.09000000000000002)]",0.9108200000000003,,,38.0,0.040686,['Pass'],Pass,0.7200000000000005,-0.7200000000000005,0.0,0.0,0.9
295.0,8.0,wc_8,,0.0,,,,162.0,,,,Fail,,,,,
295.0,8.0,wc_8,,0.0,,,73.0,,,,,Fail,,,,,
295.0,8.0,wc_8,,0.0,,,,0.0,,,,Fail,,,,,
295.0,8.0,wc_8,wc_8,0.0,"[('wc_8', 0.6700000000000005)]",0.6700000000000005,,,29.0,0.002263,['Fail'],Fail,0.6700000000000005,-0.17000000000000048,0.0,0.0,0.6
295.0,8.0,wc_8,,0.0,,,,122.0,,,,Fail,,,,,
295.0,8.0,wc_8,wc_12,0.0,"[('wc_8', 0.6700000000000005)]",0.6700000000000005,,,33.0,0.004564,['Fail'],Fail,0.3400000000000002,-0.09000000000000019,1.0,4.0,0.1
295.0,8.0,wc_8,,0.0,,,,242.0,,,,Fail,,,,,
295.0,8.0,wc_8,wc_1,0.0,"[('wc_8', 0.6700000000000005)]",0.6700000000000005,,,34.0,0.007608,['Fail'],Fail,0.3400000000000002,-0.16352941176470606,0.0,0.0,0.1
295.0,8.0,wc_8,,0.0,,,,0.0,,,,Fail,,,,,
295.0,8.0,wc_8,wc_2,0.0,"[('wc_2', 0.7200000000000005), ('wc_8', 0.6700000000000005)]",0.9076000000000003,,,24.0,0.008933,['Fail'],Fail,0.7200000000000005,-0.7200000000000005,0.0,0.0,0.9
295.0,8.0,wc_8,,0.0,,,,223.0,,,,Fail,,,,,
295.0,8.0,wc_8,wc_15,1.0,"[('wc_15', 0.4500000000000003), ('wc_8', 0.6700000000000005), ('wc_2', 0.7200000000000005)]",0.9491800000000002,,,22.0,0.047026,['Fail'],Fail,0.4500000000000003,-0.3250000000000003,1.0,8.0,0.4
306.0,8.0,wc_8,,0.0,,,,263.0,,,,Fail,,,,,
306.0,8.0,wc_8,,0.0,,,75.0,,,,,Fail,,,,,
306.0,8.0,wc_8,,0.0,,,,0.0,,,,Fail,,,,,
306.0,8.0,wc_8,wc_8,0.0,"[('wc_8', 0.6800000000000005)]",0.6800000000000005,,,40.0,0.002558,['Pass'],Fail,0.6800000000000005,0.3199999999999995,1.0,1.0,0.6
306.0,8.0,wc_8,,0.0,,,,0.0,,,,Fail,,,,,
306.0,8.0,wc_8,wc_9,0.0,"[('wc_8', 0.6800000000000005)]",0.6800000000000005,,,22.0,0.005385,['Pass'],Fail,0.6600000000000005,-0.16000000000000048,1.0,2.0,0.7
306.0,8.0,wc_8,,0.0,,,,263.0,,,,Fail,,,,,
306.0,8.0,wc_8,wc_2,0.0,"[('wc_2', 0.7300000000000005), ('wc_9', 0.6600000000000005)]",0.9082000000000003,,,27.0,0.005746,['Fail'],Fail,0.7300000000000005,0.26999999999999946,1.0,1.0,0.9
306.0,8.0,wc_8,,0.0,,,,0.0,,,,Fail,,,,,
306.0,8.0,wc_8,wc_3,1.0,"[('wc_3', 0.6200000000000004), ('wc_9', 0.6600000000000005), ('wc_2', 0.7300000000000005)]",0.9651160000000002,,,29.0,0.045137000000000004,['Fail'],Fail,0.6200000000000004,-0.6200000000000004,0.0,0.0,0.6
323.0,7.0,wc_7,,0.0,,,,121.0,,,,Fail,,,,,
323.0,7.0,wc_7,,0.0,,,60.0,,,,,Fail,,,,,
323.0,7.0,wc_7,,0.0,,,,0.0,,,,Fail,,,,,
323.0,7.0,wc_7,wc_7,0.0,"[('wc_7', 0.7700000000000006)]",0.7700000000000006,,,39.0,0.00223,['Fail'],Fail,0.7700000000000006,-0.6271428571428577,1.0,7.0,0.9
323.0,7.0,wc_7,,0.0,,,,202.0,,,,Fail,,,,,
323.0,7.0,wc_7,wc_2,0.0,"[('wc_2', 0.7400000000000005), ('wc_7', 0.7700000000000006)]",0.9402000000000003,,,28.0,0.004199,['Fail'],Fail,0.7400000000000005,0.25999999999999945,2.0,2.0,0.9
323.0,7.0,wc_7,,0.0,,,,263.0,,,,Fail,,,,,
323.0,7.0,wc_7,wc_17,1.0,"[('wc_17', 0.7000000000000005), ('wc_7', 0.7700000000000006), ('wc_2', 0.7400000000000005)]",0.9820600000000002,,,29.0,0.038484,['Fail'],Fail,0.7000000000000005,-0.7000000000000005,0.0,0.0,0.7
336.0,10.0,wc_10,,0.0,,,,342.0,,,,Fail,,,,,
336.0,10.0,wc_10,,0.0,,,80.0,,,,,Fail,,,,,
336.0,10.0,wc_10,,0.0,,,,0.0,,,,Fail,,,,,
336.0,10.0,wc_10,wc_10,0.0,"[('wc_10', 0.7500000000000006)]",0.7500000000000006,,,40.0,0.002185,['Fail'],Fail,0.7500000000000006,-0.5000000000000006,0.0,0.0,1.0
336.0,10.0,wc_10,,0.0,,,,182.0,,,,Fail,,,,,
336.0,10.0,wc_10,wc_17,0.0,"[('wc_17', 0.7000000000000005), ('wc_10', 0.7500000000000006)]",0.9250000000000003,,,35.0,0.004968,['Fail'],Fail,0.7000000000000005,-0.7000000000000005,0.0,0.0,0.7
336.0,10.0,wc_10,,0.0,,,,362.0,,,,Fail,,,,,
336.0,10.0,wc_10,wc_3,0.0,"[('wc_10', 0.7500000000000006), ('wc_17', 0.7000000000000005)]",0.9250000000000003,,,26.0,0.005576,['Fail'],Fail,0.6200000000000004,-0.6200000000000004,0.0,1.0,0.6
336.0,10.0,wc_10,,0.0,,,,101.0,,,,Fail,,,,,
336.0,10.0,wc_10,wc_6,1.0,"[('wc_6', 0.42000000000000026), ('wc_10', 0.7500000000000006), ('wc_17', 0.7000000000000005)]",0.9565000000000002,,,37.0,0.040081,['Fail'],Fail,0.42000000000000026,-0.17000000000000026,2.0,8.0,0.3
351.0,11.0,wc_11,,0.0,,,,0.0,,,,Fail,,,,,
351.0,11.0,wc_11,,0.0,,,67.0,,,,,Fail,,,,,
351.0,11.0,wc_11,,0.0,,,,0.0,,,,Fail,,,,,
351.0,11.0,wc_11,wc_11,0.0,"[('wc_11', 0.10000000000000002)]",0.09999999999999998,,,32.0,0.002406,['Pass'],Fail,0.10000000000000002,0.09999999999999999,1.0,5.0,0.1
351.0,11.0,wc_11,,0.0,,,,203.0,,,,Fail,,,,,
351.0,11.0,wc_11,wc_1,0.0,"[('wc_1', 0.3300000000000002), ('wc_11', 0.10000000000000002)]",0.39700000000000013,,,30.0,0.004519,['Pass'],Fail,0.3300000000000002,-0.3300000000000002,0.0,4.0,0.1
351.0,11.0,wc_11,,0.0,,,,283.0,,,,Fail,,,,,
351.0,11.0,wc_11,wc_17,0.0,"[('wc_17', 0.7100000000000005)]",0.7100000000000005,,,31.0,0.006374,['Fail'],Fail,0.7100000000000005,0.2899999999999995,1.0,1.0,0.7
351.0,11.0,wc_11,,0.0,,,,21.0,,,,Fail,,,,,
351.0,11.0,wc_11,wc_12,0.0,"[('wc_12', 0.3300000000000002), ('wc_17', 0.7100000000000005)]",0.8057000000000004,,,31.0,0.007482999999999999,['Fail'],Fail,0.3300000000000002,-0.20500000000000018,1.0,8.0,0.1
351.0,11.0,wc_11,,0.0,,,,401.0,,,,Fail,,,,,
351.0,11.0,wc_11,wc_5,0.0,"[('wc_17', 0.7100000000000005), ('wc_12', 0.3300000000000002)]",0.8057000000000004,,,31.0,0.010602,['Fail'],Fail,0.22000000000000008,-0.09500000000000008,1.0,8.0,0.1
351.0,11.0,wc_11,,0.0,,,,61.0,,,,Fail,,,,,
351.0,11.0,wc_11,wc_6,0.0,"[('wc_6', 0.42000000000000026), ('wc_17', 0.7100000000000005), ('wc_12', 0.3300000000000002)]",0.8873060000000003,,,22.0,0.013736,['Fail'],Fail,0.42000000000000026,-0.17000000000000026,2.0,8.0,0.3
351.0,11.0,wc_11,,0.0,,,,321.0,,,,Fail,,,,,
351.0,11.0,wc_11,wc_3,1.0,"[('wc_3', 0.6100000000000004), ('wc_17', 0.7100000000000005), ('wc_12', 0.3300000000000002), ('wc_6', 0.42000000000000026)]",0.9560493400000002,,,40.0,0.04775700000000001,['Fail'],Fail,0.6100000000000004,-0.2766666666666671,1.0,3.0,0.6
364.0,10.0,wc_10,,0.0,,,,182.0,,,,Pass,,,,,
364.0,10.0,wc_10,,0.0,,,55.0,,,,,Pass,,,,,
364.0,10.0,wc_10,,0.0,,,,0.0,,,,Pass,,,,,
364.0,10.0,wc_10,wc_10,0.0,"[('wc_10', 0.7600000000000006)]",0.7600000000000006,,,35.0,0.00242,['Pass'],Pass,0.7600000000000006,-0.26000000000000056,1.0,2.0,1.0
364.0,10.0,wc_10,,0.0,,,,162.0,,,,Pass,,,,,
364.0,10.0,wc_10,wc_16,0.0,"[('wc_16', 0.31000000000000016), ('wc_10', 0.7600000000000006)]",0.8344000000000005,,,22.0,0.005417,['Pass'],Pass,0.31000000000000016,-0.21909090909090925,0.0,0.0,0.1
364.0,10.0,wc_10,,0.0,,,,61.0,,,,Pass,,,,,
364.0,10.0,wc_10,wc_13,0.0,"[('wc_10', 0.7600000000000006), ('wc_16', 0.31000000000000016)]",0.8344000000000005,,,29.0,0.008284,['Pass'],Pass,0.17000000000000004,-0.08666666666666671,0.0,0.0,0.1
364.0,10.0,wc_10,,0.0,,,,222.0,,,,Pass,,,,,
364.0,10.0,wc_10,wc_1,0.0,"[('wc_10', 0.7600000000000006), ('wc_16', 0.31000000000000016)]",0.8344000000000005,,,26.0,0.008069,['Pass'],Pass,0.3200000000000002,-0.3200000000000002,0.0,5.0,0.1
364.0,10.0,wc_10,,0.0,,,,283.0,,,,Pass,,,,,
364.0,10.0,wc_10,wc_17,0.0,"[('wc_17', 0.7200000000000005), ('wc_13', 0.17000000000000004), ('wc_1', 0.3200000000000002)]",0.8419680000000004,,,30.0,0.010721000000000001,['Fail'],Pass,0.7200000000000005,0.27999999999999947,2.0,2.0,0.7
364.0,10.0,wc_10,,0.0,,,,203.0,,,,Pass,,,,,
364.0,10.0,wc_10,wc_7,1.0,"[('wc_7', 0.7700000000000006), ('wc_10', 0.7600000000000006), ('wc_16', 0.31000000000000016)]",0.9619120000000002,,,38.0,0.044335,['Pass'],Pass,0.7700000000000006,-0.7700000000000006,0.0,0.0,0.9
383.0,7.0,wc_7,,0.0,,,,0.0,,,,Pass,,,,,
383.0,7.0,wc_7,,0.0,,,73.0,,,,,Pass,,,,,
383.0,7.0,wc_7,,0.0,,,,0.0,,,,Pass,,,,,
383.0,7.0,wc_7,wc_7,0.0,"[('wc_7', 0.7700000000000006)]",0.7700000000000006,,,22.0,0.002894,['Pass'],Pass,0.7700000000000006,-0.7700000000000006,0.0,0.0,0.9
383.0,7.0,wc_7,,0.0,,,,321.0,,,,Pass,,,,,
383.0,7.0,wc_7,wc_4,0.0,"[('wc_7', 0.7700000000000006)]",0.7700000000000006,,,21.0,0.004888,['Pass'],Pass,0.4700000000000003,-0.37909090909090937,0.0,0.0,0.4
383.0,7.0,wc_7,,0.0,,,,162.0,,,,Pass,,,,,
383.0,7.0,wc_7,wc_10,0.0,"[('wc_10', 0.7600000000000006), ('wc_7', 0.7700000000000006)]",0.9448000000000003,,,20.0,0.006301,['Pass'],Pass,0.7600000000000006,-0.09333333333333393,2.0,3.0,1.0
383.0,7.0,wc_7,,0.0,,,,101.0,,,,Pass,,,,,
383.0,7.0,wc_7,wc_13,1.0,"[('wc_13', 0.16000000000000003), ('wc_7', 0.7700000000000006), ('wc_10', 0.7600000000000006)]",0.9536320000000003,,,26.0,0.039982,['Pass'],Pass,0.17000000000000004,0.32999999999999996,1.0,2.0,0.1
392.0,8.0,wc_8,,0.0,,,,202.0,,,,Pass,,,,,
392.0,8.0,wc_8,,0.0,,,50.0,,,,,Pass,,,,,
392.0,8.0,wc_8,,0.0,,,,0.0,,,,Pass,,,,,
392.0,8.0,wc_8,wc_8,0.0,"[('wc_8', 0.6700000000000005)]",0.6700000000000005,,,33.0,0.002216,['Pass'],Pass,0.6700000000000005,-0.5271428571428576,1.0,7.0,0.6
392.0,8.0,wc_8,,0.0,,,,281.0,,,,Pass,,,,,
392.0,8.0,wc_8,wc_3,0.0,"[('wc_3', 0.6100000000000004), ('wc_8', 0.6700000000000005)]",0.8713000000000003,,,35.0,0.005697,['Pass'],Pass,0.6100000000000004,-0.4100000000000004,1.0,5.0,0.6
392.0,8.0,wc_8,,0.0,,,,202.0,,,,Pass,,,,,
392.0,8.0,wc_8,wc_15,1.0,"[('wc_15', 0.4500000000000003), ('wc_8', 0.6700000000000005), ('wc_3', 0.6100000000000004)]",0.9292150000000002,,,37.0,0.039111,['Pass'],Pass,0.4500000000000003,-0.4500000000000003,0.0,0.0,0.4
407.0,11.0,wc_11,,0.0,,,,402.0,,,,Fail,,,,,
407.0,11.0,wc_11,,0.0,,,64.0,,,,,Fail,,,,,
407.0,11.0,wc_11,,0.0,,,,0.0,,,,Fail,,,,,
407.0,11.0,wc_11,wc_11,0.0,"[('wc_11', 0.10000000000000002)]",0.09999999999999998,,,24.0,0.002182,['Pass'],Fail,0.10000000000000002,0.011111111111111086,1.0,9.0,0.1
407.0,11.0,wc_11,,0.0,,,,81.0,,,,Fail,,,,,
407.0,11.0,wc_11,wc_13,0.0,"[('wc_13', 0.17000000000000004)]",0.17000000000000004,,,39.0,0.004188,['Fail'],Fail,0.17000000000000004,0.16333333333333327,1.0,3.0,0.1
407.0,11.0,wc_11,,0.0,,,,301.0,,,,Fail,,,,,
407.0,11.0,wc_11,wc_9,0.0,"[('wc_9', 0.6600000000000005), ('wc_13', 0.17000000000000004)]",0.7178000000000004,,,27.0,0.006305,['Fail'],Fail,0.6600000000000005,-0.43777777777777827,2.0,9.0,0.7
407.0,11.0,wc_11,,0.0,,,,61.0,,,,Fail,,,,,
407.0,11.0,wc_11,wc_6,0.0,"[('wc_6', 0.42000000000000026), ('wc_13', 0.17000000000000004), ('wc_9', 0.6600000000000005)]",0.8363240000000003,,,34.0,0.009107,['Fail'],Fail,0.42000000000000026,-0.17000000000000026,0.0,0.0,0.3
407.0,11.0,wc_11,,0.0,,,,223.0,,,,Fail,,,,,
407.0,11.0,wc_11,wc_15,1.0,"[('wc_15', 0.4500000000000003), ('wc_13', 0.17000000000000004), ('wc_9', 0.6600000000000005), ('wc_6', 0.42000000000000026)]",0.9099782000000002,,,29.0,0.05138000000000001,['Fail'],Fail,0.4600000000000003,0.5399999999999997,1.0,1.0,0.4
450.0,11.0,wc_11,,0.0,,,,402.0,,,,Fail,,,,,
450.0,11.0,wc_11,,0.0,,,60.0,,,,,Fail,,,,,
450.0,11.0,wc_11,,0.0,,,,0.0,,,,Fail,,,,,
450.0,11.0,wc_11,wc_11,0.0,"[('wc_11', 0.10000000000000002)]",0.09999999999999998,,,29.0,0.002014,['Fail'],Fail,0.10000000000000002,-0.10000000000000002,0.0,0.0,0.1
450.0,11.0,wc_11,,0.0,,,,223.0,,,,Fail,,,,,
450.0,11.0,wc_11,wc_2,0.0,"[('wc_2', 0.7500000000000006), ('wc_11', 0.10000000000000002)]",0.7750000000000005,,,20.0,0.004361,['Fail'],Fail,0.7500000000000006,-0.41666666666666724,3.0,9.0,0.9
450.0,11.0,wc_11,,0.0,,,,183.0,,,,Fail,,,,,
450.0,11.0,wc_11,wc_9,1.0,"[('wc_9', 0.6600000000000005), ('wc_11', 0.10000000000000002), ('wc_2', 0.7500000000000006)]",0.9235000000000002,,,25.0,0.040904,['Fail'],Fail,0.6700000000000005,0.3299999999999995,1.0,1.0,0.7
469.0,11.0,wc_11,,0.0,,,,0.0,,,,Pass,,,,,
469.0,11.0,wc_11,,0.0,,,73.0,,,,,Pass,,,,,
469.0,11.0,wc_11,,0.0,,,,0.0,,,,Pass,,,,,
469.0,11.0,wc_11,wc_11,0.0,"[('wc_11', 0.11000000000000001)]",0.10999999999999999,,,27.0,0.00223,['Fail'],Pass,0.11000000000000001,0.89,1.0,1.0,0.1
469.0,11.0,wc_11,,0.0,,,,322.0,,,,Pass,,,,,
469.0,11.0,wc_11,wc_3,0.0,"[('wc_3', 0.6100000000000004)]",0.6100000000000004,,,20.0,0.004397,['Pass'],Pass,0.6100000000000004,-0.36000000000000043,2.0,8.0,0.6
469.0,11.0,wc_11,,0.0,,,,81.0,,,,Pass,,,,,
469.0,11.0,wc_11,wc_1,0.0,"[('wc_3', 0.6100000000000004)]",0.6100000000000004,,,29.0,0.0055130000000000005,['Pass'],Pass,0.31000000000000016,-0.31000000000000016,0.0,0.0,0.1
469.0,11.0,wc_11,,0.0,,,,243.0,,,,Pass,,,,,
469.0,11.0,wc_11,wc_15,0.0,"[('wc_15', 0.4600000000000003), ('wc_3', 0.6100000000000004)]",0.7894000000000003,,,22.0,0.007987000000000001,['Pass'],Pass,0.4600000000000003,0.0399999999999997,1.0,2.0,0.4
469.0,11.0,wc_11,,0.0,,,,0.0,,,,Pass,,,,,
469.0,11.0,wc_11,wc_16,0.0,"[('wc_16', 0.3200000000000002), ('wc_3', 0.6100000000000004), ('wc_15', 0.4600000000000003)]",0.8567920000000002,,,26.0,0.00993,['Pass'],Pass,0.3200000000000002,-0.12000000000000016,1.0,5.0,0.1
469.0,11.0,wc_11,,0.0,,,,283.0,,,,Pass,,,,,
469.0,11.0,wc_11,wc_2,1.0,"[('wc_2', 0.7500000000000006), ('wc_3', 0.6100000000000004), ('wc_15', 0.4600000000000003), ('wc_16', 0.3200000000000002)]",0.9641980000000001,,,24.0,0.04878999999999999,['Pass'],Pass,0.7600000000000006,0.23999999999999944,1.0,1.0,0.9
490.0,12.0,wc_12,,0.0,,,,162.0,,,,Pass,,,,,
490.0,12.0,wc_12,,0.0,,,74.0,,,,,Pass,,,,,
490.0,12.0,wc_12,,0.0,,,,0.0,,,,Pass,,,,,
490.0,12.0,wc_12,wc_12,0.0,"[('wc_12', 0.3300000000000002)]",0.3300000000000002,,,23.0,0.002122,['Fail'],Pass,0.3300000000000002,-0.19666666666666685,0.0,0.0,0.1
490.0,12.0,wc_12,,0.0,,,,361.0,,,,Pass,,,,,
490.0,12.0,wc_12,wc_11,0.0,"[('wc_12', 0.3300000000000002)]",0.3300000000000002,,,34.0,0.003915999999999999,['Fail'],Pass,0.11000000000000001,0.39,1.0,2.0,0.1
490.0,12.0,wc_12,,0.0,,,,101.0,,,,Pass,,,,,
490.0,12.0,wc_12,wc_14,0.0,"[('wc_14', 0.8300000000000006), ('wc_11', 0.11000000000000001)]",0.8487000000000006,,,36.0,0.006177,['Pass'],Pass,0.8300000000000006,-0.7247368421052638,0.0,0.0,1.0
490.0,12.0,wc_12,,0.0,,,,222.0,,,,Pass,,,,,
490.0,12.0,wc_12,wc_2,1.0,"[('wc_2', 0.7600000000000006), ('wc_11', 0.11000000000000001), ('wc_14', 0.8300000000000006)]",0.9636880000000002,,,37.0,0.050924000000000004,['Pass'],Pass,0.7700000000000006,0.22999999999999943,2.0,2.0,0.9
503.0,13.0,wc_13,,0.0,,,,182.0,,,,Pass,,,,,
503.0,13.0,wc_13,,0.0,,,73.0,,,,,Pass,,,,,
503.0,13.0,wc_13,,0.0,,,,0.0,,,,Pass,,,,,
503.0,13.0,wc_13,wc_13,0.0,"[('wc_13', 0.18000000000000005)]",0.18000000000000005,,,25.0,0.002899,['Fail'],Pass,0.18000000000000005,0.10571428571428565,2.0,7.0,0.1
503.0,13.0,wc_13,,0.0,,,,381.0,,,,Pass,,,,,
503.0,13.0,wc_13,wc_5,0.0,"[('wc_5', 0.21000000000000008), ('wc_13', 0.18000000000000005)]",0.35220000000000007,,,29.0,0.004097,['Fail'],Pass,0.21000000000000008,-0.14750000000000008,0.0,0.0,0.1
503.0,13.0,wc_13,,0.0,,,,101.0,,,,Pass,,,,,
503.0,13.0,wc_13,wc_8,0.0,"[('wc_8', 0.6700000000000005)]",0.6700000000000005,,,27.0,0.00821,['Pass'],Pass,0.6700000000000005,-0.5033333333333339,0.0,0.0,0.6
503.0,13.0,wc_13,,0.0,,,,203.0,,,,Pass,,,,,
503.0,13.0,wc_13,wc_16,0.0,"[('wc_8', 0.6700000000000005)]",0.6700000000000005,,,36.0,0.007619000000000001,['Pass'],Pass,0.3300000000000002,-0.044285714285714484,2.0,7.0,0.1
503.0,13.0,wc_13,,0.0,,,,203.0,,,,Pass,,,,,
503.0,13.0,wc_13,wc_6,0.0,"[('wc_6', 0.43000000000000027), ('wc_13', 0.18000000000000005), ('wc_5', 0.21000000000000008), ('wc_16', 0.3300000000000002)]",0.7526051800000002,,,23.0,0.010865999999999999,['Fail'],Pass,0.43000000000000027,-0.18000000000000027,1.0,4.0,0.3
503.0,13.0,wc_13,,0.0,,,,0.0,,,,Pass,,,,,
503.0,13.0,wc_13,wc_11,0.0,"[('wc_11', 0.12000000000000001), ('wc_13', 0.18000000000000005), ('wc_5', 0.21000000000000008), ('wc_16', 0.3300000000000002), ('wc_6', 0.43000000000000027)]",0.7822925584000002,,,23.0,0.014813,['Fail'],Pass,0.12000000000000001,0.5466666666666666,2.0,3.0,0.1
503.0,13.0,wc_13,,0.0,,,,162.0,,,,Pass,,,,,
503.0,13.0,wc_13,wc_17,0.0,"[('wc_17', 0.7100000000000005), ('wc_8', 0.6700000000000005)]",0.9043000000000003,,,40.0,0.015528999999999998,['Pass'],Pass,0.7100000000000005,-0.4877777777777783,2.0,9.0,0.7
503.0,13.0,wc_13,,0.0,,,,203.0,,,,Pass,,,,,
503.0,13.0,wc_13,wc_7,1.0,"[('wc_7', 0.7800000000000006), ('wc_8', 0.6700000000000005), ('wc_17', 0.7100000000000005)]",0.9789460000000001,,,39.0,0.048869,['Pass'],Pass,0.7800000000000006,-0.4942857142857149,2.0,7.0,0.9
511.0,16.0,wc_16,,0.0,,,,223.0,,,,Pass,,,,,
511.0,16.0,wc_16,,0.0,,,52.0,,,,,Pass,,,,,
511.0,16.0,wc_16,,0.0,,,,0.0,,,,Pass,,,,,
511.0,16.0,wc_16,wc_16,0.0,"[('wc_16', 0.3200000000000002)]",0.3200000000000002,,,33.0,0.003576,['Pass'],Pass,0.3200000000000002,-0.07000000000000017,2.0,8.0,0.1
511.0,16.0,wc_16,,0.0,,,,81.0,,,,Pass,,,,,
511.0,16.0,wc_16,wc_14,0.0,"[('wc_14', 0.8400000000000006), ('wc_16', 0.3200000000000002)]",0.8912000000000004,,,39.0,0.0043029999999999995,['Pass'],Pass,0.8400000000000006,-0.34000000000000064,1.0,2.0,1.0
511.0,16.0,wc_16,,0.0,,,,341.0,,,,Pass,,,,,
511.0,16.0,wc_16,wc_4,1.0,"[('wc_4', 0.4600000000000003), ('wc_16', 0.3200000000000002), ('wc_14', 0.8400000000000006)]",0.9412480000000003,,,24.0,0.047621000000000004,['Pass'],Pass,0.4600000000000003,-0.3350000000000003,1.0,8.0,0.4
519.0,15.0,wc_15,,0.0,,,,182.0,,,,Pass,,,,,
519.0,15.0,wc_15,,0.0,,,55.0,,,,,Pass,,,,,
519.0,15.0,wc_15,,0.0,,,,0.0,,,,Pass,,,,,
519.0,15.0,wc_15,wc_15,0.0,"[('wc_15', 0.4700000000000003)]",0.4700000000000003,,,21.0,0.001935,['Fail'],Pass,0.4700000000000003,-0.136666666666667,2.0,6.0,0.4
519.0,15.0,wc_15,,0.0,,,,402.0,,,,Pass,,,,,
519.0,15.0,wc_15,wc_3,0.0,"[('wc_3', 0.6100000000000004), ('wc_15', 0.4700000000000003)]",0.7933000000000003,,,36.0,0.004915,['Fail'],Pass,0.6100000000000004,-0.36000000000000043,0.0,0.0,0.6
519.0,15.0,wc_15,,0.0,,,,81.0,,,,Pass,,,,,
519.0,15.0,wc_15,wc_1,0.0,"[('wc_1', 0.30000000000000016), ('wc_15', 0.4700000000000003), ('wc_3', 0.6100000000000004)]",0.8553100000000002,,,36.0,0.006321,['Fail'],Pass,0.30000000000000016,-0.30000000000000016,0.0,4.0,0.1
519.0,15.0,wc_15,,0.0,,,,202.0,,,,Pass,,,,,
519.0,15.0,wc_15,wc_13,0.0,"[('wc_13', 0.18000000000000005), ('wc_15', 0.4700000000000003), ('wc_3', 0.6100000000000004), ('wc_1', 0.30000000000000016)]",0.8813542000000002,,,33.0,0.009484,['Fail'],Pass,0.18000000000000005,0.04222222222222216,2.0,9.0,0.1
519.0,15.0,wc_15,,0.0,,,,321.0,,,,Pass,,,,,
519.0,15.0,wc_15,wc_10,0.0,"[('wc_15', 0.4700000000000003), ('wc_3', 0.6100000000000004), ('wc_1', 0.30000000000000016), ('wc_13', 0.18000000000000005)]",0.8813542000000002,,,33.0,0.012683999999999999,['Fail'],Pass,0.7600000000000006,-0.48727272727272786,0.0,0.0,1.0
519.0,15.0,wc_15,,0.0,,,,362.0,,,,Pass,,,,,
519.0,15.0,wc_15,wc_4,0.0,"[('wc_15', 0.4700000000000003), ('wc_3', 0.6100000000000004), ('wc_1', 0.30000000000000016), ('wc_13', 0.18000000000000005)]",0.8813542000000002,,,34.0,0.012120000000000002,['Fail'],Pass,0.4600000000000003,-0.3350000000000003,1.0,8.0,0.4
519.0,15.0,wc_15,,0.0,,,,0.0,,,,Pass,,,,,
519.0,15.0,wc_15,wc_5,0.0,"[('wc_5', 0.20000000000000007), ('wc_10', 0.7600000000000006), ('wc_4', 0.4600000000000003)]",0.8963200000000003,,,27.0,0.014516999999999999,['Pass'],Pass,0.20000000000000007,-0.20000000000000007,0.0,2.0,0.1
519.0,15.0,wc_15,,0.0,,,,81.0,,,,Pass,,,,,
519.0,15.0,wc_15,wc_7,1.0,"[('wc_7', 0.7800000000000006), ('wc_10', 0.7600000000000006), ('wc_4', 0.4600000000000003), ('wc_5', 0.20000000000000007)]",0.9771904000000001,,,28.0,0.050017000000000006,['Pass'],Pass,0.7800000000000006,-0.44666666666666727,3.0,9.0,0.9
538.0,14.0,wc_14,,0.0,,,,182.0,,,,Pass,,,,,
538.0,14.0,wc_14,,0.0,,,79.0,,,,,Pass,,,,,
538.0,14.0,wc_14,,0.0,,,,0.0,,,,Pass,,,,,
538.0,14.0,wc_14,wc_14,0.0,"[('wc_14', 0.8400000000000006)]",0.8400000000000006,,,29.0,0.002183,['Pass'],Pass,0.8400000000000006,-0.34000000000000064,2.0,4.0,1.0
538.0,14.0,wc_14,,0.0,,,,0.0,,,,Pass,,,,,
538.0,14.0,wc_14,wc_17,0.0,"[('wc_17', 0.7100000000000005), ('wc_14', 0.8400000000000006)]",0.9536000000000002,,,33.0,0.005254999999999999,['Pass'],Pass,0.7100000000000005,-0.7100000000000005,0.0,2.0,0.7
538.0,14.0,wc_14,,0.0,,,,83.0,,,,Pass,,,,,
538.0,14.0,wc_14,wc_15,0.0,"[('wc_14', 0.8400000000000006), ('wc_17', 0.7100000000000005)]",0.9536000000000002,,,24.0,0.005985,['Pass'],Pass,0.4600000000000003,-0.1742857142857146,2.0,7.0,0.4
538.0,14.0,wc_14,,0.0,,,,402.0,,,,Pass,,,,,
538.0,14.0,wc_14,wc_3,1.0,"[('wc_3', 0.6000000000000004), ('wc_14', 0.8400000000000006), ('wc_17', 0.7100000000000005)]",0.9814400000000001,,,20.0,0.04341,['Pass'],Pass,0.6000000000000004,-0.10000000000000042,1.0,2.0,0.6
548.0,17.0,wc_17,,0.0,,,,242.0,,,,Pass,,,,,
548.0,17.0,wc_17,,0.0,,,77.0,,,,,Pass,,,,,
548.0,17.0,wc_17,,0.0,,,,0.0,,,,Pass,,,,,
548.0,17.0,wc_17,wc_17,0.0,"[('wc_17', 0.7100000000000005)]",0.7100000000000005,,,22.0,0.002403,['Pass'],Pass,0.7100000000000005,-0.3766666666666672,1.0,3.0,0.7
548.0,17.0,wc_17,,0.0,,,,21.0,,,,Pass,,,,,
548.0,17.0,wc_17,wc_12,0.0,"[('wc_17', 0.7100000000000005)]",0.7100000000000005,,,27.0,0.004194,['Pass'],Pass,0.3200000000000002,-0.3200000000000002,0.0,5.0,0.1
548.0,17.0,wc_17,,0.0,,,,0.0,,,,Pass,,,,,
548.0,17.0,wc_17,wc_15,0.0,"[('wc_15', 0.4500000000000003), ('wc_17', 0.7100000000000005)]",0.8405000000000004,,,39.0,0.006046,['Pass'],Pass,0.4500000000000003,-0.2000000000000003,2.0,8.0,0.4
548.0,17.0,wc_17,,0.0,,,,303.0,,,,Pass,,,,,
548.0,17.0,wc_17,wc_2,0.0,"[('wc_2', 0.7700000000000006), ('wc_12', 0.3200000000000002)]",0.8436000000000005,,,24.0,0.009108999999999999,['Fail'],Pass,0.7700000000000006,-0.43666666666666726,2.0,6.0,0.9
548.0,17.0,wc_17,,0.0,,,,223.0,,,,Pass,,,,,
548.0,17.0,wc_17,wc_11,0.0,"[('wc_11', 0.12000000000000001), ('wc_12', 0.3200000000000002), ('wc_2', 0.7700000000000006)]",0.8623680000000004,,,21.0,0.009496999999999998,['Fail'],Pass,0.12000000000000001,0.1657142857142857,2.0,7.0,0.1
548.0,17.0,wc_17,,0.0,,,,41.0,,,,Pass,,,,,
548.0,17.0,wc_17,wc_7,1.0,"[('wc_7', 0.7800000000000006), ('wc_17', 0.7100000000000005), ('wc_15', 0.4500000000000003)]",0.9649100000000002,,,34.0,0.04641199999999999,['Pass'],Pass,0.7800000000000006,-0.7800000000000006,0.0,0.0,0.9
