mpecck/BCQC/bcqc_with_qdt/results/raw/input_20/independent_qc/training/20_workpiece/20200429_095732/wp_17_qc_majority_0.9.csv
production_index,step_idx,production_workcell,qc,consent,winner_qc_list,score,production_time,transport_time,inspection_time,network_time,qc_results,actual_quality,qc_score,score_error,in_winner_counter,in_qc_counter,qc_capability
80.0,1.0,wc_1,,0.0,,,74.0,,,,,Pass,,,,,
80.0,1.0,wc_1,,0.0,,,,0.0,,,,Pass,,,,,
80.0,1.0,wc_1,wc_1,0.0,"[('wc_1', 0.28000000000000014)]",0.28000000000000014,,,38.0,0.004555,['Fail'],Pass,0.28000000000000014,-0.28000000000000014,0.0,9.0,0.1
80.0,1.0,wc_1,,0.0,,,,142.0,,,,Pass,,,,,
80.0,1.0,wc_1,wc_6,0.0,"[('wc_6', 0.43000000000000027)]",0.43000000000000027,,,34.0,0.009332,['Pass'],Pass,0.43000000000000027,-0.09666666666666696,2.0,6.0,0.3
80.0,1.0,wc_1,,0.0,,,,243.0,,,,Pass,,,,,
80.0,1.0,wc_1,wc_16,0.0,"[('wc_16', 0.42000000000000026), ('wc_6', 0.43000000000000027)]",0.6694000000000003,,,37.0,0.019888999999999997,['Pass'],Pass,0.42000000000000026,-0.08666666666666695,2.0,6.0,0.1
80.0,1.0,wc_1,,0.0,,,,422.0,,,,Pass,,,,,
80.0,1.0,wc_1,wc_5,0.0,"[('wc_5', 0.29000000000000015), ('wc_6', 0.43000000000000027), ('wc_16', 0.42000000000000026)]",0.7652740000000002,,,36.0,0.010017,['Pass'],Pass,0.29000000000000015,0.04333333333333317,3.0,9.0,0.1
80.0,1.0,wc_1,,0.0,,,,141.0,,,,Pass,,,,,
80.0,1.0,wc_1,wc_14,1.0,"[('wc_14', 0.8900000000000007), ('wc_6', 0.43000000000000027), ('wc_16', 0.42000000000000026), ('wc_5', 0.29000000000000015)]",0.9741801400000002,,,34.0,0.038841,['Pass'],Pass,0.8900000000000007,-0.14000000000000068,3.0,4.0,1.0
93.0,2.0,wc_2,,0.0,,,,222.0,,,,Pass,,,,,
93.0,2.0,wc_2,,0.0,,,58.0,,,,,Pass,,,,,
93.0,2.0,wc_2,,0.0,,,,0.0,,,,Pass,,,,,
93.0,2.0,wc_2,wc_2,0.0,"[('wc_2', 0.8400000000000006)]",0.8400000000000006,,,40.0,0.00225,['Pass'],Pass,0.8400000000000006,-0.5900000000000006,1.0,4.0,0.9
93.0,2.0,wc_2,,0.0,,,,0.0,,,,Pass,,,,,
93.0,2.0,wc_2,wc_4,0.0,"[('wc_4', 0.5300000000000004), ('wc_2', 0.8400000000000006)]",0.9248000000000004,,,26.0,0.004125,['Pass'],Pass,0.5300000000000004,-0.4300000000000004,0.0,0.0,0.4
93.0,2.0,wc_2,,0.0,,,,121.0,,,,Pass,,,,,
93.0,2.0,wc_2,wc_12,0.0,"[('wc_2', 0.8400000000000006), ('wc_4', 0.5300000000000004)]",0.9248000000000004,,,39.0,0.0058709999999999995,['Pass'],Pass,0.28000000000000014,-0.18909090909090923,0.0,0.0,0.1
93.0,2.0,wc_2,,0.0,,,,0.0,,,,Pass,,,,,
93.0,2.0,wc_2,wc_14,1.0,"[('wc_14', 0.8900000000000007), ('wc_2', 0.8400000000000006), ('wc_4', 0.5300000000000004)]",0.991728,,,33.0,0.038796000000000004,['Pass'],Pass,0.8900000000000007,-0.09000000000000064,4.0,5.0,1.0
119.0,3.0,wc_3,,0.0,,,,321.0,,,,Fail,,,,,
119.0,3.0,wc_3,,0.0,,,77.0,,,,,Fail,,,,,
119.0,3.0,wc_3,,0.0,,,,0.0,,,,Fail,,,,,
119.0,3.0,wc_3,wc_3,0.0,"[('wc_3', 0.5900000000000004)]",0.5900000000000004,,,36.0,0.002407,['Fail'],Fail,0.5900000000000004,-0.5900000000000004,0.0,5.0,0.6
119.0,3.0,wc_3,,0.0,,,,202.0,,,,Fail,,,,,
119.0,3.0,wc_3,wc_11,0.0,"[('wc_11', 0.14), ('wc_3', 0.5900000000000004)]",0.6474000000000004,,,24.0,0.005553000000000001,['Fail'],Fail,0.14,-0.06857142857142859,0.0,0.0,0.1
119.0,3.0,wc_3,,0.0,,,,342.0,,,,Fail,,,,,
119.0,3.0,wc_3,wc_4,0.0,"[('wc_3', 0.5900000000000004), ('wc_11', 0.14)]",0.6474000000000004,,,39.0,0.005834,['Fail'],Fail,0.5400000000000004,0.45999999999999963,1.0,1.0,0.4
119.0,3.0,wc_3,,0.0,,,,81.0,,,,Fail,,,,,
119.0,3.0,wc_3,wc_2,1.0,"[('wc_2', 0.8400000000000006), ('wc_3', 0.5900000000000004), ('wc_11', 0.14)]",0.9435840000000003,,,20.0,0.041828000000000004,['Fail'],Fail,0.8400000000000006,-0.34000000000000064,3.0,6.0,0.9
149.0,3.0,wc_3,,0.0,,,,0.0,,,,Pass,,,,,
149.0,3.0,wc_3,,0.0,,,75.0,,,,,Pass,,,,,
149.0,3.0,wc_3,,0.0,,,,0.0,,,,Pass,,,,,
149.0,3.0,wc_3,wc_3,0.0,"[('wc_3', 0.5900000000000004)]",0.5900000000000004,,,36.0,0.00218,['Fail'],Pass,0.5900000000000004,-0.4233333333333338,1.0,6.0,0.6
149.0,3.0,wc_3,,0.0,,,,182.0,,,,Pass,,,,,
149.0,3.0,wc_3,wc_10,0.0,"[('wc_10', 0.8000000000000006)]",0.8000000000000006,,,34.0,0.004163,['Pass'],Pass,0.8000000000000006,-0.8000000000000006,0.0,0.0,1.0
149.0,3.0,wc_3,,0.0,,,,142.0,,,,Pass,,,,,
149.0,3.0,wc_3,wc_15,0.0,"[('wc_15', 0.5400000000000004), ('wc_3', 0.5900000000000004)]",0.8114000000000003,,,20.0,0.012244,['Fail'],Pass,0.5400000000000004,-0.29000000000000037,2.0,8.0,0.4
149.0,3.0,wc_3,,0.0,,,,243.0,,,,Pass,,,,,
149.0,3.0,wc_3,wc_7,0.0,"[('wc_7', 0.9400000000000007), ('wc_10', 0.8000000000000006)]",0.9880000000000002,,,32.0,0.007334,['Pass'],Pass,0.9400000000000007,-0.6066666666666674,0.0,0.0,0.9
149.0,3.0,wc_3,,0.0,,,,142.0,,,,Pass,,,,,
149.0,3.0,wc_3,wc_12,0.0,"[('wc_10', 0.8000000000000006), ('wc_7', 0.9400000000000007)]",0.9880000000000002,,,21.0,0.015132999999999999,['Pass'],Pass,0.27000000000000013,-0.27000000000000013,0.0,2.0,0.1
149.0,3.0,wc_3,,0.0,,,,381.0,,,,Pass,,,,,
149.0,3.0,wc_3,wc_4,0.0,"[('wc_10', 0.8000000000000006), ('wc_7', 0.9400000000000007)]",0.9880000000000002,,,40.0,0.014537999999999999,['Pass'],Pass,0.5300000000000004,-0.03000000000000036,1.0,2.0,0.4
149.0,3.0,wc_3,,0.0,,,,81.0,,,,Pass,,,,,
149.0,3.0,wc_3,wc_2,1.0,"[('wc_2', 0.8400000000000006), ('wc_10', 0.8000000000000006), ('wc_7', 0.9400000000000007)]",0.9980800000000001,,,30.0,0.040867,['Pass'],Pass,0.8400000000000006,-0.26857142857142924,4.0,7.0,0.9
197.0,4.0,wc_4,,0.0,,,,0.0,,,,Pass,,,,,
197.0,4.0,wc_4,,0.0,,,51.0,,,,,Pass,,,,,
197.0,4.0,wc_4,,0.0,,,,0.0,,,,Pass,,,,,
197.0,4.0,wc_4,wc_4,0.0,"[('wc_4', 0.5200000000000004)]",0.5200000000000004,,,37.0,0.002559,['Pass'],Pass,0.5200000000000004,-0.18666666666666704,1.0,3.0,0.4
197.0,4.0,wc_4,,0.0,,,,103.0,,,,Pass,,,,,
197.0,4.0,wc_4,wc_3,0.0,"[('wc_3', 0.5800000000000004)]",0.5800000000000004,,,35.0,0.004003,['Fail'],Pass,0.5800000000000004,-0.43714285714285755,1.0,7.0,0.6
197.0,4.0,wc_4,,0.0,,,,0.0,,,,Pass,,,,,
197.0,4.0,wc_4,wc_5,0.0,"[('wc_5', 0.30000000000000016), ('wc_3', 0.5800000000000004)]",0.7060000000000004,,,28.0,0.006364,['Fail'],Pass,0.30000000000000016,-0.30000000000000016,0.0,3.0,0.1
197.0,4.0,wc_4,,0.0,,,,162.0,,,,Pass,,,,,
197.0,4.0,wc_4,wc_15,0.0,"[('wc_15', 0.5300000000000004), ('wc_4', 0.5200000000000004)]",0.7744000000000003,,,34.0,0.008056,['Pass'],Pass,0.5300000000000004,-0.30777777777777815,2.0,9.0,0.4
197.0,4.0,wc_4,,0.0,,,,101.0,,,,Pass,,,,,
197.0,4.0,wc_4,wc_14,1.0,"[('wc_14', 0.8900000000000007), ('wc_4', 0.5200000000000004), ('wc_15', 0.5300000000000004)]",0.9751840000000002,,,35.0,0.044708,['Pass'],Pass,0.8900000000000007,-0.2650000000000007,5.0,8.0,1.0
205.0,5.0,wc_5,,0.0,,,,361.0,,,,Pass,,,,,
205.0,5.0,wc_5,,0.0,,,64.0,,,,,Pass,,,,,
205.0,5.0,wc_5,,0.0,,,,0.0,,,,Pass,,,,,
205.0,5.0,wc_5,wc_5,0.0,"[('wc_5', 0.29000000000000015)]",0.29000000000000015,,,29.0,0.002333,['Fail'],Pass,0.29000000000000015,-0.29000000000000015,0.0,4.0,0.1
205.0,5.0,wc_5,,0.0,,,,162.0,,,,Pass,,,,,
205.0,5.0,wc_5,wc_15,0.0,"[('wc_15', 0.5300000000000004), ('wc_5', 0.29000000000000015)]",0.6663000000000003,,,24.0,0.005568999999999999,['Fail'],Pass,0.5300000000000004,-0.5300000000000004,0.0,0.0,0.4
205.0,5.0,wc_5,,0.0,,,,362.0,,,,Pass,,,,,
205.0,5.0,wc_5,wc_9,0.0,"[('wc_9', 0.7000000000000005), ('wc_5', 0.29000000000000015), ('wc_15', 0.5300000000000004)]",0.8998900000000003,,,22.0,0.005807,['Fail'],Pass,0.7000000000000005,-0.5333333333333339,0.0,0.0,0.7
205.0,5.0,wc_5,,0.0,,,,101.0,,,,Pass,,,,,
205.0,5.0,wc_5,wc_12,0.0,"[('wc_5', 0.29000000000000015), ('wc_15', 0.5300000000000004), ('wc_9', 0.7000000000000005)]",0.8998900000000003,,,26.0,0.0095,['Fail'],Pass,0.2600000000000001,-0.2600000000000001,0.0,4.0,0.1
205.0,5.0,wc_5,,0.0,,,,341.0,,,,Pass,,,,,
205.0,5.0,wc_5,wc_10,0.0,"[('wc_5', 0.29000000000000015), ('wc_15', 0.5300000000000004), ('wc_9', 0.7000000000000005)]",0.8998900000000003,,,23.0,0.008973,['Fail'],Pass,0.8100000000000006,-0.3100000000000006,1.0,2.0,1.0
205.0,5.0,wc_5,,0.0,,,,182.0,,,,Pass,,,,,
205.0,5.0,wc_5,wc_17,1.0,"[('wc_17', 0.8100000000000006), ('wc_12', 0.2600000000000001), ('wc_10', 0.8100000000000006)]",0.9732860000000002,,,32.0,0.04027900000000001,['Pass'],Pass,0.8100000000000006,-0.5242857142857149,2.0,7.0,0.7
225.0,6.0,wc_6,,0.0,,,,183.0,,,,Fail,,,,,
225.0,6.0,wc_6,,0.0,,,63.0,,,,,Fail,,,,,
225.0,6.0,wc_6,,0.0,,,,0.0,,,,Fail,,,,,
225.0,6.0,wc_6,wc_6,0.0,"[('wc_6', 0.43000000000000027)]",0.43000000000000027,,,30.0,0.008401,['Fail'],Fail,0.43000000000000027,-0.18000000000000027,0.0,0.0,0.3
225.0,6.0,wc_6,,0.0,,,,162.0,,,,Fail,,,,,
225.0,6.0,wc_6,wc_12,0.0,"[('wc_6', 0.43000000000000027)]",0.43000000000000027,,,21.0,0.004087,['Fail'],Fail,0.2600000000000001,-0.06000000000000011,1.0,5.0,0.1
225.0,6.0,wc_6,,0.0,,,,202.0,,,,Fail,,,,,
225.0,6.0,wc_6,wc_7,0.0,"[('wc_7', 0.9500000000000007), ('wc_6', 0.43000000000000027)]",0.9715000000000005,,,26.0,0.006303,['Fail'],Fail,0.9500000000000007,-0.6166666666666674,1.0,3.0,0.9
225.0,6.0,wc_6,,0.0,,,,202.0,,,,Fail,,,,,
225.0,6.0,wc_6,wc_2,1.0,"[('wc_2', 0.8400000000000006), ('wc_6', 0.43000000000000027), ('wc_7', 0.9500000000000007)]",0.9954400000000001,,,28.0,0.039931,['Fail'],Fail,0.8400000000000006,-0.8400000000000006,0.0,0.0,0.9
236.0,6.0,wc_6,,0.0,,,,122.0,,,,Fail,,,,,
236.0,6.0,wc_6,,0.0,,,57.0,,,,,Fail,,,,,
236.0,6.0,wc_6,,0.0,,,,0.0,,,,Fail,,,,,
236.0,6.0,wc_6,wc_6,0.0,"[('wc_6', 0.4400000000000003)]",0.4400000000000003,,,22.0,0.003131,['Fail'],Fail,0.4400000000000003,0.5599999999999997,1.0,1.0,0.3
236.0,6.0,wc_6,,0.0,,,,202.0,,,,Fail,,,,,
236.0,6.0,wc_6,wc_14,0.0,"[('wc_14', 0.8900000000000007), ('wc_6', 0.4400000000000003)]",0.9384000000000005,,,33.0,0.0041270000000000005,['Fail'],Fail,0.8900000000000007,-0.3900000000000007,0.0,0.0,1.0
236.0,6.0,wc_6,,0.0,,,,102.0,,,,Fail,,,,,
236.0,6.0,wc_6,wc_13,0.0,"[('wc_6', 0.4400000000000003), ('wc_14', 0.8900000000000007)]",0.9384000000000005,,,39.0,0.008934000000000001,['Fail'],Fail,0.12000000000000001,-0.12000000000000001,0.0,0.0,0.1
236.0,6.0,wc_6,,0.0,,,,341.0,,,,Fail,,,,,
236.0,6.0,wc_6,wc_3,1.0,"[('wc_3', 0.5700000000000004), ('wc_6', 0.4400000000000003), ('wc_14', 0.8900000000000007)]",0.9735120000000002,,,21.0,0.037454,['Fail'],Fail,0.5700000000000004,-0.5700000000000004,0.0,0.0,0.6
265.0,6.0,wc_6,,0.0,,,,101.0,,,,Fail,,,,,
265.0,6.0,wc_6,,0.0,,,58.0,,,,,Fail,,,,,
265.0,6.0,wc_6,,0.0,,,,0.0,,,,Fail,,,,,
265.0,6.0,wc_6,wc_6,0.0,"[('wc_6', 0.4500000000000003)]",0.4500000000000003,,,37.0,0.003309,['Pass'],Fail,0.4500000000000003,0.5499999999999997,2.0,2.0,0.3
265.0,6.0,wc_6,,0.0,,,,223.0,,,,Fail,,,,,
265.0,6.0,wc_6,wc_15,0.0,"[('wc_15', 0.5200000000000004)]",0.5200000000000004,,,25.0,0.007561,['Fail'],Fail,0.5200000000000004,-0.5200000000000004,0.0,3.0,0.4
265.0,6.0,wc_6,,0.0,,,,402.0,,,,Fail,,,,,
265.0,6.0,wc_6,wc_11,0.0,"[('wc_11', 0.15000000000000002), ('wc_15', 0.5200000000000004)]",0.5920000000000003,,,36.0,0.005917,['Fail'],Fail,0.15000000000000002,0.016666666666666635,1.0,6.0,0.1
265.0,6.0,wc_6,,0.0,,,,103.0,,,,Fail,,,,,
265.0,6.0,wc_6,wc_10,1.0,"[('wc_10', 0.8100000000000006), ('wc_15', 0.5200000000000004), ('wc_11', 0.15000000000000002)]",0.9224800000000003,,,21.0,0.037078,['Fail'],Fail,0.8100000000000006,-0.3100000000000006,3.0,6.0,1.0
277.0,6.0,wc_6,,0.0,,,,41.0,,,,Pass,,,,,
277.0,6.0,wc_6,,0.0,,,67.0,,,,,Pass,,,,,
277.0,6.0,wc_6,,0.0,,,,0.0,,,,Pass,,,,,
277.0,6.0,wc_6,wc_6,0.0,"[('wc_6', 0.4500000000000003)]",0.4500000000000003,,,26.0,0.003692,['Fail'],Pass,0.4500000000000003,0.21666666666666634,2.0,3.0,0.3
277.0,6.0,wc_6,,0.0,,,,202.0,,,,Pass,,,,,
277.0,6.0,wc_6,wc_14,0.0,"[('wc_14', 0.9000000000000007)]",0.9000000000000007,,,34.0,0.015244,['Pass'],Pass,0.9000000000000007,-0.4000000000000007,1.0,2.0,1.0
277.0,6.0,wc_6,,0.0,,,,222.0,,,,Pass,,,,,
277.0,6.0,wc_6,wc_2,0.0,"[('wc_2', 0.8400000000000006), ('wc_14', 0.9000000000000007)]",0.9840000000000002,,,30.0,0.005677,['Pass'],Pass,0.8400000000000006,-0.8400000000000006,0.0,2.0,0.9
277.0,6.0,wc_6,,0.0,,,,102.0,,,,Pass,,,,,
277.0,6.0,wc_6,wc_1,0.0,"[('wc_14', 0.9000000000000007), ('wc_2', 0.8400000000000006)]",0.9840000000000002,,,27.0,0.007965,['Pass'],Pass,0.27000000000000013,-0.27000000000000013,0.0,8.0,0.1
277.0,6.0,wc_6,,0.0,,,,283.0,,,,Pass,,,,,
277.0,6.0,wc_6,wc_17,1.0,"[('wc_17', 0.8100000000000006), ('wc_14', 0.9000000000000007), ('wc_2', 0.8400000000000006)]",0.9969600000000001,,,35.0,0.053241,['Pass'],Pass,0.8100000000000006,-0.8100000000000006,0.0,0.0,0.7
291.0,11.0,wc_11,,0.0,,,,362.0,,,,Fail,,,,,
291.0,11.0,wc_11,,0.0,,,75.0,,,,,Fail,,,,,
291.0,11.0,wc_11,,0.0,,,,0.0,,,,Fail,,,,,
291.0,11.0,wc_11,wc_11,0.0,"[('wc_11', 0.16000000000000003)]",0.16000000000000003,,,31.0,0.003118,['Pass'],Fail,0.16000000000000003,0.08999999999999997,2.0,8.0,0.1
291.0,11.0,wc_11,,0.0,,,,162.0,,,,Fail,,,,,
291.0,11.0,wc_11,wc_17,0.0,"[('wc_17', 0.8100000000000006)]",0.8100000000000006,,,38.0,0.016013,['Fail'],Fail,0.8100000000000006,-0.8100000000000006,0.0,0.0,0.7
291.0,11.0,wc_11,,0.0,,,,41.0,,,,Fail,,,,,
291.0,11.0,wc_11,wc_13,0.0,"[('wc_13', 0.11000000000000001), ('wc_17', 0.8100000000000006)]",0.8309000000000005,,,36.0,0.012341999999999999,['Fail'],Fail,0.11000000000000001,-0.11000000000000001,0.0,3.0,0.1
291.0,11.0,wc_11,,0.0,,,,102.0,,,,Fail,,,,,
291.0,11.0,wc_11,wc_12,0.0,"[('wc_12', 0.2500000000000001), ('wc_17', 0.8100000000000006), ('wc_13', 0.11000000000000001)]",0.8731750000000005,,,21.0,0.024524,['Fail'],Fail,0.2500000000000001,-0.138888888888889,1.0,9.0,0.1
291.0,11.0,wc_11,,0.0,,,,321.0,,,,Fail,,,,,
291.0,11.0,wc_11,wc_9,1.0,"[('wc_9', 0.6900000000000005), ('wc_17', 0.8100000000000006), ('wc_13', 0.11000000000000001), ('wc_12', 0.2500000000000001)]",0.9606842500000002,,,29.0,0.040898000000000004,['Fail'],Fail,0.6900000000000005,-0.5233333333333339,1.0,6.0,0.7
301.0,10.0,wc_10,,0.0,,,,0.0,,,,Fail,,,,,
301.0,10.0,wc_10,,0.0,,,53.0,,,,,Fail,,,,,
301.0,10.0,wc_10,,0.0,,,,0.0,,,,Fail,,,,,
301.0,10.0,wc_10,wc_10,0.0,"[('wc_10', 0.8100000000000006)]",0.8100000000000006,,,24.0,0.002301,['Fail'],Fail,0.8100000000000006,-0.4350000000000006,3.0,8.0,1.0
301.0,10.0,wc_10,,0.0,,,,382.0,,,,Fail,,,,,
301.0,10.0,wc_10,wc_5,0.0,"[('wc_5', 0.28000000000000014), ('wc_10', 0.8100000000000006)]",0.8632000000000004,,,28.0,0.004909,['Fail'],Fail,0.28000000000000014,-0.28000000000000014,0.0,0.0,0.1
301.0,10.0,wc_10,,0.0,,,,202.0,,,,Fail,,,,,
301.0,10.0,wc_10,wc_17,1.0,"[('wc_17', 0.8200000000000006), ('wc_10', 0.8100000000000006), ('wc_5', 0.28000000000000014)]",0.9753760000000001,,,37.0,0.039854999999999995,['Fail'],Fail,0.8300000000000006,0.16999999999999937,2.0,2.0,0.7
311.0,10.0,wc_10,,0.0,,,,342.0,,,,Pass,,,,,
311.0,10.0,wc_10,,0.0,,,63.0,,,,,Pass,,,,,
311.0,10.0,wc_10,,0.0,,,,0.0,,,,Pass,,,,,
311.0,10.0,wc_10,wc_10,0.0,"[('wc_10', 0.8100000000000006)]",0.8100000000000006,,,30.0,0.002191,['Pass'],Pass,0.8100000000000006,-0.3655555555555562,4.0,9.0,1.0
311.0,10.0,wc_10,,0.0,,,,101.0,,,,Pass,,,,,
311.0,10.0,wc_10,wc_13,0.0,"[('wc_10', 0.8100000000000006)]",0.8100000000000006,,,21.0,0.006508,['Pass'],Pass,0.12000000000000001,0.08,1.0,5.0,0.1
311.0,10.0,wc_10,,0.0,,,,341.0,,,,Pass,,,,,
311.0,10.0,wc_10,wc_3,0.0,"[('wc_10', 0.8100000000000006)]",0.8100000000000006,,,40.0,0.0061660000000000005,['Pass'],Pass,0.5700000000000004,-0.5700000000000004,0.0,4.0,0.6
311.0,10.0,wc_10,,0.0,,,,101.0,,,,Pass,,,,,
311.0,10.0,wc_10,wc_2,0.0,"[('wc_2', 0.8400000000000006), ('wc_10', 0.8100000000000006)]",0.9696000000000002,,,25.0,0.014972000000000003,['Pass'],Pass,0.8400000000000006,-0.6400000000000006,1.0,5.0,0.9
311.0,10.0,wc_10,,0.0,,,,223.0,,,,Pass,,,,,
311.0,10.0,wc_10,wc_15,1.0,"[('wc_15', 0.5200000000000004), ('wc_10', 0.8100000000000006), ('wc_2', 0.8400000000000006)]",0.9854080000000001,,,25.0,0.039517000000000004,['Pass'],Pass,0.5200000000000004,-0.27000000000000035,2.0,8.0,0.4
324.0,9.0,wc_9,,0.0,,,,362.0,,,,Fail,,,,,
324.0,9.0,wc_9,,0.0,,,77.0,,,,,Fail,,,,,
324.0,9.0,wc_9,,0.0,,,,0.0,,,,Fail,,,,,
324.0,9.0,wc_9,wc_9,0.0,"[('wc_9', 0.6900000000000005)]",0.6900000000000005,,,28.0,0.00236,['Fail'],Fail,0.6900000000000005,-0.5650000000000005,1.0,8.0,0.7
324.0,9.0,wc_9,,0.0,,,,101.0,,,,Fail,,,,,
324.0,9.0,wc_9,wc_8,0.0,"[('wc_8', 0.7400000000000005), ('wc_9', 0.6900000000000005)]",0.9194000000000003,,,21.0,0.01093,['Fail'],Fail,0.7400000000000005,-0.6347368421052637,0.0,0.0,0.6
324.0,9.0,wc_9,,0.0,,,,321.0,,,,Fail,,,,,
324.0,9.0,wc_9,wc_5,0.0,"[('wc_9', 0.6900000000000005), ('wc_8', 0.7400000000000005)]",0.9194000000000003,,,32.0,0.006085,['Fail'],Fail,0.29000000000000015,0.20999999999999985,1.0,2.0,0.1
324.0,9.0,wc_9,,0.0,,,,162.0,,,,Fail,,,,,
324.0,9.0,wc_9,wc_15,1.0,"[('wc_15', 0.5200000000000004), ('wc_9', 0.6900000000000005), ('wc_8', 0.7400000000000005)]",0.9613120000000002,,,26.0,0.03912700000000001,['Fail'],Fail,0.5200000000000004,-0.18666666666666704,3.0,9.0,0.4
332.0,9.0,wc_9,,0.0,,,,362.0,,,,Pass,,,,,
332.0,9.0,wc_9,,0.0,,,51.0,,,,,Pass,,,,,
332.0,9.0,wc_9,,0.0,,,,0.0,,,,Pass,,,,,
332.0,9.0,wc_9,wc_9,0.0,"[('wc_9', 0.6900000000000005)]",0.6900000000000005,,,29.0,0.008575,['Pass'],Pass,0.6900000000000005,-0.4677777777777783,2.0,9.0,0.7
332.0,9.0,wc_9,,0.0,,,,362.0,,,,Pass,,,,,
332.0,9.0,wc_9,wc_3,0.0,"[('wc_3', 0.5600000000000004), ('wc_9', 0.6900000000000005)]",0.8636000000000004,,,26.0,0.004146,['Pass'],Pass,0.5600000000000004,-0.5600000000000004,0.0,6.0,0.6
332.0,9.0,wc_9,,0.0,,,,121.0,,,,Pass,,,,,
332.0,9.0,wc_9,wc_7,1.0,"[('wc_7', 0.9500000000000007), ('wc_9', 0.6900000000000005), ('wc_3', 0.5600000000000004)]",0.9931800000000001,,,27.0,0.036701,['Pass'],Pass,0.9500000000000007,-0.9500000000000007,0.0,0.0,0.9
348.0,8.0,wc_8,,0.0,,,,0.0,,,,Fail,,,,,
348.0,8.0,wc_8,,0.0,,,59.0,,,,,Fail,,,,,
348.0,8.0,wc_8,,0.0,,,,0.0,,,,Fail,,,,,
348.0,8.0,wc_8,wc_8,0.0,"[('wc_8', 0.7500000000000006)]",0.7500000000000006,,,32.0,0.002363,['Fail'],Fail,0.7500000000000006,-0.25000000000000056,1.0,2.0,0.6
348.0,8.0,wc_8,,0.0,,,,281.0,,,,Fail,,,,,
348.0,8.0,wc_8,wc_3,0.0,"[('wc_3', 0.5600000000000004), ('wc_8', 0.7500000000000006)]",0.8900000000000003,,,23.0,0.010466,['Fail'],Fail,0.5600000000000004,-0.41714285714285754,1.0,7.0,0.6
348.0,8.0,wc_8,,0.0,,,,101.0,,,,Fail,,,,,
348.0,8.0,wc_8,wc_2,1.0,"[('wc_2', 0.8400000000000006), ('wc_8', 0.7500000000000006), ('wc_3', 0.5600000000000004)]",0.9824000000000002,,,40.0,0.038081,['Fail'],Fail,0.8400000000000006,-0.5066666666666673,3.0,9.0,0.9
363.0,8.0,wc_8,,0.0,,,,162.0,,,,Fail,,,,,
363.0,8.0,wc_8,,0.0,,,70.0,,,,,Fail,,,,,
363.0,8.0,wc_8,,0.0,,,,0.0,,,,Fail,,,,,
363.0,8.0,wc_8,wc_8,0.0,"[('wc_8', 0.7500000000000006)]",0.7500000000000006,,,27.0,0.002382,['Pass'],Fail,0.7500000000000006,-0.08333333333333393,2.0,3.0,0.6
363.0,8.0,wc_8,,0.0,,,,0.0,,,,Fail,,,,,
363.0,8.0,wc_8,wc_11,0.0,"[('wc_11', 0.16000000000000003), ('wc_8', 0.7500000000000006)]",0.7900000000000005,,,37.0,0.011153999999999999,['Pass'],Fail,0.16000000000000003,-0.017142857142857182,0.0,0.0,0.1
363.0,8.0,wc_8,,0.0,,,,101.0,,,,Fail,,,,,
363.0,8.0,wc_8,wc_14,0.0,"[('wc_14', 0.9000000000000007)]",0.9000000000000007,,,24.0,0.005855000000000001,['Fail'],Fail,0.9000000000000007,-0.6777777777777785,2.0,9.0,1.0
363.0,8.0,wc_8,,0.0,,,,0.0,,,,Fail,,,,,
363.0,8.0,wc_8,wc_15,0.0,"[('wc_15', 0.5200000000000004), ('wc_14', 0.9000000000000007)]",0.9520000000000004,,,36.0,0.014358,['Fail'],Fail,0.5200000000000004,-0.24727272727272764,0.0,0.0,0.4
363.0,8.0,wc_8,,0.0,,,,283.0,,,,Fail,,,,,
363.0,8.0,wc_8,wc_1,1.0,"[('wc_1', 0.2600000000000001), ('wc_14', 0.9000000000000007), ('wc_15', 0.5200000000000004)]",0.9644800000000002,,,29.0,0.041145999999999995,['Fail'],Fail,0.2600000000000001,-0.2600000000000001,0.0,0.0,0.1
371.0,8.0,wc_8,,0.0,,,,182.0,,,,Pass,,,,,
371.0,8.0,wc_8,,0.0,,,52.0,,,,,Pass,,,,,
371.0,8.0,wc_8,,0.0,,,,0.0,,,,Pass,,,,,
371.0,8.0,wc_8,wc_8,0.0,"[('wc_8', 0.7400000000000005)]",0.7400000000000005,,,39.0,0.003731,['Pass'],Pass,0.7400000000000005,-0.24000000000000055,2.0,4.0,0.6
371.0,8.0,wc_8,,0.0,,,,281.0,,,,Pass,,,,,
371.0,8.0,wc_8,wc_3,0.0,"[('wc_3', 0.5600000000000004), ('wc_8', 0.7400000000000005)]",0.8856000000000004,,,33.0,0.004514,['Pass'],Pass,0.5600000000000004,-0.3377777777777782,2.0,9.0,0.6
371.0,8.0,wc_8,,0.0,,,,161.0,,,,Pass,,,,,
371.0,8.0,wc_8,wc_13,0.0,"[('wc_8', 0.7400000000000005), ('wc_3', 0.5600000000000004)]",0.8856000000000004,,,36.0,0.012841,['Pass'],Pass,0.12000000000000001,-0.020000000000000004,0.0,0.0,0.1
371.0,8.0,wc_8,,0.0,,,,361.0,,,,Pass,,,,,
371.0,8.0,wc_8,wc_4,0.0,"[('wc_8', 0.7400000000000005), ('wc_3', 0.5600000000000004)]",0.8856000000000004,,,23.0,0.01053,['Pass'],Pass,0.5200000000000004,-0.39500000000000035,0.0,0.0,0.4
371.0,8.0,wc_8,,0.0,,,,0.0,,,,Pass,,,,,
371.0,8.0,wc_8,wc_5,0.0,"[('wc_8', 0.7400000000000005), ('wc_3', 0.5600000000000004)]",0.8856000000000004,,,21.0,0.011350999999999998,['Pass'],Pass,0.29000000000000015,-0.12333333333333349,1.0,6.0,0.1
371.0,8.0,wc_8,,0.0,,,,122.0,,,,Pass,,,,,
371.0,8.0,wc_8,wc_9,1.0,"[('wc_9', 0.6900000000000005), ('wc_8', 0.7400000000000005), ('wc_3', 0.5600000000000004)]",0.9645360000000002,,,33.0,0.04256499999999999,['Pass'],Pass,0.6900000000000005,-0.3566666666666672,1.0,3.0,0.7
390.0,11.0,wc_11,,0.0,,,,0.0,,,,Fail,,,,,
390.0,11.0,wc_11,,0.0,,,78.0,,,,,Fail,,,,,
390.0,11.0,wc_11,,0.0,,,,0.0,,,,Fail,,,,,
390.0,11.0,wc_11,wc_11,0.0,"[('wc_11', 0.15000000000000002)]",0.15000000000000002,,,20.0,0.002334,['Pass'],Fail,0.15000000000000002,-0.15000000000000002,0.0,2.0,0.1
390.0,11.0,wc_11,,0.0,,,,21.0,,,,Fail,,,,,
390.0,11.0,wc_11,wc_6,0.0,"[('wc_6', 0.4500000000000003), ('wc_11', 0.15000000000000002)]",0.5325000000000002,,,28.0,0.005497,['Pass'],Fail,0.4500000000000003,-0.28333333333333366,0.0,0.0,0.3
390.0,11.0,wc_11,,0.0,,,,202.0,,,,Fail,,,,,
390.0,11.0,wc_11,wc_14,0.0,"[('wc_14', 0.9000000000000007)]",0.9000000000000007,,,37.0,0.005906000000000001,['Fail'],Fail,0.9000000000000007,-0.9000000000000007,0.0,1.0,1.0
390.0,11.0,wc_11,,0.0,,,,222.0,,,,Fail,,,,,
390.0,11.0,wc_11,wc_2,0.0,"[('wc_2', 0.8400000000000006), ('wc_14', 0.9000000000000007)]",0.9840000000000002,,,27.0,0.007659,['Fail'],Fail,0.8400000000000006,-0.5672727272727279,0.0,0.0,0.9
390.0,11.0,wc_11,,0.0,,,,0.0,,,,Fail,,,,,
390.0,11.0,wc_11,wc_4,1.0,"[('wc_4', 0.5100000000000003), ('wc_14', 0.9000000000000007), ('wc_2', 0.8400000000000006)]",0.99216,,,36.0,0.054687,['Fail'],Fail,0.5100000000000003,-0.010000000000000342,1.0,2.0,0.4
404.0,7.0,wc_7,,0.0,,,,101.0,,,,Fail,,,,,
404.0,7.0,wc_7,,0.0,,,71.0,,,,,Fail,,,,,
404.0,7.0,wc_7,,0.0,,,,0.0,,,,Fail,,,,,
404.0,7.0,wc_7,wc_7,0.0,"[('wc_7', 0.9500000000000007)]",0.9500000000000007,,,36.0,0.002415,['Fail'],Fail,0.9500000000000007,-0.9500000000000007,0.0,4.0,0.9
404.0,7.0,wc_7,,0.0,,,,182.0,,,,Fail,,,,,
404.0,7.0,wc_7,wc_1,0.0,"[('wc_1', 0.2600000000000001), ('wc_7', 0.9500000000000007)]",0.9630000000000005,,,33.0,0.011757,['Fail'],Fail,0.2600000000000001,-0.2600000000000001,0.0,2.0,0.1
404.0,7.0,wc_7,,0.0,,,,283.0,,,,Fail,,,,,
404.0,7.0,wc_7,wc_17,1.0,"[('wc_17', 0.8300000000000006), ('wc_7', 0.9500000000000007), ('wc_1', 0.2600000000000001)]",0.9937100000000001,,,34.0,0.037277,['Fail'],Fail,0.8300000000000006,-0.8300000000000006,0.0,0.0,0.7
416.0,11.0,wc_11,,0.0,,,,362.0,,,,Pass,,,,,
416.0,11.0,wc_11,,0.0,,,64.0,,,,,Pass,,,,,
416.0,11.0,wc_11,,0.0,,,,0.0,,,,Pass,,,,,
416.0,11.0,wc_11,wc_11,0.0,"[('wc_11', 0.14)]",0.14,,,21.0,0.005154,['Fail'],Pass,0.14,-0.14,0.0,4.0,0.1
416.0,11.0,wc_11,,0.0,,,,103.0,,,,Pass,,,,,
416.0,11.0,wc_11,wc_10,0.0,"[('wc_10', 0.8100000000000006)]",0.8100000000000006,,,22.0,0.004011,['Pass'],Pass,0.8100000000000006,-0.8100000000000006,0.0,7.0,1.0
416.0,11.0,wc_11,,0.0,,,,103.0,,,,Pass,,,,,
416.0,11.0,wc_11,wc_9,0.0,"[('wc_9', 0.6900000000000005), ('wc_10', 0.8100000000000006)]",0.9411000000000003,,,35.0,0.0060810000000000005,['Pass'],Pass,0.6900000000000005,-0.4900000000000005,1.0,5.0,0.7
416.0,11.0,wc_11,,0.0,,,,162.0,,,,Pass,,,,,
416.0,11.0,wc_11,wc_15,0.0,"[('wc_10', 0.8100000000000006), ('wc_9', 0.6900000000000005)]",0.9411000000000003,,,36.0,0.008811,['Pass'],Pass,0.5300000000000004,-0.28000000000000036,1.0,4.0,0.4
416.0,11.0,wc_11,,0.0,,,,263.0,,,,Pass,,,,,
416.0,11.0,wc_11,wc_8,1.0,"[('wc_8', 0.7400000000000005), ('wc_10', 0.8100000000000006), ('wc_9', 0.6900000000000005)]",0.9846860000000001,,,35.0,0.04138800000000001,['Pass'],Pass,0.7400000000000005,-0.24000000000000055,4.0,8.0,0.6
434.0,7.0,wc_7,,0.0,,,,102.0,,,,Pass,,,,,
434.0,7.0,wc_7,,0.0,,,75.0,,,,,Pass,,,,,
434.0,7.0,wc_7,,0.0,,,,0.0,,,,Pass,,,,,
434.0,7.0,wc_7,wc_7,0.0,"[('wc_7', 0.9500000000000007)]",0.9500000000000007,,,34.0,0.002322,['Pass'],Pass,0.9500000000000007,-0.7833333333333341,1.0,6.0,0.9
434.0,7.0,wc_7,,0.0,,,,182.0,,,,Pass,,,,,
434.0,7.0,wc_7,wc_1,0.0,"[('wc_7', 0.9500000000000007)]",0.9500000000000007,,,25.0,0.011605,['Pass'],Pass,0.27000000000000013,-0.02000000000000013,1.0,4.0,0.1
434.0,7.0,wc_7,,0.0,,,,243.0,,,,Pass,,,,,
434.0,7.0,wc_7,wc_15,0.0,"[('wc_15', 0.5200000000000004), ('wc_7', 0.9500000000000007)]",0.9760000000000004,,,39.0,0.005827000000000001,['Pass'],Pass,0.5200000000000004,-0.32000000000000034,1.0,5.0,0.4
434.0,7.0,wc_7,,0.0,,,,303.0,,,,Pass,,,,,
434.0,7.0,wc_7,wc_2,1.0,"[('wc_2', 0.8500000000000006), ('wc_7', 0.9500000000000007), ('wc_15', 0.5200000000000004)]",0.9964000000000001,,,36.0,0.051362000000000005,['Pass'],Pass,0.8500000000000006,-0.35000000000000064,2.0,4.0,0.9
443.0,12.0,wc_12,,0.0,,,,162.0,,,,Fail,,,,,
443.0,12.0,wc_12,,0.0,,,53.0,,,,,Fail,,,,,
443.0,12.0,wc_12,,0.0,,,,0.0,,,,Fail,,,,,
443.0,12.0,wc_12,wc_12,0.0,"[('wc_12', 0.2500000000000001)]",0.2500000000000001,,,37.0,0.002117,['Pass'],Fail,0.2500000000000001,-0.2500000000000001,0.0,0.0,0.1
443.0,12.0,wc_12,,0.0,,,,0.0,,,,Fail,,,,,
443.0,12.0,wc_12,wc_13,0.0,"[('wc_13', 0.11000000000000001), ('wc_12', 0.2500000000000001)]",0.33250000000000013,,,33.0,0.006024,['Pass'],Fail,0.11000000000000001,-0.11000000000000001,0.0,5.0,0.1
443.0,12.0,wc_12,,0.0,,,,202.0,,,,Fail,,,,,
443.0,12.0,wc_12,wc_8,0.0,"[('wc_8', 0.7400000000000005)]",0.7400000000000005,,,25.0,0.006317,['Fail'],Fail,0.7400000000000005,-0.2955555555555561,4.0,9.0,0.6
443.0,12.0,wc_12,,0.0,,,,162.0,,,,Fail,,,,,
443.0,12.0,wc_12,wc_1,0.0,"[('wc_8', 0.7400000000000005)]",0.7400000000000005,,,20.0,0.008681,['Fail'],Fail,0.2600000000000001,-0.06000000000000011,1.0,5.0,0.1
443.0,12.0,wc_12,,0.0,,,,243.0,,,,Fail,,,,,
443.0,12.0,wc_12,wc_15,0.0,"[('wc_15', 0.5200000000000004), ('wc_8', 0.7400000000000005)]",0.8752000000000003,,,27.0,0.013281000000000001,['Fail'],Fail,0.5200000000000004,-0.18666666666666704,2.0,6.0,0.4
443.0,12.0,wc_12,,0.0,,,,243.0,,,,Fail,,,,,
443.0,12.0,wc_12,wc_7,1.0,"[('wc_7', 0.9500000000000007), ('wc_8', 0.7400000000000005), ('wc_15', 0.5200000000000004)]",0.9937600000000001,,,30.0,0.045586,['Fail'],Fail,0.9500000000000007,-0.5750000000000007,3.0,8.0,0.9
458.0,12.0,wc_12,,0.0,,,,142.0,,,,Pass,,,,,
458.0,12.0,wc_12,,0.0,,,75.0,,,,,Pass,,,,,
458.0,12.0,wc_12,,0.0,,,,0.0,,,,Pass,,,,,
458.0,12.0,wc_12,wc_12,0.0,"[('wc_12', 0.2400000000000001)]",0.2400000000000001,,,31.0,0.005062,['Pass'],Pass,0.2400000000000001,-0.2400000000000001,0.0,1.0,0.1
458.0,12.0,wc_12,,0.0,,,,381.0,,,,Pass,,,,,
458.0,12.0,wc_12,wc_4,0.0,"[('wc_4', 0.5100000000000003)]",0.5100000000000003,,,21.0,0.00411,['Fail'],Pass,0.5100000000000003,-0.3433333333333337,1.0,6.0,0.4
458.0,12.0,wc_12,,0.0,,,,142.0,,,,Pass,,,,,
458.0,12.0,wc_12,wc_9,0.0,"[('wc_9', 0.6900000000000005), ('wc_12', 0.2400000000000001)]",0.7644000000000004,,,30.0,0.006142,['Pass'],Pass,0.6900000000000005,-0.4400000000000005,2.0,8.0,0.7
458.0,12.0,wc_12,,0.0,,,,182.0,,,,Pass,,,,,
458.0,12.0,wc_12,wc_16,0.0,"[('wc_12', 0.2400000000000001), ('wc_9', 0.6900000000000005)]",0.7644000000000004,,,38.0,0.014108,['Pass'],Pass,0.42000000000000026,-0.3165517241379313,0.0,0.0,0.1
458.0,12.0,wc_12,,0.0,,,,203.0,,,,Pass,,,,,
458.0,12.0,wc_12,wc_6,0.0,"[('wc_6', 0.4400000000000003), ('wc_4', 0.5100000000000003), ('wc_16', 0.42000000000000026)]",0.8408480000000003,,,38.0,0.014728000000000002,['Fail'],Pass,0.4400000000000003,-0.4400000000000003,0.0,5.0,0.3
458.0,12.0,wc_12,,0.0,,,,0.0,,,,Pass,,,,,
458.0,12.0,wc_12,wc_7,1.0,"[('wc_7', 0.9500000000000007), ('wc_12', 0.2400000000000001), ('wc_9', 0.6900000000000005)]",0.9882200000000002,,,27.0,0.042782,['Pass'],Pass,0.9500000000000007,-0.5055555555555563,4.0,9.0,0.9
466.0,13.0,wc_13,,0.0,,,,162.0,,,,Pass,,,,,
466.0,13.0,wc_13,,0.0,,,62.0,,,,,Pass,,,,,
466.0,13.0,wc_13,,0.0,,,,0.0,,,,Pass,,,,,
466.0,13.0,wc_13,wc_13,0.0,"[('wc_13', 0.10000000000000002)]",0.09999999999999998,,,32.0,0.002689,['Fail'],Pass,0.10000000000000002,-0.10000000000000002,0.0,7.0,0.1
466.0,13.0,wc_13,,0.0,,,,341.0,,,,Pass,,,,,
466.0,13.0,wc_13,wc_3,0.0,"[('wc_3', 0.5600000000000004)]",0.5600000000000004,,,22.0,0.006053,['Pass'],Pass,0.5600000000000004,-0.5600000000000004,0.0,6.0,0.6
466.0,13.0,wc_13,,0.0,,,,101.0,,,,Pass,,,,,
466.0,13.0,wc_13,wc_2,0.0,"[('wc_2', 0.8500000000000006), ('wc_3', 0.5600000000000004)]",0.9340000000000004,,,33.0,0.007654,['Pass'],Pass,0.8500000000000006,-0.5166666666666673,2.0,6.0,0.9
466.0,13.0,wc_13,,0.0,,,,183.0,,,,Pass,,,,,
466.0,13.0,wc_13,wc_9,1.0,"[('wc_9', 0.6900000000000005), ('wc_3', 0.5600000000000004), ('wc_2', 0.8500000000000006)]",0.9795400000000002,,,39.0,0.040142,['Pass'],Pass,0.6900000000000005,-0.6900000000000005,0.0,0.0,0.7
476.0,16.0,wc_16,,0.0,,,,182.0,,,,Pass,,,,,
476.0,16.0,wc_16,,0.0,,,56.0,,,,,Pass,,,,,
476.0,16.0,wc_16,,0.0,,,,0.0,,,,Pass,,,,,
476.0,16.0,wc_16,wc_16,0.0,"[('wc_16', 0.41000000000000025)]",0.41000000000000025,,,23.0,0.002735,['Pass'],Pass,0.41000000000000025,-0.41000000000000025,0.0,2.0,0.1
476.0,16.0,wc_16,,0.0,,,,422.0,,,,Pass,,,,,
476.0,16.0,wc_16,wc_5,0.0,"[('wc_5', 0.28000000000000014), ('wc_16', 0.41000000000000025)]",0.5752000000000003,,,23.0,0.004949,['Pass'],Pass,0.28000000000000014,-0.2085714285714287,0.0,0.0,0.1
476.0,16.0,wc_16,,0.0,,,,122.0,,,,Pass,,,,,
476.0,16.0,wc_16,wc_9,0.0,"[('wc_9', 0.6900000000000005), ('wc_16', 0.41000000000000025), ('wc_5', 0.28000000000000014)]",0.8683120000000003,,,32.0,0.006676,['Pass'],Pass,0.6900000000000005,-0.6900000000000005,0.0,0.0,0.7
476.0,16.0,wc_16,,0.0,,,,61.0,,,,Pass,,,,,
476.0,16.0,wc_16,wc_6,0.0,"[('wc_16', 0.41000000000000025), ('wc_5', 0.28000000000000014), ('wc_9', 0.6900000000000005)]",0.8683120000000003,,,39.0,0.017753,['Pass'],Pass,0.43000000000000027,-0.43000000000000027,0.0,7.0,0.3
476.0,16.0,wc_16,,0.0,,,,0.0,,,,Pass,,,,,
476.0,16.0,wc_16,wc_8,0.0,"[('wc_16', 0.41000000000000025), ('wc_5', 0.28000000000000014), ('wc_9', 0.6900000000000005)]",0.8683120000000003,,,32.0,0.009290000000000001,['Pass'],Pass,0.7400000000000005,-0.7400000000000005,0.0,2.0,0.6
476.0,16.0,wc_16,,0.0,,,,162.0,,,,Pass,,,,,
476.0,16.0,wc_16,wc_1,0.0,"[('wc_1', 0.2500000000000001), ('wc_6', 0.43000000000000027), ('wc_8', 0.7400000000000005)]",0.8888500000000004,,,29.0,0.010950999999999999,['Fail'],Pass,0.2500000000000001,-0.1250000000000001,1.0,8.0,0.1
476.0,16.0,wc_16,,0.0,,,,243.0,,,,Pass,,,,,
476.0,16.0,wc_16,wc_11,0.0,"[('wc_6', 0.43000000000000027), ('wc_8', 0.7400000000000005), ('wc_1', 0.2500000000000001)]",0.8888500000000004,,,32.0,0.012794000000000002,['Fail'],Pass,0.13,-0.13,0.0,9.0,0.1
476.0,16.0,wc_16,,0.0,,,,162.0,,,,Pass,,,,,
476.0,16.0,wc_16,wc_17,1.0,"[('wc_17', 0.8300000000000006), ('wc_6', 0.43000000000000027), ('wc_8', 0.7400000000000005), ('wc_1', 0.2500000000000001)]",0.9811045000000002,,,22.0,0.046190999999999996,['Fail'],Pass,0.8300000000000006,-0.663333333333334,1.0,6.0,0.7
486.0,14.0,wc_14,,0.0,,,,61.0,,,,Pass,,,,,
486.0,14.0,wc_14,,0.0,,,67.0,,,,,Pass,,,,,
486.0,14.0,wc_14,,0.0,,,,0.0,,,,Pass,,,,,
486.0,14.0,wc_14,wc_14,0.0,"[('wc_14', 0.9000000000000007)]",0.9000000000000007,,,29.0,0.002119,['Pass'],Pass,0.9000000000000007,-0.7888888888888896,1.0,9.0,1.0
486.0,14.0,wc_14,,0.0,,,,222.0,,,,Pass,,,,,
486.0,14.0,wc_14,wc_2,0.0,"[('wc_2', 0.8500000000000006), ('wc_14', 0.9000000000000007)]",0.9850000000000002,,,21.0,0.004092,['Pass'],Pass,0.8500000000000006,-0.47500000000000064,3.0,8.0,0.9
486.0,14.0,wc_14,,0.0,,,,122.0,,,,Pass,,,,,
486.0,14.0,wc_14,wc_6,1.0,"[('wc_6', 0.43000000000000027), ('wc_14', 0.9000000000000007), ('wc_2', 0.8500000000000006)]",0.99145,,,23.0,0.040084,['Pass'],Pass,0.43000000000000027,-0.20777777777777806,2.0,9.0,0.3
499.0,15.0,wc_15,,0.0,,,,223.0,,,,Fail,,,,,
499.0,15.0,wc_15,,0.0,,,80.0,,,,,Fail,,,,,
499.0,15.0,wc_15,,0.0,,,,0.0,,,,Fail,,,,,
499.0,15.0,wc_15,wc_15,0.0,"[('wc_15', 0.5200000000000004)]",0.5200000000000004,,,30.0,0.002255,['Pass'],Fail,0.5200000000000004,-0.24727272727272764,0.0,0.0,0.4
499.0,15.0,wc_15,,0.0,,,,402.0,,,,Fail,,,,,
499.0,15.0,wc_15,wc_3,0.0,"[('wc_3', 0.5600000000000004)]",0.5600000000000004,,,40.0,0.005099,['Fail'],Fail,0.5600000000000004,-0.4488888888888893,1.0,9.0,0.6
499.0,15.0,wc_15,,0.0,,,,101.0,,,,Fail,,,,,
499.0,15.0,wc_15,wc_2,0.0,"[('wc_2', 0.8500000000000006), ('wc_3', 0.5600000000000004)]",0.9340000000000004,,,30.0,0.005814,['Fail'],Fail,0.8500000000000006,-0.4055555555555562,4.0,9.0,0.9
499.0,15.0,wc_15,,0.0,,,,223.0,,,,Fail,,,,,
499.0,15.0,wc_15,wc_11,0.0,"[('wc_3', 0.5600000000000004), ('wc_2', 0.8500000000000006)]",0.9340000000000004,,,29.0,0.014333000000000002,['Fail'],Fail,0.12000000000000001,-0.12000000000000001,0.0,1.0,0.1
499.0,15.0,wc_15,,0.0,,,,83.0,,,,Fail,,,,,
499.0,15.0,wc_15,wc_9,1.0,"[('wc_9', 0.6800000000000005), ('wc_3', 0.5600000000000004), ('wc_2', 0.8500000000000006)]",0.9788800000000002,,,24.0,0.042068999999999995,['Fail'],Fail,0.6800000000000005,-0.3466666666666672,1.0,3.0,0.7
526.0,15.0,wc_15,,0.0,,,,162.0,,,,Pass,,,,,
526.0,15.0,wc_15,,0.0,,,54.0,,,,,Pass,,,,,
526.0,15.0,wc_15,,0.0,,,,0.0,,,,Pass,,,,,
526.0,15.0,wc_15,wc_15,0.0,"[('wc_15', 0.5100000000000003)]",0.5100000000000003,,,28.0,0.006335,['Fail'],Pass,0.5100000000000003,-0.5100000000000003,0.0,1.0,0.4
526.0,15.0,wc_15,,0.0,,,,422.0,,,,Pass,,,,,
526.0,15.0,wc_15,wc_4,0.0,"[('wc_4', 0.5000000000000003), ('wc_15', 0.5100000000000003)]",0.7550000000000003,,,20.0,0.004002,['Fail'],Pass,0.5000000000000003,-0.4090909090909094,0.0,0.0,0.4
526.0,15.0,wc_15,,0.0,,,,81.0,,,,Pass,,,,,
526.0,15.0,wc_15,wc_6,0.0,"[('wc_6', 0.43000000000000027), ('wc_15', 0.5100000000000003), ('wc_4', 0.5000000000000003)]",0.8603500000000003,,,33.0,0.00631,['Fail'],Pass,0.43000000000000027,-0.23000000000000026,0.0,0.0,0.3
526.0,15.0,wc_15,,0.0,,,,0.0,,,,Pass,,,,,
526.0,15.0,wc_15,wc_11,0.0,"[('wc_11', 0.11000000000000001), ('wc_15', 0.5100000000000003), ('wc_4', 0.5000000000000003), ('wc_6', 0.43000000000000027)]",0.8757115000000002,,,25.0,0.007646,['Fail'],Pass,0.11000000000000001,-0.11000000000000001,0.0,2.0,0.1
526.0,15.0,wc_15,,0.0,,,,142.0,,,,Pass,,,,,
526.0,15.0,wc_15,wc_16,1.0,"[('wc_16', 0.40000000000000024), ('wc_15', 0.5100000000000003), ('wc_4', 0.5000000000000003), ('wc_6', 0.43000000000000027), ('wc_11', 0.11000000000000001)]",0.9254269000000002,,,28.0,0.04387699999999999,['Fail'],Pass,0.40000000000000024,-0.2333333333333336,1.0,6.0,0.1
540.0,17.0,wc_17,,0.0,,,,0.0,,,,Fail,,,,,
540.0,17.0,wc_17,,0.0,,,64.0,,,,,Fail,,,,,
540.0,17.0,wc_17,,0.0,,,,0.0,,,,Fail,,,,,
540.0,17.0,wc_17,wc_17,0.0,"[('wc_17', 0.8300000000000006)]",0.8300000000000006,,,29.0,0.002962,['Fail'],Fail,0.8300000000000006,-0.7188888888888896,1.0,9.0,0.7
540.0,17.0,wc_17,,0.0,,,,322.0,,,,Fail,,,,,
540.0,17.0,wc_17,wc_9,0.0,"[('wc_9', 0.6800000000000005), ('wc_17', 0.8300000000000006)]",0.9456000000000003,,,21.0,0.003855,['Fail'],Fail,0.6800000000000005,-0.4300000000000005,1.0,4.0,0.7
540.0,17.0,wc_17,,0.0,,,,0.0,,,,Fail,,,,,
540.0,17.0,wc_17,wc_11,1.0,"[('wc_11', 0.12000000000000001), ('wc_17', 0.8300000000000006), ('wc_9', 0.6800000000000005)]",0.9521280000000002,,,24.0,0.062417,['Fail'],Fail,0.13,0.37,2.0,4.0,0.1
560.0,17.0,wc_17,,0.0,,,,162.0,,,,Pass,,,,,
560.0,17.0,wc_17,,0.0,,,60.0,,,,,Pass,,,,,
560.0,17.0,wc_17,,0.0,,,,0.0,,,,Pass,,,,,
560.0,17.0,wc_17,wc_17,0.0,"[('wc_17', 0.8300000000000006)]",0.8300000000000006,,,39.0,0.002805,['Pass'],Pass,0.8300000000000006,-0.8300000000000006,0.0,0.0,0.7
560.0,17.0,wc_17,,0.0,,,,61.0,,,,Pass,,,,,
560.0,17.0,wc_17,wc_14,0.0,"[('wc_14', 0.9000000000000007), ('wc_17', 0.8300000000000006)]",0.9830000000000002,,,37.0,0.0069180000000000005,['Pass'],Pass,0.9000000000000007,-0.9000000000000007,0.0,3.0,1.0
560.0,17.0,wc_17,,0.0,,,,202.0,,,,Pass,,,,,
560.0,17.0,wc_17,wc_1,0.0,"[('wc_17', 0.8300000000000006), ('wc_14', 0.9000000000000007)]",0.9830000000000002,,,33.0,0.00598,['Pass'],Pass,0.2500000000000001,-0.09615384615384626,0.0,0.0,0.1
560.0,17.0,wc_17,,0.0,,,,162.0,,,,Pass,,,,,
560.0,17.0,wc_17,wc_7,1.0,"[('wc_7', 0.9500000000000007), ('wc_17', 0.8300000000000006), ('wc_14', 0.9000000000000007)]",0.99915,,,21.0,0.040851,['Pass'],Pass,0.9500000000000007,-0.9500000000000007,0.0,0.0,0.9
