mpecck/BCQC/bcqc_with_qdt/results/raw/input_20/independent_qc/training/20_workpiece/20200429_095732/wp_4_qc_majority_0.9.csv
production_index,step_idx,production_workcell,qc,consent,winner_qc_list,score,production_time,transport_time,inspection_time,network_time,qc_results,actual_quality,qc_score,score_error,in_winner_counter,in_qc_counter,qc_capability
6.0,1.0,wc_1,,0.0,,,72.0,,,,,Pass,,,,,
6.0,1.0,wc_1,,0.0,,,,0.0,,,,Pass,,,,,
6.0,1.0,wc_1,wc_1,0.0,"[('wc_1', 0.19000000000000006)]",0.19000000000000006,,,22.0,0.003287,['Pass'],Pass,0.19000000000000006,0.05999999999999994,1.0,4.0,0.1
6.0,1.0,wc_1,,0.0,,,,0.0,,,,Pass,,,,,
6.0,1.0,wc_1,wc_3,0.0,"[('wc_3', 0.5200000000000004), ('wc_1', 0.19000000000000006)]",0.6112000000000003,,,37.0,0.004229,['Pass'],Pass,0.5200000000000004,-0.5200000000000004,0.0,2.0,0.6
6.0,1.0,wc_1,,0.0,,,,161.0,,,,Pass,,,,,
6.0,1.0,wc_1,wc_13,0.0,"[('wc_1', 0.19000000000000006), ('wc_3', 0.5200000000000004)]",0.6112000000000003,,,27.0,0.00578,['Pass'],Pass,0.29000000000000015,-0.12333333333333349,1.0,6.0,0.1
6.0,1.0,wc_1,,0.0,,,,361.0,,,,Pass,,,,,
6.0,1.0,wc_1,wc_4,0.0,"[('wc_4', 0.3600000000000002), ('wc_1', 0.19000000000000006), ('wc_3', 0.5200000000000004)]",0.7511680000000003,,,21.0,0.008568000000000001,['Pass'],Pass,0.3600000000000002,-0.3600000000000002,0.0,7.0,0.4
6.0,1.0,wc_1,,0.0,,,,182.0,,,,Pass,,,,,
6.0,1.0,wc_1,wc_15,0.0,"[('wc_15', 0.3600000000000002), ('wc_1', 0.19000000000000006), ('wc_3', 0.5200000000000004), ('wc_4', 0.3600000000000002)]",0.8407475200000003,,,20.0,0.010232,['Pass'],Pass,0.3600000000000002,-0.26000000000000023,0.0,0.0,0.4
6.0,1.0,wc_1,,0.0,,,,223.0,,,,Pass,,,,,
6.0,1.0,wc_1,wc_6,0.0,"[('wc_1', 0.19000000000000006), ('wc_3', 0.5200000000000004), ('wc_4', 0.3600000000000002), ('wc_15', 0.3600000000000002)]",0.8407475200000002,,,40.0,0.011013,['Pass'],Pass,0.30000000000000016,0.6999999999999998,1.0,1.0,0.3
6.0,1.0,wc_1,,0.0,,,,202.0,,,,Pass,,,,,
6.0,1.0,wc_1,wc_14,1.0,"[('wc_14', 0.6000000000000004), ('wc_1', 0.19000000000000006), ('wc_3', 0.5200000000000004), ('wc_4', 0.3600000000000002), ('wc_15', 0.3600000000000002)]",0.9362990080000002,,,32.0,0.053394,['Pass'],Pass,0.6100000000000004,0.0566666666666662,2.0,3.0,1.0
9.0,3.0,wc_3,,0.0,,,,321.0,,,,Pass,,,,,
9.0,3.0,wc_3,,0.0,,,66.0,,,,,Pass,,,,,
9.0,3.0,wc_3,,0.0,,,,0.0,,,,Pass,,,,,
9.0,3.0,wc_3,wc_3,0.0,"[('wc_3', 0.5200000000000004)]",0.5200000000000004,,,33.0,0.002261,['Pass'],Pass,0.5200000000000004,-0.18666666666666704,1.0,3.0,0.6
9.0,3.0,wc_3,,0.0,,,,81.0,,,,Pass,,,,,
9.0,3.0,wc_3,wc_1,0.0,"[('wc_3', 0.5200000000000004)]",0.5200000000000004,,,22.0,0.00414,['Pass'],Pass,0.20000000000000007,0.19999999999999996,2.0,5.0,0.1
9.0,3.0,wc_3,,0.0,,,,0.0,,,,Pass,,,,,
9.0,3.0,wc_3,wc_2,0.0,"[('wc_2', 0.5900000000000004), ('wc_3', 0.5200000000000004)]",0.8032000000000004,,,37.0,0.006456,['Pass'],Pass,0.5900000000000004,-0.3677777777777782,2.0,9.0,0.9
9.0,3.0,wc_3,,0.0,,,,162.0,,,,Pass,,,,,
9.0,3.0,wc_3,wc_8,1.0,"[('wc_8', 0.5400000000000004), ('wc_3', 0.5200000000000004), ('wc_2', 0.5900000000000004)]",0.9094720000000003,,,22.0,0.04346100000000001,['Pass'],Pass,0.5400000000000004,-0.5400000000000004,0.0,0.0,0.6
13.0,2.0,wc_2,,0.0,,,,182.0,,,,Fail,,,,,
13.0,2.0,wc_2,,0.0,,,73.0,,,,,Fail,,,,,
13.0,2.0,wc_2,,0.0,,,,0.0,,,,Fail,,,,,
13.0,2.0,wc_2,wc_2,0.0,"[('wc_2', 0.5900000000000004)]",0.5900000000000004,,,31.0,0.001894,['Fail'],Fail,0.5900000000000004,-0.5900000000000004,0.0,0.0,0.9
13.0,2.0,wc_2,,0.0,,,,203.0,,,,Fail,,,,,
13.0,2.0,wc_2,wc_10,0.0,"[('wc_10', 0.4600000000000003), ('wc_2', 0.5900000000000004)]",0.7786000000000004,,,28.0,0.004191,['Fail'],Fail,0.4600000000000003,-0.1872727272727276,0.0,0.0,1.0
13.0,2.0,wc_2,,0.0,,,,103.0,,,,Fail,,,,,
13.0,2.0,wc_2,wc_9,1.0,"[('wc_9', 0.5500000000000004), ('wc_2', 0.5900000000000004), ('wc_10', 0.4600000000000003)]",0.9003700000000002,,,40.0,0.042022,['Fail'],Fail,0.5500000000000004,-0.05000000000000038,4.0,8.0,0.7
19.0,2.0,wc_2,,0.0,,,,263.0,,,,Pass,,,,,
19.0,2.0,wc_2,,0.0,,,75.0,,,,,Pass,,,,,
19.0,2.0,wc_2,,0.0,,,,0.0,,,,Pass,,,,,
19.0,2.0,wc_2,wc_2,0.0,"[('wc_2', 0.6000000000000004)]",0.6000000000000004,,,25.0,0.002718,['Pass'],Pass,0.6000000000000004,0.3999999999999996,1.0,1.0,0.9
19.0,2.0,wc_2,,0.0,,,,223.0,,,,Pass,,,,,
19.0,2.0,wc_2,wc_11,0.0,"[('wc_2', 0.6000000000000004)]",0.6000000000000004,,,22.0,0.0049180000000000005,['Pass'],Pass,0.22000000000000008,-0.22000000000000008,0.0,5.0,0.1
19.0,2.0,wc_2,,0.0,,,,81.0,,,,Pass,,,,,
19.0,2.0,wc_2,wc_13,0.0,"[('wc_13', 0.28000000000000014), ('wc_2', 0.6000000000000004)]",0.7120000000000004,,,23.0,0.006753,['Pass'],Pass,0.28000000000000014,-0.16888888888888903,1.0,9.0,0.1
19.0,2.0,wc_2,,0.0,,,,102.0,,,,Pass,,,,,
19.0,2.0,wc_2,wc_12,0.0,"[('wc_12', 0.2300000000000001), ('wc_2', 0.6000000000000004), ('wc_13', 0.28000000000000014)]",0.7782400000000003,,,26.0,0.008237999999999999,['Pass'],Pass,0.2300000000000001,-0.2300000000000001,0.0,8.0,0.1
19.0,2.0,wc_2,,0.0,,,,0.0,,,,Pass,,,,,
19.0,2.0,wc_2,wc_14,1.0,"[('wc_14', 0.6100000000000004), ('wc_2', 0.6000000000000004), ('wc_13', 0.28000000000000014), ('wc_12', 0.2300000000000001)]",0.9135136000000003,,,33.0,0.046126,['Pass'],Pass,0.6100000000000004,-0.11000000000000043,3.0,6.0,1.0
25.0,4.0,wc_4,,0.0,,,,341.0,,,,Pass,,,,,
25.0,4.0,wc_4,,0.0,,,55.0,,,,,Pass,,,,,
25.0,4.0,wc_4,,0.0,,,,0.0,,,,Pass,,,,,
25.0,4.0,wc_4,wc_4,0.0,"[('wc_4', 0.3600000000000002)]",0.3600000000000002,,,32.0,0.002382,['Pass'],Pass,0.3600000000000002,-0.26909090909090927,0.0,0.0,0.4
25.0,4.0,wc_4,,0.0,,,,0.0,,,,Pass,,,,,
25.0,4.0,wc_4,wc_5,0.0,"[('wc_4', 0.3600000000000002)]",0.3600000000000002,,,28.0,0.007502,['Pass'],Pass,0.15000000000000002,-0.007142857142857173,1.0,7.0,0.1
25.0,4.0,wc_4,,0.0,,,,162.0,,,,Pass,,,,,
25.0,4.0,wc_4,wc_11,0.0,"[('wc_4', 0.3600000000000002)]",0.3600000000000002,,,25.0,0.006789999999999999,['Pass'],Pass,0.21000000000000008,-0.21000000000000008,0.0,6.0,0.1
25.0,4.0,wc_4,,0.0,,,,83.0,,,,Pass,,,,,
25.0,4.0,wc_4,wc_9,0.0,"[('wc_9', 0.5500000000000004), ('wc_4', 0.3600000000000002)]",0.7120000000000004,,,27.0,0.007842,['Pass'],Pass,0.5500000000000004,-0.10555555555555596,4.0,9.0,0.7
25.0,4.0,wc_4,,0.0,,,,61.0,,,,Pass,,,,,
25.0,4.0,wc_4,wc_6,0.0,"[('wc_6', 0.30000000000000016), ('wc_4', 0.3600000000000002), ('wc_9', 0.5500000000000004)]",0.7984000000000002,,,23.0,0.009935999999999999,['Pass'],Pass,0.30000000000000016,-0.10000000000000014,1.0,5.0,0.3
25.0,4.0,wc_4,,0.0,,,,263.0,,,,Pass,,,,,
25.0,4.0,wc_4,wc_17,1.0,"[('wc_17', 0.5300000000000004), ('wc_4', 0.3600000000000002), ('wc_9', 0.5500000000000004), ('wc_6', 0.30000000000000016)]",0.9052480000000002,,,30.0,0.044786999999999993,['Pass'],Pass,0.5300000000000004,-0.5300000000000004,0.0,0.0,0.7
31.0,5.0,wc_5,,0.0,,,,402.0,,,,Pass,,,,,
31.0,5.0,wc_5,,0.0,,,60.0,,,,,Pass,,,,,
31.0,5.0,wc_5,,0.0,,,,0.0,,,,Pass,,,,,
31.0,5.0,wc_5,wc_5,0.0,"[('wc_5', 0.14)]",0.14,,,23.0,0.002249,['Pass'],Pass,0.14,-0.015000000000000013,1.0,8.0,0.1
31.0,5.0,wc_5,,0.0,,,,142.0,,,,Pass,,,,,
31.0,5.0,wc_5,wc_10,0.0,"[('wc_10', 0.4700000000000003), ('wc_5', 0.14)]",0.5442000000000002,,,36.0,0.004172,['Pass'],Pass,0.4700000000000003,-0.136666666666667,1.0,3.0,1.0
31.0,5.0,wc_5,,0.0,,,,81.0,,,,Pass,,,,,
31.0,5.0,wc_5,wc_12,0.0,"[('wc_5', 0.14), ('wc_10', 0.4700000000000003)]",0.5442000000000002,,,28.0,0.005928,['Pass'],Pass,0.2300000000000001,-0.1300000000000001,0.0,0.0,0.1
31.0,5.0,wc_5,,0.0,,,,0.0,,,,Pass,,,,,
31.0,5.0,wc_5,wc_17,0.0,"[('wc_17', 0.5300000000000004), ('wc_5', 0.14), ('wc_10', 0.4700000000000003)]",0.7857740000000003,,,22.0,0.007972,['Pass'],Pass,0.5300000000000004,-0.5300000000000004,0.0,0.0,0.7
31.0,5.0,wc_5,,0.0,,,,41.0,,,,Pass,,,,,
31.0,5.0,wc_5,wc_13,0.0,"[('wc_13', 0.28000000000000014), ('wc_5', 0.14), ('wc_10', 0.4700000000000003), ('wc_17', 0.5300000000000004)]",0.8457572800000003,,,30.0,0.010893,['Pass'],Pass,0.28000000000000014,-0.28000000000000014,0.0,1.0,0.1
31.0,5.0,wc_5,,0.0,,,,202.0,,,,Pass,,,,,
31.0,5.0,wc_5,wc_8,1.0,"[('wc_8', 0.5400000000000004), ('wc_5', 0.14), ('wc_10', 0.4700000000000003), ('wc_17', 0.5300000000000004), ('wc_13', 0.28000000000000014)]",0.9290483488000002,,,31.0,0.047253,['Pass'],Pass,0.5400000000000004,-0.29000000000000037,1.0,4.0,0.6
38.0,6.0,wc_6,,0.0,,,,82.0,,,,Pass,,,,,
38.0,6.0,wc_6,,0.0,,,54.0,,,,,Pass,,,,,
38.0,6.0,wc_6,,0.0,,,,0.0,,,,Pass,,,,,
38.0,6.0,wc_6,wc_6,0.0,"[('wc_6', 0.31000000000000016)]",0.31000000000000016,,,38.0,0.002819,['Pass'],Pass,0.31000000000000016,-0.024285714285714466,2.0,7.0,0.3
38.0,6.0,wc_6,,0.0,,,,361.0,,,,Pass,,,,,
38.0,6.0,wc_6,wc_5,0.0,"[('wc_6', 0.31000000000000016)]",0.31000000000000016,,,23.0,0.005261999999999999,['Pass'],Pass,0.15000000000000002,0.07222222222222219,2.0,9.0,0.1
38.0,6.0,wc_6,,0.0,,,,101.0,,,,Pass,,,,,
38.0,6.0,wc_6,wc_12,0.0,"[('wc_12', 0.22000000000000008), ('wc_6', 0.31000000000000016)]",0.4618000000000002,,,34.0,0.006922000000000001,['Pass'],Pass,0.22000000000000008,-0.22000000000000008,0.0,1.0,0.1
38.0,6.0,wc_6,,0.0,,,,242.0,,,,Pass,,,,,
38.0,6.0,wc_6,wc_1,0.0,"[('wc_1', 0.20000000000000007), ('wc_6', 0.31000000000000016), ('wc_12', 0.22000000000000008)]",0.5694400000000002,,,38.0,0.007791,['Pass'],Pass,0.20000000000000007,-5.551115123125783e-17,0.0,0.0,0.1
38.0,6.0,wc_6,,0.0,,,,243.0,,,,Pass,,,,,
38.0,6.0,wc_6,wc_11,0.0,"[('wc_11', 0.20000000000000007), ('wc_6', 0.31000000000000016), ('wc_12', 0.22000000000000008), ('wc_1', 0.20000000000000007)]",0.6555520000000001,,,40.0,0.009289,['Pass'],Pass,0.20000000000000007,-0.20000000000000007,0.0,8.0,0.1
38.0,6.0,wc_6,,0.0,,,,101.0,,,,Pass,,,,,
38.0,6.0,wc_6,wc_14,0.0,"[('wc_14', 0.6100000000000004), ('wc_6', 0.31000000000000016), ('wc_12', 0.22000000000000008), ('wc_1', 0.20000000000000007), ('wc_11', 0.20000000000000007)]",0.8656652800000002,,,23.0,0.012971,['Pass'],Pass,0.6100000000000004,-0.23500000000000043,3.0,8.0,1.0
38.0,6.0,wc_6,,0.0,,,,301.0,,,,Pass,,,,,
38.0,6.0,wc_6,wc_10,1.0,"[('wc_10', 0.4800000000000003), ('wc_6', 0.31000000000000016), ('wc_12', 0.22000000000000008), ('wc_1', 0.20000000000000007), ('wc_11', 0.20000000000000007), ('wc_14', 0.6100000000000004)]",0.9301459456000002,,,33.0,0.050011,['Pass'],Pass,0.4900000000000003,0.10999999999999965,3.0,5.0,1.0
43.0,8.0,wc_8,,0.0,,,,81.0,,,,Pass,,,,,
43.0,8.0,wc_8,,0.0,,,59.0,,,,,Pass,,,,,
43.0,8.0,wc_8,,0.0,,,,0.0,,,,Pass,,,,,
43.0,8.0,wc_8,wc_8,0.0,"[('wc_8', 0.5400000000000004)]",0.5400000000000004,,,40.0,0.002093,['Pass'],Pass,0.5400000000000004,-0.34000000000000036,1.0,5.0,0.6
43.0,8.0,wc_8,,0.0,,,,0.0,,,,Pass,,,,,
43.0,8.0,wc_8,wc_10,0.0,"[('wc_10', 0.4900000000000003), ('wc_8', 0.5400000000000004)]",0.7654000000000003,,,26.0,0.003916,['Pass'],Pass,0.4900000000000003,0.10999999999999965,3.0,5.0,1.0
43.0,8.0,wc_8,,0.0,,,,41.0,,,,Pass,,,,,
43.0,8.0,wc_8,wc_6,0.0,"[('wc_8', 0.5400000000000004), ('wc_10', 0.4900000000000003)]",0.7654000000000003,,,29.0,0.006801999999999999,['Pass'],Pass,0.3200000000000002,0.05499999999999983,3.0,8.0,0.3
43.0,8.0,wc_8,,0.0,,,,321.0,,,,Pass,,,,,
43.0,8.0,wc_8,wc_3,0.0,"[('wc_8', 0.5400000000000004), ('wc_10', 0.4900000000000003)]",0.7654000000000003,,,20.0,0.009405,['Pass'],Pass,0.5200000000000004,-0.29777777777777814,2.0,9.0,0.6
43.0,8.0,wc_8,,0.0,,,,81.0,,,,Pass,,,,,
43.0,8.0,wc_8,wc_1,0.0,"[('wc_8', 0.5400000000000004), ('wc_10', 0.4900000000000003)]",0.7654000000000003,,,23.0,0.00955,['Pass'],Pass,0.21000000000000008,0.7899999999999999,1.0,1.0,0.1
43.0,8.0,wc_8,,0.0,,,,0.0,,,,Pass,,,,,
43.0,8.0,wc_8,wc_5,0.0,"[('wc_5', 0.15000000000000002), ('wc_6', 0.3200000000000002), ('wc_3', 0.5200000000000004), ('wc_1', 0.21000000000000008)]",0.7808224000000002,,,39.0,0.012774,['Fail'],Pass,0.15000000000000002,-0.15000000000000002,0.0,0.0,0.1
43.0,8.0,wc_8,,0.0,,,,182.0,,,,Pass,,,,,
43.0,8.0,wc_8,wc_16,0.0,"[('wc_16', 0.2500000000000001), ('wc_6', 0.3200000000000002), ('wc_3', 0.5200000000000004), ('wc_1', 0.21000000000000008), ('wc_5', 0.15000000000000002)]",0.8356168000000002,,,29.0,0.016468,['Fail'],Pass,0.2500000000000001,-0.2500000000000001,0.0,8.0,0.1
43.0,8.0,wc_8,,0.0,,,,41.0,,,,Pass,,,,,
43.0,8.0,wc_8,wc_12,0.0,"[('wc_6', 0.3200000000000002), ('wc_3', 0.5200000000000004), ('wc_1', 0.21000000000000008), ('wc_5', 0.15000000000000002), ('wc_16', 0.2500000000000001)]",0.8356168000000002,,,36.0,0.01651,['Fail'],Pass,0.2300000000000001,0.2699999999999999,1.0,2.0,0.1
43.0,8.0,wc_8,,0.0,,,,0.0,,,,Pass,,,,,
43.0,8.0,wc_8,wc_13,0.0,"[('wc_13', 0.29000000000000015), ('wc_6', 0.3200000000000002), ('wc_3', 0.5200000000000004), ('wc_1', 0.21000000000000008), ('wc_5', 0.15000000000000002), ('wc_16', 0.2500000000000001)]",0.8832879280000002,,,23.0,0.017192,['Fail'],Pass,0.29000000000000015,0.04333333333333317,1.0,3.0,0.1
43.0,8.0,wc_8,,0.0,,,,0.0,,,,Pass,,,,,
43.0,8.0,wc_8,wc_15,0.0,"[('wc_15', 0.3700000000000002), ('wc_8', 0.5400000000000004), ('wc_10', 0.4900000000000003), ('wc_12', 0.2300000000000001)]",0.8861955400000002,,,25.0,0.03146,['Pass'],Pass,0.3700000000000002,-0.22714285714285737,1.0,7.0,0.4
43.0,8.0,wc_8,,0.0,,,,0.0,,,,Pass,,,,,
43.0,8.0,wc_8,wc_17,1.0,"[('wc_17', 0.5400000000000004), ('wc_8', 0.5400000000000004), ('wc_10', 0.4900000000000003), ('wc_12', 0.2300000000000001), ('wc_15', 0.3700000000000002)]",0.9476499484000002,,,38.0,0.05552,['Pass'],Pass,0.5500000000000004,0.11666666666666625,2.0,3.0,0.7
51.0,7.0,wc_7,,0.0,,,,203.0,,,,Pass,,,,,
51.0,7.0,wc_7,,0.0,,,73.0,,,,,Pass,,,,,
51.0,7.0,wc_7,,0.0,,,,0.0,,,,Pass,,,,,
51.0,7.0,wc_7,wc_7,0.0,"[('wc_7', 0.5400000000000004)]",0.5400000000000004,,,39.0,0.002255,['Pass'],Pass,0.5400000000000004,-0.34000000000000036,0.0,0.0,0.9
51.0,7.0,wc_7,,0.0,,,,0.0,,,,Pass,,,,,
51.0,7.0,wc_7,wc_10,0.0,"[('wc_10', 0.5000000000000003), ('wc_7', 0.5400000000000004)]",0.7700000000000004,,,21.0,0.004062,['Pass'],Pass,0.5000000000000003,0.1666666666666663,4.0,6.0,1.0
51.0,7.0,wc_7,,0.0,,,,162.0,,,,Pass,,,,,
51.0,7.0,wc_7,wc_16,0.0,"[('wc_7', 0.5400000000000004), ('wc_10', 0.5000000000000003)]",0.7700000000000004,,,23.0,0.006482,['Pass'],Pass,0.2400000000000001,-0.2400000000000001,0.0,9.0,0.1
51.0,7.0,wc_7,,0.0,,,,382.0,,,,Pass,,,,,
51.0,7.0,wc_7,wc_11,0.0,"[('wc_7', 0.5400000000000004), ('wc_10', 0.5000000000000003)]",0.7700000000000004,,,24.0,0.008147,['Pass'],Pass,0.20000000000000007,-0.10000000000000006,0.0,0.0,0.1
51.0,7.0,wc_7,,0.0,,,,162.0,,,,Pass,,,,,
51.0,7.0,wc_7,wc_17,0.0,"[('wc_17', 0.5500000000000004), ('wc_7', 0.5400000000000004), ('wc_10', 0.5000000000000003)]",0.8965000000000003,,,28.0,0.011008,['Pass'],Pass,0.5500000000000004,0.11666666666666625,2.0,3.0,0.7
51.0,7.0,wc_7,,0.0,,,,243.0,,,,Pass,,,,,
51.0,7.0,wc_7,wc_1,1.0,"[('wc_1', 0.21000000000000008), ('wc_7', 0.5400000000000004), ('wc_10', 0.5000000000000003), ('wc_17', 0.5500000000000004)]",0.9182350000000001,,,33.0,0.046196,['Pass'],Pass,0.22000000000000008,0.44666666666666655,2.0,3.0,0.1
57.0,10.0,wc_10,,0.0,,,,223.0,,,,Fail,,,,,
57.0,10.0,wc_10,,0.0,,,74.0,,,,,Fail,,,,,
57.0,10.0,wc_10,,0.0,,,,0.0,,,,Fail,,,,,
57.0,10.0,wc_10,wc_10,0.0,"[('wc_10', 0.5100000000000003)]",0.5100000000000003,,,25.0,0.002199,['Fail'],Fail,0.5100000000000003,0.20428571428571396,5.0,7.0,1.0
57.0,10.0,wc_10,,0.0,,,,81.0,,,,Fail,,,,,
57.0,10.0,wc_10,wc_8,0.0,"[('wc_8', 0.5400000000000004)]",0.5400000000000004,,,34.0,0.004092999999999999,['Pass'],Fail,0.5400000000000004,-0.25428571428571467,2.0,7.0,0.6
57.0,10.0,wc_10,,0.0,,,,182.0,,,,Fail,,,,,
57.0,10.0,wc_10,wc_2,0.0,"[('wc_2', 0.6100000000000004), ('wc_10', 0.5100000000000003)]",0.8089000000000004,,,29.0,0.006613,['Fail'],Fail,0.6100000000000004,-0.32428571428571473,2.0,7.0,0.9
57.0,10.0,wc_10,,0.0,,,,102.0,,,,Fail,,,,,
57.0,10.0,wc_10,wc_1,0.0,"[('wc_1', 0.22000000000000008), ('wc_10', 0.5100000000000003), ('wc_2', 0.6100000000000004)]",0.8509420000000003,,,32.0,0.011295,['Fail'],Fail,0.22000000000000008,0.44666666666666655,2.0,3.0,0.1
57.0,10.0,wc_10,,0.0,,,,243.0,,,,Fail,,,,,
57.0,10.0,wc_10,wc_15,0.0,"[('wc_10', 0.5100000000000003), ('wc_2', 0.6100000000000004), ('wc_1', 0.22000000000000008)]",0.8509420000000003,,,29.0,0.009752,['Fail'],Fail,0.3700000000000002,-0.147777777777778,2.0,9.0,0.4
57.0,10.0,wc_10,,0.0,,,,223.0,,,,Fail,,,,,
57.0,10.0,wc_10,wc_6,0.0,"[('wc_10', 0.5100000000000003), ('wc_2', 0.6100000000000004), ('wc_1', 0.22000000000000008)]",0.8509420000000003,,,22.0,0.012355000000000001,['Fail'],Fail,0.3200000000000002,-0.020000000000000184,0.0,0.0,0.3
57.0,10.0,wc_10,,0.0,,,,263.0,,,,Fail,,,,,
57.0,10.0,wc_10,wc_17,1.0,"[('wc_17', 0.5600000000000004), ('wc_8', 0.5400000000000004), ('wc_15', 0.3700000000000002), ('wc_6', 0.3200000000000002)]",0.9132918400000002,,,31.0,0.053846,['Pass'],Fail,0.5700000000000004,0.22999999999999965,4.0,5.0,0.7
66.0,10.0,wc_10,,0.0,,,,342.0,,,,Pass,,,,,
66.0,10.0,wc_10,,0.0,,,66.0,,,,,Pass,,,,,
66.0,10.0,wc_10,,0.0,,,,0.0,,,,Pass,,,,,
66.0,10.0,wc_10,wc_10,0.0,"[('wc_10', 0.5100000000000003)]",0.5100000000000003,,,27.0,0.002183,['Pass'],Pass,0.5100000000000003,0.11499999999999966,5.0,8.0,1.0
66.0,10.0,wc_10,,0.0,,,,81.0,,,,Pass,,,,,
66.0,10.0,wc_10,wc_8,0.0,"[('wc_8', 0.5400000000000004), ('wc_10', 0.5100000000000003)]",0.7746000000000004,,,37.0,0.004025,['Pass'],Pass,0.5400000000000004,-0.16500000000000037,3.0,8.0,0.6
66.0,10.0,wc_10,,0.0,,,,281.0,,,,Pass,,,,,
66.0,10.0,wc_10,wc_3,0.0,"[('wc_3', 0.5100000000000003), ('wc_10', 0.5100000000000003), ('wc_8', 0.5400000000000004)]",0.8895540000000002,,,26.0,0.005982,['Pass'],Pass,0.5100000000000003,-0.5100000000000003,0.0,2.0,0.6
66.0,10.0,wc_10,,0.0,,,,141.0,,,,Pass,,,,,
66.0,10.0,wc_10,wc_12,0.0,"[('wc_10', 0.5100000000000003), ('wc_8', 0.5400000000000004), ('wc_3', 0.5100000000000003)]",0.8895540000000003,,,36.0,0.008053000000000001,['Pass'],Pass,0.2400000000000001,0.15999999999999992,2.0,5.0,0.1
66.0,10.0,wc_10,,0.0,,,,321.0,,,,Pass,,,,,
66.0,10.0,wc_10,wc_9,1.0,"[('wc_9', 0.5500000000000004), ('wc_10', 0.5100000000000003), ('wc_8', 0.5400000000000004), ('wc_3', 0.5100000000000003)]",0.9502993000000002,,,26.0,0.047474,['Pass'],Pass,0.5500000000000004,-0.38333333333333375,1.0,6.0,0.7
71.0,9.0,wc_9,,0.0,,,,0.0,,,,Fail,,,,,
71.0,9.0,wc_9,,0.0,,,52.0,,,,,Fail,,,,,
71.0,9.0,wc_9,,0.0,,,,0.0,,,,Fail,,,,,
71.0,9.0,wc_9,wc_9,0.0,"[('wc_9', 0.5500000000000004)]",0.5500000000000004,,,23.0,0.002769,['Fail'],Fail,0.5500000000000004,-0.38333333333333375,1.0,6.0,0.7
71.0,9.0,wc_9,,0.0,,,,382.0,,,,Fail,,,,,
71.0,9.0,wc_9,wc_4,0.0,"[('wc_4', 0.3700000000000002), ('wc_9', 0.5500000000000004)]",0.7165000000000004,,,32.0,0.004922,['Fail'],Fail,0.3700000000000002,-0.22714285714285737,1.0,7.0,0.4
71.0,9.0,wc_9,,0.0,,,,162.0,,,,Fail,,,,,
71.0,9.0,wc_9,wc_10,0.0,"[('wc_10', 0.5200000000000004), ('wc_9', 0.5500000000000004), ('wc_4', 0.3700000000000002)]",0.8639200000000002,,,27.0,0.008088000000000001,['Fail'],Fail,0.5200000000000004,0.14666666666666628,6.0,9.0,1.0
71.0,9.0,wc_9,,0.0,,,,81.0,,,,Fail,,,,,
71.0,9.0,wc_9,wc_12,0.0,"[('wc_9', 0.5500000000000004), ('wc_4', 0.3700000000000002), ('wc_10', 0.5200000000000004)]",0.8639200000000002,,,28.0,0.008493,['Fail'],Fail,0.2400000000000001,0.09333333333333321,2.0,6.0,0.1
71.0,9.0,wc_9,,0.0,,,,182.0,,,,Fail,,,,,
71.0,9.0,wc_9,wc_6,1.0,"[('wc_6', 0.3300000000000002), ('wc_9', 0.5500000000000004), ('wc_4', 0.3700000000000002), ('wc_10', 0.5200000000000004)]",0.9088264000000001,,,29.0,0.047173,['Fail'],Fail,0.3400000000000002,0.32666666666666644,2.0,3.0,0.3
78.0,9.0,wc_9,,0.0,,,,0.0,,,,Pass,,,,,
78.0,9.0,wc_9,,0.0,,,62.0,,,,,Pass,,,,,
78.0,9.0,wc_9,,0.0,,,,0.0,,,,Pass,,,,,
78.0,9.0,wc_9,wc_9,0.0,"[('wc_9', 0.5500000000000004)]",0.5500000000000004,,,34.0,0.002294,['Pass'],Pass,0.5500000000000004,-0.2642857142857147,2.0,7.0,0.7
78.0,9.0,wc_9,,0.0,,,,382.0,,,,Pass,,,,,
78.0,9.0,wc_9,wc_4,0.0,"[('wc_9', 0.5500000000000004)]",0.5500000000000004,,,35.0,0.0048000000000000004,['Pass'],Pass,0.3700000000000002,-0.12000000000000022,2.0,8.0,0.4
78.0,9.0,wc_9,,0.0,,,,61.0,,,,Pass,,,,,
78.0,9.0,wc_9,wc_1,0.0,"[('wc_1', 0.22000000000000008), ('wc_9', 0.5500000000000004)]",0.6490000000000004,,,37.0,0.006686,['Pass'],Pass,0.22000000000000008,0.11333333333333323,2.0,6.0,0.1
78.0,9.0,wc_9,,0.0,,,,0.0,,,,Pass,,,,,
78.0,9.0,wc_9,wc_3,0.0,"[('wc_3', 0.5100000000000003), ('wc_9', 0.5500000000000004), ('wc_1', 0.22000000000000008)]",0.8280100000000002,,,24.0,0.010252,['Pass'],Pass,0.5100000000000003,-0.26000000000000034,1.0,4.0,0.6
78.0,9.0,wc_9,,0.0,,,,182.0,,,,Pass,,,,,
78.0,9.0,wc_9,wc_10,1.0,"[('wc_10', 0.5300000000000004), ('wc_9', 0.5500000000000004), ('wc_1', 0.22000000000000008), ('wc_3', 0.5100000000000003)]",0.9191647000000002,,,27.0,0.044544,['Pass'],Pass,0.5400000000000004,0.45999999999999963,1.0,1.0,1.0
92.0,11.0,wc_11,,0.0,,,,0.0,,,,Pass,,,,,
92.0,11.0,wc_11,,0.0,,,58.0,,,,,Pass,,,,,
92.0,11.0,wc_11,,0.0,,,,0.0,,,,Pass,,,,,
92.0,11.0,wc_11,wc_11,0.0,"[('wc_11', 0.19000000000000006)]",0.19000000000000006,,,37.0,0.002116,['Pass'],Pass,0.19000000000000006,-0.19000000000000006,0.0,5.0,0.1
92.0,11.0,wc_11,,0.0,,,,103.0,,,,Pass,,,,,
92.0,11.0,wc_11,wc_10,0.0,"[('wc_10', 0.5400000000000004), ('wc_11', 0.19000000000000006)]",0.6274000000000004,,,37.0,0.004819,['Pass'],Pass,0.5400000000000004,0.45999999999999963,1.0,1.0,1.0
92.0,11.0,wc_11,,0.0,,,,61.0,,,,Pass,,,,,
92.0,11.0,wc_11,wc_7,0.0,"[('wc_7', 0.5500000000000004), ('wc_11', 0.19000000000000006), ('wc_10', 0.5400000000000004)]",0.8323300000000002,,,26.0,0.007441,['Pass'],Pass,0.5500000000000004,-0.35000000000000037,1.0,5.0,0.9
92.0,11.0,wc_11,,0.0,,,,142.0,,,,Pass,,,,,
92.0,11.0,wc_11,wc_12,0.0,"[('wc_11', 0.19000000000000006), ('wc_10', 0.5400000000000004), ('wc_7', 0.5500000000000004)]",0.8323300000000002,,,30.0,0.013422,['Pass'],Pass,0.2400000000000001,0.009999999999999898,2.0,8.0,0.1
92.0,11.0,wc_11,,0.0,,,,0.0,,,,Pass,,,,,
92.0,11.0,wc_11,wc_16,0.0,"[('wc_11', 0.19000000000000006), ('wc_10', 0.5400000000000004), ('wc_7', 0.5500000000000004)]",0.8323300000000002,,,40.0,0.013277,['Pass'],Pass,0.2300000000000001,-0.2300000000000001,0.0,4.0,0.1
92.0,11.0,wc_11,,0.0,,,,0.0,,,,Pass,,,,,
92.0,11.0,wc_11,wc_17,1.0,"[('wc_17', 0.5700000000000004), ('wc_11', 0.19000000000000006), ('wc_10', 0.5400000000000004), ('wc_7', 0.5500000000000004)]",0.9279019000000002,,,22.0,0.04789399999999999,['Pass'],Pass,0.5700000000000004,-0.014444444444444815,5.0,9.0,0.7
101.0,12.0,wc_12,,0.0,,,,21.0,,,,Pass,,,,,
101.0,12.0,wc_12,,0.0,,,78.0,,,,,Pass,,,,,
101.0,12.0,wc_12,,0.0,,,,0.0,,,,Pass,,,,,
101.0,12.0,wc_12,wc_12,0.0,"[('wc_12', 0.2300000000000001)]",0.2300000000000001,,,24.0,0.002227,['Fail'],Pass,0.2300000000000001,-0.007777777777777883,2.0,9.0,0.1
101.0,12.0,wc_12,,0.0,,,,182.0,,,,Pass,,,,,
101.0,12.0,wc_12,wc_6,0.0,"[('wc_6', 0.3400000000000002)]",0.3400000000000002,,,24.0,0.004024,['Pass'],Pass,0.3400000000000002,0.05999999999999983,2.0,5.0,0.3
101.0,12.0,wc_12,,0.0,,,,361.0,,,,Pass,,,,,
101.0,12.0,wc_12,wc_5,0.0,"[('wc_6', 0.3400000000000002)]",0.3400000000000002,,,37.0,0.006199,['Pass'],Pass,0.14,-0.14,0.0,7.0,0.1
101.0,12.0,wc_12,,0.0,,,,182.0,,,,Pass,,,,,
101.0,12.0,wc_12,wc_16,0.0,"[('wc_16', 0.22000000000000008), ('wc_12', 0.2300000000000001), ('wc_5', 0.14)]",0.48348400000000014,,,31.0,0.00857,['Fail'],Pass,0.22000000000000008,-0.22000000000000008,0.0,5.0,0.1
101.0,12.0,wc_12,,0.0,,,,263.0,,,,Pass,,,,,
101.0,12.0,wc_12,wc_1,0.0,"[('wc_1', 0.2300000000000001), ('wc_6', 0.3400000000000002)]",0.49180000000000024,,,21.0,0.013663000000000002,['Pass'],Pass,0.2300000000000001,0.1449999999999999,3.0,8.0,0.1
101.0,12.0,wc_12,,0.0,,,,243.0,,,,Pass,,,,,
101.0,12.0,wc_12,wc_11,0.0,"[('wc_11', 0.19000000000000006), ('wc_6', 0.3400000000000002), ('wc_1', 0.2300000000000001)]",0.5883580000000002,,,35.0,0.014471999999999999,['Pass'],Pass,0.19000000000000006,-0.0233333333333334,1.0,6.0,0.1
101.0,12.0,wc_12,,0.0,,,,342.0,,,,Pass,,,,,
101.0,12.0,wc_12,wc_4,0.0,"[('wc_4', 0.3600000000000002), ('wc_12', 0.2300000000000001), ('wc_5', 0.14), ('wc_16', 0.22000000000000008)]",0.6694297600000002,,,22.0,0.015036,['Fail'],Pass,0.3600000000000002,-0.1600000000000002,0.0,0.0,0.4
101.0,12.0,wc_12,,0.0,,,,121.0,,,,Pass,,,,,
101.0,12.0,wc_12,wc_8,0.0,"[('wc_8', 0.5400000000000004), ('wc_6', 0.3400000000000002), ('wc_1', 0.2300000000000001), ('wc_11', 0.19000000000000006)]",0.8106446800000002,,,38.0,0.015252,['Pass'],Pass,0.5400000000000004,-0.20666666666666705,0.0,0.0,0.6
101.0,12.0,wc_12,,0.0,,,,223.0,,,,Pass,,,,,
101.0,12.0,wc_12,wc_17,1.0,"[('wc_17', 0.5700000000000004), ('wc_6', 0.3400000000000002), ('wc_1', 0.2300000000000001), ('wc_11', 0.19000000000000006), ('wc_8', 0.5400000000000004)]",0.9185772124000002,,,34.0,0.055668999999999996,['Pass'],Pass,0.5800000000000004,-0.5800000000000004,0.0,0.0,0.7
113.0,13.0,wc_13,,0.0,,,,41.0,,,,Pass,,,,,
113.0,13.0,wc_13,,0.0,,,73.0,,,,,Pass,,,,,
113.0,13.0,wc_13,,0.0,,,,0.0,,,,Pass,,,,,
113.0,13.0,wc_13,wc_13,0.0,"[('wc_13', 0.28000000000000014)]",0.28000000000000014,,,36.0,0.002567,['Pass'],Pass,0.28000000000000014,-0.18909090909090923,0.0,0.0,0.1
113.0,13.0,wc_13,,0.0,,,,361.0,,,,Pass,,,,,
113.0,13.0,wc_13,wc_4,0.0,"[('wc_4', 0.3500000000000002), ('wc_13', 0.28000000000000014)]",0.5320000000000003,,,37.0,0.005690000000000001,['Pass'],Pass,0.3500000000000002,-0.3500000000000002,0.0,1.0,0.4
113.0,13.0,wc_13,,0.0,,,,0.0,,,,Pass,,,,,
113.0,13.0,wc_13,wc_5,0.0,"[('wc_5', 0.13), ('wc_13', 0.28000000000000014), ('wc_4', 0.3500000000000002)]",0.5928400000000003,,,40.0,0.006617,['Pass'],Pass,0.13,-0.13,0.0,8.0,0.1
113.0,13.0,wc_13,,0.0,,,,162.0,,,,Pass,,,,,
113.0,13.0,wc_13,wc_11,0.0,"[('wc_13', 0.28000000000000014), ('wc_4', 0.3500000000000002), ('wc_5', 0.13)]",0.5928400000000003,,,39.0,0.007958999999999999,['Pass'],Pass,0.20000000000000007,0.08571428571428563,2.0,7.0,0.1
113.0,13.0,wc_13,,0.0,,,,103.0,,,,Pass,,,,,
113.0,13.0,wc_13,wc_10,0.0,"[('wc_10', 0.5500000000000004), ('wc_13', 0.28000000000000014), ('wc_4', 0.3500000000000002), ('wc_5', 0.13)]",0.8167780000000002,,,21.0,0.011548,['Pass'],Pass,0.5500000000000004,0.11666666666666625,2.0,3.0,1.0
113.0,13.0,wc_13,,0.0,,,,243.0,,,,Pass,,,,,
113.0,13.0,wc_13,wc_2,1.0,"[('wc_2', 0.6000000000000004), ('wc_13', 0.28000000000000014), ('wc_4', 0.3500000000000002), ('wc_5', 0.13), ('wc_10', 0.5500000000000004)]",0.9267112000000002,,,36.0,0.05394900000000001,['Pass'],Pass,0.6000000000000004,-0.6000000000000004,0.0,0.0,0.9
120.0,16.0,wc_16,,0.0,,,,243.0,,,,Fail,,,,,
120.0,16.0,wc_16,,0.0,,,61.0,,,,,Fail,,,,,
120.0,16.0,wc_16,,0.0,,,,0.0,,,,Fail,,,,,
120.0,16.0,wc_16,wc_16,0.0,"[('wc_16', 0.21000000000000008)]",0.21000000000000008,,,37.0,0.004452,['Pass'],Fail,0.21000000000000008,-0.21000000000000008,0.0,7.0,0.1
120.0,16.0,wc_16,,0.0,,,,223.0,,,,Fail,,,,,
120.0,16.0,wc_16,wc_7,0.0,"[('wc_7', 0.5500000000000004)]",0.5500000000000004,,,28.0,0.005829,['Fail'],Fail,0.5500000000000004,-0.3000000000000004,2.0,8.0,0.9
120.0,16.0,wc_16,,0.0,,,,182.0,,,,Fail,,,,,
120.0,16.0,wc_16,wc_1,0.0,"[('wc_1', 0.2400000000000001), ('wc_7', 0.5500000000000004)]",0.6580000000000004,,,22.0,0.0079,['Fail'],Fail,0.2400000000000001,0.15999999999999992,0.0,0.0,0.1
120.0,16.0,wc_16,,0.0,,,,222.0,,,,Fail,,,,,
120.0,16.0,wc_16,wc_14,0.0,"[('wc_14', 0.6100000000000004), ('wc_7', 0.5500000000000004), ('wc_1', 0.2400000000000001)]",0.8666200000000003,,,35.0,0.009965,['Fail'],Fail,0.6100000000000004,-0.3877777777777782,0.0,0.0,1.0
120.0,16.0,wc_16,,0.0,,,,321.0,,,,Fail,,,,,
120.0,16.0,wc_16,wc_3,1.0,"[('wc_3', 0.5100000000000003), ('wc_7', 0.5500000000000004), ('wc_1', 0.2400000000000001), ('wc_14', 0.6100000000000004)]",0.9346438000000001,,,38.0,0.058521000000000004,['Fail'],Fail,0.5100000000000003,-0.17666666666666703,3.0,9.0,0.6
130.0,14.0,wc_14,,0.0,,,,181.0,,,,Pass,,,,,
130.0,14.0,wc_14,,0.0,,,61.0,,,,,Pass,,,,,
130.0,14.0,wc_14,,0.0,,,,0.0,,,,Pass,,,,,
130.0,14.0,wc_14,wc_14,0.0,"[('wc_14', 0.6200000000000004)]",0.6200000000000004,,,34.0,0.003032,['Pass'],Pass,0.6200000000000004,0.37999999999999956,1.0,1.0,1.0
130.0,14.0,wc_14,,0.0,,,,82.0,,,,Pass,,,,,
130.0,14.0,wc_14,wc_12,0.0,"[('wc_12', 0.22000000000000008), ('wc_14', 0.6200000000000004)]",0.7036000000000004,,,26.0,0.004768,['Pass'],Pass,0.22000000000000008,-0.22000000000000008,0.0,2.0,0.1
130.0,14.0,wc_14,,0.0,,,,381.0,,,,Pass,,,,,
130.0,14.0,wc_14,wc_4,0.0,"[('wc_4', 0.3600000000000002), ('wc_14', 0.6200000000000004), ('wc_12', 0.22000000000000008)]",0.8103040000000004,,,40.0,0.007619,['Pass'],Pass,0.3600000000000002,-0.026666666666666894,1.0,3.0,0.4
130.0,14.0,wc_14,,0.0,,,,81.0,,,,Pass,,,,,
130.0,14.0,wc_14,wc_2,1.0,"[('wc_2', 0.6000000000000004), ('wc_14', 0.6200000000000004), ('wc_12', 0.22000000000000008), ('wc_4', 0.3600000000000002)]",0.9241216000000002,,,39.0,0.04605599999999999,['Pass'],Pass,0.6000000000000004,-0.10000000000000042,1.0,2.0,0.9
140.0,16.0,wc_16,,0.0,,,,243.0,,,,Fail,,,,,
140.0,16.0,wc_16,,0.0,,,51.0,,,,,Fail,,,,,
140.0,16.0,wc_16,,0.0,,,,0.0,,,,Fail,,,,,
140.0,16.0,wc_16,wc_16,0.0,"[('wc_16', 0.20000000000000007)]",0.20000000000000007,,,24.0,0.002322,['Pass'],Fail,0.20000000000000007,-0.20000000000000007,0.0,9.0,0.1
140.0,16.0,wc_16,,0.0,,,,223.0,,,,Fail,,,,,
140.0,16.0,wc_16,wc_7,0.0,"[('wc_7', 0.5500000000000004)]",0.5500000000000004,,,25.0,0.004481000000000001,['Fail'],Fail,0.5500000000000004,-0.2500000000000004,0.0,0.0,0.9
140.0,16.0,wc_16,,0.0,,,,203.0,,,,Fail,,,,,
140.0,16.0,wc_16,wc_15,0.0,"[('wc_15', 0.3700000000000002), ('wc_7', 0.5500000000000004)]",0.7165000000000004,,,36.0,0.00858,['Fail'],Fail,0.3700000000000002,-0.3700000000000002,0.0,8.0,0.4
140.0,16.0,wc_16,,0.0,,,,223.0,,,,Fail,,,,,
140.0,16.0,wc_16,wc_6,0.0,"[('wc_6', 0.3500000000000002), ('wc_7', 0.5500000000000004), ('wc_15', 0.3700000000000002)]",0.8157250000000003,,,20.0,0.009812000000000001,['Fail'],Fail,0.3500000000000002,-0.016666666666666885,3.0,9.0,0.3
140.0,16.0,wc_16,,0.0,,,,222.0,,,,Fail,,,,,
140.0,16.0,wc_16,wc_2,1.0,"[('wc_2', 0.6000000000000004), ('wc_7', 0.5500000000000004), ('wc_15', 0.3700000000000002), ('wc_6', 0.3500000000000002)]",0.9262900000000002,,,36.0,0.054572999999999997,['Fail'],Fail,0.6100000000000004,0.0566666666666662,2.0,3.0,0.9
148.0,16.0,wc_16,,0.0,,,,243.0,,,,Pass,,,,,
148.0,16.0,wc_16,,0.0,,,63.0,,,,,Pass,,,,,
148.0,16.0,wc_16,,0.0,,,,0.0,,,,Pass,,,,,
148.0,16.0,wc_16,wc_16,0.0,"[('wc_16', 0.19000000000000006)]",0.19000000000000006,,,35.0,0.002363,['Pass'],Pass,0.19000000000000006,-0.19000000000000006,0.0,0.0,0.1
148.0,16.0,wc_16,,0.0,,,,422.0,,,,Pass,,,,,
148.0,16.0,wc_16,wc_5,0.0,"[('wc_16', 0.19000000000000006)]",0.19000000000000006,,,25.0,0.00724,['Pass'],Pass,0.13,-0.046666666666666676,0.0,0.0,0.1
148.0,16.0,wc_16,,0.0,,,,162.0,,,,Pass,,,,,
148.0,16.0,wc_16,wc_15,0.0,"[('wc_15', 0.3700000000000002), ('wc_16', 0.19000000000000006)]",0.48970000000000025,,,26.0,0.009072,['Pass'],Pass,0.3700000000000002,-0.2588888888888891,1.0,9.0,0.4
148.0,16.0,wc_16,,0.0,,,,303.0,,,,Pass,,,,,
148.0,16.0,wc_16,wc_2,0.0,"[('wc_2', 0.6100000000000004), ('wc_16', 0.19000000000000006), ('wc_15', 0.3700000000000002)]",0.8009830000000003,,,25.0,0.010669,['Pass'],Pass,0.6100000000000004,0.0566666666666662,2.0,3.0,0.9
148.0,16.0,wc_16,,0.0,,,,203.0,,,,Pass,,,,,
148.0,16.0,wc_16,wc_10,1.0,"[('wc_10', 0.5600000000000004), ('wc_16', 0.19000000000000006), ('wc_15', 0.3700000000000002), ('wc_2', 0.6100000000000004)]",0.9124325200000002,,,23.0,0.056953000000000004,['Pass'],Pass,0.5600000000000004,-0.060000000000000386,4.0,8.0,1.0
158.0,15.0,wc_15,,0.0,,,,142.0,,,,Pass,,,,,
158.0,15.0,wc_15,,0.0,,,72.0,,,,,Pass,,,,,
158.0,15.0,wc_15,,0.0,,,,0.0,,,,Pass,,,,,
158.0,15.0,wc_15,wc_15,0.0,"[('wc_15', 0.3700000000000002)]",0.3700000000000002,,,31.0,0.002507,['Fail'],Pass,0.3700000000000002,-0.3700000000000002,0.0,0.0,0.4
158.0,15.0,wc_15,,0.0,,,,243.0,,,,Pass,,,,,
158.0,15.0,wc_15,wc_7,0.0,"[('wc_7', 0.5600000000000004)]",0.5600000000000004,,,39.0,0.004556,['Pass'],Pass,0.5600000000000004,-0.060000000000000386,1.0,2.0,0.9
158.0,15.0,wc_15,,0.0,,,,0.0,,,,Pass,,,,,
158.0,15.0,wc_15,wc_10,0.0,"[('wc_10', 0.5600000000000004), ('wc_7', 0.5600000000000004)]",0.8064000000000003,,,26.0,0.007083,['Pass'],Pass,0.5600000000000004,-0.060000000000000386,4.0,8.0,1.0
158.0,15.0,wc_15,,0.0,,,,0.0,,,,Pass,,,,,
158.0,15.0,wc_15,wc_11,0.0,"[('wc_7', 0.5600000000000004), ('wc_10', 0.5600000000000004)]",0.8064000000000003,,,23.0,0.011262000000000001,['Pass'],Pass,0.20000000000000007,-0.03333333333333341,0.0,0.0,0.1
158.0,15.0,wc_15,,0.0,,,,101.0,,,,Pass,,,,,
158.0,15.0,wc_15,wc_14,1.0,"[('wc_14', 0.6300000000000004), ('wc_7', 0.5600000000000004), ('wc_10', 0.5600000000000004)]",0.9283680000000002,,,39.0,0.099739,['Pass'],Pass,0.6300000000000004,-0.03000000000000047,3.0,5.0,1.0
168.0,17.0,wc_17,,0.0,,,,0.0,,,,Fail,,,,,
168.0,17.0,wc_17,,0.0,,,62.0,,,,,Fail,,,,,
168.0,17.0,wc_17,,0.0,,,,0.0,,,,Fail,,,,,
168.0,17.0,wc_17,wc_17,0.0,"[('wc_17', 0.5800000000000004)]",0.5800000000000004,,,21.0,0.003265,['Fail'],Fail,0.5800000000000004,-0.5800000000000004,0.0,6.0,0.7
168.0,17.0,wc_17,,0.0,,,,223.0,,,,Fail,,,,,
168.0,17.0,wc_17,wc_8,0.0,"[('wc_8', 0.5500000000000004), ('wc_17', 0.5800000000000004)]",0.8110000000000004,,,26.0,0.005515000000000001,['Fail'],Fail,0.5500000000000004,-0.40714285714285753,1.0,7.0,0.6
168.0,17.0,wc_17,,0.0,,,,142.0,,,,Fail,,,,,
168.0,17.0,wc_17,wc_13,0.0,"[('wc_13', 0.29000000000000015), ('wc_17', 0.5800000000000004), ('wc_8', 0.5500000000000004)]",0.8658100000000003,,,34.0,0.006507000000000001,['Fail'],Fail,0.29000000000000015,-0.12333333333333349,1.0,6.0,0.1
168.0,17.0,wc_17,,0.0,,,,361.0,,,,Fail,,,,,
168.0,17.0,wc_17,wc_4,1.0,"[('wc_4', 0.3700000000000002), ('wc_17', 0.5800000000000004), ('wc_8', 0.5500000000000004), ('wc_13', 0.29000000000000015)]",0.9154603000000002,,,31.0,0.08968599999999999,['Fail'],Fail,0.3700000000000002,0.004999999999999782,3.0,8.0,0.4
188.0,17.0,wc_17,,0.0,,,,222.0,,,,Pass,,,,,
188.0,17.0,wc_17,,0.0,,,75.0,,,,,Pass,,,,,
188.0,17.0,wc_17,,0.0,,,,0.0,,,,Pass,,,,,
188.0,17.0,wc_17,wc_17,0.0,"[('wc_17', 0.5800000000000004)]",0.5800000000000004,,,34.0,0.009626,['Pass'],Pass,0.5800000000000004,-0.43714285714285755,1.0,7.0,0.7
188.0,17.0,wc_17,,0.0,,,,61.0,,,,Pass,,,,,
188.0,17.0,wc_17,wc_14,0.0,"[('wc_14', 0.6300000000000004), ('wc_17', 0.5800000000000004)]",0.8446000000000004,,,27.0,0.011057,['Pass'],Pass,0.6300000000000004,-0.13000000000000045,3.0,6.0,1.0
188.0,17.0,wc_17,,0.0,,,,0.0,,,,Pass,,,,,
188.0,17.0,wc_17,wc_15,1.0,"[('wc_15', 0.3600000000000002), ('wc_17', 0.5800000000000004), ('wc_14', 0.6300000000000004)]",0.9005440000000002,,,30.0,0.18782000000000001,['Pass'],Pass,0.3600000000000002,-0.026666666666666894,1.0,3.0,0.4
