mpecck/BCQC/bcqc_with_qdt/results/raw/input_20/independent_qc/training/20_workpiece/20200429_095732/wp_8_qc_majority_0.9.csv
production_index,step_idx,production_workcell,qc,consent,winner_qc_list,score,production_time,transport_time,inspection_time,network_time,qc_results,actual_quality,qc_score,score_error,in_winner_counter,in_qc_counter,qc_capability
23.0,1.0,wc_1,,0.0,,,51.0,,,,,Fail,,,,,
23.0,1.0,wc_1,,0.0,,,,0.0,,,,Fail,,,,,
23.0,1.0,wc_1,wc_1,0.0,"[('wc_1', 0.31000000000000016)]",0.31000000000000016,,,23.0,0.002582,['Fail'],Fail,0.31000000000000016,-0.31000000000000016,0.0,3.0,0.1
23.0,1.0,wc_1,,0.0,,,,182.0,,,,Fail,,,,,
23.0,1.0,wc_1,wc_8,0.0,"[('wc_8', 0.6100000000000004), ('wc_1', 0.31000000000000016)]",0.7309000000000003,,,34.0,0.006096,['Fail'],Fail,0.6100000000000004,-0.6100000000000004,0.0,4.0,0.6
23.0,1.0,wc_1,,0.0,,,,122.0,,,,Fail,,,,,
23.0,1.0,wc_1,wc_12,0.0,"[('wc_1', 0.31000000000000016), ('wc_8', 0.6100000000000004)]",0.7309000000000003,,,35.0,0.006138,['Fail'],Fail,0.30000000000000016,-0.30000000000000016,0.0,2.0,0.1
23.0,1.0,wc_1,,0.0,,,,381.0,,,,Fail,,,,,
23.0,1.0,wc_1,wc_4,0.0,"[('wc_1', 0.31000000000000016), ('wc_8', 0.6100000000000004)]",0.7309000000000003,,,31.0,0.007560000000000001,['Fail'],Fail,0.3700000000000002,-0.3700000000000002,0.0,9.0,0.4
23.0,1.0,wc_1,,0.0,,,,141.0,,,,Fail,,,,,
23.0,1.0,wc_1,wc_13,0.0,"[('wc_1', 0.31000000000000016), ('wc_8', 0.6100000000000004)]",0.7309000000000003,,,34.0,0.010659,['Fail'],Fail,0.29000000000000015,-0.09000000000000014,0.0,0.0,0.1
23.0,1.0,wc_1,,0.0,,,,182.0,,,,Fail,,,,,
23.0,1.0,wc_1,wc_7,1.0,"[('wc_7', 0.6800000000000005), ('wc_1', 0.31000000000000016), ('wc_8', 0.6100000000000004)]",0.9138880000000003,,,36.0,0.043363,['Fail'],Fail,0.6800000000000005,-0.6800000000000005,0.0,0.0,0.9
136.0,1.0,wc_1,,0.0,,,,182.0,,,,Pass,,,,,
136.0,1.0,wc_1,,0.0,,,51.0,,,,,Pass,,,,,
136.0,1.0,wc_1,,0.0,,,,0.0,,,,Pass,,,,,
136.0,1.0,wc_1,wc_1,0.0,"[('wc_1', 0.31000000000000016)]",0.31000000000000016,,,40.0,0.002909,['Pass'],Pass,0.31000000000000016,-0.060000000000000164,1.0,4.0,0.1
136.0,1.0,wc_1,,0.0,,,,243.0,,,,Pass,,,,,
136.0,1.0,wc_1,wc_15,0.0,"[('wc_15', 0.42000000000000026), ('wc_1', 0.31000000000000016)]",0.5998000000000003,,,32.0,0.00561,['Pass'],Pass,0.42000000000000026,-0.2771428571428574,0.0,0.0,0.4
136.0,1.0,wc_1,,0.0,,,,81.0,,,,Pass,,,,,
136.0,1.0,wc_1,wc_13,0.0,"[('wc_1', 0.31000000000000016), ('wc_15', 0.42000000000000026)]",0.5998000000000003,,,36.0,0.006479,['Pass'],Pass,0.28000000000000014,-0.28000000000000014,0.0,1.0,0.1
136.0,1.0,wc_1,,0.0,,,,202.0,,,,Pass,,,,,
136.0,1.0,wc_1,wc_8,0.0,"[('wc_8', 0.6100000000000004), ('wc_1', 0.31000000000000016), ('wc_15', 0.42000000000000026)]",0.8439220000000003,,,22.0,0.007503,['Pass'],Pass,0.6100000000000004,-0.4100000000000004,1.0,5.0,0.6
136.0,1.0,wc_1,,0.0,,,,0.0,,,,Pass,,,,,
136.0,1.0,wc_1,wc_11,0.0,"[('wc_11', 0.13), ('wc_1', 0.31000000000000016), ('wc_15', 0.42000000000000026), ('wc_8', 0.6100000000000004)]",0.8642121400000002,,,26.0,0.009785,['Pass'],Pass,0.13,0.07,1.0,5.0,0.1
136.0,1.0,wc_1,,0.0,,,,362.0,,,,Pass,,,,,
136.0,1.0,wc_1,wc_5,0.0,"[('wc_5', 0.2300000000000001), ('wc_1', 0.31000000000000016), ('wc_15', 0.42000000000000026), ('wc_8', 0.6100000000000004), ('wc_11', 0.13)]",0.8954433478000002,,,24.0,0.012673,['Pass'],Pass,0.2300000000000001,-0.06333333333333344,1.0,6.0,0.1
136.0,1.0,wc_1,,0.0,,,,81.0,,,,Pass,,,,,
136.0,1.0,wc_1,wc_7,1.0,"[('wc_7', 0.6800000000000005), ('wc_1', 0.31000000000000016), ('wc_15', 0.42000000000000026), ('wc_8', 0.6100000000000004), ('wc_11', 0.13), ('wc_5', 0.2300000000000001)]",0.9665418712960001,,,22.0,0.043727,['Pass'],Pass,0.6900000000000005,0.3099999999999995,1.0,1.0,0.9
153.0,2.0,wc_2,,0.0,,,,202.0,,,,Fail,,,,,
153.0,2.0,wc_2,,0.0,,,61.0,,,,,Fail,,,,,
153.0,2.0,wc_2,,0.0,,,,0.0,,,,Fail,,,,,
153.0,2.0,wc_2,wc_2,0.0,"[('wc_2', 0.6400000000000005)]",0.6400000000000005,,,37.0,0.002299,['Fail'],Fail,0.6400000000000005,-0.4861538461538466,0.0,0.0,0.9
153.0,2.0,wc_2,,0.0,,,,102.0,,,,Fail,,,,,
153.0,2.0,wc_2,wc_1,0.0,"[('wc_2', 0.6400000000000005)]",0.6400000000000005,,,39.0,0.004676,['Fail'],Fail,0.3200000000000002,0.07999999999999985,2.0,5.0,0.1
153.0,2.0,wc_2,,0.0,,,,283.0,,,,Fail,,,,,
153.0,2.0,wc_2,wc_17,0.0,"[('wc_17', 0.5900000000000004), ('wc_2', 0.6400000000000005)]",0.8524000000000003,,,34.0,0.006525,['Fail'],Fail,0.5900000000000004,0.12428571428571389,5.0,7.0,0.7
153.0,2.0,wc_2,,0.0,,,,21.0,,,,Fail,,,,,
153.0,2.0,wc_2,wc_12,0.0,"[('wc_2', 0.6400000000000005), ('wc_17', 0.5900000000000004)]",0.8524000000000003,,,23.0,0.008589,['Fail'],Fail,0.29000000000000015,-0.29000000000000015,0.0,4.0,0.1
153.0,2.0,wc_2,,0.0,,,,361.0,,,,Fail,,,,,
153.0,2.0,wc_2,wc_3,1.0,"[('wc_3', 0.6200000000000004), ('wc_2', 0.6400000000000005), ('wc_17', 0.5900000000000004)]",0.9439120000000002,,,25.0,0.040338,['Fail'],Fail,0.6200000000000004,-0.37000000000000044,2.0,8.0,0.6
178.0,3.0,wc_3,,0.0,,,,0.0,,,,Pass,,,,,
178.0,3.0,wc_3,,0.0,,,77.0,,,,,Pass,,,,,
178.0,3.0,wc_3,,0.0,,,,0.0,,,,Pass,,,,,
178.0,3.0,wc_3,wc_3,0.0,"[('wc_3', 0.6200000000000004)]",0.6200000000000004,,,32.0,0.002235,['Fail'],Pass,0.6200000000000004,-0.37000000000000044,2.0,8.0,0.6
178.0,3.0,wc_3,,0.0,,,,242.0,,,,Pass,,,,,
178.0,3.0,wc_3,wc_17,0.0,"[('wc_3', 0.6200000000000004)]",0.6200000000000004,,,37.0,0.00407,['Fail'],Pass,0.6000000000000004,0.14999999999999958,6.0,8.0,0.7
178.0,3.0,wc_3,,0.0,,,,322.0,,,,Pass,,,,,
178.0,3.0,wc_3,wc_9,0.0,"[('wc_9', 0.5700000000000004), ('wc_17', 0.6000000000000004)]",0.8280000000000003,,,28.0,0.006196999999999999,['Pass'],Pass,0.5700000000000004,-0.5033333333333337,0.0,0.0,0.7
178.0,3.0,wc_3,,0.0,,,,121.0,,,,Pass,,,,,
178.0,3.0,wc_3,wc_13,0.0,"[('wc_13', 0.27000000000000013), ('wc_17', 0.6000000000000004), ('wc_9', 0.5700000000000004)]",0.8744400000000003,,,20.0,0.009146999999999999,['Pass'],Pass,0.27000000000000013,-0.27000000000000013,0.0,3.0,0.1
178.0,3.0,wc_3,,0.0,,,,102.0,,,,Pass,,,,,
178.0,3.0,wc_3,wc_12,1.0,"[('wc_12', 0.28000000000000014), ('wc_17', 0.6000000000000004), ('wc_9', 0.5700000000000004), ('wc_13', 0.27000000000000013)]",0.9095968000000002,,,26.0,0.039769,['Pass'],Pass,0.28000000000000014,-0.11333333333333348,1.0,6.0,0.1
195.0,2.0,wc_2,,0.0,,,,262.0,,,,Pass,,,,,
195.0,2.0,wc_2,,0.0,,,51.0,,,,,Pass,,,,,
195.0,2.0,wc_2,,0.0,,,,0.0,,,,Pass,,,,,
195.0,2.0,wc_2,wc_2,0.0,"[('wc_2', 0.6500000000000005)]",0.6500000000000005,,,23.0,0.002272,['Pass'],Pass,0.6500000000000005,-0.15000000000000047,1.0,2.0,0.9
195.0,2.0,wc_2,,0.0,,,,183.0,,,,Pass,,,,,
195.0,2.0,wc_2,wc_9,0.0,"[('wc_9', 0.5800000000000004), ('wc_2', 0.6500000000000005)]",0.8530000000000003,,,33.0,0.004724,['Pass'],Pass,0.5800000000000004,0.4199999999999996,1.0,1.0,0.7
195.0,2.0,wc_2,,0.0,,,,202.0,,,,Pass,,,,,
195.0,2.0,wc_2,wc_17,1.0,"[('wc_17', 0.6100000000000004), ('wc_2', 0.6500000000000005), ('wc_9', 0.5800000000000004)]",0.9426700000000002,,,23.0,0.035769,['Pass'],Pass,0.6200000000000004,-0.6200000000000004,0.0,0.0,0.7
218.0,4.0,wc_4,,0.0,,,,382.0,,,,Fail,,,,,
218.0,4.0,wc_4,,0.0,,,59.0,,,,,Fail,,,,,
218.0,4.0,wc_4,,0.0,,,,0.0,,,,Fail,,,,,
218.0,4.0,wc_4,wc_4,0.0,"[('wc_4', 0.3600000000000002)]",0.3600000000000002,,,31.0,0.002225,['Pass'],Fail,0.3600000000000002,-0.3600000000000002,0.0,4.0,0.4
218.0,4.0,wc_4,,0.0,,,,182.0,,,,Fail,,,,,
218.0,4.0,wc_4,wc_15,0.0,"[('wc_15', 0.43000000000000027), ('wc_4', 0.3600000000000002)]",0.6352000000000003,,,33.0,0.004223,['Pass'],Fail,0.43000000000000027,-0.18000000000000027,1.0,4.0,0.4
218.0,4.0,wc_4,,0.0,,,,263.0,,,,Fail,,,,,
218.0,4.0,wc_4,wc_8,0.0,"[('wc_4', 0.3600000000000002), ('wc_15', 0.43000000000000027)]",0.6352000000000003,,,32.0,0.005931,['Pass'],Fail,0.6100000000000004,-0.3877777777777782,2.0,9.0,0.6
218.0,4.0,wc_4,,0.0,,,,162.0,,,,Fail,,,,,
218.0,4.0,wc_4,wc_1,0.0,"[('wc_1', 0.3200000000000002), ('wc_8', 0.6100000000000004)]",0.7348000000000003,,,25.0,0.008462999999999998,['Fail'],Fail,0.3200000000000002,-0.07000000000000017,2.0,8.0,0.1
218.0,4.0,wc_4,,0.0,,,,263.0,,,,Fail,,,,,
218.0,4.0,wc_4,wc_16,0.0,"[('wc_8', 0.6100000000000004), ('wc_1', 0.3200000000000002)]",0.7348000000000003,,,35.0,0.010319,['Fail'],Fail,0.20000000000000007,-0.20000000000000007,0.0,8.0,0.1
218.0,4.0,wc_4,,0.0,,,,362.0,,,,Fail,,,,,
218.0,4.0,wc_4,wc_10,1.0,"[('wc_10', 0.6600000000000005), ('wc_8', 0.6100000000000004), ('wc_1', 0.3200000000000002)]",0.9098320000000002,,,24.0,0.043817999999999996,['Fail'],Fail,0.6600000000000005,-0.6600000000000005,0.0,0.0,1.0
284.0,4.0,wc_4,,0.0,,,,362.0,,,,Fail,,,,,
284.0,4.0,wc_4,,0.0,,,54.0,,,,,Fail,,,,,
284.0,4.0,wc_4,,0.0,,,,0.0,,,,Fail,,,,,
284.0,4.0,wc_4,wc_4,0.0,"[('wc_4', 0.3500000000000002)]",0.3500000000000002,,,24.0,0.002443,['Pass'],Fail,0.3500000000000002,-0.3500000000000002,0.0,5.0,0.4
284.0,4.0,wc_4,,0.0,,,,162.0,,,,Fail,,,,,
284.0,4.0,wc_4,wc_10,0.0,"[('wc_10', 0.6600000000000005)]",0.6600000000000005,,,34.0,0.005043,['Fail'],Fail,0.6600000000000005,-0.6600000000000005,0.0,0.0,1.0
284.0,4.0,wc_4,,0.0,,,,61.0,,,,Fail,,,,,
284.0,4.0,wc_4,wc_7,0.0,"[('wc_7', 0.6900000000000005), ('wc_10', 0.6600000000000005)]",0.8946000000000003,,,26.0,0.0069,['Fail'],Fail,0.6900000000000005,-0.4900000000000005,1.0,5.0,0.9
284.0,4.0,wc_4,,0.0,,,,202.0,,,,Fail,,,,,
284.0,4.0,wc_4,wc_2,1.0,"[('wc_2', 0.6600000000000005), ('wc_10', 0.6600000000000005), ('wc_7', 0.6900000000000005)]",0.9641640000000001,,,28.0,0.03951899999999999,['Fail'],Fail,0.6600000000000005,-0.0600000000000005,3.0,5.0,0.9
325.0,4.0,wc_4,,0.0,,,,0.0,,,,Fail,,,,,
325.0,4.0,wc_4,,0.0,,,55.0,,,,,Fail,,,,,
325.0,4.0,wc_4,,0.0,,,,0.0,,,,Fail,,,,,
325.0,4.0,wc_4,wc_4,0.0,"[('wc_4', 0.3400000000000002)]",0.3400000000000002,,,29.0,0.002271,['Fail'],Fail,0.3400000000000002,-0.3400000000000002,0.0,6.0,0.4
325.0,4.0,wc_4,,0.0,,,,121.0,,,,Fail,,,,,
325.0,4.0,wc_4,wc_12,0.0,"[('wc_4', 0.3400000000000002)]",0.3400000000000002,,,32.0,0.004278,['Fail'],Fail,0.28000000000000014,-0.16888888888888903,1.0,9.0,0.1
325.0,4.0,wc_4,,0.0,,,,341.0,,,,Fail,,,,,
325.0,4.0,wc_4,wc_10,0.0,"[('wc_10', 0.6700000000000005), ('wc_4', 0.3400000000000002)]",0.7822000000000005,,,33.0,0.005816,['Fail'],Fail,0.6700000000000005,0.3299999999999995,1.0,1.0,1.0
325.0,4.0,wc_4,,0.0,,,,0.0,,,,Fail,,,,,
325.0,4.0,wc_4,wc_11,0.0,"[('wc_4', 0.3400000000000002), ('wc_10', 0.6700000000000005)]",0.7822000000000005,,,22.0,0.007644,['Fail'],Fail,0.14,0.04181818181818181,0.0,0.0,0.1
325.0,4.0,wc_4,,0.0,,,,362.0,,,,Fail,,,,,
325.0,4.0,wc_4,wc_5,0.0,"[('wc_5', 0.2400000000000001), ('wc_4', 0.3400000000000002), ('wc_10', 0.6700000000000005)]",0.8344720000000003,,,40.0,0.010276,['Fail'],Fail,0.2400000000000001,-0.07333333333333344,0.0,0.0,0.1
325.0,4.0,wc_4,,0.0,,,,162.0,,,,Fail,,,,,
325.0,4.0,wc_4,wc_15,1.0,"[('wc_15', 0.42000000000000026), ('wc_4', 0.3400000000000002), ('wc_10', 0.6700000000000005), ('wc_5', 0.2400000000000001)]",0.9039937600000002,,,26.0,0.045674000000000006,['Fail'],Fail,0.42000000000000026,-0.13428571428571456,2.0,7.0,0.4
384.0,4.0,wc_4,,0.0,,,,422.0,,,,Pass,,,,,
384.0,4.0,wc_4,,0.0,,,60.0,,,,,Pass,,,,,
384.0,4.0,wc_4,,0.0,,,,0.0,,,,Pass,,,,,
384.0,4.0,wc_4,wc_4,0.0,"[('wc_4', 0.3400000000000002)]",0.3400000000000002,,,29.0,0.00231,['Fail'],Pass,0.3400000000000002,-0.19714285714285734,1.0,7.0,0.4
384.0,4.0,wc_4,,0.0,,,,182.0,,,,Pass,,,,,
384.0,4.0,wc_4,wc_11,0.0,"[('wc_11', 0.13), ('wc_4', 0.3400000000000002)]",0.4258000000000002,,,39.0,0.004469,['Fail'],Pass,0.13,-0.13,0.0,1.0,0.1
384.0,4.0,wc_4,,0.0,,,,21.0,,,,Pass,,,,,
384.0,4.0,wc_4,wc_6,0.0,"[('wc_6', 0.41000000000000025), ('wc_4', 0.3400000000000002), ('wc_11', 0.13)]",0.6612220000000002,,,36.0,0.007064000000000001,['Fail'],Pass,0.41000000000000025,-0.41000000000000025,0.0,8.0,0.3
384.0,4.0,wc_4,,0.0,,,,0.0,,,,Pass,,,,,
384.0,4.0,wc_4,wc_7,0.0,"[('wc_7', 0.6900000000000005)]",0.6900000000000005,,,34.0,0.008229,['Pass'],Pass,0.6900000000000005,-0.4042857142857148,2.0,7.0,0.9
384.0,4.0,wc_4,,0.0,,,,142.0,,,,Pass,,,,,
384.0,4.0,wc_4,wc_12,0.0,"[('wc_12', 0.27000000000000013), ('wc_4', 0.3400000000000002), ('wc_11', 0.13), ('wc_6', 0.41000000000000025)]",0.7526920600000002,,,23.0,0.009505,['Fail'],Pass,0.27000000000000013,-0.27000000000000013,0.0,0.0,0.1
384.0,4.0,wc_4,,0.0,,,,321.0,,,,Pass,,,,,
384.0,4.0,wc_4,wc_9,0.0,"[('wc_9', 0.5900000000000004), ('wc_7', 0.6900000000000005)]",0.8729000000000003,,,36.0,0.012233,['Pass'],Pass,0.5900000000000004,-0.1900000000000004,2.0,5.0,0.7
384.0,4.0,wc_4,,0.0,,,,182.0,,,,Pass,,,,,
384.0,4.0,wc_4,wc_16,0.0,"[('wc_7', 0.6900000000000005), ('wc_9', 0.5900000000000004)]",0.8729000000000003,,,35.0,0.012657,['Pass'],Pass,0.19000000000000006,-0.19000000000000006,0.0,0.0,0.1
384.0,4.0,wc_4,,0.0,,,,263.0,,,,Pass,,,,,
384.0,4.0,wc_4,wc_1,0.0,"[('wc_7', 0.6900000000000005), ('wc_9', 0.5900000000000004)]",0.8729000000000003,,,37.0,0.016787,['Pass'],Pass,0.3300000000000002,-0.057272727272727475,0.0,0.0,0.1
384.0,4.0,wc_4,,0.0,,,,222.0,,,,Pass,,,,,
384.0,4.0,wc_4,wc_14,1.0,"[('wc_14', 0.7000000000000005), ('wc_7', 0.6900000000000005), ('wc_9', 0.5900000000000004)]",0.9618700000000001,,,37.0,0.05210000000000001,['Pass'],Pass,0.7000000000000005,-0.7000000000000005,0.0,0.0,1.0
411.0,5.0,wc_5,,0.0,,,,361.0,,,,Pass,,,,,
411.0,5.0,wc_5,,0.0,,,64.0,,,,,Pass,,,,,
411.0,5.0,wc_5,,0.0,,,,0.0,,,,Pass,,,,,
411.0,5.0,wc_5,wc_5,0.0,"[('wc_5', 0.2500000000000001)]",0.2500000000000001,,,35.0,0.002204,['Fail'],Pass,0.2500000000000001,0.2499999999999999,1.0,2.0,0.1
411.0,5.0,wc_5,,0.0,,,,142.0,,,,Pass,,,,,
411.0,5.0,wc_5,wc_10,0.0,"[('wc_10', 0.6800000000000005)]",0.6800000000000005,,,32.0,0.003978,['Pass'],Pass,0.6800000000000005,-0.013333333333333863,2.0,3.0,1.0
411.0,5.0,wc_5,,0.0,,,,41.0,,,,Pass,,,,,
411.0,5.0,wc_5,wc_6,0.0,"[('wc_10', 0.6800000000000005)]",0.6800000000000005,,,24.0,0.0073089999999999995,['Pass'],Pass,0.40000000000000024,-0.40000000000000024,0.0,9.0,0.3
411.0,5.0,wc_5,,0.0,,,,202.0,,,,Pass,,,,,
411.0,5.0,wc_5,wc_14,0.0,"[('wc_14', 0.7000000000000005), ('wc_10', 0.6800000000000005)]",0.9040000000000004,,,20.0,0.008107,['Pass'],Pass,0.7000000000000005,-0.7000000000000005,0.0,0.0,1.0
411.0,5.0,wc_5,,0.0,,,,281.0,,,,Pass,,,,,
411.0,5.0,wc_5,wc_9,1.0,"[('wc_9', 0.5900000000000004), ('wc_10', 0.6800000000000005), ('wc_14', 0.7000000000000005)]",0.9606400000000002,,,34.0,0.045956,['Pass'],Pass,0.5900000000000004,-0.018571428571429016,4.0,7.0,0.7
428.0,6.0,wc_6,,0.0,,,,61.0,,,,Fail,,,,,
428.0,6.0,wc_6,,0.0,,,72.0,,,,,Fail,,,,,
428.0,6.0,wc_6,,0.0,,,,0.0,,,,Fail,,,,,
428.0,6.0,wc_6,wc_6,0.0,"[('wc_6', 0.39000000000000024)]",0.39000000000000024,,,25.0,0.002315,['Fail'],Fail,0.39000000000000024,-0.39000000000000024,0.0,0.0,0.3
428.0,6.0,wc_6,,0.0,,,,341.0,,,,Fail,,,,,
428.0,6.0,wc_6,wc_4,0.0,"[('wc_4', 0.3300000000000002), ('wc_6', 0.39000000000000024)]",0.5913000000000003,,,39.0,0.004077,['Fail'],Fail,0.3300000000000002,-0.21888888888888908,1.0,9.0,0.4
428.0,6.0,wc_6,,0.0,,,,161.0,,,,Fail,,,,,
428.0,6.0,wc_6,wc_14,0.0,"[('wc_14', 0.7100000000000005), ('wc_6', 0.39000000000000024), ('wc_4', 0.3300000000000002)]",0.8814770000000003,,,39.0,0.007977,['Fail'],Fail,0.7100000000000005,0.2899999999999995,1.0,1.0,1.0
428.0,6.0,wc_6,,0.0,,,,281.0,,,,Fail,,,,,
428.0,6.0,wc_6,wc_9,1.0,"[('wc_9', 0.5900000000000004), ('wc_6', 0.39000000000000024), ('wc_4', 0.3300000000000002), ('wc_14', 0.7100000000000005)]",0.9514055700000001,,,38.0,0.04658799999999999,['Fail'],Fail,0.6000000000000004,0.024999999999999578,5.0,8.0,0.7
438.0,6.0,wc_6,,0.0,,,,61.0,,,,Pass,,,,,
438.0,6.0,wc_6,,0.0,,,58.0,,,,,Pass,,,,,
438.0,6.0,wc_6,,0.0,,,,0.0,,,,Pass,,,,,
438.0,6.0,wc_6,wc_6,0.0,"[('wc_6', 0.40000000000000024)]",0.40000000000000024,,,31.0,0.002261,['Pass'],Pass,0.40000000000000024,0.5999999999999998,1.0,1.0,0.3
438.0,6.0,wc_6,,0.0,,,,321.0,,,,Pass,,,,,
438.0,6.0,wc_6,wc_3,0.0,"[('wc_3', 0.6100000000000004), ('wc_6', 0.40000000000000024)]",0.7660000000000003,,,27.0,0.00414,['Pass'],Pass,0.6100000000000004,-0.48500000000000043,0.0,0.0,0.6
438.0,6.0,wc_6,,0.0,,,,242.0,,,,Pass,,,,,
438.0,6.0,wc_6,wc_17,1.0,"[('wc_17', 0.6200000000000004), ('wc_6', 0.40000000000000024), ('wc_3', 0.6100000000000004)]",0.9110800000000002,,,33.0,0.048352000000000006,['Pass'],Pass,0.6200000000000004,-0.4771428571428576,1.0,7.0,0.7
445.0,8.0,wc_8,,0.0,,,,223.0,,,,Fail,,,,,
445.0,8.0,wc_8,,0.0,,,51.0,,,,,Fail,,,,,
445.0,8.0,wc_8,,0.0,,,,0.0,,,,Fail,,,,,
445.0,8.0,wc_8,wc_8,0.0,"[('wc_8', 0.6100000000000004)]",0.6100000000000004,,,21.0,0.002348,['Fail'],Fail,0.6100000000000004,-0.6100000000000004,0.0,6.0,0.6
445.0,8.0,wc_8,,0.0,,,,223.0,,,,Fail,,,,,
445.0,8.0,wc_8,wc_17,0.0,"[('wc_17', 0.6200000000000004), ('wc_8', 0.6100000000000004)]",0.8518000000000003,,,34.0,0.004574,['Fail'],Fail,0.6200000000000004,-0.4771428571428576,1.0,7.0,0.7
445.0,8.0,wc_8,,0.0,,,,203.0,,,,Fail,,,,,
445.0,8.0,wc_8,wc_7,1.0,"[('wc_7', 0.6900000000000005), ('wc_8', 0.6100000000000004), ('wc_17', 0.6200000000000004)]",0.9540580000000002,,,32.0,0.039203,['Fail'],Fail,0.6900000000000005,-0.6900000000000005,0.0,0.0,0.9
455.0,8.0,wc_8,,0.0,,,,0.0,,,,Fail,,,,,
455.0,8.0,wc_8,,0.0,,,51.0,,,,,Fail,,,,,
455.0,8.0,wc_8,,0.0,,,,0.0,,,,Fail,,,,,
455.0,8.0,wc_8,wc_8,0.0,"[('wc_8', 0.6100000000000004)]",0.6100000000000004,,,30.0,0.002205,['Fail'],Fail,0.6100000000000004,-0.4671428571428576,1.0,7.0,0.6
455.0,8.0,wc_8,,0.0,,,,203.0,,,,Fail,,,,,
455.0,8.0,wc_8,wc_16,0.0,"[('wc_16', 0.18000000000000005), ('wc_8', 0.6100000000000004)]",0.6802000000000004,,,32.0,0.0038970000000000003,['Fail'],Fail,0.18000000000000005,-0.18000000000000005,0.0,5.0,0.1
455.0,8.0,wc_8,,0.0,,,,382.0,,,,Fail,,,,,
455.0,8.0,wc_8,wc_11,0.0,"[('wc_8', 0.6100000000000004), ('wc_16', 0.18000000000000005)]",0.6802000000000004,,,23.0,0.006098000000000001,['Fail'],Fail,0.12000000000000001,-0.12000000000000001,0.0,6.0,0.1
455.0,8.0,wc_8,,0.0,,,,81.0,,,,Fail,,,,,
455.0,8.0,wc_8,wc_13,0.0,"[('wc_8', 0.6100000000000004), ('wc_16', 0.18000000000000005)]",0.6802000000000004,,,29.0,0.009937999999999999,['Fail'],Fail,0.27000000000000013,-0.1930769230769232,0.0,0.0,0.1
455.0,8.0,wc_8,,0.0,,,,102.0,,,,Fail,,,,,
455.0,8.0,wc_8,wc_12,0.0,"[('wc_12', 0.2600000000000001), ('wc_8', 0.6100000000000004), ('wc_16', 0.18000000000000005)]",0.7633480000000004,,,28.0,0.01212,['Fail'],Fail,0.2600000000000001,-0.2600000000000001,0.0,5.0,0.1
455.0,8.0,wc_8,,0.0,,,,321.0,,,,Fail,,,,,
455.0,8.0,wc_8,wc_9,1.0,"[('wc_9', 0.6000000000000004), ('wc_8', 0.6100000000000004), ('wc_16', 0.18000000000000005), ('wc_12', 0.2600000000000001)]",0.9053392000000002,,,20.0,0.05486099999999999,['Fail'],Fail,0.6000000000000004,-0.6000000000000004,0.0,0.0,0.7
465.0,8.0,wc_8,,0.0,,,,101.0,,,,Pass,,,,,
465.0,8.0,wc_8,,0.0,,,67.0,,,,,Pass,,,,,
465.0,8.0,wc_8,,0.0,,,,0.0,,,,Pass,,,,,
465.0,8.0,wc_8,wc_8,0.0,"[('wc_8', 0.6100000000000004)]",0.6100000000000004,,,37.0,0.003675,['Pass'],Pass,0.6100000000000004,-0.36000000000000043,2.0,8.0,0.6
465.0,8.0,wc_8,,0.0,,,,142.0,,,,Pass,,,,,
465.0,8.0,wc_8,wc_13,0.0,"[('wc_8', 0.6100000000000004)]",0.6100000000000004,,,38.0,0.006303,['Pass'],Pass,0.2600000000000001,-0.2600000000000001,0.0,1.0,0.1
465.0,8.0,wc_8,,0.0,,,,341.0,,,,Pass,,,,,
465.0,8.0,wc_8,wc_11,0.0,"[('wc_11', 0.11000000000000001), ('wc_8', 0.6100000000000004)]",0.6529000000000004,,,25.0,0.00619,['Pass'],Pass,0.11000000000000001,-0.11000000000000001,0.0,7.0,0.1
465.0,8.0,wc_8,,0.0,,,,83.0,,,,Pass,,,,,
465.0,8.0,wc_8,wc_9,0.0,"[('wc_9', 0.6000000000000004), ('wc_13', 0.2600000000000001)]",0.7040000000000004,,,36.0,0.007989,['Fail'],Pass,0.6000000000000004,-0.6000000000000004,0.0,0.0,0.7
465.0,8.0,wc_8,,0.0,,,,362.0,,,,Pass,,,,,
465.0,8.0,wc_8,wc_3,0.0,"[('wc_3', 0.6200000000000004), ('wc_8', 0.6100000000000004), ('wc_11', 0.11000000000000001)]",0.8681020000000003,,,40.0,0.010118,['Pass'],Pass,0.6200000000000004,-0.2866666666666671,1.0,3.0,0.6
465.0,8.0,wc_8,,0.0,,,,202.0,,,,Pass,,,,,
465.0,8.0,wc_8,wc_15,1.0,"[('wc_15', 0.42000000000000026), ('wc_8', 0.6100000000000004), ('wc_11', 0.11000000000000001), ('wc_3', 0.6200000000000004)]",0.9234991600000002,,,27.0,0.049087000000000006,['Pass'],Pass,0.42000000000000026,-0.42000000000000026,0.0,0.0,0.4
477.0,9.0,wc_9,,0.0,,,,362.0,,,,Fail,,,,,
477.0,9.0,wc_9,,0.0,,,76.0,,,,,Fail,,,,,
477.0,9.0,wc_9,,0.0,,,,0.0,,,,Fail,,,,,
477.0,9.0,wc_9,wc_9,0.0,"[('wc_9', 0.5900000000000004)]",0.5900000000000004,,,22.0,0.002711,['Fail'],Fail,0.5900000000000004,-0.5900000000000004,0.0,1.0,0.7
477.0,9.0,wc_9,,0.0,,,,121.0,,,,Fail,,,,,
477.0,9.0,wc_9,wc_13,0.0,"[('wc_9', 0.5900000000000004)]",0.5900000000000004,,,24.0,0.005052,['Fail'],Fail,0.2500000000000001,-0.2500000000000001,0.0,2.0,0.1
477.0,9.0,wc_9,,0.0,,,,361.0,,,,Fail,,,,,
477.0,9.0,wc_9,wc_4,0.0,"[('wc_4', 0.3300000000000002), ('wc_9', 0.5900000000000004)]",0.7253000000000003,,,32.0,0.007359999999999999,['Fail'],Fail,0.3300000000000002,-0.3300000000000002,0.0,4.0,0.4
477.0,9.0,wc_9,,0.0,,,,81.0,,,,Fail,,,,,
477.0,9.0,wc_9,wc_6,0.0,"[('wc_9', 0.5900000000000004), ('wc_4', 0.3300000000000002)]",0.7253000000000003,,,26.0,0.010193,['Fail'],Fail,0.41000000000000025,-0.010000000000000231,2.0,5.0,0.3
477.0,9.0,wc_9,,0.0,,,,263.0,,,,Fail,,,,,
477.0,9.0,wc_9,wc_17,0.0,"[('wc_17', 0.6200000000000004), ('wc_9', 0.5900000000000004), ('wc_4', 0.3300000000000002)]",0.8956140000000002,,,25.0,0.012975,['Fail'],Fail,0.6200000000000004,-0.42000000000000043,0.0,0.0,0.7
477.0,9.0,wc_9,,0.0,,,,203.0,,,,Fail,,,,,
477.0,9.0,wc_9,wc_7,1.0,"[('wc_7', 0.6900000000000005), ('wc_9', 0.5900000000000004), ('wc_4', 0.3300000000000002), ('wc_17', 0.6200000000000004)]",0.9676403400000001,,,33.0,0.05581299999999999,['Fail'],Fail,0.6900000000000005,-0.3566666666666672,1.0,3.0,0.9
488.0,9.0,wc_9,,0.0,,,,0.0,,,,Pass,,,,,
488.0,9.0,wc_9,,0.0,,,68.0,,,,,Pass,,,,,
488.0,9.0,wc_9,,0.0,,,,0.0,,,,Pass,,,,,
488.0,9.0,wc_9,wc_9,0.0,"[('wc_9', 0.5900000000000004)]",0.5900000000000004,,,33.0,0.002669,['Pass'],Pass,0.5900000000000004,-0.09000000000000041,1.0,2.0,0.7
488.0,9.0,wc_9,,0.0,,,,202.0,,,,Pass,,,,,
488.0,9.0,wc_9,wc_17,0.0,"[('wc_17', 0.6300000000000004), ('wc_9', 0.5900000000000004)]",0.8483000000000003,,,24.0,0.004326,['Pass'],Pass,0.6300000000000004,0.36999999999999955,1.0,1.0,0.7
488.0,9.0,wc_9,,0.0,,,,61.0,,,,Pass,,,,,
488.0,9.0,wc_9,wc_14,1.0,"[('wc_14', 0.7200000000000005), ('wc_9', 0.5900000000000004), ('wc_17', 0.6300000000000004)]",0.9575240000000002,,,37.0,0.043105000000000004,['Pass'],Pass,0.7200000000000005,-0.34500000000000053,3.0,8.0,1.0
498.0,7.0,wc_7,,0.0,,,,162.0,,,,Fail,,,,,
498.0,7.0,wc_7,,0.0,,,58.0,,,,,Fail,,,,,
498.0,7.0,wc_7,,0.0,,,,0.0,,,,Fail,,,,,
498.0,7.0,wc_7,wc_7,0.0,"[('wc_7', 0.6900000000000005)]",0.6900000000000005,,,25.0,0.002697,['Fail'],Fail,0.6900000000000005,-0.4400000000000005,1.0,4.0,0.9
498.0,7.0,wc_7,,0.0,,,,202.0,,,,Fail,,,,,
498.0,7.0,wc_7,wc_2,0.0,"[('wc_2', 0.6600000000000005), ('wc_7', 0.6900000000000005)]",0.8946000000000003,,,20.0,0.004592,['Fail'],Fail,0.6600000000000005,-0.46000000000000046,0.0,0.0,0.9
498.0,7.0,wc_7,,0.0,,,,223.0,,,,Fail,,,,,
498.0,7.0,wc_7,wc_11,1.0,"[('wc_11', 0.12000000000000001), ('wc_7', 0.6900000000000005), ('wc_2', 0.6600000000000005)]",0.9072480000000003,,,38.0,0.04086,['Fail'],Fail,0.13,-0.13,0.0,0.0,0.1
508.0,7.0,wc_7,,0.0,,,,41.0,,,,Fail,,,,,
508.0,7.0,wc_7,,0.0,,,64.0,,,,,Fail,,,,,
508.0,7.0,wc_7,,0.0,,,,0.0,,,,Fail,,,,,
508.0,7.0,wc_7,wc_7,0.0,"[('wc_7', 0.6900000000000005)]",0.6900000000000005,,,27.0,0.002372,['Fail'],Fail,0.6900000000000005,-0.2900000000000005,2.0,5.0,0.9
508.0,7.0,wc_7,,0.0,,,,223.0,,,,Fail,,,,,
508.0,7.0,wc_7,wc_16,0.0,"[('wc_16', 0.18000000000000005), ('wc_7', 0.6900000000000005)]",0.7458000000000005,,,36.0,0.004251,['Fail'],Fail,0.18000000000000005,-0.08000000000000004,0.0,0.0,0.1
508.0,7.0,wc_7,,0.0,,,,263.0,,,,Fail,,,,,
508.0,7.0,wc_7,wc_1,0.0,"[('wc_7', 0.6900000000000005), ('wc_16', 0.18000000000000005)]",0.7458000000000005,,,29.0,0.005975,['Fail'],Fail,0.3200000000000002,-0.3200000000000002,0.0,0.0,0.1
508.0,7.0,wc_7,,0.0,,,,182.0,,,,Fail,,,,,
508.0,7.0,wc_7,wc_8,1.0,"[('wc_8', 0.6100000000000004), ('wc_7', 0.6900000000000005), ('wc_16', 0.18000000000000005)]",0.9008620000000003,,,28.0,0.042271,['Fail'],Fail,0.6100000000000004,-0.6100000000000004,0.0,0.0,0.6
522.0,10.0,wc_10,,0.0,,,,0.0,,,,Fail,,,,,
522.0,10.0,wc_10,,0.0,,,77.0,,,,,Fail,,,,,
522.0,10.0,wc_10,,0.0,,,,0.0,,,,Fail,,,,,
522.0,10.0,wc_10,wc_10,0.0,"[('wc_10', 0.6900000000000005)]",0.6900000000000005,,,21.0,0.001989,['Fail'],Fail,0.6900000000000005,-0.4592307692307697,0.0,0.0,1.0
522.0,10.0,wc_10,,0.0,,,,103.0,,,,Fail,,,,,
522.0,10.0,wc_10,wc_9,0.0,"[('wc_9', 0.6000000000000004), ('wc_10', 0.6900000000000005)]",0.8760000000000003,,,31.0,0.00433,['Fail'],Fail,0.6000000000000004,-0.2000000000000004,2.0,5.0,0.7
522.0,10.0,wc_10,,0.0,,,,101.0,,,,Fail,,,,,
522.0,10.0,wc_10,wc_12,1.0,"[('wc_12', 0.2600000000000001), ('wc_10', 0.6900000000000005), ('wc_9', 0.6000000000000004)]",0.9082400000000003,,,29.0,0.046043,['Fail'],Fail,0.2600000000000001,-0.2600000000000001,0.0,0.0,0.1
533.0,10.0,wc_10,,0.0,,,,341.0,,,,Fail,,,,,
533.0,10.0,wc_10,,0.0,,,78.0,,,,,Fail,,,,,
533.0,10.0,wc_10,,0.0,,,,0.0,,,,Fail,,,,,
533.0,10.0,wc_10,wc_10,0.0,"[('wc_10', 0.7000000000000005)]",0.7000000000000005,,,25.0,0.002196,['Fail'],Fail,0.7000000000000005,0.2999999999999995,1.0,1.0,1.0
533.0,10.0,wc_10,,0.0,,,,101.0,,,,Fail,,,,,
533.0,10.0,wc_10,wc_13,0.0,"[('wc_10', 0.7000000000000005)]",0.7000000000000005,,,25.0,0.004201,['Fail'],Fail,0.2400000000000001,-0.2400000000000001,0.0,7.0,0.1
533.0,10.0,wc_10,,0.0,,,,202.0,,,,Fail,,,,,
533.0,10.0,wc_10,wc_8,0.0,"[('wc_8', 0.6100000000000004), ('wc_13', 0.2400000000000001)]",0.7036000000000004,,,39.0,0.005886,['Pass'],Fail,0.6100000000000004,-0.6100000000000004,0.0,1.0,0.6
533.0,10.0,wc_10,,0.0,,,,122.0,,,,Fail,,,,,
533.0,10.0,wc_10,wc_12,0.0,"[('wc_12', 0.2600000000000001), ('wc_13', 0.2400000000000001), ('wc_8', 0.6100000000000004)]",0.7806640000000004,,,40.0,0.009554,['Pass'],Fail,0.2600000000000001,-0.2600000000000001,0.0,0.0,0.1
533.0,10.0,wc_10,,0.0,,,,0.0,,,,Fail,,,,,
533.0,10.0,wc_10,wc_17,0.0,"[('wc_17', 0.6400000000000005), ('wc_10', 0.7000000000000005)]",0.8920000000000003,,,39.0,0.009744,['Fail'],Fail,0.6400000000000005,-0.24000000000000044,2.0,5.0,0.7
533.0,10.0,wc_10,,0.0,,,,103.0,,,,Fail,,,,,
533.0,10.0,wc_10,wc_16,1.0,"[('wc_16', 0.19000000000000006), ('wc_10', 0.7000000000000005), ('wc_17', 0.6400000000000005)]",0.9125200000000002,,,24.0,0.047095000000000005,['Fail'],Fail,0.20000000000000007,0.46666666666666656,2.0,3.0,0.1
542.0,10.0,wc_10,,0.0,,,,362.0,,,,Fail,,,,,
542.0,10.0,wc_10,,0.0,,,73.0,,,,,Fail,,,,,
542.0,10.0,wc_10,,0.0,,,,0.0,,,,Fail,,,,,
542.0,10.0,wc_10,wc_10,0.0,"[('wc_10', 0.7100000000000005)]",0.7100000000000005,,,27.0,0.002635,['Fail'],Fail,0.7100000000000005,0.2899999999999995,2.0,2.0,1.0
542.0,10.0,wc_10,,0.0,,,,382.0,,,,Fail,,,,,
542.0,10.0,wc_10,wc_5,0.0,"[('wc_10', 0.7100000000000005)]",0.7100000000000005,,,31.0,0.00413,['Fail'],Fail,0.2500000000000001,-0.1785714285714287,0.0,0.0,0.1
542.0,10.0,wc_10,,0.0,,,,162.0,,,,Fail,,,,,
542.0,10.0,wc_10,wc_11,0.0,"[('wc_11', 0.13), ('wc_10', 0.7100000000000005)]",0.7477000000000005,,,23.0,0.006293,['Fail'],Fail,0.13,-0.13,0.0,3.0,0.1
542.0,10.0,wc_10,,0.0,,,,61.0,,,,Fail,,,,,
542.0,10.0,wc_10,wc_12,0.0,"[('wc_10', 0.7100000000000005), ('wc_11', 0.13)]",0.7477000000000005,,,36.0,0.008976,['Fail'],Fail,0.2500000000000001,-0.2500000000000001,0.0,1.0,0.1
542.0,10.0,wc_10,,0.0,,,,262.0,,,,Fail,,,,,
542.0,10.0,wc_10,wc_2,1.0,"[('wc_2', 0.6700000000000005), ('wc_10', 0.7100000000000005), ('wc_11', 0.13)]",0.9167410000000003,,,36.0,0.045766,['Fail'],Fail,0.6700000000000005,-0.27000000000000046,2.0,5.0,0.9
551.0,10.0,wc_10,,0.0,,,,203.0,,,,Fail,,,,,
551.0,10.0,wc_10,,0.0,,,79.0,,,,,Fail,,,,,
551.0,10.0,wc_10,,0.0,,,,0.0,,,,Fail,,,,,
551.0,10.0,wc_10,wc_10,0.0,"[('wc_10', 0.7200000000000005)]",0.7200000000000005,,,37.0,0.002615,['Fail'],Fail,0.7200000000000005,0.27999999999999947,3.0,3.0,1.0
551.0,10.0,wc_10,,0.0,,,,103.0,,,,Fail,,,,,
551.0,10.0,wc_10,wc_9,0.0,"[('wc_9', 0.6000000000000004), ('wc_10', 0.7200000000000005)]",0.8880000000000003,,,34.0,0.004114,['Fail'],Fail,0.6000000000000004,-0.22500000000000042,3.0,8.0,0.7
551.0,10.0,wc_10,,0.0,,,,362.0,,,,Fail,,,,,
551.0,10.0,wc_10,wc_3,0.0,"[('wc_10', 0.7200000000000005), ('wc_9', 0.6000000000000004)]",0.8880000000000003,,,23.0,0.0070669999999999995,['Fail'],Fail,0.6200000000000004,-0.4381818181818186,0.0,0.0,0.6
551.0,10.0,wc_10,,0.0,,,,121.0,,,,Fail,,,,,
551.0,10.0,wc_10,wc_7,1.0,"[('wc_7', 0.6900000000000005), ('wc_10', 0.7200000000000005), ('wc_9', 0.6000000000000004)]",0.9652800000000001,,,23.0,0.044911999999999994,['Fail'],Fail,0.6900000000000005,-0.6900000000000005,0.0,0.0,0.9
562.0,11.0,wc_11,,0.0,,,,0.0,,,,Fail,,,,,
562.0,11.0,wc_11,,0.0,,,72.0,,,,,Fail,,,,,
562.0,11.0,wc_11,,0.0,,,,0.0,,,,Fail,,,,,
562.0,11.0,wc_11,wc_11,0.0,"[('wc_11', 0.14)]",0.14,,,26.0,0.003517,['Fail'],Fail,0.14,0.06,1.0,5.0,0.1
562.0,11.0,wc_11,,0.0,,,,61.0,,,,Fail,,,,,
562.0,11.0,wc_11,wc_8,0.0,"[('wc_8', 0.6000000000000004), ('wc_11', 0.14)]",0.6560000000000004,,,20.0,0.0042109999999999995,['Fail'],Fail,0.6000000000000004,-0.6000000000000004,0.0,4.0,0.6
562.0,11.0,wc_11,,0.0,,,,321.0,,,,Fail,,,,,
562.0,11.0,wc_11,wc_5,0.0,"[('wc_5', 0.2400000000000001), ('wc_11', 0.14), ('wc_8', 0.6000000000000004)]",0.7385600000000003,,,35.0,0.00646,['Fail'],Fail,0.2400000000000001,-0.2400000000000001,0.0,2.0,0.1
562.0,11.0,wc_11,,0.0,,,,162.0,,,,Fail,,,,,
562.0,11.0,wc_11,wc_15,0.0,"[('wc_11', 0.14), ('wc_8', 0.6000000000000004), ('wc_5', 0.2400000000000001)]",0.7385600000000003,,,40.0,0.009600000000000001,['Fail'],Fail,0.42000000000000026,-0.42000000000000026,0.0,8.0,0.4
562.0,11.0,wc_11,,0.0,,,,422.0,,,,Fail,,,,,
562.0,11.0,wc_11,wc_4,0.0,"[('wc_4', 0.3300000000000002), ('wc_11', 0.14), ('wc_8', 0.6000000000000004), ('wc_5', 0.2400000000000001)]",0.8248352000000003,,,24.0,0.010792999999999999,['Fail'],Fail,0.3300000000000002,-0.24666666666666687,0.0,0.0,0.4
562.0,11.0,wc_11,,0.0,,,,202.0,,,,Fail,,,,,
562.0,11.0,wc_11,wc_16,0.0,"[('wc_11', 0.14), ('wc_8', 0.6000000000000004), ('wc_5', 0.2400000000000001), ('wc_4', 0.3300000000000002)]",0.8248352000000003,,,29.0,0.012419,['Fail'],Fail,0.20000000000000007,0.19999999999999996,2.0,5.0,0.1
562.0,11.0,wc_11,,0.0,,,,223.0,,,,Fail,,,,,
562.0,11.0,wc_11,wc_7,1.0,"[('wc_7', 0.6900000000000005), ('wc_11', 0.14), ('wc_8', 0.6000000000000004), ('wc_5', 0.2400000000000001), ('wc_4', 0.3300000000000002)]",0.9456989120000001,,,25.0,0.049564000000000004,['Fail'],Fail,0.7000000000000005,0.2999999999999995,1.0,1.0,0.9
569.0,7.0,wc_7,,0.0,,,,0.0,,,,Fail,,,,,
569.0,7.0,wc_7,,0.0,,,63.0,,,,,Fail,,,,,
569.0,7.0,wc_7,,0.0,,,,0.0,,,,Fail,,,,,
569.0,7.0,wc_7,wc_7,0.0,"[('wc_7', 0.7000000000000005)]",0.7000000000000005,,,27.0,0.002057,['Fail'],Fail,0.7000000000000005,0.2999999999999995,1.0,1.0,0.9
569.0,7.0,wc_7,,0.0,,,,243.0,,,,Fail,,,,,
569.0,7.0,wc_7,wc_17,0.0,"[('wc_17', 0.6400000000000005), ('wc_7', 0.7000000000000005)]",0.8920000000000003,,,34.0,0.00581,['Fail'],Fail,0.6400000000000005,-0.30666666666666714,3.0,9.0,0.7
569.0,7.0,wc_7,,0.0,,,,223.0,,,,Fail,,,,,
569.0,7.0,wc_7,wc_8,0.0,"[('wc_7', 0.7000000000000005), ('wc_17', 0.6400000000000005)]",0.8920000000000003,,,40.0,0.006279,['Fail'],Fail,0.6000000000000004,-0.4000000000000004,1.0,5.0,0.6
569.0,7.0,wc_7,,0.0,,,,162.0,,,,Fail,,,,,
569.0,7.0,wc_7,wc_14,0.0,"[('wc_7', 0.7000000000000005), ('wc_17', 0.6400000000000005)]",0.8920000000000003,,,36.0,0.008275,['Fail'],Fail,0.7200000000000005,-0.5200000000000005,0.0,0.0,1.0
569.0,7.0,wc_7,,0.0,,,,222.0,,,,Fail,,,,,
569.0,7.0,wc_7,wc_2,1.0,"[('wc_2', 0.6700000000000005), ('wc_7', 0.7000000000000005), ('wc_17', 0.6400000000000005)]",0.9643600000000001,,,37.0,0.047742999999999994,['Fail'],Fail,0.6700000000000005,-0.2950000000000005,3.0,8.0,0.9
575.0,7.0,wc_7,,0.0,,,,142.0,,,,Fail,,,,,
575.0,7.0,wc_7,,0.0,,,60.0,,,,,Fail,,,,,
575.0,7.0,wc_7,,0.0,,,,0.0,,,,Fail,,,,,
575.0,7.0,wc_7,wc_7,0.0,"[('wc_7', 0.7100000000000005)]",0.7100000000000005,,,40.0,0.00231,['Fail'],Fail,0.7100000000000005,0.2899999999999995,2.0,2.0,0.9
575.0,7.0,wc_7,,0.0,,,,0.0,,,,Fail,,,,,
575.0,7.0,wc_7,wc_9,0.0,"[('wc_9', 0.6000000000000004), ('wc_7', 0.7100000000000005)]",0.8840000000000003,,,31.0,0.004026,['Fail'],Fail,0.6000000000000004,-0.23636363636363678,0.0,0.0,0.7
575.0,7.0,wc_7,,0.0,,,,382.0,,,,Fail,,,,,
575.0,7.0,wc_7,wc_4,0.0,"[('wc_7', 0.7100000000000005), ('wc_9', 0.6000000000000004)]",0.8840000000000003,,,33.0,0.0062380000000000005,['Fail'],Fail,0.3400000000000002,0.1599999999999998,1.0,2.0,0.4
575.0,7.0,wc_7,,0.0,,,,202.0,,,,Fail,,,,,
575.0,7.0,wc_7,wc_16,0.0,"[('wc_7', 0.7100000000000005), ('wc_9', 0.6000000000000004)]",0.8840000000000003,,,38.0,0.008128,['Fail'],Fail,0.20000000000000007,0.08571428571428563,2.0,7.0,0.1
575.0,7.0,wc_7,,0.0,,,,0.0,,,,Fail,,,,,
575.0,7.0,wc_7,wc_17,1.0,"[('wc_17', 0.6400000000000005), ('wc_7', 0.7100000000000005), ('wc_9', 0.6000000000000004)]",0.9582400000000002,,,37.0,0.047196,['Fail'],Fail,0.6500000000000005,0.34999999999999953,1.0,1.0,0.7
582.0,7.0,wc_7,,0.0,,,,203.0,,,,Fail,,,,,
582.0,7.0,wc_7,,0.0,,,67.0,,,,,Fail,,,,,
582.0,7.0,wc_7,,0.0,,,,0.0,,,,Fail,,,,,
582.0,7.0,wc_7,wc_7,0.0,"[('wc_7', 0.7200000000000005)]",0.7200000000000005,,,29.0,0.001974,['Fail'],Fail,0.7200000000000005,0.27999999999999947,3.0,3.0,0.9
582.0,7.0,wc_7,,0.0,,,,321.0,,,,Fail,,,,,
582.0,7.0,wc_7,wc_4,0.0,"[('wc_4', 0.3400000000000002), ('wc_7', 0.7200000000000005)]",0.8152000000000004,,,20.0,0.004268,['Fail'],Fail,0.3400000000000002,-0.006666666666666876,1.0,3.0,0.4
582.0,7.0,wc_7,,0.0,,,,202.0,,,,Fail,,,,,
582.0,7.0,wc_7,wc_16,0.0,"[('wc_16', 0.20000000000000007), ('wc_7', 0.7200000000000005), ('wc_4', 0.3400000000000002)]",0.8521600000000004,,,28.0,0.005821,['Fail'],Fail,0.20000000000000007,0.04999999999999993,2.0,8.0,0.1
582.0,7.0,wc_7,,0.0,,,,382.0,,,,Fail,,,,,
582.0,7.0,wc_7,wc_3,1.0,"[('wc_3', 0.6100000000000004), ('wc_7', 0.7200000000000005), ('wc_4', 0.3400000000000002), ('wc_16', 0.20000000000000007)]",0.9423424000000002,,,21.0,0.04355300000000001,['Fail'],Fail,0.6100000000000004,-0.4100000000000004,1.0,5.0,0.6
590.0,7.0,wc_7,,0.0,,,,121.0,,,,Pass,,,,,
590.0,7.0,wc_7,,0.0,,,67.0,,,,,Pass,,,,,
590.0,7.0,wc_7,,0.0,,,,0.0,,,,Pass,,,,,
590.0,7.0,wc_7,wc_7,0.0,"[('wc_7', 0.7300000000000005)]",0.7300000000000005,,,25.0,0.002872,['Pass'],Pass,0.7300000000000005,0.26999999999999946,4.0,4.0,0.9
590.0,7.0,wc_7,,0.0,,,,341.0,,,,Pass,,,,,
590.0,7.0,wc_7,wc_5,0.0,"[('wc_7', 0.7300000000000005)]",0.7300000000000005,,,22.0,0.004469,['Pass'],Pass,0.2500000000000001,-0.08333333333333345,1.0,6.0,0.1
590.0,7.0,wc_7,,0.0,,,,103.0,,,,Pass,,,,,
590.0,7.0,wc_7,wc_4,0.0,"[('wc_7', 0.7300000000000005)]",0.7300000000000005,,,29.0,0.006155000000000001,['Pass'],Pass,0.3500000000000002,0.1499999999999998,2.0,4.0,0.4
590.0,7.0,wc_7,,0.0,,,,81.0,,,,Pass,,,,,
590.0,7.0,wc_7,wc_6,0.0,"[('wc_6', 0.40000000000000024), ('wc_7', 0.7300000000000005)]",0.8380000000000004,,,32.0,0.008516,['Pass'],Pass,0.40000000000000024,-0.2823529411764708,0.0,0.0,0.3
590.0,7.0,wc_7,,0.0,,,,0.0,,,,Pass,,,,,
590.0,7.0,wc_7,wc_9,0.0,"[('wc_7', 0.7300000000000005), ('wc_6', 0.40000000000000024)]",0.8380000000000004,,,26.0,0.010343,['Pass'],Pass,0.6100000000000004,-0.11000000000000043,1.0,2.0,0.7
590.0,7.0,wc_7,,0.0,,,,243.0,,,,Pass,,,,,
590.0,7.0,wc_7,wc_1,0.0,"[('wc_1', 0.31000000000000016), ('wc_5', 0.2500000000000001), ('wc_4', 0.3500000000000002), ('wc_9', 0.6100000000000004)]",0.8688137500000002,,,21.0,0.013824,['Fail'],Pass,0.31000000000000016,-0.31000000000000016,0.0,9.0,0.1
590.0,7.0,wc_7,,0.0,,,,182.0,,,,Pass,,,,,
590.0,7.0,wc_7,wc_8,1.0,"[('wc_8', 0.5900000000000004), ('wc_5', 0.2500000000000001), ('wc_4', 0.3500000000000002), ('wc_9', 0.6100000000000004), ('wc_1', 0.31000000000000016)]",0.9462136375000001,,,29.0,0.056151,['Fail'],Pass,0.5900000000000004,-0.3677777777777782,2.0,9.0,0.6
594.0,10.0,wc_10,,0.0,,,,0.0,,,,Fail,,,,,
594.0,10.0,wc_10,,0.0,,,57.0,,,,,Fail,,,,,
594.0,10.0,wc_10,,0.0,,,,0.0,,,,Fail,,,,,
594.0,10.0,wc_10,wc_10,0.0,"[('wc_10', 0.7300000000000005)]",0.7300000000000005,,,38.0,0.002629,['Fail'],Fail,0.7300000000000005,-0.2855555555555561,4.0,9.0,1.0
594.0,10.0,wc_10,,0.0,,,,103.0,,,,Fail,,,,,
594.0,10.0,wc_10,wc_9,0.0,"[('wc_9', 0.6200000000000004), ('wc_10', 0.7300000000000005)]",0.8974000000000003,,,34.0,0.003987,['Fail'],Fail,0.6200000000000004,0.04666666666666619,2.0,3.0,0.7
594.0,10.0,wc_10,,0.0,,,,121.0,,,,Fail,,,,,
594.0,10.0,wc_10,wc_13,1.0,"[('wc_13', 0.2300000000000001), ('wc_10', 0.7300000000000005), ('wc_9', 0.6200000000000004)]",0.9209980000000002,,,37.0,0.041019,['Fail'],Fail,0.2300000000000001,-0.2300000000000001,0.0,0.0,0.1
604.0,10.0,wc_10,,0.0,,,,321.0,,,,Pass,,,,,
604.0,10.0,wc_10,,0.0,,,69.0,,,,,Pass,,,,,
604.0,10.0,wc_10,,0.0,,,,0.0,,,,Pass,,,,,
604.0,10.0,wc_10,wc_10,0.0,"[('wc_10', 0.7300000000000005)]",0.7300000000000005,,,37.0,0.002365,['Pass'],Pass,0.7300000000000005,-0.7300000000000005,0.0,0.0,1.0
604.0,10.0,wc_10,,0.0,,,,81.0,,,,Pass,,,,,
604.0,10.0,wc_10,wc_8,0.0,"[('wc_10', 0.7300000000000005)]",0.7300000000000005,,,36.0,0.00624,['Pass'],Pass,0.5900000000000004,-0.3900000000000004,0.0,0.0,0.6
604.0,10.0,wc_10,,0.0,,,,102.0,,,,Pass,,,,,
604.0,10.0,wc_10,wc_7,0.0,"[('wc_7', 0.7300000000000005), ('wc_8', 0.5900000000000004)]",0.8893000000000003,,,37.0,0.005831,['Fail'],Pass,0.7300000000000005,-0.06333333333333391,4.0,6.0,0.9
604.0,10.0,wc_10,,0.0,,,,0.0,,,,Pass,,,,,
604.0,10.0,wc_10,wc_9,0.0,"[('wc_9', 0.6300000000000004), ('wc_10', 0.7300000000000005)]",0.9001000000000003,,,35.0,0.007916000000000001,['Pass'],Pass,0.6300000000000004,0.11999999999999955,3.0,4.0,0.7
604.0,10.0,wc_10,,0.0,,,,243.0,,,,Pass,,,,,
604.0,10.0,wc_10,wc_1,1.0,"[('wc_1', 0.31000000000000016), ('wc_8', 0.5900000000000004), ('wc_7', 0.7300000000000005)]",0.9236170000000002,,,31.0,0.046827999999999995,['Fail'],Pass,0.3200000000000002,0.17999999999999983,1.0,2.0,0.1
610.0,11.0,wc_11,,0.0,,,,243.0,,,,Pass,,,,,
610.0,11.0,wc_11,,0.0,,,79.0,,,,,Pass,,,,,
610.0,11.0,wc_11,,0.0,,,,0.0,,,,Pass,,,,,
610.0,11.0,wc_11,wc_11,0.0,"[('wc_11', 0.15000000000000002)]",0.15000000000000002,,,25.0,0.002355,['Fail'],Pass,0.15000000000000002,0.016666666666666635,0.0,0.0,0.1
610.0,11.0,wc_11,,0.0,,,,223.0,,,,Pass,,,,,
610.0,11.0,wc_11,wc_2,0.0,"[('wc_2', 0.6700000000000005)]",0.6700000000000005,,,34.0,0.004592,['Pass'],Pass,0.6700000000000005,-0.4392307692307697,0.0,0.0,0.9
610.0,11.0,wc_11,,0.0,,,,243.0,,,,Pass,,,,,
610.0,11.0,wc_11,wc_16,0.0,"[('wc_16', 0.21000000000000008), ('wc_2', 0.6700000000000005)]",0.7393000000000004,,,32.0,0.006168,['Pass'],Pass,0.21000000000000008,0.039999999999999925,0.0,0.0,0.1
610.0,11.0,wc_11,,0.0,,,,103.0,,,,Pass,,,,,
610.0,11.0,wc_11,wc_15,0.0,"[('wc_15', 0.41000000000000025), ('wc_2', 0.6700000000000005), ('wc_16', 0.21000000000000008)]",0.8461870000000002,,,30.0,0.010027,['Pass'],Pass,0.41000000000000025,-0.41000000000000025,0.0,0.0,0.4
610.0,11.0,wc_11,,0.0,,,,442.0,,,,Pass,,,,,
610.0,11.0,wc_11,wc_5,0.0,"[('wc_5', 0.2600000000000001), ('wc_2', 0.6700000000000005), ('wc_16', 0.21000000000000008), ('wc_15', 0.41000000000000025)]",0.8861783800000003,,,26.0,0.010125,['Pass'],Pass,0.2600000000000001,-0.03777777777777791,2.0,9.0,0.1
610.0,11.0,wc_11,,0.0,,,,61.0,,,,Pass,,,,,
610.0,11.0,wc_11,wc_6,1.0,"[('wc_6', 0.39000000000000024), ('wc_2', 0.6700000000000005), ('wc_16', 0.21000000000000008), ('wc_15', 0.41000000000000025), ('wc_5', 0.2600000000000001)]",0.9305688118000002,,,33.0,0.049665999999999995,['Pass'],Pass,0.39000000000000024,-0.14000000000000024,1.0,4.0,0.3
624.0,12.0,wc_12,,0.0,,,,162.0,,,,Fail,,,,,
624.0,12.0,wc_12,,0.0,,,79.0,,,,,Fail,,,,,
624.0,12.0,wc_12,,0.0,,,,0.0,,,,Fail,,,,,
624.0,12.0,wc_12,wc_12,0.0,"[('wc_12', 0.2400000000000001)]",0.2400000000000001,,,35.0,0.002233,['Fail'],Fail,0.2400000000000001,-0.2400000000000001,0.0,0.0,0.1
624.0,12.0,wc_12,,0.0,,,,182.0,,,,Fail,,,,,
624.0,12.0,wc_12,wc_6,0.0,"[('wc_6', 0.39000000000000024), ('wc_12', 0.2400000000000001)]",0.5364000000000002,,,23.0,0.004102,['Fail'],Fail,0.39000000000000024,-0.14000000000000024,1.0,4.0,0.3
624.0,12.0,wc_12,,0.0,,,,0.0,,,,Fail,,,,,
624.0,12.0,wc_12,wc_8,0.0,"[('wc_8', 0.6000000000000004), ('wc_12', 0.2400000000000001), ('wc_6', 0.39000000000000024)]",0.8145600000000003,,,30.0,0.0062699999999999995,['Fail'],Fail,0.6000000000000004,-0.10000000000000042,1.0,2.0,0.6
624.0,12.0,wc_12,,0.0,,,,182.0,,,,Fail,,,,,
624.0,12.0,wc_12,wc_2,1.0,"[('wc_2', 0.6800000000000005), ('wc_12', 0.2400000000000001), ('wc_6', 0.39000000000000024), ('wc_8', 0.6000000000000004)]",0.9406592000000001,,,40.0,0.044868,['Fail'],Fail,0.6900000000000005,0.3099999999999995,2.0,2.0,0.9
637.0,12.0,wc_12,,0.0,,,,162.0,,,,Fail,,,,,
637.0,12.0,wc_12,,0.0,,,77.0,,,,,Fail,,,,,
637.0,12.0,wc_12,,0.0,,,,0.0,,,,Fail,,,,,
637.0,12.0,wc_12,wc_12,0.0,"[('wc_12', 0.2500000000000001)]",0.2500000000000001,,,29.0,0.002907,['Fail'],Fail,0.2500000000000001,0.7499999999999999,1.0,1.0,0.1
637.0,12.0,wc_12,,0.0,,,,242.0,,,,Fail,,,,,
637.0,12.0,wc_12,wc_1,0.0,"[('wc_1', 0.3200000000000002), ('wc_12', 0.2500000000000001)]",0.4900000000000002,,,25.0,0.005296,['Fail'],Fail,0.3200000000000002,-0.07000000000000017,1.0,4.0,0.1
637.0,12.0,wc_12,,0.0,,,,202.0,,,,Fail,,,,,
637.0,12.0,wc_12,wc_13,0.0,"[('wc_13', 0.2300000000000001), ('wc_12', 0.2500000000000001), ('wc_1', 0.3200000000000002)]",0.6073000000000002,,,21.0,0.006464,['Fail'],Fail,0.2300000000000001,-0.2300000000000001,0.0,3.0,0.1
637.0,12.0,wc_12,,0.0,,,,242.0,,,,Fail,,,,,
637.0,12.0,wc_12,wc_2,0.0,"[('wc_2', 0.6900000000000005), ('wc_12', 0.2500000000000001), ('wc_1', 0.3200000000000002), ('wc_13', 0.2300000000000001)]",0.8782630000000002,,,27.0,0.007907,['Fail'],Fail,0.6900000000000005,0.3099999999999995,2.0,2.0,0.9
637.0,12.0,wc_12,,0.0,,,,0.0,,,,Fail,,,,,
637.0,12.0,wc_12,wc_4,1.0,"[('wc_4', 0.3600000000000002), ('wc_12', 0.2500000000000001), ('wc_1', 0.3200000000000002), ('wc_13', 0.2300000000000001), ('wc_2', 0.6900000000000005)]",0.9220883200000002,,,40.0,0.069576,['Fail'],Fail,0.3700000000000002,-0.3700000000000002,0.0,0.0,0.4
645.0,12.0,wc_12,,0.0,,,,121.0,,,,Fail,,,,,
645.0,12.0,wc_12,,0.0,,,76.0,,,,,Fail,,,,,
645.0,12.0,wc_12,,0.0,,,,0.0,,,,Fail,,,,,
645.0,12.0,wc_12,wc_12,0.0,"[('wc_12', 0.2600000000000001)]",0.2600000000000001,,,29.0,0.001949,['Fail'],Fail,0.2600000000000001,0.7399999999999999,2.0,2.0,0.1
645.0,12.0,wc_12,,0.0,,,,202.0,,,,Fail,,,,,
645.0,12.0,wc_12,wc_7,0.0,"[('wc_7', 0.7300000000000005), ('wc_12', 0.2600000000000001)]",0.8002000000000005,,,23.0,0.004336,['Fail'],Fail,0.7300000000000005,-0.23000000000000054,0.0,0.0,0.9
645.0,12.0,wc_12,,0.0,,,,321.0,,,,Fail,,,,,
645.0,12.0,wc_12,wc_4,0.0,"[('wc_4', 0.3700000000000002), ('wc_12', 0.2600000000000001), ('wc_7', 0.7300000000000005)]",0.8741260000000003,,,32.0,0.006331,['Fail'],Fail,0.3700000000000002,-0.3700000000000002,0.0,0.0,0.4
645.0,12.0,wc_12,,0.0,,,,162.0,,,,Fail,,,,,
645.0,12.0,wc_12,wc_10,1.0,"[('wc_10', 0.7200000000000005), ('wc_12', 0.2600000000000001), ('wc_7', 0.7300000000000005), ('wc_4', 0.3700000000000002)]",0.9647552800000001,,,22.0,0.047238,['Fail'],Fail,0.7200000000000005,-0.5200000000000005,1.0,5.0,1.0
651.0,12.0,wc_12,,0.0,,,,81.0,,,,Pass,,,,,
651.0,12.0,wc_12,,0.0,,,52.0,,,,,Pass,,,,,
651.0,12.0,wc_12,,0.0,,,,0.0,,,,Pass,,,,,
651.0,12.0,wc_12,wc_12,0.0,"[('wc_12', 0.27000000000000013)]",0.27000000000000013,,,20.0,0.002749,['Fail'],Pass,0.27000000000000013,0.7299999999999999,3.0,3.0,0.1
651.0,12.0,wc_12,,0.0,,,,202.0,,,,Pass,,,,,
651.0,12.0,wc_12,wc_7,0.0,"[('wc_7', 0.7400000000000005)]",0.7400000000000005,,,22.0,0.005483,['Pass'],Pass,0.7400000000000005,0.25999999999999945,1.0,1.0,0.9
651.0,12.0,wc_12,,0.0,,,,0.0,,,,Pass,,,,,
651.0,12.0,wc_12,wc_11,0.0,"[('wc_11', 0.14), ('wc_7', 0.7400000000000005)]",0.7764000000000004,,,29.0,0.01758,['Pass'],Pass,0.14,-0.14,0.0,4.0,0.1
651.0,12.0,wc_12,,0.0,,,,101.0,,,,Pass,,,,,
651.0,12.0,wc_12,wc_14,1.0,"[('wc_14', 0.7100000000000005), ('wc_7', 0.7400000000000005), ('wc_11', 0.14)]",0.9351560000000002,,,26.0,0.045885999999999996,['Pass'],Pass,0.7100000000000005,-0.7100000000000005,0.0,0.0,1.0
655.0,13.0,wc_13,,0.0,,,,102.0,,,,Pass,,,,,
655.0,13.0,wc_13,,0.0,,,63.0,,,,,Pass,,,,,
655.0,13.0,wc_13,,0.0,,,,0.0,,,,Pass,,,,,
655.0,13.0,wc_13,wc_13,0.0,"[('wc_13', 0.2400000000000001)]",0.2400000000000001,,,39.0,0.003089,['Pass'],Pass,0.2400000000000001,-0.07333333333333344,1.0,6.0,0.1
655.0,13.0,wc_13,,0.0,,,,361.0,,,,Pass,,,,,
655.0,13.0,wc_13,wc_4,0.0,"[('wc_4', 0.3800000000000002), ('wc_13', 0.2400000000000001)]",0.5288000000000002,,,31.0,0.005164,['Pass'],Pass,0.3800000000000002,0.11999999999999977,1.0,2.0,0.4
655.0,13.0,wc_13,,0.0,,,,61.0,,,,Pass,,,,,
655.0,13.0,wc_13,wc_1,0.0,"[('wc_13', 0.2400000000000001), ('wc_4', 0.3800000000000002)]",0.5288000000000002,,,40.0,0.006234,['Pass'],Pass,0.3300000000000002,-0.044285714285714484,2.0,7.0,0.1
655.0,13.0,wc_13,,0.0,,,,203.0,,,,Pass,,,,,
655.0,13.0,wc_13,wc_9,0.0,"[('wc_9', 0.6200000000000004), ('wc_13', 0.2400000000000001), ('wc_4', 0.3800000000000002)]",0.8209440000000003,,,23.0,0.008348,['Pass'],Pass,0.6200000000000004,-0.32000000000000045,0.0,0.0,0.7
655.0,13.0,wc_13,,0.0,,,,182.0,,,,Pass,,,,,
655.0,13.0,wc_13,wc_16,0.0,"[('wc_16', 0.22000000000000008), ('wc_13', 0.2400000000000001), ('wc_4', 0.3800000000000002), ('wc_9', 0.6200000000000004)]",0.8603363200000003,,,35.0,0.010136,['Pass'],Pass,0.22000000000000008,-0.020000000000000073,1.0,5.0,0.1
655.0,13.0,wc_13,,0.0,,,,203.0,,,,Pass,,,,,
655.0,13.0,wc_13,wc_6,1.0,"[('wc_6', 0.39000000000000024), ('wc_13', 0.2400000000000001), ('wc_4', 0.3800000000000002), ('wc_9', 0.6200000000000004), ('wc_16', 0.22000000000000008)]",0.9148051552000002,,,32.0,0.055437999999999994,['Pass'],Pass,0.39000000000000024,-0.05666666666666692,3.0,9.0,0.3
659.0,15.0,wc_15,,0.0,,,,223.0,,,,Fail,,,,,
659.0,15.0,wc_15,,0.0,,,65.0,,,,,Fail,,,,,
659.0,15.0,wc_15,,0.0,,,,0.0,,,,Fail,,,,,
659.0,15.0,wc_15,wc_15,0.0,"[('wc_15', 0.42000000000000026)]",0.42000000000000026,,,25.0,0.002985,['Fail'],Fail,0.42000000000000026,-0.25333333333333363,1.0,6.0,0.4
659.0,15.0,wc_15,,0.0,,,,442.0,,,,Fail,,,,,
659.0,15.0,wc_15,wc_5,0.0,"[('wc_15', 0.42000000000000026)]",0.42000000000000026,,,24.0,0.004055,['Fail'],Fail,0.27000000000000013,-0.27000000000000013,0.0,5.0,0.1
659.0,15.0,wc_15,,0.0,,,,81.0,,,,Fail,,,,,
659.0,15.0,wc_15,wc_7,0.0,"[('wc_7', 0.7500000000000006), ('wc_15', 0.42000000000000026)]",0.8550000000000004,,,30.0,0.00659,['Fail'],Fail,0.7500000000000006,-0.08333333333333393,2.0,3.0,0.9
659.0,15.0,wc_15,,0.0,,,,321.0,,,,Fail,,,,,
659.0,15.0,wc_15,wc_4,1.0,"[('wc_4', 0.39000000000000024), ('wc_15', 0.42000000000000026), ('wc_7', 0.7500000000000006)]",0.9115500000000003,,,32.0,0.046118000000000006,['Fail'],Fail,0.40000000000000024,0.34999999999999976,3.0,4.0,0.4
662.0,16.0,wc_16,,0.0,,,,202.0,,,,Pass,,,,,
662.0,16.0,wc_16,,0.0,,,75.0,,,,,Pass,,,,,
662.0,16.0,wc_16,,0.0,,,,0.0,,,,Pass,,,,,
662.0,16.0,wc_16,wc_16,0.0,"[('wc_16', 0.2300000000000001)]",0.2300000000000001,,,21.0,0.002256,['Fail'],Pass,0.2300000000000001,0.055714285714285605,2.0,7.0,0.1
662.0,16.0,wc_16,,0.0,,,,362.0,,,,Pass,,,,,
662.0,16.0,wc_16,wc_10,0.0,"[('wc_10', 0.7200000000000005)]",0.7200000000000005,,,20.0,0.0047989999999999994,['Pass'],Pass,0.7200000000000005,-0.5950000000000005,1.0,8.0,1.0
662.0,16.0,wc_16,,0.0,,,,81.0,,,,Pass,,,,,
662.0,16.0,wc_16,wc_8,0.0,"[('wc_8', 0.6100000000000004), ('wc_10', 0.7200000000000005)]",0.8908000000000004,,,21.0,0.006553,['Pass'],Pass,0.6100000000000004,-0.36000000000000043,2.0,8.0,0.6
662.0,16.0,wc_16,,0.0,,,,0.0,,,,Pass,,,,,
662.0,16.0,wc_16,wc_11,0.0,"[('wc_10', 0.7200000000000005), ('wc_8', 0.6100000000000004)]",0.8908000000000004,,,25.0,0.007639000000000001,['Pass'],Pass,0.15000000000000002,-0.007142857142857173,1.0,7.0,0.1
662.0,16.0,wc_16,,0.0,,,,322.0,,,,Pass,,,,,
662.0,16.0,wc_16,wc_3,1.0,"[('wc_3', 0.6100000000000004), ('wc_10', 0.7200000000000005), ('wc_8', 0.6100000000000004)]",0.9574120000000002,,,20.0,0.048546,['Pass'],Pass,0.6100000000000004,-0.6100000000000004,0.0,0.0,0.6
665.0,15.0,wc_15,,0.0,,,,202.0,,,,Fail,,,,,
665.0,15.0,wc_15,,0.0,,,63.0,,,,,Fail,,,,,
665.0,15.0,wc_15,,0.0,,,,0.0,,,,Fail,,,,,
665.0,15.0,wc_15,wc_15,0.0,"[('wc_15', 0.42000000000000026)]",0.42000000000000026,,,24.0,0.002291,['Fail'],Fail,0.42000000000000026,-0.17000000000000026,2.0,8.0,0.4
665.0,15.0,wc_15,,0.0,,,,223.0,,,,Fail,,,,,
665.0,15.0,wc_15,wc_6,0.0,"[('wc_6', 0.39000000000000024), ('wc_15', 0.42000000000000026)]",0.6462000000000003,,,23.0,0.005345,['Fail'],Fail,0.39000000000000024,-0.11727272727272753,0.0,0.0,0.3
665.0,15.0,wc_15,,0.0,,,,182.0,,,,Fail,,,,,
665.0,15.0,wc_15,wc_13,0.0,"[('wc_13', 0.2500000000000001), ('wc_15', 0.42000000000000026), ('wc_6', 0.39000000000000024)]",0.7346500000000002,,,20.0,0.005841,['Fail'],Fail,0.2500000000000001,-0.0277777777777779,2.0,9.0,0.1
665.0,15.0,wc_15,,0.0,,,,361.0,,,,Fail,,,,,
665.0,15.0,wc_15,wc_4,0.0,"[('wc_4', 0.40000000000000024), ('wc_15', 0.42000000000000026), ('wc_6', 0.39000000000000024), ('wc_13', 0.2500000000000001)]",0.8407900000000001,,,27.0,0.007415,['Fail'],Fail,0.40000000000000024,0.19999999999999973,3.0,5.0,0.4
665.0,15.0,wc_15,,0.0,,,,61.0,,,,Fail,,,,,
665.0,15.0,wc_15,wc_1,0.0,"[('wc_1', 0.3200000000000002), ('wc_15', 0.42000000000000026), ('wc_6', 0.39000000000000024), ('wc_13', 0.2500000000000001), ('wc_4', 0.40000000000000024)]",0.8917372000000002,,,36.0,0.010426,['Fail'],Fail,0.3200000000000002,-0.12000000000000016,0.0,0.0,0.1
665.0,15.0,wc_15,,0.0,,,,283.0,,,,Fail,,,,,
665.0,15.0,wc_15,wc_17,1.0,"[('wc_17', 0.6500000000000005), ('wc_15', 0.42000000000000026), ('wc_6', 0.39000000000000024), ('wc_13', 0.2500000000000001), ('wc_4', 0.40000000000000024), ('wc_1', 0.3200000000000002)]",0.9621080200000001,,,29.0,0.053016999999999995,['Fail'],Fail,0.6500000000000005,-0.6500000000000005,0.0,0.0,0.7
667.0,14.0,wc_14,,0.0,,,,61.0,,,,Pass,,,,,
667.0,14.0,wc_14,,0.0,,,54.0,,,,,Pass,,,,,
667.0,14.0,wc_14,,0.0,,,,0.0,,,,Pass,,,,,
667.0,14.0,wc_14,wc_14,0.0,"[('wc_14', 0.7100000000000005)]",0.7100000000000005,,,30.0,0.001988,['Pass'],Pass,0.7100000000000005,-0.7100000000000005,0.0,4.0,1.0
667.0,14.0,wc_14,,0.0,,,,0.0,,,,Pass,,,,,
667.0,14.0,wc_14,wc_17,0.0,"[('wc_17', 0.6500000000000005), ('wc_14', 0.7100000000000005)]",0.8985000000000003,,,37.0,0.004145,['Pass'],Pass,0.6500000000000005,-0.6500000000000005,0.0,0.0,0.7
667.0,14.0,wc_14,,0.0,,,,223.0,,,,Pass,,,,,
667.0,14.0,wc_14,wc_8,1.0,"[('wc_8', 0.6100000000000004), ('wc_14', 0.7100000000000005), ('wc_17', 0.6500000000000005)]",0.9604150000000001,,,21.0,0.044346,['Pass'],Pass,0.6100000000000004,-0.6100000000000004,0.0,0.0,0.6
669.0,15.0,wc_15,,0.0,,,,183.0,,,,Pass,,,,,
669.0,15.0,wc_15,,0.0,,,50.0,,,,,Pass,,,,,
669.0,15.0,wc_15,,0.0,,,,0.0,,,,Pass,,,,,
669.0,15.0,wc_15,wc_15,0.0,"[('wc_15', 0.42000000000000026)]",0.42000000000000026,,,26.0,0.00205,['Pass'],Pass,0.42000000000000026,-0.12000000000000027,0.0,0.0,0.4
669.0,15.0,wc_15,,0.0,,,,442.0,,,,Pass,,,,,
669.0,15.0,wc_15,wc_5,0.0,"[('wc_15', 0.42000000000000026)]",0.42000000000000026,,,32.0,0.004253,['Pass'],Pass,0.2600000000000001,-0.2600000000000001,0.0,9.0,0.1
669.0,15.0,wc_15,,0.0,,,,41.0,,,,Pass,,,,,
669.0,15.0,wc_15,wc_1,0.0,"[('wc_1', 0.3300000000000002), ('wc_5', 0.2600000000000001)]",0.5042000000000002,,,27.0,0.007515,['Fail'],Pass,0.3300000000000002,0.16999999999999982,1.0,2.0,0.1
669.0,15.0,wc_15,,0.0,,,,0.0,,,,Pass,,,,,
669.0,15.0,wc_15,wc_3,0.0,"[('wc_3', 0.6100000000000004), ('wc_15', 0.42000000000000026)]",0.7738000000000004,,,31.0,0.007319,['Pass'],Pass,0.6100000000000004,-0.6100000000000004,0.0,2.0,0.6
669.0,15.0,wc_15,,0.0,,,,0.0,,,,Pass,,,,,
669.0,15.0,wc_15,wc_4,0.0,"[('wc_4', 0.41000000000000025), ('wc_15', 0.42000000000000026), ('wc_3', 0.6100000000000004)]",0.8665420000000003,,,20.0,0.009342,['Pass'],Pass,0.41000000000000025,0.16142857142857114,4.0,7.0,0.4
669.0,15.0,wc_15,,0.0,,,,162.0,,,,Pass,,,,,
669.0,15.0,wc_15,wc_10,1.0,"[('wc_10', 0.7200000000000005), ('wc_15', 0.42000000000000026), ('wc_3', 0.6100000000000004), ('wc_4', 0.41000000000000025)]",0.9626317600000002,,,21.0,0.05017999999999999,['Pass'],Pass,0.7200000000000005,-0.7200000000000005,0.0,0.0,1.0
671.0,17.0,wc_17,,0.0,,,,182.0,,,,Fail,,,,,
671.0,17.0,wc_17,,0.0,,,70.0,,,,,Fail,,,,,
671.0,17.0,wc_17,,0.0,,,,0.0,,,,Fail,,,,,
671.0,17.0,wc_17,wc_17,0.0,"[('wc_17', 0.6600000000000005)]",0.6600000000000005,,,27.0,0.001932,['Fail'],Fail,0.6600000000000005,-0.16000000000000048,1.0,2.0,0.7
671.0,17.0,wc_17,,0.0,,,,223.0,,,,Fail,,,,,
671.0,17.0,wc_17,wc_8,0.0,"[('wc_17', 0.6600000000000005)]",0.6600000000000005,,,26.0,0.004602,['Fail'],Fail,0.6100000000000004,-0.6100000000000004,0.0,1.0,0.6
671.0,17.0,wc_17,,0.0,,,,0.0,,,,Fail,,,,,
671.0,17.0,wc_17,wc_10,0.0,"[('wc_10', 0.7200000000000005), ('wc_17', 0.6600000000000005)]",0.9048000000000003,,,36.0,0.006185,['Fail'],Fail,0.7200000000000005,-0.7200000000000005,0.0,0.0,1.0
671.0,17.0,wc_17,,0.0,,,,121.0,,,,Fail,,,,,
671.0,17.0,wc_17,wc_14,1.0,"[('wc_14', 0.7100000000000005), ('wc_17', 0.6600000000000005), ('wc_10', 0.7200000000000005)]",0.9723920000000001,,,24.0,0.050935999999999995,['Fail'],Fail,0.7100000000000005,-0.4242857142857148,2.0,7.0,1.0
673.0,17.0,wc_17,,0.0,,,,0.0,,,,Pass,,,,,
673.0,17.0,wc_17,,0.0,,,80.0,,,,,Pass,,,,,
673.0,17.0,wc_17,,0.0,,,,0.0,,,,Pass,,,,,
673.0,17.0,wc_17,wc_17,0.0,"[('wc_17', 0.6600000000000005)]",0.6600000000000005,,,40.0,0.00249,['Pass'],Pass,0.6600000000000005,0.0066666666666661545,2.0,3.0,0.7
673.0,17.0,wc_17,,0.0,,,,183.0,,,,Pass,,,,,
673.0,17.0,wc_17,wc_6,0.0,"[('wc_6', 0.40000000000000024), ('wc_17', 0.6600000000000005)]",0.7960000000000004,,,21.0,0.004348,['Pass'],Pass,0.40000000000000024,-0.15000000000000024,1.0,4.0,0.3
673.0,17.0,wc_17,,0.0,,,,202.0,,,,Pass,,,,,
673.0,17.0,wc_17,wc_14,1.0,"[('wc_14', 0.7100000000000005), ('wc_17', 0.6600000000000005), ('wc_6', 0.40000000000000024)]",0.9408400000000002,,,29.0,0.054128,['Pass'],Pass,0.7100000000000005,-0.3350000000000005,3.0,8.0,1.0
