mpecck/BCQC/bcqc_with_qdt/results/raw/input_20/independent_qc/training/20_workpiece/20200429_095732/wp_9_qc_majority_0.9.csv
production_index,step_idx,production_workcell,qc,consent,winner_qc_list,score,production_time,transport_time,inspection_time,network_time,qc_results,actual_quality,qc_score,score_error,in_winner_counter,in_qc_counter,qc_capability
30.0,1.0,wc_1,,0.0,,,80.0,,,,,Pass,,,,,
30.0,1.0,wc_1,,0.0,,,,0.0,,,,Pass,,,,,
30.0,1.0,wc_1,wc_1,0.0,"[('wc_1', 0.3300000000000002)]",0.3300000000000002,,,31.0,0.002479,['Fail'],Pass,0.3300000000000002,-0.13000000000000017,1.0,5.0,0.1
30.0,1.0,wc_1,,0.0,,,,243.0,,,,Pass,,,,,
30.0,1.0,wc_1,wc_15,0.0,"[('wc_15', 0.43000000000000027), ('wc_1', 0.3300000000000002)]",0.6181000000000003,,,27.0,0.004432,['Fail'],Pass,0.43000000000000027,-0.09666666666666696,1.0,3.0,0.4
30.0,1.0,wc_1,,0.0,,,,61.0,,,,Pass,,,,,
30.0,1.0,wc_1,wc_12,0.0,"[('wc_12', 0.27000000000000013), ('wc_1', 0.3300000000000002), ('wc_15', 0.43000000000000027)]",0.7212130000000003,,,36.0,0.006915999999999999,['Fail'],Pass,0.27000000000000013,-0.02000000000000013,0.0,0.0,0.1
30.0,1.0,wc_1,,0.0,,,,381.0,,,,Pass,,,,,
30.0,1.0,wc_1,wc_4,0.0,"[('wc_4', 0.42000000000000026), ('wc_1', 0.3300000000000002), ('wc_15', 0.43000000000000027), ('wc_12', 0.27000000000000013)]",0.8383035400000003,,,40.0,0.008527,['Fail'],Pass,0.42000000000000026,0.07999999999999974,0.0,0.0,0.4
30.0,1.0,wc_1,,0.0,,,,202.0,,,,Pass,,,,,
30.0,1.0,wc_1,wc_16,0.0,"[('wc_1', 0.3300000000000002), ('wc_15', 0.43000000000000027), ('wc_12', 0.27000000000000013), ('wc_4', 0.42000000000000026)]",0.8383035400000002,,,34.0,0.010424,['Fail'],Pass,0.2300000000000001,-0.07615384615384624,0.0,0.0,0.1
30.0,1.0,wc_1,,0.0,,,,342.0,,,,Pass,,,,,
30.0,1.0,wc_1,wc_9,0.0,"[('wc_1', 0.3300000000000002), ('wc_15', 0.43000000000000027), ('wc_12', 0.27000000000000013), ('wc_4', 0.42000000000000026)]",0.8383035400000002,,,35.0,0.011808,['Fail'],Pass,0.6300000000000004,-0.5050000000000004,1.0,8.0,0.7
30.0,1.0,wc_1,,0.0,,,,0.0,,,,Pass,,,,,
30.0,1.0,wc_1,wc_10,1.0,"[('wc_10', 0.7300000000000005), ('wc_16', 0.2300000000000001), ('wc_9', 0.6300000000000004)]",0.9230770000000003,,,34.0,0.04996400000000001,['Pass'],Pass,0.7300000000000005,-0.06333333333333391,2.0,3.0,1.0
35.0,2.0,wc_2,,0.0,,,,243.0,,,,Pass,,,,,
35.0,2.0,wc_2,,0.0,,,77.0,,,,,Pass,,,,,
35.0,2.0,wc_2,,0.0,,,,0.0,,,,Pass,,,,,
35.0,2.0,wc_2,wc_2,0.0,"[('wc_2', 0.7000000000000005)]",0.7000000000000005,,,32.0,0.00218,['Pass'],Pass,0.7000000000000005,-0.4857142857142862,0.0,0.0,0.9
35.0,2.0,wc_2,,0.0,,,,162.0,,,,Pass,,,,,
35.0,2.0,wc_2,wc_8,0.0,"[('wc_8', 0.6000000000000004), ('wc_2', 0.7000000000000005)]",0.8800000000000003,,,27.0,0.003942,['Pass'],Pass,0.6000000000000004,-0.6000000000000004,0.0,4.0,0.6
35.0,2.0,wc_2,,0.0,,,,102.0,,,,Pass,,,,,
35.0,2.0,wc_2,wc_7,1.0,"[('wc_7', 0.7500000000000006), ('wc_2', 0.7000000000000005), ('wc_8', 0.6000000000000004)]",0.9700000000000002,,,34.0,0.036839,['Pass'],Pass,0.7500000000000006,-0.7500000000000006,0.0,0.0,0.9
46.0,3.0,wc_3,,0.0,,,,301.0,,,,Fail,,,,,
46.0,3.0,wc_3,,0.0,,,72.0,,,,,Fail,,,,,
46.0,3.0,wc_3,,0.0,,,,0.0,,,,Fail,,,,,
46.0,3.0,wc_3,wc_3,0.0,"[('wc_3', 0.6100000000000004)]",0.6100000000000004,,,23.0,0.001978,['Fail'],Fail,0.6100000000000004,-0.4671428571428576,1.0,7.0,0.6
46.0,3.0,wc_3,,0.0,,,,182.0,,,,Fail,,,,,
46.0,3.0,wc_3,wc_10,0.0,"[('wc_10', 0.7300000000000005), ('wc_3', 0.6100000000000004)]",0.8947000000000003,,,38.0,0.00419,['Fail'],Fail,0.7300000000000005,-0.23000000000000054,2.0,4.0,1.0
46.0,3.0,wc_3,,0.0,,,,162.0,,,,Fail,,,,,
46.0,3.0,wc_3,wc_16,0.0,"[('wc_3', 0.6100000000000004), ('wc_10', 0.7300000000000005)]",0.8947000000000003,,,32.0,0.006314,['Fail'],Fail,0.2400000000000001,0.2599999999999999,1.0,2.0,0.1
46.0,3.0,wc_3,,0.0,,,,41.0,,,,Fail,,,,,
46.0,3.0,wc_3,wc_12,0.0,"[('wc_3', 0.6100000000000004), ('wc_10', 0.7300000000000005)]",0.8947000000000003,,,40.0,0.009403,['Fail'],Fail,0.2600000000000001,-0.2600000000000001,0.0,2.0,0.1
46.0,3.0,wc_3,,0.0,,,,381.0,,,,Fail,,,,,
46.0,3.0,wc_3,wc_4,0.0,"[('wc_3', 0.6100000000000004), ('wc_10', 0.7300000000000005)]",0.8947000000000003,,,22.0,0.010396,['Fail'],Fail,0.41000000000000025,-0.41000000000000025,0.0,2.0,0.4
46.0,3.0,wc_3,,0.0,,,,121.0,,,,Fail,,,,,
46.0,3.0,wc_3,wc_8,1.0,"[('wc_8', 0.6000000000000004), ('wc_3', 0.6100000000000004), ('wc_10', 0.7300000000000005)]",0.9578800000000002,,,32.0,0.045119000000000006,['Fail'],Fail,0.6000000000000004,-0.2666666666666671,2.0,6.0,0.6
56.0,4.0,wc_4,,0.0,,,,301.0,,,,Pass,,,,,
56.0,4.0,wc_4,,0.0,,,77.0,,,,,Pass,,,,,
56.0,4.0,wc_4,,0.0,,,,0.0,,,,Pass,,,,,
56.0,4.0,wc_4,wc_4,0.0,"[('wc_4', 0.40000000000000024)]",0.40000000000000024,,,29.0,0.002357,['Pass'],Pass,0.40000000000000024,-0.40000000000000024,0.0,3.0,0.4
56.0,4.0,wc_4,,0.0,,,,182.0,,,,Pass,,,,,
56.0,4.0,wc_4,wc_15,0.0,"[('wc_15', 0.42000000000000026), ('wc_4', 0.40000000000000024)]",0.6520000000000004,,,32.0,0.004477,['Pass'],Pass,0.42000000000000026,-0.25333333333333363,1.0,6.0,0.4
56.0,4.0,wc_4,,0.0,,,,442.0,,,,Pass,,,,,
56.0,4.0,wc_4,wc_5,0.0,"[('wc_5', 0.2500000000000001), ('wc_4', 0.40000000000000024), ('wc_15', 0.42000000000000026)]",0.7390000000000003,,,20.0,0.006707,['Pass'],Pass,0.2500000000000001,-0.2500000000000001,0.0,5.0,0.1
56.0,4.0,wc_4,,0.0,,,,121.0,,,,Pass,,,,,
56.0,4.0,wc_4,wc_13,0.0,"[('wc_4', 0.40000000000000024), ('wc_15', 0.42000000000000026), ('wc_5', 0.2500000000000001)]",0.7390000000000003,,,20.0,0.00804,['Pass'],Pass,0.2600000000000001,-0.2600000000000001,0.0,7.0,0.1
56.0,4.0,wc_4,,0.0,,,,0.0,,,,Pass,,,,,
56.0,4.0,wc_4,wc_17,1.0,"[('wc_17', 0.6700000000000005), ('wc_4', 0.40000000000000024), ('wc_15', 0.42000000000000026), ('wc_5', 0.2500000000000001)]",0.9138700000000002,,,25.0,0.043242,['Pass'],Pass,0.6700000000000005,-0.17000000000000048,4.0,8.0,0.7
67.0,3.0,wc_3,,0.0,,,,362.0,,,,Pass,,,,,
67.0,3.0,wc_3,,0.0,,,73.0,,,,,Pass,,,,,
67.0,3.0,wc_3,,0.0,,,,0.0,,,,Pass,,,,,
67.0,3.0,wc_3,wc_3,0.0,"[('wc_3', 0.6100000000000004)]",0.6100000000000004,,,32.0,0.002351,['Pass'],Pass,0.6100000000000004,-0.3877777777777782,2.0,9.0,0.6
67.0,3.0,wc_3,,0.0,,,,121.0,,,,Pass,,,,,
67.0,3.0,wc_3,wc_7,0.0,"[('wc_7', 0.7500000000000006), ('wc_3', 0.6100000000000004)]",0.9025000000000003,,,39.0,0.004126,['Pass'],Pass,0.7500000000000006,-0.7500000000000006,0.0,2.0,0.9
67.0,3.0,wc_3,,0.0,,,,162.0,,,,Pass,,,,,
67.0,3.0,wc_3,wc_13,0.0,"[('wc_3', 0.6100000000000004), ('wc_7', 0.7500000000000006)]",0.9025000000000003,,,27.0,0.0059370000000000004,['Pass'],Pass,0.2500000000000001,-0.2500000000000001,0.0,8.0,0.1
67.0,3.0,wc_3,,0.0,,,,202.0,,,,Pass,,,,,
67.0,3.0,wc_3,wc_8,1.0,"[('wc_8', 0.6000000000000004), ('wc_3', 0.6100000000000004), ('wc_7', 0.7500000000000006)]",0.9610000000000002,,,26.0,0.040914,['Pass'],Pass,0.6000000000000004,-0.22500000000000042,3.0,8.0,0.6
76.0,5.0,wc_5,,0.0,,,,321.0,,,,Pass,,,,,
76.0,5.0,wc_5,,0.0,,,73.0,,,,,Pass,,,,,
76.0,5.0,wc_5,,0.0,,,,0.0,,,,Pass,,,,,
76.0,5.0,wc_5,wc_5,0.0,"[('wc_5', 0.2500000000000001)]",0.2500000000000001,,,27.0,0.00223,['Pass'],Pass,0.2500000000000001,-0.10714285714285726,1.0,7.0,0.1
76.0,5.0,wc_5,,0.0,,,,61.0,,,,Pass,,,,,
76.0,5.0,wc_5,wc_2,0.0,"[('wc_2', 0.7100000000000005), ('wc_5', 0.2500000000000001)]",0.7825000000000004,,,27.0,0.004110000000000001,['Pass'],Pass,0.7100000000000005,-0.4600000000000005,1.0,4.0,0.9
76.0,5.0,wc_5,,0.0,,,,263.0,,,,Pass,,,,,
76.0,5.0,wc_5,wc_17,1.0,"[('wc_17', 0.6700000000000005), ('wc_5', 0.2500000000000001), ('wc_2', 0.7100000000000005)]",0.9282250000000003,,,22.0,0.035681,['Pass'],Pass,0.6700000000000005,-0.6700000000000005,0.0,0.0,0.7
83.0,6.0,wc_6,,0.0,,,,183.0,,,,Fail,,,,,
83.0,6.0,wc_6,,0.0,,,52.0,,,,,Fail,,,,,
83.0,6.0,wc_6,,0.0,,,,0.0,,,,Fail,,,,,
83.0,6.0,wc_6,wc_6,0.0,"[('wc_6', 0.40000000000000024)]",0.40000000000000024,,,20.0,0.002232,['Fail'],Fail,0.40000000000000024,-0.21818181818181842,0.0,0.0,0.3
83.0,6.0,wc_6,,0.0,,,,182.0,,,,Fail,,,,,
83.0,6.0,wc_6,wc_13,0.0,"[('wc_13', 0.2400000000000001), ('wc_6', 0.40000000000000024)]",0.5440000000000003,,,27.0,0.00443,['Fail'],Fail,0.2400000000000001,-0.2400000000000001,0.0,0.0,0.1
83.0,6.0,wc_6,,0.0,,,,381.0,,,,Fail,,,,,
83.0,6.0,wc_6,wc_5,0.0,"[('wc_6', 0.40000000000000024), ('wc_13', 0.2400000000000001)]",0.5440000000000003,,,33.0,0.006892,['Fail'],Fail,0.2500000000000001,-1.1102230246251565e-16,2.0,8.0,0.1
83.0,6.0,wc_6,,0.0,,,,141.0,,,,Fail,,,,,
83.0,6.0,wc_6,wc_14,0.0,"[('wc_14', 0.7100000000000005), ('wc_6', 0.40000000000000024), ('wc_13', 0.2400000000000001)]",0.8677600000000003,,,23.0,0.008536000000000002,['Fail'],Fail,0.7100000000000005,-0.4957142857142862,0.0,0.0,1.0
83.0,6.0,wc_6,,0.0,,,,162.0,,,,Fail,,,,,
83.0,6.0,wc_6,wc_7,1.0,"[('wc_7', 0.7500000000000006), ('wc_6', 0.40000000000000024), ('wc_13', 0.2400000000000001), ('wc_14', 0.7100000000000005)]",0.9669400000000001,,,35.0,0.042446,['Fail'],Fail,0.7500000000000006,-0.35000000000000053,2.0,5.0,0.9
96.0,6.0,wc_6,,0.0,,,,102.0,,,,Pass,,,,,
96.0,6.0,wc_6,,0.0,,,51.0,,,,,Pass,,,,,
96.0,6.0,wc_6,,0.0,,,,0.0,,,,Pass,,,,,
96.0,6.0,wc_6,wc_6,0.0,"[('wc_6', 0.41000000000000025)]",0.41000000000000025,,,27.0,0.002178,['Fail'],Pass,0.41000000000000025,0.5899999999999997,1.0,1.0,0.3
96.0,6.0,wc_6,,0.0,,,,243.0,,,,Pass,,,,,
96.0,6.0,wc_6,wc_16,0.0,"[('wc_16', 0.2400000000000001), ('wc_6', 0.41000000000000025)]",0.5516000000000003,,,33.0,0.004052,['Fail'],Pass,0.2400000000000001,-0.09714285714285725,1.0,7.0,0.1
96.0,6.0,wc_6,,0.0,,,,0.0,,,,Pass,,,,,
96.0,6.0,wc_6,wc_17,0.0,"[('wc_17', 0.6700000000000005), ('wc_6', 0.41000000000000025), ('wc_16', 0.2400000000000001)]",0.8520280000000003,,,25.0,0.0065699999999999995,['Fail'],Pass,0.6700000000000005,-0.6700000000000005,0.0,1.0,0.7
96.0,6.0,wc_6,,0.0,,,,21.0,,,,Pass,,,,,
96.0,6.0,wc_6,wc_12,0.0,"[('wc_12', 0.2500000000000001), ('wc_6', 0.41000000000000025), ('wc_16', 0.2400000000000001), ('wc_17', 0.6700000000000005)]",0.8890210000000003,,,40.0,0.007831000000000001,['Fail'],Pass,0.2500000000000001,-0.2500000000000001,0.0,7.0,0.1
96.0,6.0,wc_6,,0.0,,,,321.0,,,,Pass,,,,,
96.0,6.0,wc_6,wc_9,0.0,"[('wc_6', 0.41000000000000025), ('wc_16', 0.2400000000000001), ('wc_17', 0.6700000000000005), ('wc_12', 0.2500000000000001)]",0.8890210000000003,,,35.0,0.009752,['Fail'],Pass,0.6300000000000004,-0.49666666666666714,0.0,0.0,0.7
96.0,6.0,wc_6,,0.0,,,,121.0,,,,Pass,,,,,
96.0,6.0,wc_6,wc_13,1.0,"[('wc_13', 0.2500000000000001), ('wc_6', 0.41000000000000025), ('wc_16', 0.2400000000000001), ('wc_17', 0.6700000000000005), ('wc_12', 0.2500000000000001)]",0.9167657500000002,,,25.0,0.04509200000000001,['Fail'],Pass,0.2600000000000001,0.7399999999999999,2.0,2.0,0.1
106.0,11.0,wc_11,,0.0,,,,341.0,,,,Pass,,,,,
106.0,11.0,wc_11,,0.0,,,76.0,,,,,Pass,,,,,
106.0,11.0,wc_11,,0.0,,,,0.0,,,,Pass,,,,,
106.0,11.0,wc_11,wc_11,0.0,"[('wc_11', 0.14)]",0.14,,,40.0,0.002251,['Pass'],Pass,0.14,-0.0923809523809524,0.0,0.0,0.1
106.0,11.0,wc_11,,0.0,,,,81.0,,,,Pass,,,,,
106.0,11.0,wc_11,wc_13,0.0,"[('wc_13', 0.2600000000000001), ('wc_11', 0.14)]",0.36360000000000015,,,35.0,0.004342,['Pass'],Pass,0.2600000000000001,0.7399999999999999,2.0,2.0,0.1
106.0,11.0,wc_11,,0.0,,,,0.0,,,,Pass,,,,,
106.0,11.0,wc_11,wc_17,0.0,"[('wc_17', 0.6700000000000005), ('wc_11', 0.14), ('wc_13', 0.2600000000000001)]",0.7899880000000004,,,34.0,0.006617,['Pass'],Pass,0.6700000000000005,-0.17000000000000048,1.0,2.0,0.7
106.0,11.0,wc_11,,0.0,,,,103.0,,,,Pass,,,,,
106.0,11.0,wc_11,wc_16,0.0,"[('wc_11', 0.14), ('wc_13', 0.2600000000000001), ('wc_17', 0.6700000000000005)]",0.7899880000000004,,,35.0,0.009685,['Pass'],Pass,0.2400000000000001,0.009999999999999898,2.0,8.0,0.1
106.0,11.0,wc_11,,0.0,,,,402.0,,,,Pass,,,,,
106.0,11.0,wc_11,wc_4,0.0,"[('wc_11', 0.14), ('wc_13', 0.2600000000000001), ('wc_17', 0.6700000000000005)]",0.7899880000000004,,,25.0,0.010188999999999998,['Pass'],Pass,0.40000000000000024,-0.27500000000000024,1.0,8.0,0.4
106.0,11.0,wc_11,,0.0,,,,61.0,,,,Pass,,,,,
106.0,11.0,wc_11,wc_1,0.0,"[('wc_11', 0.14), ('wc_13', 0.2600000000000001), ('wc_17', 0.6700000000000005)]",0.7899880000000004,,,36.0,0.014066,['Pass'],Pass,0.3200000000000002,-0.24307692307692325,0.0,0.0,0.1
106.0,11.0,wc_11,,0.0,,,,0.0,,,,Pass,,,,,
106.0,11.0,wc_11,wc_3,1.0,"[('wc_3', 0.6100000000000004), ('wc_11', 0.14), ('wc_13', 0.2600000000000001), ('wc_17', 0.6700000000000005)]",0.9180953200000002,,,22.0,0.045824000000000004,['Pass'],Pass,0.6100000000000004,-0.36000000000000043,1.0,4.0,0.6
114.0,8.0,wc_8,,0.0,,,,141.0,,,,Pass,,,,,
114.0,8.0,wc_8,,0.0,,,51.0,,,,,Pass,,,,,
114.0,8.0,wc_8,,0.0,,,,0.0,,,,Pass,,,,,
114.0,8.0,wc_8,wc_8,0.0,"[('wc_8', 0.6000000000000004)]",0.6000000000000004,,,29.0,0.002222,['Pass'],Pass,0.6000000000000004,-0.3500000000000004,0.0,0.0,0.6
114.0,8.0,wc_8,,0.0,,,,162.0,,,,Pass,,,,,
114.0,8.0,wc_8,wc_14,0.0,"[('wc_14', 0.7200000000000005), ('wc_8', 0.6000000000000004)]",0.8880000000000003,,,30.0,0.004438,['Pass'],Pass,0.7200000000000005,-0.3866666666666672,1.0,3.0,1.0
114.0,8.0,wc_8,,0.0,,,,0.0,,,,Pass,,,,,
114.0,8.0,wc_8,wc_15,1.0,"[('wc_15', 0.42000000000000026), ('wc_8', 0.6000000000000004), ('wc_14', 0.7200000000000005)]",0.9350400000000002,,,22.0,0.051947,['Pass'],Pass,0.42000000000000026,-0.42000000000000026,0.0,0.0,0.4
125.0,7.0,wc_7,,0.0,,,,243.0,,,,Pass,,,,,
125.0,7.0,wc_7,,0.0,,,60.0,,,,,Pass,,,,,
125.0,7.0,wc_7,,0.0,,,,0.0,,,,Pass,,,,,
125.0,7.0,wc_7,wc_7,0.0,"[('wc_7', 0.7500000000000006)]",0.7500000000000006,,,27.0,0.002447,['Pass'],Pass,0.7500000000000006,-0.5000000000000006,2.0,8.0,0.9
125.0,7.0,wc_7,,0.0,,,,162.0,,,,Pass,,,,,
125.0,7.0,wc_7,wc_13,0.0,"[('wc_13', 0.27000000000000013), ('wc_7', 0.7500000000000006)]",0.8175000000000004,,,31.0,0.004321,['Pass'],Pass,0.27000000000000013,0.47999999999999987,3.0,4.0,0.1
125.0,7.0,wc_7,,0.0,,,,202.0,,,,Pass,,,,,
125.0,7.0,wc_7,wc_8,1.0,"[('wc_8', 0.6100000000000004), ('wc_7', 0.7500000000000006), ('wc_13', 0.27000000000000013)]",0.9288250000000002,,,37.0,0.040391,['Pass'],Pass,0.6200000000000004,0.37999999999999956,2.0,2.0,0.6
137.0,10.0,wc_10,,0.0,,,,0.0,,,,Pass,,,,,
137.0,10.0,wc_10,,0.0,,,75.0,,,,,Pass,,,,,
137.0,10.0,wc_10,,0.0,,,,0.0,,,,Pass,,,,,
137.0,10.0,wc_10,wc_10,0.0,"[('wc_10', 0.7300000000000005)]",0.7300000000000005,,,33.0,0.002146,['Pass'],Pass,0.7300000000000005,-0.49923076923076976,0.0,0.0,1.0
137.0,10.0,wc_10,,0.0,,,,101.0,,,,Pass,,,,,
137.0,10.0,wc_10,wc_13,0.0,"[('wc_10', 0.7300000000000005)]",0.7300000000000005,,,37.0,0.004828,['Pass'],Pass,0.28000000000000014,0.5199999999999999,4.0,5.0,0.1
137.0,10.0,wc_10,,0.0,,,,222.0,,,,Pass,,,,,
137.0,10.0,wc_10,wc_1,0.0,"[('wc_1', 0.31000000000000016), ('wc_10', 0.7300000000000005)]",0.8137000000000004,,,21.0,0.00705,['Pass'],Pass,0.31000000000000016,-0.31000000000000016,0.0,3.0,0.1
137.0,10.0,wc_10,,0.0,,,,0.0,,,,Pass,,,,,
137.0,10.0,wc_10,wc_3,1.0,"[('wc_3', 0.6100000000000004), ('wc_10', 0.7300000000000005), ('wc_1', 0.31000000000000016)]",0.9273430000000003,,,32.0,0.045599,['Pass'],Pass,0.6100000000000004,-0.32428571428571473,2.0,7.0,0.6
150.0,9.0,wc_9,,0.0,,,,162.0,,,,Pass,,,,,
150.0,9.0,wc_9,,0.0,,,62.0,,,,,Pass,,,,,
150.0,9.0,wc_9,,0.0,,,,0.0,,,,Pass,,,,,
150.0,9.0,wc_9,wc_9,0.0,"[('wc_9', 0.6200000000000004)]",0.6200000000000004,,,35.0,0.002143,['Pass'],Pass,0.6200000000000004,-0.6200000000000004,0.0,5.0,0.7
150.0,9.0,wc_9,,0.0,,,,101.0,,,,Pass,,,,,
150.0,9.0,wc_9,wc_8,0.0,"[('wc_8', 0.6200000000000004), ('wc_9', 0.6200000000000004)]",0.8556000000000004,,,39.0,0.004146,['Pass'],Pass,0.6200000000000004,0.04666666666666619,2.0,3.0,0.6
150.0,9.0,wc_9,,0.0,,,,183.0,,,,Pass,,,,,
150.0,9.0,wc_9,wc_15,1.0,"[('wc_15', 0.42000000000000026), ('wc_9', 0.6200000000000004), ('wc_8', 0.6200000000000004)]",0.9162480000000002,,,21.0,0.040753,['Pass'],Pass,0.42000000000000026,-0.08666666666666695,1.0,3.0,0.4
161.0,12.0,wc_12,,0.0,,,,61.0,,,,Fail,,,,,
161.0,12.0,wc_12,,0.0,,,79.0,,,,,Fail,,,,,
161.0,12.0,wc_12,,0.0,,,,0.0,,,,Fail,,,,,
161.0,12.0,wc_12,wc_12,0.0,"[('wc_12', 0.2500000000000001)]",0.2500000000000001,,,33.0,0.002131,['Pass'],Fail,0.2500000000000001,-0.17307692307692318,0.0,0.0,0.1
161.0,12.0,wc_12,,0.0,,,,0.0,,,,Fail,,,,,
161.0,12.0,wc_12,wc_16,0.0,"[('wc_12', 0.2500000000000001)]",0.2500000000000001,,,28.0,0.004385999999999999,['Pass'],Fail,0.2300000000000001,-0.07615384615384624,0.0,0.0,0.1
161.0,12.0,wc_12,,0.0,,,,103.0,,,,Fail,,,,,
161.0,12.0,wc_12,wc_15,0.0,"[('wc_15', 0.42000000000000026), ('wc_16', 0.2300000000000001)]",0.5534000000000003,,,36.0,0.006331999999999999,['Fail'],Fail,0.42000000000000026,-0.08666666666666695,1.0,3.0,0.4
161.0,12.0,wc_12,,0.0,,,,101.0,,,,Fail,,,,,
161.0,12.0,wc_12,wc_14,0.0,"[('wc_14', 0.7200000000000005), ('wc_16', 0.2300000000000001), ('wc_15', 0.42000000000000026)]",0.8749520000000003,,,26.0,0.008236,['Fail'],Fail,0.7200000000000005,-0.43428571428571483,2.0,7.0,1.0
161.0,12.0,wc_12,,0.0,,,,142.0,,,,Fail,,,,,
161.0,12.0,wc_12,wc_6,1.0,"[('wc_6', 0.42000000000000026), ('wc_16', 0.2300000000000001), ('wc_15', 0.42000000000000026), ('wc_14', 0.7200000000000005)]",0.9274721600000002,,,25.0,0.047,['Fail'],Fail,0.42000000000000026,-0.04500000000000026,3.0,8.0,0.3
172.0,12.0,wc_12,,0.0,,,,162.0,,,,Fail,,,,,
172.0,12.0,wc_12,,0.0,,,76.0,,,,,Fail,,,,,
172.0,12.0,wc_12,,0.0,,,,0.0,,,,Fail,,,,,
172.0,12.0,wc_12,wc_12,0.0,"[('wc_12', 0.2400000000000001)]",0.2400000000000001,,,25.0,0.00218,['Fail'],Fail,0.2400000000000001,-0.2400000000000001,0.0,1.0,0.1
172.0,12.0,wc_12,,0.0,,,,401.0,,,,Fail,,,,,
172.0,12.0,wc_12,wc_5,0.0,"[('wc_12', 0.2400000000000001)]",0.2400000000000001,,,39.0,0.004026,['Fail'],Fail,0.2400000000000001,-0.1150000000000001,0.0,0.0,0.1
172.0,12.0,wc_12,,0.0,,,,182.0,,,,Fail,,,,,
172.0,12.0,wc_12,wc_16,0.0,"[('wc_16', 0.2400000000000001), ('wc_12', 0.2400000000000001)]",0.4224000000000001,,,31.0,0.006421,['Fail'],Fail,0.2400000000000001,0.7599999999999999,1.0,1.0,0.1
172.0,12.0,wc_12,,0.0,,,,61.0,,,,Fail,,,,,
172.0,12.0,wc_12,wc_13,0.0,"[('wc_13', 0.28000000000000014), ('wc_5', 0.2400000000000001)]",0.4528000000000002,,,29.0,0.009223,['Pass'],Fail,0.28000000000000014,0.21999999999999986,4.0,8.0,0.1
172.0,12.0,wc_12,,0.0,,,,0.0,,,,Fail,,,,,
172.0,12.0,wc_12,wc_15,0.0,"[('wc_15', 0.43000000000000027), ('wc_12', 0.2400000000000001), ('wc_16', 0.2400000000000001)]",0.6707680000000003,,,24.0,0.008861,['Fail'],Fail,0.43000000000000027,0.06999999999999973,2.0,4.0,0.4
172.0,12.0,wc_12,,0.0,,,,101.0,,,,Fail,,,,,
172.0,12.0,wc_12,wc_14,1.0,"[('wc_14', 0.7200000000000005), ('wc_12', 0.2400000000000001), ('wc_16', 0.2400000000000001), ('wc_15', 0.43000000000000027)]",0.9078150400000002,,,40.0,0.050628000000000006,['Fail'],Fail,0.7200000000000005,-0.2755555555555561,4.0,9.0,1.0
192.0,12.0,wc_12,,0.0,,,,82.0,,,,Fail,,,,,
192.0,12.0,wc_12,,0.0,,,75.0,,,,,Fail,,,,,
192.0,12.0,wc_12,,0.0,,,,0.0,,,,Fail,,,,,
192.0,12.0,wc_12,wc_12,0.0,"[('wc_12', 0.2500000000000001)]",0.2500000000000001,,,21.0,0.002488,['Fail'],Fail,0.2500000000000001,0.2499999999999999,1.0,2.0,0.1
192.0,12.0,wc_12,,0.0,,,,222.0,,,,Fail,,,,,
192.0,12.0,wc_12,wc_8,0.0,"[('wc_8', 0.6300000000000004), ('wc_12', 0.2500000000000001)]",0.7225000000000004,,,22.0,0.004464,['Fail'],Fail,0.6300000000000004,-0.13000000000000045,3.0,6.0,0.6
192.0,12.0,wc_12,,0.0,,,,203.0,,,,Fail,,,,,
192.0,12.0,wc_12,wc_16,0.0,"[('wc_12', 0.2500000000000001), ('wc_8', 0.6300000000000004)]",0.7225000000000004,,,29.0,0.007010000000000001,['Fail'],Fail,0.2500000000000001,0.7499999999999999,2.0,2.0,0.1
192.0,12.0,wc_12,,0.0,,,,402.0,,,,Fail,,,,,
192.0,12.0,wc_12,wc_4,0.0,"[('wc_4', 0.39000000000000024), ('wc_12', 0.2500000000000001), ('wc_8', 0.6300000000000004)]",0.8307250000000003,,,39.0,0.010971999999999999,['Fail'],Fail,0.39000000000000024,-0.3233333333333336,0.0,0.0,0.4
192.0,12.0,wc_12,,0.0,,,,142.0,,,,Fail,,,,,
192.0,12.0,wc_12,wc_9,1.0,"[('wc_9', 0.6200000000000004), ('wc_12', 0.2500000000000001), ('wc_8', 0.6300000000000004), ('wc_4', 0.39000000000000024)]",0.9356755000000002,,,36.0,0.05065,['Fail'],Fail,0.6200000000000004,-0.39777777777777823,2.0,9.0,0.7
200.0,12.0,wc_12,,0.0,,,,101.0,,,,Fail,,,,,
200.0,12.0,wc_12,,0.0,,,51.0,,,,,Fail,,,,,
200.0,12.0,wc_12,,0.0,,,,0.0,,,,Fail,,,,,
200.0,12.0,wc_12,wc_12,0.0,"[('wc_12', 0.2600000000000001)]",0.2600000000000001,,,30.0,0.002362,['Pass'],Fail,0.2600000000000001,0.4066666666666665,2.0,3.0,0.1
200.0,12.0,wc_12,,0.0,,,,381.0,,,,Fail,,,,,
200.0,12.0,wc_12,wc_4,0.0,"[('wc_4', 0.40000000000000024)]",0.40000000000000024,,,25.0,0.004548,['Fail'],Fail,0.40000000000000024,0.5999999999999998,1.0,1.0,0.4
200.0,12.0,wc_12,,0.0,,,,0.0,,,,Fail,,,,,
200.0,12.0,wc_12,wc_5,0.0,"[('wc_5', 0.2300000000000001), ('wc_12', 0.2600000000000001)]",0.43020000000000014,,,36.0,0.007105,['Pass'],Fail,0.2300000000000001,-0.2300000000000001,0.0,2.0,0.1
200.0,12.0,wc_12,,0.0,,,,61.0,,,,Fail,,,,,
200.0,12.0,wc_12,wc_2,0.0,"[('wc_2', 0.7100000000000005), ('wc_4', 0.40000000000000024)]",0.8260000000000004,,,39.0,0.008151,['Fail'],Fail,0.7100000000000005,-0.5766666666666672,0.0,0.0,0.9
200.0,12.0,wc_12,,0.0,,,,223.0,,,,Fail,,,,,
200.0,12.0,wc_12,wc_11,0.0,"[('wc_4', 0.40000000000000024), ('wc_2', 0.7100000000000005)]",0.8260000000000004,,,24.0,0.01175,['Fail'],Fail,0.15000000000000002,-0.025000000000000022,1.0,8.0,0.1
200.0,12.0,wc_12,,0.0,,,,41.0,,,,Fail,,,,,
200.0,12.0,wc_12,wc_7,1.0,"[('wc_7', 0.7500000000000006), ('wc_4', 0.40000000000000024), ('wc_2', 0.7100000000000005)]",0.9565000000000002,,,26.0,0.04851199999999999,['Fail'],Fail,0.7500000000000006,-0.7500000000000006,0.0,0.0,0.9
212.0,12.0,wc_12,,0.0,,,,142.0,,,,Fail,,,,,
212.0,12.0,wc_12,,0.0,,,75.0,,,,,Fail,,,,,
212.0,12.0,wc_12,,0.0,,,,0.0,,,,Fail,,,,,
212.0,12.0,wc_12,wc_12,0.0,"[('wc_12', 0.2600000000000001)]",0.2600000000000001,,,23.0,0.002107,['Pass'],Fail,0.2600000000000001,0.23999999999999988,2.0,4.0,0.1
212.0,12.0,wc_12,,0.0,,,,341.0,,,,Fail,,,,,
212.0,12.0,wc_12,wc_10,0.0,"[('wc_10', 0.7400000000000005)]",0.7400000000000005,,,38.0,0.003924,['Fail'],Fail,0.7400000000000005,-0.5733333333333339,1.0,6.0,1.0
212.0,12.0,wc_12,,0.0,,,,362.0,,,,Fail,,,,,
212.0,12.0,wc_12,wc_4,0.0,"[('wc_10', 0.7400000000000005)]",0.7400000000000005,,,29.0,0.00619,['Fail'],Fail,0.41000000000000025,0.5899999999999997,2.0,2.0,0.4
212.0,12.0,wc_12,,0.0,,,,182.0,,,,Fail,,,,,
212.0,12.0,wc_12,wc_11,0.0,"[('wc_10', 0.7400000000000005)]",0.7400000000000005,,,34.0,0.007935,['Fail'],Fail,0.14,-0.02888888888888891,1.0,9.0,0.1
212.0,12.0,wc_12,,0.0,,,,101.0,,,,Fail,,,,,
212.0,12.0,wc_12,wc_14,0.0,"[('wc_14', 0.7200000000000005), ('wc_10', 0.7400000000000005)]",0.9272000000000002,,,28.0,0.010352,['Fail'],Fail,0.7200000000000005,-0.3563636363636369,0.0,0.0,1.0
212.0,12.0,wc_12,,0.0,,,,102.0,,,,Fail,,,,,
212.0,12.0,wc_12,wc_13,0.0,"[('wc_10', 0.7400000000000005), ('wc_14', 0.7200000000000005)]",0.9272000000000002,,,26.0,0.011725000000000001,['Fail'],Fail,0.28000000000000014,0.08363636363636351,0.0,0.0,0.1
212.0,12.0,wc_12,,0.0,,,,242.0,,,,Fail,,,,,
212.0,12.0,wc_12,wc_2,0.0,"[('wc_10', 0.7400000000000005), ('wc_14', 0.7200000000000005)]",0.9272000000000002,,,22.0,0.016101,['Fail'],Fail,0.7200000000000005,0.27999999999999947,1.0,1.0,0.9
212.0,12.0,wc_12,,0.0,,,,142.0,,,,Fail,,,,,
212.0,12.0,wc_12,wc_7,1.0,"[('wc_7', 0.7500000000000006), ('wc_10', 0.7400000000000005), ('wc_14', 0.7200000000000005)]",0.9818000000000001,,,34.0,0.047293,['Fail'],Fail,0.7600000000000006,0.23999999999999944,1.0,1.0,0.9
223.0,12.0,wc_12,,0.0,,,,142.0,,,,Fail,,,,,
223.0,12.0,wc_12,,0.0,,,51.0,,,,,Fail,,,,,
223.0,12.0,wc_12,,0.0,,,,0.0,,,,Fail,,,,,
223.0,12.0,wc_12,wc_12,0.0,"[('wc_12', 0.2600000000000001)]",0.2600000000000001,,,27.0,0.002195,['Fail'],Fail,0.2600000000000001,0.1399999999999999,2.0,5.0,0.1
223.0,12.0,wc_12,,0.0,,,,0.0,,,,Fail,,,,,
223.0,12.0,wc_12,wc_17,0.0,"[('wc_17', 0.6700000000000005), ('wc_12', 0.2600000000000001)]",0.7558000000000004,,,34.0,0.003985,['Fail'],Fail,0.6700000000000005,-0.5033333333333339,0.0,0.0,0.7
223.0,12.0,wc_12,,0.0,,,,103.0,,,,Fail,,,,,
223.0,12.0,wc_12,wc_16,0.0,"[('wc_12', 0.2600000000000001), ('wc_17', 0.6700000000000005)]",0.7558000000000004,,,31.0,0.006255,['Fail'],Fail,0.2500000000000001,0.1499999999999999,2.0,5.0,0.1
223.0,12.0,wc_12,,0.0,,,,103.0,,,,Fail,,,,,
223.0,12.0,wc_12,wc_15,0.0,"[('wc_15', 0.4400000000000003), ('wc_12', 0.2600000000000001), ('wc_17', 0.6700000000000005)]",0.8632480000000002,,,26.0,0.007983,['Fail'],Fail,0.4400000000000003,-0.06500000000000028,3.0,8.0,0.4
223.0,12.0,wc_12,,0.0,,,,283.0,,,,Fail,,,,,
223.0,12.0,wc_12,wc_1,0.0,"[('wc_12', 0.2600000000000001), ('wc_17', 0.6700000000000005), ('wc_15', 0.4400000000000003)]",0.8632480000000002,,,30.0,0.011779000000000001,['Fail'],Fail,0.31000000000000016,-0.21000000000000016,0.0,0.0,0.1
223.0,12.0,wc_12,,0.0,,,,142.0,,,,Fail,,,,,
223.0,12.0,wc_12,wc_6,0.0,"[('wc_12', 0.2600000000000001), ('wc_17', 0.6700000000000005), ('wc_15', 0.4400000000000003)]",0.8632480000000002,,,27.0,0.010331000000000002,['Fail'],Fail,0.42000000000000026,-0.17000000000000026,0.0,0.0,0.3
223.0,12.0,wc_12,,0.0,,,,0.0,,,,Fail,,,,,
223.0,12.0,wc_12,wc_8,1.0,"[('wc_8', 0.6300000000000004), ('wc_12', 0.2600000000000001), ('wc_17', 0.6700000000000005), ('wc_15', 0.4400000000000003)]",0.9494017600000002,,,25.0,0.048727999999999994,['Fail'],Fail,0.6300000000000004,-0.6300000000000004,0.0,0.0,0.6
245.0,12.0,wc_12,,0.0,,,,122.0,,,,Fail,,,,,
245.0,12.0,wc_12,,0.0,,,78.0,,,,,Fail,,,,,
245.0,12.0,wc_12,,0.0,,,,0.0,,,,Fail,,,,,
245.0,12.0,wc_12,wc_12,0.0,"[('wc_12', 0.27000000000000013)]",0.27000000000000013,,,31.0,0.002349,['Fail'],Fail,0.27000000000000013,0.22999999999999987,3.0,6.0,0.1
245.0,12.0,wc_12,,0.0,,,,361.0,,,,Fail,,,,,
245.0,12.0,wc_12,wc_11,0.0,"[('wc_12', 0.27000000000000013)]",0.27000000000000013,,,39.0,0.004222,['Fail'],Fail,0.13,-0.13,0.0,1.0,0.1
245.0,12.0,wc_12,,0.0,,,,342.0,,,,Fail,,,,,
245.0,12.0,wc_12,wc_4,0.0,"[('wc_4', 0.41000000000000025), ('wc_12', 0.27000000000000013)]",0.5693000000000003,,,39.0,0.007731999999999999,['Fail'],Fail,0.41000000000000025,0.08999999999999975,2.0,4.0,0.4
245.0,12.0,wc_12,,0.0,,,,142.0,,,,Fail,,,,,
245.0,12.0,wc_12,wc_9,0.0,"[('wc_9', 0.6200000000000004), ('wc_12', 0.27000000000000013), ('wc_4', 0.41000000000000025)]",0.8363340000000002,,,32.0,0.008859,['Fail'],Fail,0.6200000000000004,-0.4533333333333338,0.0,0.0,0.7
245.0,12.0,wc_12,,0.0,,,,101.0,,,,Fail,,,,,
245.0,12.0,wc_12,wc_8,1.0,"[('wc_8', 0.6300000000000004), ('wc_12', 0.27000000000000013), ('wc_4', 0.41000000000000025), ('wc_9', 0.6200000000000004)]",0.9394435800000002,,,36.0,0.052455,['Fail'],Fail,0.6400000000000005,0.35999999999999954,1.0,1.0,0.6
266.0,12.0,wc_12,,0.0,,,,122.0,,,,Pass,,,,,
266.0,12.0,wc_12,,0.0,,,74.0,,,,,Pass,,,,,
266.0,12.0,wc_12,,0.0,,,,0.0,,,,Pass,,,,,
266.0,12.0,wc_12,wc_12,0.0,"[('wc_12', 0.28000000000000014)]",0.28000000000000014,,,25.0,0.002068,['Pass'],Pass,0.28000000000000014,0.29142857142857126,4.0,7.0,0.1
266.0,12.0,wc_12,,0.0,,,,341.0,,,,Pass,,,,,
266.0,12.0,wc_12,wc_10,0.0,"[('wc_10', 0.7400000000000005), ('wc_12', 0.28000000000000014)]",0.8128000000000004,,,32.0,0.005731999999999999,['Pass'],Pass,0.7400000000000005,-0.5177777777777783,2.0,9.0,1.0
266.0,12.0,wc_12,,0.0,,,,162.0,,,,Pass,,,,,
266.0,12.0,wc_12,wc_16,0.0,"[('wc_16', 0.2500000000000001), ('wc_12', 0.28000000000000014), ('wc_10', 0.7400000000000005)]",0.8596000000000004,,,29.0,0.005823,['Pass'],Pass,0.2500000000000001,0.03571428571428559,2.0,7.0,0.1
266.0,12.0,wc_12,,0.0,,,,283.0,,,,Pass,,,,,
266.0,12.0,wc_12,wc_2,1.0,"[('wc_2', 0.7100000000000005), ('wc_12', 0.28000000000000014), ('wc_10', 0.7400000000000005), ('wc_16', 0.2500000000000001)]",0.9592840000000001,,,34.0,0.056628000000000005,['Pass'],Pass,0.7100000000000005,-0.3100000000000005,2.0,5.0,0.9
285.0,13.0,wc_13,,0.0,,,,182.0,,,,Fail,,,,,
285.0,13.0,wc_13,,0.0,,,78.0,,,,,Fail,,,,,
285.0,13.0,wc_13,,0.0,,,,0.0,,,,Fail,,,,,
285.0,13.0,wc_13,wc_13,0.0,"[('wc_13', 0.27000000000000013)]",0.27000000000000013,,,29.0,0.002389,['Fail'],Fail,0.27000000000000013,-0.27000000000000013,0.0,4.0,0.1
285.0,13.0,wc_13,,0.0,,,,0.0,,,,Fail,,,,,
285.0,13.0,wc_13,wc_16,0.0,"[('wc_16', 0.2600000000000001), ('wc_13', 0.27000000000000013)]",0.4598000000000002,,,33.0,0.004056,['Fail'],Fail,0.2600000000000001,0.11499999999999988,3.0,8.0,0.1
285.0,13.0,wc_13,,0.0,,,,362.0,,,,Fail,,,,,
285.0,13.0,wc_13,wc_10,0.0,"[('wc_10', 0.7400000000000005), ('wc_13', 0.27000000000000013), ('wc_16', 0.2600000000000001)]",0.8595480000000003,,,33.0,0.0059830000000000005,['Fail'],Fail,0.7400000000000005,-0.7400000000000005,0.0,0.0,1.0
285.0,13.0,wc_13,,0.0,,,,362.0,,,,Fail,,,,,
285.0,13.0,wc_13,wc_4,0.0,"[('wc_13', 0.27000000000000013), ('wc_16', 0.2600000000000001), ('wc_10', 0.7400000000000005)]",0.8595480000000003,,,35.0,0.008048,['Fail'],Fail,0.42000000000000026,0.07999999999999974,3.0,6.0,0.4
285.0,13.0,wc_13,,0.0,,,,182.0,,,,Fail,,,,,
285.0,13.0,wc_13,wc_15,1.0,"[('wc_15', 0.4400000000000003), ('wc_13', 0.27000000000000013), ('wc_16', 0.2600000000000001), ('wc_10', 0.7400000000000005)]",0.9213468800000002,,,28.0,0.04773000000000001,['Fail'],Fail,0.4400000000000003,-0.4400000000000003,0.0,0.0,0.4
297.0,13.0,wc_13,,0.0,,,,81.0,,,,Pass,,,,,
297.0,13.0,wc_13,,0.0,,,66.0,,,,,Pass,,,,,
297.0,13.0,wc_13,,0.0,,,,0.0,,,,Pass,,,,,
297.0,13.0,wc_13,wc_13,0.0,"[('wc_13', 0.27000000000000013)]",0.27000000000000013,,,33.0,0.002413,['Fail'],Pass,0.27000000000000013,-0.07000000000000012,1.0,5.0,0.1
297.0,13.0,wc_13,,0.0,,,,0.0,,,,Pass,,,,,
297.0,13.0,wc_13,wc_17,0.0,"[('wc_17', 0.6800000000000005)]",0.6800000000000005,,,32.0,0.003937,['Pass'],Pass,0.6800000000000005,-0.4300000000000005,1.0,4.0,0.7
297.0,13.0,wc_13,,0.0,,,,223.0,,,,Pass,,,,,
297.0,13.0,wc_13,wc_8,0.0,"[('wc_8', 0.6400000000000005), ('wc_17', 0.6800000000000005)]",0.8848000000000004,,,39.0,0.0062900000000000005,['Pass'],Pass,0.6400000000000005,-0.30666666666666714,1.0,3.0,0.6
297.0,13.0,wc_13,,0.0,,,,162.0,,,,Pass,,,,,
297.0,13.0,wc_13,wc_14,1.0,"[('wc_14', 0.7300000000000005), ('wc_17', 0.6800000000000005), ('wc_8', 0.6400000000000005)]",0.9688960000000002,,,31.0,0.048287000000000004,['Pass'],Pass,0.7300000000000005,-0.3966666666666672,2.0,6.0,1.0
308.0,16.0,wc_16,,0.0,,,,0.0,,,,Fail,,,,,
308.0,16.0,wc_16,,0.0,,,67.0,,,,,Fail,,,,,
308.0,16.0,wc_16,,0.0,,,,0.0,,,,Fail,,,,,
308.0,16.0,wc_16,wc_16,0.0,"[('wc_16', 0.27000000000000013)]",0.27000000000000013,,,20.0,0.002359,['Fail'],Fail,0.27000000000000013,0.1299999999999999,0.0,0.0,0.1
308.0,16.0,wc_16,,0.0,,,,41.0,,,,Fail,,,,,
308.0,16.0,wc_16,wc_12,0.0,"[('wc_12', 0.29000000000000015)]",0.29000000000000015,,,22.0,0.004028,['Pass'],Fail,0.29000000000000015,0.20999999999999985,0.0,0.0,0.1
308.0,16.0,wc_16,,0.0,,,,341.0,,,,Fail,,,,,
308.0,16.0,wc_16,wc_10,0.0,"[('wc_10', 0.7500000000000006), ('wc_16', 0.27000000000000013)]",0.8175000000000004,,,39.0,0.005681,['Fail'],Fail,0.7500000000000006,-0.25000000000000056,1.0,2.0,1.0
308.0,16.0,wc_16,,0.0,,,,342.0,,,,Fail,,,,,
308.0,16.0,wc_16,wc_3,1.0,"[('wc_3', 0.6100000000000004), ('wc_16', 0.27000000000000013), ('wc_10', 0.7500000000000006)]",0.9288250000000002,,,35.0,0.05548900000000001,['Fail'],Fail,0.6100000000000004,-0.6100000000000004,0.0,0.0,0.6
326.0,15.0,wc_15,,0.0,,,,202.0,,,,Pass,,,,,
326.0,15.0,wc_15,,0.0,,,73.0,,,,,Pass,,,,,
326.0,15.0,wc_15,,0.0,,,,0.0,,,,Pass,,,,,
326.0,15.0,wc_15,wc_15,0.0,"[('wc_15', 0.4400000000000003)]",0.4400000000000003,,,23.0,0.002393,['Fail'],Pass,0.4400000000000003,-0.4400000000000003,0.0,2.0,0.4
326.0,15.0,wc_15,,0.0,,,,0.0,,,,Pass,,,,,
326.0,15.0,wc_15,wc_17,0.0,"[('wc_17', 0.6800000000000005)]",0.6800000000000005,,,22.0,0.005615,['Pass'],Pass,0.6800000000000005,-0.3466666666666672,2.0,6.0,0.7
326.0,15.0,wc_15,,0.0,,,,223.0,,,,Pass,,,,,
326.0,15.0,wc_15,wc_8,0.0,"[('wc_8', 0.6400000000000005), ('wc_17', 0.6800000000000005)]",0.8848000000000004,,,25.0,0.007159,['Pass'],Pass,0.6400000000000005,-0.24000000000000044,2.0,5.0,0.6
326.0,15.0,wc_15,,0.0,,,,203.0,,,,Pass,,,,,
326.0,15.0,wc_15,wc_16,0.0,"[('wc_17', 0.6800000000000005), ('wc_8', 0.6400000000000005)]",0.8848000000000004,,,30.0,0.009171,['Pass'],Pass,0.28000000000000014,0.7199999999999999,1.0,1.0,0.1
326.0,15.0,wc_15,,0.0,,,,61.0,,,,Pass,,,,,
326.0,15.0,wc_15,wc_13,0.0,"[('wc_17', 0.6800000000000005), ('wc_8', 0.6400000000000005)]",0.8848000000000004,,,38.0,0.010166999999999999,['Pass'],Pass,0.2600000000000001,-0.11714285714285727,1.0,7.0,0.1
326.0,15.0,wc_15,,0.0,,,,381.0,,,,Pass,,,,,
326.0,15.0,wc_15,wc_5,1.0,"[('wc_5', 0.22000000000000008), ('wc_17', 0.6800000000000005), ('wc_8', 0.6400000000000005)]",0.9101440000000003,,,28.0,0.056509,['Pass'],Pass,0.22000000000000008,-0.22000000000000008,0.0,0.0,0.1
335.0,16.0,wc_16,,0.0,,,,182.0,,,,Fail,,,,,
335.0,16.0,wc_16,,0.0,,,57.0,,,,,Fail,,,,,
335.0,16.0,wc_16,,0.0,,,,0.0,,,,Fail,,,,,
335.0,16.0,wc_16,wc_16,0.0,"[('wc_16', 0.28000000000000014)]",0.28000000000000014,,,33.0,0.002365,['Pass'],Fail,0.28000000000000014,0.21999999999999986,1.0,2.0,0.1
335.0,16.0,wc_16,,0.0,,,,203.0,,,,Fail,,,,,
335.0,16.0,wc_16,wc_6,0.0,"[('wc_6', 0.41000000000000025), ('wc_16', 0.28000000000000014)]",0.5752000000000003,,,39.0,0.003991,['Pass'],Fail,0.41000000000000025,-0.41000000000000025,0.0,7.0,0.3
335.0,16.0,wc_16,,0.0,,,,0.0,,,,Fail,,,,,
335.0,16.0,wc_16,wc_11,0.0,"[('wc_16', 0.28000000000000014), ('wc_6', 0.41000000000000025)]",0.5752000000000003,,,23.0,0.005999999999999999,['Pass'],Fail,0.12000000000000001,-0.12000000000000001,0.0,7.0,0.1
335.0,16.0,wc_16,,0.0,,,,203.0,,,,Fail,,,,,
335.0,16.0,wc_16,wc_1,0.0,"[('wc_16', 0.28000000000000014), ('wc_6', 0.41000000000000025)]",0.5752000000000003,,,28.0,0.009602,['Pass'],Fail,0.30000000000000016,-0.30000000000000016,0.0,7.0,0.1
335.0,16.0,wc_16,,0.0,,,,182.0,,,,Fail,,,,,
335.0,16.0,wc_16,wc_8,0.0,"[('wc_8', 0.6400000000000005), ('wc_11', 0.12000000000000001), ('wc_1', 0.30000000000000016)]",0.7782400000000004,,,34.0,0.009771000000000002,['Fail'],Fail,0.6400000000000005,-0.14000000000000046,3.0,6.0,0.6
335.0,16.0,wc_16,,0.0,,,,122.0,,,,Fail,,,,,
335.0,16.0,wc_16,wc_12,0.0,"[('wc_11', 0.12000000000000001), ('wc_1', 0.30000000000000016), ('wc_8', 0.6400000000000005)]",0.7782400000000003,,,32.0,0.013130000000000001,['Fail'],Fail,0.28000000000000014,-0.28000000000000014,0.0,2.0,0.1
335.0,16.0,wc_16,,0.0,,,,321.0,,,,Fail,,,,,
335.0,16.0,wc_16,wc_9,1.0,"[('wc_9', 0.6300000000000004), ('wc_11', 0.12000000000000001), ('wc_1', 0.30000000000000016), ('wc_8', 0.6400000000000005)]",0.9179488000000002,,,35.0,0.049983,['Fail'],Fail,0.6300000000000004,-0.34428571428571475,2.0,7.0,0.7
344.0,16.0,wc_16,,0.0,,,,182.0,,,,Fail,,,,,
344.0,16.0,wc_16,,0.0,,,54.0,,,,,Fail,,,,,
344.0,16.0,wc_16,,0.0,,,,0.0,,,,Fail,,,,,
344.0,16.0,wc_16,wc_16,0.0,"[('wc_16', 0.28000000000000014)]",0.28000000000000014,,,24.0,0.002014,['Fail'],Fail,0.28000000000000014,0.05333333333333318,1.0,3.0,0.1
344.0,16.0,wc_16,,0.0,,,,362.0,,,,Fail,,,,,
344.0,16.0,wc_16,wc_10,0.0,"[('wc_10', 0.7500000000000006), ('wc_16', 0.28000000000000014)]",0.8200000000000004,,,26.0,0.003885,['Fail'],Fail,0.7500000000000006,-0.35000000000000053,2.0,5.0,1.0
344.0,16.0,wc_16,,0.0,,,,142.0,,,,Fail,,,,,
344.0,16.0,wc_16,wc_15,0.0,"[('wc_16', 0.28000000000000014), ('wc_10', 0.7500000000000006)]",0.8200000000000004,,,38.0,0.006007,['Fail'],Fail,0.43000000000000027,-0.43000000000000027,0.0,4.0,0.4
344.0,16.0,wc_16,,0.0,,,,81.0,,,,Fail,,,,,
344.0,16.0,wc_16,wc_13,0.0,"[('wc_16', 0.28000000000000014), ('wc_10', 0.7500000000000006)]",0.8200000000000004,,,27.0,0.008109,['Fail'],Fail,0.2500000000000001,-0.138888888888889,1.0,9.0,0.1
344.0,16.0,wc_16,,0.0,,,,162.0,,,,Fail,,,,,
344.0,16.0,wc_16,wc_6,0.0,"[('wc_16', 0.28000000000000014), ('wc_10', 0.7500000000000006)]",0.8200000000000004,,,38.0,0.009633000000000001,['Fail'],Fail,0.40000000000000024,-0.40000000000000024,0.0,8.0,0.3
344.0,16.0,wc_16,,0.0,,,,162.0,,,,Fail,,,,,
344.0,16.0,wc_16,wc_12,0.0,"[('wc_16', 0.28000000000000014), ('wc_10', 0.7500000000000006)]",0.8200000000000004,,,32.0,0.013078,['Fail'],Fail,0.27000000000000013,-0.27000000000000013,0.0,3.0,0.1
344.0,16.0,wc_16,,0.0,,,,222.0,,,,Fail,,,,,
344.0,16.0,wc_16,wc_8,1.0,"[('wc_8', 0.6400000000000005), ('wc_15', 0.43000000000000027), ('wc_13', 0.2500000000000001), ('wc_6', 0.40000000000000024), ('wc_12', 0.27000000000000013)]",0.9325918000000002,,,40.0,0.047734,['Pass'],Fail,0.6400000000000005,-0.015000000000000457,5.0,8.0,0.6
356.0,16.0,wc_16,,0.0,,,,203.0,,,,Fail,,,,,
356.0,16.0,wc_16,,0.0,,,72.0,,,,,Fail,,,,,
356.0,16.0,wc_16,,0.0,,,,0.0,,,,Fail,,,,,
356.0,16.0,wc_16,wc_16,0.0,"[('wc_16', 0.27000000000000013)]",0.27000000000000013,,,39.0,0.002139,['Fail'],Fail,0.27000000000000013,-0.02000000000000013,1.0,4.0,0.1
356.0,16.0,wc_16,,0.0,,,,362.0,,,,Fail,,,,,
356.0,16.0,wc_16,wc_10,0.0,"[('wc_10', 0.7400000000000005), ('wc_16', 0.27000000000000013)]",0.8102000000000005,,,35.0,0.003794,['Fail'],Fail,0.7400000000000005,-0.40666666666666723,2.0,6.0,1.0
356.0,16.0,wc_16,,0.0,,,,362.0,,,,Fail,,,,,
356.0,16.0,wc_16,wc_4,0.0,"[('wc_4', 0.42000000000000026), ('wc_16', 0.27000000000000013), ('wc_10', 0.7400000000000005)]",0.8899160000000003,,,21.0,0.005784,['Fail'],Fail,0.42000000000000026,-0.17000000000000026,0.0,0.0,0.4
356.0,16.0,wc_16,,0.0,,,,182.0,,,,Fail,,,,,
356.0,16.0,wc_16,wc_15,1.0,"[('wc_15', 0.43000000000000027), ('wc_16', 0.27000000000000013), ('wc_10', 0.7400000000000005), ('wc_4', 0.42000000000000026)]",0.9372521200000001,,,33.0,0.045177999999999996,['Fail'],Fail,0.43000000000000027,-0.09666666666666696,2.0,6.0,0.4
367.0,16.0,wc_16,,0.0,,,,0.0,,,,Fail,,,,,
367.0,16.0,wc_16,,0.0,,,57.0,,,,,Fail,,,,,
367.0,16.0,wc_16,,0.0,,,,0.0,,,,Fail,,,,,
367.0,16.0,wc_16,wc_16,0.0,"[('wc_16', 0.28000000000000014)]",0.28000000000000014,,,22.0,0.002099,['Fail'],Fail,0.28000000000000014,0.11999999999999988,2.0,5.0,0.1
367.0,16.0,wc_16,,0.0,,,,103.0,,,,Fail,,,,,
367.0,16.0,wc_16,wc_15,0.0,"[('wc_15', 0.43000000000000027), ('wc_16', 0.28000000000000014)]",0.5896000000000003,,,31.0,0.006017,['Fail'],Fail,0.43000000000000027,-0.09666666666666696,2.0,6.0,0.4
367.0,16.0,wc_16,,0.0,,,,61.0,,,,Fail,,,,,
367.0,16.0,wc_16,wc_12,0.0,"[('wc_12', 0.27000000000000013), ('wc_16', 0.28000000000000014), ('wc_15', 0.43000000000000027)]",0.7004080000000003,,,28.0,0.006775000000000001,['Fail'],Fail,0.27000000000000013,-0.07000000000000012,1.0,5.0,0.1
367.0,16.0,wc_16,,0.0,,,,361.0,,,,Fail,,,,,
367.0,16.0,wc_16,wc_11,0.0,"[('wc_11', 0.12000000000000001), ('wc_16', 0.28000000000000014), ('wc_15', 0.43000000000000027), ('wc_12', 0.27000000000000013)]",0.7363590400000002,,,31.0,0.008492000000000001,['Fail'],Fail,0.12000000000000001,-0.020000000000000004,0.0,0.0,0.1
367.0,16.0,wc_16,,0.0,,,,81.0,,,,Fail,,,,,
367.0,16.0,wc_16,wc_13,0.0,"[('wc_13', 0.2500000000000001), ('wc_16', 0.28000000000000014), ('wc_15', 0.43000000000000027), ('wc_12', 0.27000000000000013), ('wc_11', 0.12000000000000001)]",0.8022692800000002,,,31.0,0.010154999999999997,['Fail'],Fail,0.2500000000000001,-0.2500000000000001,0.0,1.0,0.1
367.0,16.0,wc_16,,0.0,,,,162.0,,,,Fail,,,,,
367.0,16.0,wc_16,wc_6,0.0,"[('wc_6', 0.40000000000000024), ('wc_16', 0.28000000000000014), ('wc_15', 0.43000000000000027), ('wc_12', 0.27000000000000013), ('wc_11', 0.12000000000000001), ('wc_13', 0.2500000000000001)]",0.8813615680000002,,,31.0,0.012195,['Fail'],Fail,0.40000000000000024,-0.30000000000000027,0.0,0.0,0.3
367.0,16.0,wc_16,,0.0,,,,0.0,,,,Fail,,,,,
367.0,16.0,wc_16,wc_7,1.0,"[('wc_7', 0.7600000000000006), ('wc_16', 0.28000000000000014), ('wc_15', 0.43000000000000027), ('wc_12', 0.27000000000000013), ('wc_11', 0.12000000000000001), ('wc_13', 0.2500000000000001), ('wc_6', 0.40000000000000024)]",0.9715267763200001,,,31.0,0.049108,['Fail'],Fail,0.7600000000000006,-0.7600000000000006,0.0,0.0,0.9
378.0,16.0,wc_16,,0.0,,,,223.0,,,,Fail,,,,,
378.0,16.0,wc_16,,0.0,,,66.0,,,,,Fail,,,,,
378.0,16.0,wc_16,,0.0,,,,0.0,,,,Fail,,,,,
378.0,16.0,wc_16,wc_16,0.0,"[('wc_16', 0.29000000000000015)]",0.29000000000000015,,,40.0,0.002124,['Pass'],Fail,0.29000000000000015,0.20999999999999985,3.0,6.0,0.1
378.0,16.0,wc_16,,0.0,,,,81.0,,,,Fail,,,,,
378.0,16.0,wc_16,wc_14,0.0,"[('wc_14', 0.7300000000000005)]",0.7300000000000005,,,28.0,0.004645,['Fail'],Fail,0.7300000000000005,-0.5633333333333339,0.0,0.0,1.0
378.0,16.0,wc_16,,0.0,,,,0.0,,,,Fail,,,,,
378.0,16.0,wc_16,wc_17,0.0,"[('wc_17', 0.6800000000000005), ('wc_14', 0.7300000000000005)]",0.9136000000000003,,,39.0,0.005492,['Fail'],Fail,0.6800000000000005,-0.4072727272727278,0.0,0.0,0.7
378.0,16.0,wc_16,,0.0,,,,203.0,,,,Fail,,,,,
378.0,16.0,wc_16,wc_7,0.0,"[('wc_14', 0.7300000000000005), ('wc_17', 0.6800000000000005)]",0.9136000000000003,,,33.0,0.007963999999999999,['Fail'],Fail,0.7600000000000006,-0.7600000000000006,0.0,0.0,0.9
378.0,16.0,wc_16,,0.0,,,,142.0,,,,Fail,,,,,
378.0,16.0,wc_16,wc_12,1.0,"[('wc_12', 0.28000000000000014), ('wc_14', 0.7300000000000005), ('wc_17', 0.6800000000000005)]",0.9377920000000002,,,39.0,0.044445,['Fail'],Fail,0.29000000000000015,0.1385714285714284,3.0,7.0,0.1
388.0,14.0,wc_14,,0.0,,,,0.0,,,,Fail,,,,,
388.0,14.0,wc_14,,0.0,,,54.0,,,,,Fail,,,,,
388.0,14.0,wc_14,,0.0,,,,0.0,,,,Fail,,,,,
388.0,14.0,wc_14,wc_14,0.0,"[('wc_14', 0.7400000000000005)]",0.7400000000000005,,,35.0,0.00234,['Pass'],Fail,0.7400000000000005,0.25999999999999945,1.0,1.0,1.0
388.0,14.0,wc_14,,0.0,,,,281.0,,,,Fail,,,,,
388.0,14.0,wc_14,wc_9,0.0,"[('wc_9', 0.6300000000000004), ('wc_14', 0.7400000000000005)]",0.9038000000000004,,,40.0,0.004051,['Pass'],Fail,0.6300000000000004,-0.4481818181818186,0.0,0.0,0.7
388.0,14.0,wc_14,,0.0,,,,243.0,,,,Fail,,,,,
388.0,14.0,wc_14,wc_1,0.0,"[('wc_14', 0.7400000000000005), ('wc_9', 0.6300000000000004)]",0.9038000000000004,,,23.0,0.005568,['Pass'],Fail,0.30000000000000016,-0.21666666666666684,0.0,0.0,0.1
388.0,14.0,wc_14,,0.0,,,,0.0,,,,Fail,,,,,
388.0,14.0,wc_14,wc_3,1.0,"[('wc_3', 0.6100000000000004), ('wc_14', 0.7400000000000005), ('wc_9', 0.6300000000000004)]",0.9624820000000002,,,22.0,0.044501,['Pass'],Fail,0.6100000000000004,-0.4671428571428576,1.0,7.0,0.6
395.0,16.0,wc_16,,0.0,,,,222.0,,,,Fail,,,,,
395.0,16.0,wc_16,,0.0,,,51.0,,,,,Fail,,,,,
395.0,16.0,wc_16,,0.0,,,,0.0,,,,Fail,,,,,
395.0,16.0,wc_16,wc_16,0.0,"[('wc_16', 0.29000000000000015)]",0.29000000000000015,,,36.0,0.001877,['Pass'],Fail,0.29000000000000015,0.08499999999999985,3.0,8.0,0.1
395.0,16.0,wc_16,,0.0,,,,223.0,,,,Fail,,,,,
395.0,16.0,wc_16,wc_7,0.0,"[('wc_7', 0.7500000000000006)]",0.7500000000000006,,,24.0,0.003937,['Fail'],Fail,0.7500000000000006,-0.7500000000000006,0.0,2.0,0.9
395.0,16.0,wc_16,,0.0,,,,162.0,,,,Fail,,,,,
395.0,16.0,wc_16,wc_13,0.0,"[('wc_7', 0.7500000000000006)]",0.7500000000000006,,,29.0,0.006291,['Fail'],Fail,0.2600000000000001,-0.01000000000000012,1.0,4.0,0.1
395.0,16.0,wc_16,,0.0,,,,301.0,,,,Fail,,,,,
395.0,16.0,wc_16,wc_9,0.0,"[('wc_9', 0.6400000000000005), ('wc_7', 0.7500000000000006)]",0.9100000000000004,,,20.0,0.007313,['Fail'],Fail,0.6400000000000005,0.35999999999999954,1.0,1.0,0.7
395.0,16.0,wc_16,,0.0,,,,362.0,,,,Fail,,,,,
395.0,16.0,wc_16,wc_3,1.0,"[('wc_3', 0.6100000000000004), ('wc_7', 0.7500000000000006), ('wc_9', 0.6400000000000005)]",0.9649000000000002,,,22.0,0.047319,['Fail'],Fail,0.6100000000000004,-0.36000000000000043,2.0,8.0,0.6
409.0,16.0,wc_16,,0.0,,,,222.0,,,,Fail,,,,,
409.0,16.0,wc_16,,0.0,,,75.0,,,,,Fail,,,,,
409.0,16.0,wc_16,,0.0,,,,0.0,,,,Fail,,,,,
409.0,16.0,wc_16,wc_16,0.0,"[('wc_16', 0.29000000000000015)]",0.29000000000000015,,,20.0,0.001973,['Fail'],Fail,0.29000000000000015,0.04333333333333317,3.0,9.0,0.1
409.0,16.0,wc_16,,0.0,,,,382.0,,,,Fail,,,,,
409.0,16.0,wc_16,wc_3,0.0,"[('wc_3', 0.6100000000000004), ('wc_16', 0.29000000000000015)]",0.7231000000000003,,,20.0,0.00413,['Fail'],Fail,0.6100000000000004,-0.36000000000000043,2.0,8.0,0.6
409.0,16.0,wc_16,,0.0,,,,0.0,,,,Fail,,,,,
409.0,16.0,wc_16,wc_5,0.0,"[('wc_16', 0.29000000000000015), ('wc_3', 0.6100000000000004)]",0.7231000000000003,,,36.0,0.005986000000000001,['Fail'],Fail,0.22000000000000008,-0.22000000000000008,0.0,7.0,0.1
409.0,16.0,wc_16,,0.0,,,,61.0,,,,Fail,,,,,
409.0,16.0,wc_16,wc_2,1.0,"[('wc_2', 0.7100000000000005), ('wc_16', 0.29000000000000015), ('wc_3', 0.6100000000000004)]",0.9196990000000003,,,40.0,0.051655999999999994,['Fail'],Fail,0.7100000000000005,-0.7100000000000005,0.0,0.0,0.9
419.0,14.0,wc_14,,0.0,,,,202.0,,,,Fail,,,,,
419.0,14.0,wc_14,,0.0,,,72.0,,,,,Fail,,,,,
419.0,14.0,wc_14,,0.0,,,,0.0,,,,Fail,,,,,
419.0,14.0,wc_14,wc_14,0.0,"[('wc_14', 0.7500000000000006)]",0.7500000000000006,,,20.0,0.002156,['Fail'],Fail,0.7500000000000006,-0.25000000000000056,2.0,4.0,1.0
419.0,14.0,wc_14,,0.0,,,,321.0,,,,Fail,,,,,
419.0,14.0,wc_14,wc_11,0.0,"[('wc_11', 0.13), ('wc_14', 0.7500000000000006)]",0.7825000000000004,,,28.0,0.003669,['Fail'],Fail,0.13,0.07,1.0,5.0,0.1
419.0,14.0,wc_14,,0.0,,,,103.0,,,,Fail,,,,,
419.0,14.0,wc_14,wc_10,1.0,"[('wc_10', 0.7400000000000005), ('wc_14', 0.7500000000000006), ('wc_11', 0.13)]",0.9434500000000002,,,32.0,0.044122999999999996,['Fail'],Fail,0.7400000000000005,-0.7400000000000005,0.0,0.0,1.0
425.0,14.0,wc_14,,0.0,,,,121.0,,,,Pass,,,,,
425.0,14.0,wc_14,,0.0,,,54.0,,,,,Pass,,,,,
425.0,14.0,wc_14,,0.0,,,,0.0,,,,Pass,,,,,
425.0,14.0,wc_14,wc_14,0.0,"[('wc_14', 0.7500000000000006)]",0.7500000000000006,,,37.0,0.002289,['Pass'],Pass,0.7500000000000006,-0.15000000000000058,3.0,5.0,1.0
425.0,14.0,wc_14,,0.0,,,,0.0,,,,Pass,,,,,
425.0,14.0,wc_14,wc_17,0.0,"[('wc_14', 0.7500000000000006)]",0.7500000000000006,,,34.0,0.004965,['Pass'],Pass,0.6900000000000005,-0.4900000000000005,1.0,5.0,0.7
425.0,14.0,wc_14,,0.0,,,,203.0,,,,Pass,,,,,
425.0,14.0,wc_14,wc_7,0.0,"[('wc_7', 0.7500000000000006), ('wc_14', 0.7500000000000006)]",0.9375000000000002,,,25.0,0.006171,['Pass'],Pass,0.7500000000000006,-0.5500000000000005,1.0,5.0,0.9
425.0,14.0,wc_14,,0.0,,,,0.0,,,,Pass,,,,,
425.0,14.0,wc_14,wc_8,1.0,"[('wc_8', 0.6400000000000005), ('wc_14', 0.7500000000000006), ('wc_7', 0.7500000000000006)]",0.9775000000000001,,,31.0,0.05736499999999999,['Pass'],Pass,0.6400000000000005,-0.6400000000000005,0.0,0.0,0.6
435.0,16.0,wc_16,,0.0,,,,203.0,,,,Pass,,,,,
435.0,16.0,wc_16,,0.0,,,65.0,,,,,Pass,,,,,
435.0,16.0,wc_16,,0.0,,,,0.0,,,,Pass,,,,,
435.0,16.0,wc_16,wc_16,0.0,"[('wc_16', 0.30000000000000016)]",0.30000000000000016,,,32.0,0.002283,['Pass'],Pass,0.30000000000000016,-0.30000000000000016,0.0,2.0,0.1
435.0,16.0,wc_16,,0.0,,,,223.0,,,,Pass,,,,,
435.0,16.0,wc_16,wc_7,0.0,"[('wc_7', 0.7500000000000006), ('wc_16', 0.30000000000000016)]",0.8250000000000004,,,37.0,0.004472,['Pass'],Pass,0.7500000000000006,-0.41666666666666724,2.0,6.0,0.9
435.0,16.0,wc_16,,0.0,,,,0.0,,,,Pass,,,,,
435.0,16.0,wc_16,wc_8,1.0,"[('wc_8', 0.6400000000000005), ('wc_16', 0.30000000000000016), ('wc_7', 0.7500000000000006)]",0.9370000000000003,,,28.0,0.041838,['Pass'],Pass,0.6500000000000005,0.34999999999999953,1.0,1.0,0.6
446.0,17.0,wc_17,,0.0,,,,223.0,,,,Pass,,,,,
446.0,17.0,wc_17,,0.0,,,61.0,,,,,Pass,,,,,
446.0,17.0,wc_17,,0.0,,,,0.0,,,,Pass,,,,,
446.0,17.0,wc_17,wc_17,0.0,"[('wc_17', 0.6800000000000005)]",0.6800000000000005,,,34.0,0.002488,['Pass'],Pass,0.6800000000000005,-0.5371428571428576,1.0,7.0,0.7
446.0,17.0,wc_17,,0.0,,,,342.0,,,,Pass,,,,,
446.0,17.0,wc_17,wc_10,0.0,"[('wc_10', 0.7400000000000005), ('wc_17', 0.6800000000000005)]",0.9168000000000003,,,31.0,0.004103,['Pass'],Pass,0.7400000000000005,-0.7400000000000005,0.0,2.0,1.0
446.0,17.0,wc_17,,0.0,,,,41.0,,,,Pass,,,,,
446.0,17.0,wc_17,wc_6,1.0,"[('wc_6', 0.41000000000000025), ('wc_17', 0.6800000000000005), ('wc_10', 0.7400000000000005)]",0.9509120000000002,,,35.0,0.042234,['Pass'],Pass,0.41000000000000025,-0.18777777777777804,2.0,9.0,0.3
