mpecck/BCQC/bcqc_with_qdt/results/raw/input_5/independent_qc/score/5_workpiece/20200429_104645/wp_5_qc_majority_0.9.csv
production_index,step_idx,production_workcell,qc,consent,winner_qc_list,score,production_time,transport_time,inspection_time,network_time,qc_results,actual_quality,qc_score,score_error,in_winner_counter,in_qc_counter,qc_capability
9.0,1.0,wc_1,,0.0,,,52.0,,,,,Pass,,,,,
9.0,1.0,wc_1,,0.0,,,,0.0,,,,Pass,,,,,
9.0,1.0,wc_1,wc_1,0.0,"[('wc_1', 0.5300000000000004)]",0.5300000000000004,,,20.0,0.002305,['Pass'],Pass,0.5300000000000004,-0.39206896551724174,0.0,0.0,0.4
9.0,1.0,wc_1,,0.0,,,,0.0,,,,Pass,,,,,
9.0,1.0,wc_1,wc_2,0.0,"[('wc_2', 0.7000000000000005), ('wc_1', 0.5300000000000004)]",0.8590000000000003,,,26.0,0.004751,['Pass'],Pass,0.7000000000000005,-0.4586206896551729,0.0,0.0,0.8
9.0,1.0,wc_1,,0.0,,,,0.0,,,,Pass,,,,,
9.0,1.0,wc_1,wc_3,0.0,"[('wc_1', 0.5300000000000004), ('wc_2', 0.7000000000000005)]",0.8590000000000003,,,32.0,0.006286,['Pass'],Pass,0.3900000000000001,-0.1831034482758622,0.0,0.0,0.3
9.0,1.0,wc_1,,0.0,,,,0.0,,,,Pass,,,,,
9.0,1.0,wc_1,wc_4,0.0,"[('wc_1', 0.5300000000000004), ('wc_2', 0.7000000000000005)]",0.8590000000000003,,,23.0,0.008811000000000001,['Pass'],Pass,0.4800000000000003,-0.3014285714285717,0.0,0.0,0.4
9.0,1.0,wc_1,,0.0,,,,0.0,,,,Pass,,,,,
9.0,1.0,wc_1,wc_5,1.0,"[('wc_5', 0.7700000000000006), ('wc_1', 0.5300000000000004), ('wc_2', 0.7000000000000005)]",0.9675700000000002,,,38.0,0.060582,['Pass'],Pass,0.7700000000000006,-0.6271428571428577,0.0,0.0,0.8
13.0,2.0,wc_2,,0.0,,,,61.0,,,,Fail,,,,,
13.0,2.0,wc_2,,0.0,,,80.0,,,,,Fail,,,,,
13.0,2.0,wc_2,,0.0,,,,0.0,,,,Fail,,,,,
13.0,2.0,wc_2,wc_2,0.0,"[('wc_2', 0.7000000000000005)]",0.7000000000000005,,,26.0,0.003191,['Pass'],Fail,0.7000000000000005,0.2999999999999995,1.0,1.0,0.8
13.0,2.0,wc_2,,0.0,,,,0.0,,,,Fail,,,,,
13.0,2.0,wc_2,wc_3,0.0,"[('wc_2', 0.7000000000000005)]",0.7000000000000005,,,28.0,0.0041519999999999994,['Pass'],Fail,0.3900000000000001,-0.3900000000000001,0.0,1.0,0.3
13.0,2.0,wc_2,,0.0,,,,0.0,,,,Fail,,,,,
13.0,2.0,wc_2,wc_4,0.0,"[('wc_4', 0.4800000000000003), ('wc_2', 0.7000000000000005)]",0.8440000000000003,,,23.0,0.006938999999999999,['Pass'],Fail,0.4800000000000003,-0.4800000000000003,0.0,1.0,0.4
13.0,2.0,wc_2,,0.0,,,,0.0,,,,Fail,,,,,
13.0,2.0,wc_2,wc_5,0.0,"[('wc_5', 0.7700000000000006), ('wc_3', 0.3900000000000001)]",0.8597000000000004,,,20.0,0.007325,['Fail'],Fail,0.7700000000000006,-0.7700000000000006,0.0,0.0,0.8
13.0,2.0,wc_2,,0.0,,,,41.0,,,,Fail,,,,,
13.0,2.0,wc_2,wc_1,1.0,"[('wc_1', 0.5300000000000004), ('wc_2', 0.7000000000000005), ('wc_4', 0.4800000000000003)]",0.9266800000000002,,,33.0,0.045088,['Pass'],Fail,0.5300000000000004,0.46999999999999964,2.0,2.0,0.4
16.0,2.0,wc_2,,0.0,,,,0.0,,,,Pass,,,,,
16.0,2.0,wc_2,,0.0,,,60.0,,,,,Pass,,,,,
16.0,2.0,wc_2,,0.0,,,,0.0,,,,Pass,,,,,
16.0,2.0,wc_2,wc_2,0.0,"[('wc_2', 0.7000000000000005)]",0.7000000000000005,,,35.0,0.002437,['Pass'],Pass,0.7000000000000005,0.2999999999999995,2.0,2.0,0.8
16.0,2.0,wc_2,,0.0,,,,0.0,,,,Pass,,,,,
16.0,2.0,wc_2,wc_3,0.0,"[('wc_2', 0.7000000000000005)]",0.7000000000000005,,,30.0,0.007911,['Pass'],Pass,0.3900000000000001,-0.3900000000000001,0.0,2.0,0.3
16.0,2.0,wc_2,,0.0,,,,0.0,,,,Pass,,,,,
16.0,2.0,wc_2,wc_4,0.0,"[('wc_4', 0.4800000000000003), ('wc_2', 0.7000000000000005)]",0.8440000000000003,,,27.0,0.012176,['Pass'],Pass,0.4800000000000003,0.019999999999999685,1.0,2.0,0.4
16.0,2.0,wc_2,,0.0,,,,0.0,,,,Pass,,,,,
16.0,2.0,wc_2,wc_5,0.0,"[('wc_5', 0.7700000000000006), ('wc_3', 0.3900000000000001)]",0.8597000000000004,,,29.0,0.009249,['Fail'],Pass,0.7700000000000006,-0.7700000000000006,0.0,1.0,0.8
16.0,2.0,wc_2,,0.0,,,,41.0,,,,Pass,,,,,
16.0,2.0,wc_2,wc_1,1.0,"[('wc_1', 0.5300000000000004), ('wc_3', 0.3900000000000001), ('wc_5', 0.7700000000000006)]",0.9340590000000002,,,21.0,0.050038,['Fail'],Pass,0.5300000000000004,0.46999999999999964,3.0,3.0,0.4
19.0,3.0,wc_3,,0.0,,,,0.0,,,,Fail,,,,,
19.0,3.0,wc_3,,0.0,,,64.0,,,,,Fail,,,,,
19.0,3.0,wc_3,,0.0,,,,0.0,,,,Fail,,,,,
19.0,3.0,wc_3,wc_3,0.0,"[('wc_3', 0.3900000000000001)]",0.3900000000000001,,,25.0,0.003005,['Pass'],Fail,0.3900000000000001,-0.05666666666666681,1.0,3.0,0.3
19.0,3.0,wc_3,,0.0,,,,0.0,,,,Fail,,,,,
19.0,3.0,wc_3,wc_4,0.0,"[('wc_4', 0.4800000000000003)]",0.4800000000000003,,,39.0,0.004793,['Fail'],Fail,0.4800000000000003,-0.146666666666667,1.0,3.0,0.4
19.0,3.0,wc_3,,0.0,,,,0.0,,,,Fail,,,,,
19.0,3.0,wc_3,wc_5,0.0,"[('wc_5', 0.7700000000000006), ('wc_4', 0.4800000000000003)]",0.8804000000000004,,,22.0,0.007923,['Fail'],Fail,0.7700000000000006,-0.2700000000000006,1.0,2.0,0.8
19.0,3.0,wc_3,,0.0,,,,41.0,,,,Fail,,,,,
19.0,3.0,wc_3,wc_1,0.0,"[('wc_4', 0.4800000000000003), ('wc_5', 0.7700000000000006)]",0.8804000000000004,,,25.0,0.008786,['Fail'],Fail,0.5300000000000004,0.46999999999999964,3.0,3.0,0.4
19.0,3.0,wc_3,,0.0,,,,0.0,,,,Fail,,,,,
19.0,3.0,wc_3,wc_2,1.0,"[('wc_2', 0.7000000000000005), ('wc_4', 0.4800000000000003), ('wc_5', 0.7700000000000006)]",0.9641200000000002,,,25.0,0.042759,['Fail'],Fail,0.7000000000000005,0.04999999999999949,3.0,4.0,0.8
24.0,3.0,wc_3,,0.0,,,,0.0,,,,Pass,,,,,
24.0,3.0,wc_3,,0.0,,,68.0,,,,,Pass,,,,,
24.0,3.0,wc_3,,0.0,,,,0.0,,,,Pass,,,,,
24.0,3.0,wc_3,wc_3,0.0,"[('wc_3', 0.3900000000000001)]",0.3900000000000001,,,24.0,0.00413,['Fail'],Pass,0.3900000000000001,-0.14000000000000012,1.0,4.0,0.3
24.0,3.0,wc_3,,0.0,,,,0.0,,,,Pass,,,,,
24.0,3.0,wc_3,wc_4,0.0,"[('wc_4', 0.4800000000000003)]",0.4800000000000003,,,23.0,0.0058130000000000005,['Pass'],Pass,0.4800000000000003,0.019999999999999685,2.0,4.0,0.4
24.0,3.0,wc_3,,0.0,,,,0.0,,,,Pass,,,,,
24.0,3.0,wc_3,wc_5,0.0,"[('wc_5', 0.7700000000000006), ('wc_3', 0.3900000000000001)]",0.8597000000000004,,,36.0,0.011524000000000001,['Fail'],Pass,0.7700000000000006,-0.10333333333333394,2.0,3.0,0.8
24.0,3.0,wc_3,,0.0,,,,41.0,,,,Pass,,,,,
24.0,3.0,wc_3,wc_1,0.0,"[('wc_3', 0.3900000000000001), ('wc_5', 0.7700000000000006)]",0.8597000000000004,,,23.0,0.013297,['Fail'],Pass,0.5300000000000004,0.21999999999999964,3.0,4.0,0.4
24.0,3.0,wc_3,,0.0,,,,0.0,,,,Pass,,,,,
24.0,3.0,wc_3,wc_2,1.0,"[('wc_2', 0.7000000000000005), ('wc_4', 0.4800000000000003), ('wc_1', 0.5300000000000004)]",0.9266800000000002,,,22.0,0.04474700000000001,['Pass'],Pass,0.7000000000000005,0.09999999999999953,4.0,5.0,0.8
28.0,3.0,wc_3,,0.0,,,,0.0,,,,Fail,,,,,
28.0,3.0,wc_3,,0.0,,,61.0,,,,,Fail,,,,,
28.0,3.0,wc_3,,0.0,,,,0.0,,,,Fail,,,,,
28.0,3.0,wc_3,wc_3,0.0,"[('wc_3', 0.3900000000000001)]",0.3900000000000001,,,34.0,0.005972,['Pass'],Fail,0.3900000000000001,-0.1900000000000001,1.0,5.0,0.3
28.0,3.0,wc_3,,0.0,,,,0.0,,,,Fail,,,,,
28.0,3.0,wc_3,wc_4,0.0,"[('wc_4', 0.4800000000000003)]",0.4800000000000003,,,23.0,0.004118,['Fail'],Fail,0.4800000000000003,0.11999999999999966,3.0,5.0,0.4
28.0,3.0,wc_3,,0.0,,,,0.0,,,,Fail,,,,,
28.0,3.0,wc_3,wc_5,0.0,"[('wc_5', 0.7700000000000006), ('wc_4', 0.4800000000000003)]",0.8804000000000004,,,26.0,0.009235,['Fail'],Fail,0.7700000000000006,-0.2700000000000006,2.0,4.0,0.8
28.0,3.0,wc_3,,0.0,,,,41.0,,,,Fail,,,,,
28.0,3.0,wc_3,wc_1,1.0,"[('wc_1', 0.5300000000000004), ('wc_4', 0.4800000000000003), ('wc_5', 0.7700000000000006)]",0.9437880000000002,,,20.0,0.055267000000000004,['Fail'],Fail,0.5300000000000004,0.303333333333333,5.0,6.0,0.4
34.0,3.0,wc_3,,0.0,,,,0.0,,,,Fail,,,,,
34.0,3.0,wc_3,,0.0,,,56.0,,,,,Fail,,,,,
34.0,3.0,wc_3,,0.0,,,,0.0,,,,Fail,,,,,
34.0,3.0,wc_3,wc_3,0.0,"[('wc_3', 0.3900000000000001)]",0.3900000000000001,,,26.0,0.003281,['Fail'],Fail,0.3900000000000001,-0.22333333333333347,1.0,6.0,0.3
34.0,3.0,wc_3,,0.0,,,,0.0,,,,Fail,,,,,
34.0,3.0,wc_3,wc_4,0.0,"[('wc_4', 0.4800000000000003), ('wc_3', 0.3900000000000001)]",0.6828000000000003,,,36.0,0.0044930000000000005,['Fail'],Fail,0.4800000000000003,0.18666666666666631,4.0,6.0,0.4
34.0,3.0,wc_3,,0.0,,,,0.0,,,,Fail,,,,,
34.0,3.0,wc_3,wc_5,1.0,"[('wc_5', 0.7700000000000006), ('wc_3', 0.3900000000000001), ('wc_4', 0.4800000000000003)]",0.9270440000000002,,,37.0,0.048340999999999995,['Fail'],Fail,0.7700000000000006,-0.10333333333333394,4.0,6.0,0.8
41.0,4.0,wc_4,,0.0,,,,103.0,,,,Pass,,,,,
41.0,4.0,wc_4,,0.0,,,67.0,,,,,Pass,,,,,
41.0,4.0,wc_4,,0.0,,,,0.0,,,,Pass,,,,,
41.0,4.0,wc_4,wc_4,0.0,"[('wc_4', 0.4800000000000003)]",0.4800000000000003,,,40.0,0.004303,['Pass'],Pass,0.4800000000000003,0.234285714285714,5.0,7.0,0.4
41.0,4.0,wc_4,,0.0,,,,0.0,,,,Pass,,,,,
41.0,4.0,wc_4,wc_5,0.0,"[('wc_5', 0.7700000000000006), ('wc_4', 0.4800000000000003)]",0.8804000000000004,,,32.0,0.010045,['Pass'],Pass,0.7700000000000006,-0.10333333333333394,4.0,6.0,0.8
41.0,4.0,wc_4,,0.0,,,,41.0,,,,Pass,,,,,
41.0,4.0,wc_4,wc_1,1.0,"[('wc_1', 0.5300000000000004), ('wc_4', 0.4800000000000003), ('wc_5', 0.7700000000000006)]",0.9437880000000002,,,28.0,0.03997899999999999,['Pass'],Pass,0.5300000000000004,0.21999999999999964,6.0,8.0,0.4
47.0,3.0,wc_3,,0.0,,,,0.0,,,,Pass,,,,,
47.0,3.0,wc_3,,0.0,,,52.0,,,,,Pass,,,,,
47.0,3.0,wc_3,,0.0,,,,0.0,,,,Pass,,,,,
47.0,3.0,wc_3,wc_3,0.0,"[('wc_3', 0.3900000000000001)]",0.3900000000000001,,,31.0,0.002358,['Pass'],Pass,0.3900000000000001,-0.14000000000000012,2.0,8.0,0.3
47.0,3.0,wc_3,,0.0,,,,0.0,,,,Pass,,,,,
47.0,3.0,wc_3,wc_4,0.0,"[('wc_4', 0.4800000000000003)]",0.4800000000000003,,,24.0,0.004038,['Fail'],Pass,0.4800000000000003,0.2699999999999997,6.0,8.0,0.4
47.0,3.0,wc_3,,0.0,,,,0.0,,,,Pass,,,,,
47.0,3.0,wc_3,wc_5,0.0,"[('wc_5', 0.7700000000000006), ('wc_3', 0.3900000000000001)]",0.8597000000000004,,,36.0,0.008969,['Pass'],Pass,0.7700000000000006,-0.05571428571428627,5.0,7.0,0.8
47.0,3.0,wc_3,,0.0,,,,41.0,,,,Pass,,,,,
47.0,3.0,wc_3,wc_1,1.0,"[('wc_1', 0.5300000000000004), ('wc_3', 0.3900000000000001), ('wc_5', 0.7700000000000006)]",0.9340590000000002,,,31.0,0.040403,['Pass'],Pass,0.5300000000000004,0.24777777777777743,7.0,9.0,0.4
54.0,5.0,wc_5,,0.0,,,,0.0,,,,Fail,,,,,
54.0,5.0,wc_5,,0.0,,,63.0,,,,,Fail,,,,,
54.0,5.0,wc_5,,0.0,,,,0.0,,,,Fail,,,,,
54.0,5.0,wc_5,wc_5,0.0,"[('wc_5', 0.7700000000000006)]",0.7700000000000006,,,30.0,0.002267,['Pass'],Fail,0.7700000000000006,-0.020000000000000573,6.0,8.0,0.8
54.0,5.0,wc_5,,0.0,,,,41.0,,,,Fail,,,,,
54.0,5.0,wc_5,wc_1,0.0,"[('wc_1', 0.5300000000000004), ('wc_5', 0.7700000000000006)]",0.8919000000000004,,,28.0,0.004357,['Pass'],Fail,0.5300000000000004,0.24777777777777743,7.0,9.0,0.4
54.0,5.0,wc_5,,0.0,,,,0.0,,,,Fail,,,,,
54.0,5.0,wc_5,wc_2,1.0,"[('wc_2', 0.7000000000000005), ('wc_5', 0.7700000000000006), ('wc_1', 0.5300000000000004)]",0.9675700000000002,,,38.0,0.043824999999999996,['Pass'],Fail,0.7000000000000005,-0.2000000000000005,0.0,0.0,0.8
65.0,5.0,wc_5,,0.0,,,,0.0,,,,Pass,,,,,
65.0,5.0,wc_5,,0.0,,,76.0,,,,,Pass,,,,,
65.0,5.0,wc_5,,0.0,,,,0.0,,,,Pass,,,,,
65.0,5.0,wc_5,wc_5,0.0,"[('wc_5', 0.7700000000000006)]",0.7700000000000006,,,31.0,0.002239,['Pass'],Pass,0.7700000000000006,0.007777777777777217,7.0,9.0,0.8
65.0,5.0,wc_5,,0.0,,,,41.0,,,,Pass,,,,,
65.0,5.0,wc_5,wc_1,0.0,"[('wc_1', 0.5300000000000004), ('wc_5', 0.7700000000000006)]",0.8919000000000004,,,34.0,0.004095,['Pass'],Pass,0.5300000000000004,0.2699999999999997,0.0,0.0,0.4
65.0,5.0,wc_5,,0.0,,,,0.0,,,,Pass,,,,,
65.0,5.0,wc_5,wc_2,1.0,"[('wc_2', 0.7000000000000005), ('wc_5', 0.7700000000000006), ('wc_1', 0.5300000000000004)]",0.9675700000000002,,,26.0,0.04393400000000001,['Pass'],Pass,0.7000000000000005,0.2999999999999995,1.0,1.0,0.8
75.0,6.0,wc_6,,0.0,,,,122.0,,,,Fail,,,,,
75.0,6.0,wc_6,,0.0,,,68.0,,,,,Fail,,,,,
75.0,6.0,wc_6,,0.0,,,,0.0,,,,Fail,,,,,
75.0,6.0,wc_6,wc_6,0.0,"[('wc_6', 0.3000000000000002)]",0.30000000000000027,,,29.0,0.002992,['Fail'],Fail,0.3000000000000002,-0.2500000000000002,0.0,0.0,0.2
75.0,6.0,wc_6,,0.0,,,,0.0,,,,Fail,,,,,
75.0,6.0,wc_6,wc_7,0.0,"[('wc_7', 0.8500000000000006), ('wc_6', 0.3000000000000002)]",0.8950000000000005,,,21.0,0.005977,['Fail'],Fail,0.8500000000000006,-0.8000000000000006,0.0,0.0,0.9
75.0,6.0,wc_6,,0.0,,,,0.0,,,,Fail,,,,,
75.0,6.0,wc_6,wc_8,0.0,"[('wc_6', 0.3000000000000002), ('wc_7', 0.8500000000000006)]",0.8950000000000005,,,22.0,0.006508,['Fail'],Fail,0.3400000000000002,-0.3400000000000002,0.0,0.0,0.3
75.0,6.0,wc_6,,0.0,,,,0.0,,,,Fail,,,,,
75.0,6.0,wc_6,wc_9,1.0,"[('wc_9', 0.8400000000000006), ('wc_6', 0.3000000000000002), ('wc_7', 0.8500000000000006)]",0.9832000000000002,,,27.0,0.042841,['Fail'],Fail,0.8400000000000006,-0.48516129032258126,0.0,0.0,1.0
84.0,6.0,wc_6,,0.0,,,,61.0,,,,Pass,,,,,
84.0,6.0,wc_6,,0.0,,,57.0,,,,,Pass,,,,,
84.0,6.0,wc_6,,0.0,,,,0.0,,,,Pass,,,,,
84.0,6.0,wc_6,wc_6,0.0,"[('wc_6', 0.3000000000000002)]",0.30000000000000027,,,33.0,0.004045,['Pass'],Pass,0.3000000000000002,0.6999999999999997,1.0,1.0,0.2
84.0,6.0,wc_6,,0.0,,,,0.0,,,,Pass,,,,,
84.0,6.0,wc_6,wc_7,0.0,"[('wc_7', 0.8500000000000006), ('wc_6', 0.3000000000000002)]",0.8950000000000005,,,31.0,0.004384,['Pass'],Pass,0.8500000000000006,0.14999999999999936,1.0,1.0,0.9
84.0,6.0,wc_6,,0.0,,,,0.0,,,,Pass,,,,,
84.0,6.0,wc_6,wc_8,1.0,"[('wc_8', 0.3400000000000002), ('wc_6', 0.3000000000000002), ('wc_7', 0.8500000000000006)]",0.9307000000000003,,,33.0,0.043651,['Pass'],Pass,0.3400000000000002,0.1599999999999998,1.0,2.0,0.3
88.0,11.0,wc_11,,0.0,,,,0.0,,,,Pass,,,,,
88.0,11.0,wc_11,,0.0,,,72.0,,,,,Pass,,,,,
88.0,11.0,wc_11,,0.0,,,,0.0,,,,Pass,,,,,
88.0,11.0,wc_11,wc_11,0.0,"[('wc_11', 0.2900000000000001)]",0.29000000000000004,,,30.0,0.002683,['Fail'],Pass,0.2900000000000001,-0.2900000000000001,0.0,0.0,0.2
88.0,11.0,wc_11,,0.0,,,,21.0,,,,Pass,,,,,
88.0,11.0,wc_11,wc_6,0.0,"[('wc_6', 0.3000000000000002)]",0.30000000000000027,,,26.0,0.004052999999999999,['Pass'],Pass,0.3000000000000002,0.6999999999999997,2.0,2.0,0.2
88.0,11.0,wc_11,,0.0,,,,0.0,,,,Pass,,,,,
88.0,11.0,wc_11,wc_7,0.0,"[('wc_7', 0.8500000000000006), ('wc_6', 0.3000000000000002)]",0.8950000000000005,,,31.0,0.00664,['Pass'],Pass,0.8500000000000006,0.14999999999999936,2.0,2.0,0.9
88.0,11.0,wc_11,,0.0,,,,0.0,,,,Pass,,,,,
88.0,11.0,wc_11,wc_8,0.0,"[('wc_6', 0.3000000000000002), ('wc_7', 0.8500000000000006)]",0.8950000000000005,,,20.0,0.016879,['Pass'],Pass,0.3400000000000002,0.1599999999999998,1.0,2.0,0.3
88.0,11.0,wc_11,,0.0,,,,0.0,,,,Pass,,,,,
88.0,11.0,wc_11,wc_9,1.0,"[('wc_9', 0.8400000000000006), ('wc_6', 0.3000000000000002), ('wc_7', 0.8500000000000006)]",0.9832000000000002,,,37.0,0.04864,['Pass'],Pass,0.8400000000000006,-0.34000000000000064,1.0,2.0,1.0
91.0,8.0,wc_8,,0.0,,,,101.0,,,,Fail,,,,,
91.0,8.0,wc_8,,0.0,,,61.0,,,,,Fail,,,,,
91.0,8.0,wc_8,,0.0,,,,0.0,,,,Fail,,,,,
91.0,8.0,wc_8,wc_8,0.0,"[('wc_8', 0.3400000000000002)]",0.3400000000000002,,,26.0,0.002494,['Pass'],Fail,0.3400000000000002,-0.006666666666666876,1.0,3.0,0.3
91.0,8.0,wc_8,,0.0,,,,0.0,,,,Fail,,,,,
91.0,8.0,wc_8,wc_9,0.0,"[('wc_9', 0.8400000000000006)]",0.8400000000000006,,,33.0,0.005266,['Fail'],Fail,0.8400000000000006,-0.34000000000000064,1.0,2.0,1.0
91.0,8.0,wc_8,,0.0,,,,0.0,,,,Fail,,,,,
91.0,8.0,wc_8,wc_10,0.0,"[('wc_10', 0.7900000000000006), ('wc_8', 0.3400000000000002)]",0.8614000000000004,,,39.0,0.006777,['Pass'],Fail,0.7900000000000006,-0.7900000000000006,0.0,0.0,0.8
91.0,8.0,wc_8,,0.0,,,,0.0,,,,Fail,,,,,
91.0,8.0,wc_8,wc_11,0.0,"[('wc_11', 0.2900000000000001), ('wc_9', 0.8400000000000006)]",0.8864000000000004,,,28.0,0.008768,['Fail'],Fail,0.2900000000000001,-0.2900000000000001,0.0,1.0,0.2
91.0,8.0,wc_8,,0.0,,,,21.0,,,,Fail,,,,,
91.0,8.0,wc_8,wc_6,1.0,"[('wc_6', 0.3000000000000002), ('wc_8', 0.3400000000000002), ('wc_10', 0.7900000000000006)]",0.9029800000000003,,,21.0,0.062197,['Pass'],Fail,0.3000000000000002,0.6999999999999997,4.0,4.0,0.2
98.0,8.0,wc_8,,0.0,,,,0.0,,,,Pass,,,,,
98.0,8.0,wc_8,,0.0,,,65.0,,,,,Pass,,,,,
98.0,8.0,wc_8,,0.0,,,,0.0,,,,Pass,,,,,
98.0,8.0,wc_8,wc_8,0.0,"[('wc_8', 0.3400000000000002)]",0.3400000000000002,,,21.0,0.002274,['Fail'],Pass,0.3400000000000002,0.1599999999999998,2.0,4.0,0.3
98.0,8.0,wc_8,,0.0,,,,0.0,,,,Pass,,,,,
98.0,8.0,wc_8,wc_9,0.0,"[('wc_9', 0.8400000000000006)]",0.8400000000000006,,,26.0,0.004142,['Pass'],Pass,0.8400000000000006,-0.5066666666666673,1.0,3.0,1.0
98.0,8.0,wc_8,,0.0,,,,0.0,,,,Pass,,,,,
98.0,8.0,wc_8,wc_10,0.0,"[('wc_10', 0.7900000000000006), ('wc_9', 0.8400000000000006)]",0.9664000000000003,,,32.0,0.005925,['Pass'],Pass,0.7900000000000006,0.2099999999999994,1.0,1.0,0.8
98.0,8.0,wc_8,,0.0,,,,0.0,,,,Pass,,,,,
98.0,8.0,wc_8,wc_11,1.0,"[('wc_11', 0.2900000000000001), ('wc_9', 0.8400000000000006), ('wc_10', 0.7900000000000006)]",0.9761440000000001,,,38.0,0.053247,['Pass'],Pass,0.2900000000000001,0.043333333333333224,1.0,3.0,0.2
102.0,7.0,wc_7,,0.0,,,,41.0,,,,Pass,,,,,
102.0,7.0,wc_7,,0.0,,,60.0,,,,,Pass,,,,,
102.0,7.0,wc_7,,0.0,,,,0.0,,,,Pass,,,,,
102.0,7.0,wc_7,wc_7,0.0,"[('wc_7', 0.8500000000000006)]",0.8500000000000006,,,33.0,0.002103,['Pass'],Pass,0.8500000000000006,-0.25000000000000067,3.0,5.0,0.9
102.0,7.0,wc_7,,0.0,,,,0.0,,,,Pass,,,,,
102.0,7.0,wc_7,wc_8,0.0,"[('wc_7', 0.8500000000000006)]",0.8500000000000006,,,20.0,0.005117,['Pass'],Pass,0.3400000000000002,0.05999999999999983,2.0,5.0,0.3
102.0,7.0,wc_7,,0.0,,,,0.0,,,,Pass,,,,,
102.0,7.0,wc_7,wc_9,0.0,"[('wc_9', 0.8400000000000006), ('wc_7', 0.8500000000000006)]",0.9760000000000002,,,27.0,0.005483999999999999,['Pass'],Pass,0.8400000000000006,-0.34000000000000064,2.0,4.0,1.0
102.0,7.0,wc_7,,0.0,,,,0.0,,,,Pass,,,,,
102.0,7.0,wc_7,wc_10,1.0,"[('wc_10', 0.7900000000000006), ('wc_7', 0.8500000000000006), ('wc_9', 0.8400000000000006)]",0.9949600000000001,,,28.0,0.04628,['Pass'],Pass,0.7900000000000006,0.2099999999999994,3.0,3.0,0.8
107.0,10.0,wc_10,,0.0,,,,0.0,,,,Pass,,,,,
107.0,10.0,wc_10,,0.0,,,69.0,,,,,Pass,,,,,
107.0,10.0,wc_10,,0.0,,,,0.0,,,,Pass,,,,,
107.0,10.0,wc_10,wc_10,0.0,"[('wc_10', 0.7900000000000006)]",0.7900000000000006,,,38.0,0.002281,['Pass'],Pass,0.7900000000000006,0.2099999999999994,3.0,3.0,0.8
107.0,10.0,wc_10,,0.0,,,,0.0,,,,Pass,,,,,
107.0,10.0,wc_10,wc_11,0.0,"[('wc_11', 0.2900000000000001), ('wc_10', 0.7900000000000006)]",0.8509000000000004,,,37.0,0.003804,['Pass'],Pass,0.2900000000000001,-0.04000000000000009,1.0,4.0,0.2
107.0,10.0,wc_10,,0.0,,,,21.0,,,,Pass,,,,,
107.0,10.0,wc_10,wc_6,0.0,"[('wc_6', 0.3000000000000002), ('wc_10', 0.7900000000000006), ('wc_11', 0.2900000000000001)]",0.8956300000000004,,,22.0,0.005877,['Pass'],Pass,0.3000000000000002,0.3666666666666664,4.0,6.0,0.2
107.0,10.0,wc_10,,0.0,,,,0.0,,,,Pass,,,,,
107.0,10.0,wc_10,wc_7,1.0,"[('wc_7', 0.8500000000000006), ('wc_10', 0.7900000000000006), ('wc_11', 0.2900000000000001), ('wc_6', 0.3000000000000002)]",0.9843445000000001,,,27.0,0.045630000000000004,['Pass'],Pass,0.8500000000000006,-0.13571428571428634,5.0,7.0,0.9
111.0,9.0,wc_9,,0.0,,,,0.0,,,,Fail,,,,,
111.0,9.0,wc_9,,0.0,,,61.0,,,,,Fail,,,,,
111.0,9.0,wc_9,,0.0,,,,0.0,,,,Fail,,,,,
111.0,9.0,wc_9,wc_9,0.0,"[('wc_9', 0.8400000000000006)]",0.8400000000000006,,,23.0,0.002178,['Fail'],Fail,0.8400000000000006,-0.34000000000000064,3.0,6.0,1.0
111.0,9.0,wc_9,,0.0,,,,0.0,,,,Fail,,,,,
111.0,9.0,wc_9,wc_10,0.0,"[('wc_9', 0.8400000000000006)]",0.8400000000000006,,,22.0,0.003858,['Fail'],Fail,0.7900000000000006,0.2099999999999994,4.0,4.0,0.8
111.0,9.0,wc_9,,0.0,,,,0.0,,,,Fail,,,,,
111.0,9.0,wc_9,wc_11,0.0,"[('wc_11', 0.2900000000000001), ('wc_10', 0.7900000000000006)]",0.8509000000000004,,,35.0,0.005911,['Pass'],Fail,0.2900000000000001,0.10999999999999993,2.0,5.0,0.2
111.0,9.0,wc_9,,0.0,,,,21.0,,,,Fail,,,,,
111.0,9.0,wc_9,wc_6,0.0,"[('wc_6', 0.3000000000000002), ('wc_9', 0.8400000000000006)]",0.8880000000000005,,,35.0,0.008992,['Fail'],Fail,0.3000000000000002,0.4142857142857141,5.0,7.0,0.2
111.0,9.0,wc_9,,0.0,,,,0.0,,,,Fail,,,,,
111.0,9.0,wc_9,wc_7,1.0,"[('wc_7', 0.8500000000000006), ('wc_9', 0.8400000000000006), ('wc_6', 0.3000000000000002)]",0.9832000000000002,,,33.0,0.045024999999999996,['Fail'],Fail,0.8500000000000006,-0.10000000000000064,6.0,8.0,0.9
116.0,9.0,wc_9,,0.0,,,,0.0,,,,Pass,,,,,
116.0,9.0,wc_9,,0.0,,,60.0,,,,,Pass,,,,,
116.0,9.0,wc_9,,0.0,,,,0.0,,,,Pass,,,,,
116.0,9.0,wc_9,wc_9,0.0,"[('wc_9', 0.8400000000000006)]",0.8400000000000006,,,31.0,0.002169,['Pass'],Pass,0.8400000000000006,-0.26857142857142924,4.0,7.0,1.0
116.0,9.0,wc_9,,0.0,,,,0.0,,,,Pass,,,,,
116.0,9.0,wc_9,wc_10,0.0,"[('wc_10', 0.7900000000000006), ('wc_9', 0.8400000000000006)]",0.9664000000000003,,,35.0,0.004052999999999999,['Pass'],Pass,0.7900000000000006,0.009999999999999454,4.0,5.0,0.8
116.0,9.0,wc_9,,0.0,,,,0.0,,,,Pass,,,,,
116.0,9.0,wc_9,wc_11,0.0,"[('wc_9', 0.8400000000000006), ('wc_10', 0.7900000000000006)]",0.9664000000000003,,,24.0,0.010078,['Pass'],Pass,0.2900000000000001,0.043333333333333224,2.0,6.0,0.2
116.0,9.0,wc_9,,0.0,,,,21.0,,,,Pass,,,,,
116.0,9.0,wc_9,wc_6,1.0,"[('wc_6', 0.3000000000000002), ('wc_9', 0.8400000000000006), ('wc_10', 0.7900000000000006)]",0.9764800000000001,,,31.0,0.04246799999999999,['Pass'],Pass,0.3000000000000002,0.4777777777777776,7.0,9.0,0.2
121.0,12.0,wc_12,,0.0,,,,162.0,,,,Pass,,,,,
121.0,12.0,wc_12,,0.0,,,71.0,,,,,Pass,,,,,
121.0,12.0,wc_12,,0.0,,,,0.0,,,,Pass,,,,,
121.0,12.0,wc_12,wc_12,0.0,"[('wc_12', 0.9300000000000008)]",0.9300000000000008,,,34.0,0.002031,['Pass'],Pass,0.9300000000000008,-0.8228571428571437,0.0,0.0,0.7
121.0,12.0,wc_12,,0.0,,,,0.0,,,,Pass,,,,,
121.0,12.0,wc_12,wc_13,0.0,"[('wc_13', 0.9700000000000008), ('wc_12', 0.9300000000000008)]",0.9979000000000001,,,27.0,0.004393,['Pass'],Pass,0.9700000000000008,-0.7557142857142864,0.0,0.0,1.0
121.0,12.0,wc_12,,0.0,,,,0.0,,,,Pass,,,,,
121.0,12.0,wc_12,wc_14,1.0,"[('wc_14', 0.4800000000000003), ('wc_12', 0.9300000000000008), ('wc_13', 0.9700000000000008)]",0.998908,,,35.0,0.039924,['Pass'],Pass,0.4800000000000003,-0.33714285714285747,0.0,0.0,0.6
125.0,13.0,wc_13,,0.0,,,,102.0,,,,Fail,,,,,
125.0,13.0,wc_13,,0.0,,,60.0,,,,,Fail,,,,,
125.0,13.0,wc_13,,0.0,,,,0.0,,,,Fail,,,,,
125.0,13.0,wc_13,wc_13,0.0,"[('wc_13', 0.9700000000000008)]",0.9700000000000008,,,32.0,0.002155,['Fail'],Fail,0.9700000000000008,0.02999999999999925,1.0,1.0,1.0
125.0,13.0,wc_13,,0.0,,,,0.0,,,,Fail,,,,,
125.0,13.0,wc_13,wc_14,0.0,"[('wc_14', 0.4800000000000003), ('wc_13', 0.9700000000000008)]",0.9844000000000004,,,32.0,0.004191,['Fail'],Fail,0.4800000000000003,-0.4800000000000003,0.0,0.0,0.6
125.0,13.0,wc_13,,0.0,,,,0.0,,,,Fail,,,,,
125.0,13.0,wc_13,wc_15,1.0,"[('wc_15', 0.7200000000000005), ('wc_13', 0.9700000000000008), ('wc_14', 0.4800000000000003)]",0.9956320000000001,,,36.0,0.042722,['Fail'],Fail,0.7200000000000005,-0.5718518518518524,0.0,0.0,1.0
131.0,13.0,wc_13,,0.0,,,,81.0,,,,Pass,,,,,
131.0,13.0,wc_13,,0.0,,,66.0,,,,,Pass,,,,,
131.0,13.0,wc_13,,0.0,,,,0.0,,,,Pass,,,,,
131.0,13.0,wc_13,wc_13,0.0,"[('wc_13', 0.9700000000000008)]",0.9700000000000008,,,38.0,0.002106,['Pass'],Pass,0.9700000000000008,0.02999999999999925,2.0,2.0,1.0
131.0,13.0,wc_13,,0.0,,,,0.0,,,,Pass,,,,,
131.0,13.0,wc_13,wc_14,0.0,"[('wc_13', 0.9700000000000008)]",0.9700000000000008,,,38.0,0.004753,['Pass'],Pass,0.4800000000000003,0.5199999999999997,1.0,1.0,0.6
131.0,13.0,wc_13,,0.0,,,,0.0,,,,Pass,,,,,
131.0,13.0,wc_13,wc_15,0.0,"[('wc_15', 0.7200000000000005), ('wc_13', 0.9700000000000008)]",0.9916000000000003,,,33.0,0.005777,['Pass'],Pass,0.7200000000000005,-0.7200000000000005,0.0,0.0,1.0
131.0,13.0,wc_13,,0.0,,,,0.0,,,,Pass,,,,,
131.0,13.0,wc_13,wc_16,1.0,"[('wc_16', 0.8300000000000006), ('wc_13', 0.9700000000000008), ('wc_15', 0.7200000000000005)]",0.998572,,,40.0,0.040989,['Pass'],Pass,0.8300000000000006,-0.6871428571428577,0.0,0.0,0.9
133.0,15.0,wc_15,,0.0,,,,103.0,,,,Fail,,,,,
133.0,15.0,wc_15,,0.0,,,51.0,,,,,Fail,,,,,
133.0,15.0,wc_15,,0.0,,,,0.0,,,,Fail,,,,,
133.0,15.0,wc_15,wc_15,0.0,"[('wc_15', 0.7200000000000005)]",0.7200000000000005,,,27.0,0.002316,['Fail'],Fail,0.7200000000000005,0.27999999999999947,1.0,1.0,1.0
133.0,15.0,wc_15,,0.0,,,,0.0,,,,Fail,,,,,
133.0,15.0,wc_15,wc_16,0.0,"[('wc_16', 0.8300000000000006), ('wc_15', 0.7200000000000005)]",0.9524000000000002,,,24.0,0.004588,['Fail'],Fail,0.8300000000000006,-0.8300000000000006,0.0,0.0,0.9
133.0,15.0,wc_15,,0.0,,,,0.0,,,,Fail,,,,,
133.0,15.0,wc_15,wc_17,1.0,"[('wc_17', 0.6900000000000005), ('wc_15', 0.7200000000000005), ('wc_16', 0.8300000000000006)]",0.9852440000000001,,,28.0,0.04098500000000001,['Fail'],Fail,0.6900000000000005,-0.5471428571428576,0.0,0.0,0.6
137.0,16.0,wc_16,,0.0,,,,103.0,,,,Fail,,,,,
137.0,16.0,wc_16,,0.0,,,58.0,,,,,Fail,,,,,
137.0,16.0,wc_16,,0.0,,,,0.0,,,,Fail,,,,,
137.0,16.0,wc_16,wc_16,0.0,"[('wc_16', 0.8300000000000006)]",0.8300000000000006,,,33.0,0.002287,['Fail'],Fail,0.8300000000000006,0.16999999999999937,1.0,1.0,0.9
137.0,16.0,wc_16,,0.0,,,,0.0,,,,Fail,,,,,
137.0,16.0,wc_16,wc_17,0.0,"[('wc_17', 0.6900000000000005), ('wc_16', 0.8300000000000006)]",0.9473000000000003,,,40.0,0.00438,['Fail'],Fail,0.6900000000000005,-0.6900000000000005,0.0,0.0,0.6
137.0,16.0,wc_16,,0.0,,,,21.0,,,,Fail,,,,,
137.0,16.0,wc_16,wc_12,1.0,"[('wc_12', 0.9300000000000008), ('wc_16', 0.8300000000000006), ('wc_17', 0.6900000000000005)]",0.9963110000000001,,,28.0,0.039106,['Fail'],Fail,0.9300000000000008,-0.5300000000000008,2.0,5.0,0.7
141.0,16.0,wc_16,,0.0,,,,0.0,,,,Fail,,,,,
141.0,16.0,wc_16,,0.0,,,74.0,,,,,Fail,,,,,
141.0,16.0,wc_16,,0.0,,,,0.0,,,,Fail,,,,,
141.0,16.0,wc_16,wc_16,0.0,"[('wc_16', 0.8300000000000006)]",0.8300000000000006,,,28.0,0.002336,['Fail'],Fail,0.8300000000000006,0.16999999999999937,2.0,2.0,0.9
141.0,16.0,wc_16,,0.0,,,,0.0,,,,Fail,,,,,
141.0,16.0,wc_16,wc_17,0.0,"[('wc_17', 0.6900000000000005), ('wc_16', 0.8300000000000006)]",0.9473000000000003,,,34.0,0.0044399999999999995,['Fail'],Fail,0.6900000000000005,0.3099999999999995,1.0,1.0,0.6
141.0,16.0,wc_16,,0.0,,,,21.0,,,,Fail,,,,,
141.0,16.0,wc_16,wc_12,1.0,"[('wc_12', 0.9300000000000008), ('wc_16', 0.8300000000000006), ('wc_17', 0.6900000000000005)]",0.9963110000000001,,,26.0,0.040331000000000006,['Fail'],Fail,0.9300000000000008,-0.4300000000000008,3.0,6.0,0.7
144.0,15.0,wc_15,,0.0,,,,0.0,,,,Fail,,,,,
144.0,15.0,wc_15,,0.0,,,78.0,,,,,Fail,,,,,
144.0,15.0,wc_15,,0.0,,,,0.0,,,,Fail,,,,,
144.0,15.0,wc_15,wc_15,0.0,"[('wc_15', 0.7200000000000005)]",0.7200000000000005,,,39.0,0.002188,['Fail'],Fail,0.7200000000000005,-0.22000000000000053,2.0,4.0,1.0
144.0,15.0,wc_15,,0.0,,,,0.0,,,,Fail,,,,,
144.0,15.0,wc_15,wc_16,0.0,"[('wc_16', 0.8300000000000006), ('wc_15', 0.7200000000000005)]",0.9524000000000002,,,25.0,0.004092999999999999,['Fail'],Fail,0.8300000000000006,0.16999999999999937,3.0,3.0,0.9
144.0,15.0,wc_15,,0.0,,,,0.0,,,,Fail,,,,,
144.0,15.0,wc_15,wc_17,1.0,"[('wc_17', 0.6900000000000005), ('wc_15', 0.7200000000000005), ('wc_16', 0.8300000000000006)]",0.9852440000000001,,,22.0,0.048117,['Fail'],Fail,0.6900000000000005,0.3099999999999995,3.0,3.0,0.6
149.0,15.0,wc_15,,0.0,,,,83.0,,,,Pass,,,,,
149.0,15.0,wc_15,,0.0,,,67.0,,,,,Pass,,,,,
149.0,15.0,wc_15,,0.0,,,,0.0,,,,Pass,,,,,
149.0,15.0,wc_15,wc_15,0.0,"[('wc_15', 0.7200000000000005)]",0.7200000000000005,,,32.0,0.004742,['Pass'],Pass,0.7200000000000005,-0.12000000000000055,3.0,5.0,1.0
149.0,15.0,wc_15,,0.0,,,,0.0,,,,Pass,,,,,
149.0,15.0,wc_15,wc_16,0.0,"[('wc_16', 0.8300000000000006), ('wc_15', 0.7200000000000005)]",0.9524000000000002,,,36.0,0.0077529999999999995,['Pass'],Pass,0.8300000000000006,0.16999999999999937,4.0,4.0,0.9
149.0,15.0,wc_15,,0.0,,,,0.0,,,,Pass,,,,,
149.0,15.0,wc_15,wc_17,1.0,"[('wc_17', 0.6900000000000005), ('wc_15', 0.7200000000000005), ('wc_16', 0.8300000000000006)]",0.9852440000000001,,,25.0,0.041258,['Pass'],Pass,0.6900000000000005,0.3099999999999995,4.0,4.0,0.6
152.0,16.0,wc_16,,0.0,,,,103.0,,,,Fail,,,,,
152.0,16.0,wc_16,,0.0,,,65.0,,,,,Fail,,,,,
152.0,16.0,wc_16,,0.0,,,,0.0,,,,Fail,,,,,
152.0,16.0,wc_16,wc_16,0.0,"[('wc_16', 0.8300000000000006)]",0.8300000000000006,,,36.0,0.00222,['Fail'],Fail,0.8300000000000006,0.16999999999999937,5.0,5.0,0.9
152.0,16.0,wc_16,,0.0,,,,0.0,,,,Fail,,,,,
152.0,16.0,wc_16,wc_17,0.0,"[('wc_17', 0.6900000000000005), ('wc_16', 0.8300000000000006)]",0.9473000000000003,,,28.0,0.011617,['Fail'],Fail,0.6900000000000005,0.3099999999999995,4.0,4.0,0.6
152.0,16.0,wc_16,,0.0,,,,21.0,,,,Fail,,,,,
152.0,16.0,wc_16,wc_12,1.0,"[('wc_12', 0.9300000000000008), ('wc_16', 0.8300000000000006), ('wc_17', 0.6900000000000005)]",0.9963110000000001,,,29.0,0.051713,['Fail'],Fail,0.9300000000000008,-0.4855555555555564,4.0,9.0,0.7
154.0,16.0,wc_16,,0.0,,,,0.0,,,,Pass,,,,,
154.0,16.0,wc_16,,0.0,,,68.0,,,,,Pass,,,,,
154.0,16.0,wc_16,,0.0,,,,0.0,,,,Pass,,,,,
154.0,16.0,wc_16,wc_16,0.0,"[('wc_16', 0.8300000000000006)]",0.8300000000000006,,,38.0,0.002579,['Pass'],Pass,0.8300000000000006,0.16999999999999937,6.0,6.0,0.9
154.0,16.0,wc_16,,0.0,,,,0.0,,,,Pass,,,,,
154.0,16.0,wc_16,wc_17,0.0,"[('wc_17', 0.6900000000000005), ('wc_16', 0.8300000000000006)]",0.9473000000000003,,,23.0,0.0049239999999999996,['Pass'],Pass,0.6900000000000005,0.3099999999999995,5.0,5.0,0.6
154.0,16.0,wc_16,,0.0,,,,21.0,,,,Pass,,,,,
154.0,16.0,wc_16,wc_12,1.0,"[('wc_12', 0.9300000000000008), ('wc_16', 0.8300000000000006), ('wc_17', 0.6900000000000005)]",0.9963110000000001,,,28.0,0.0406,['Pass'],Pass,0.9300000000000008,-0.4300000000000008,0.0,0.0,0.7
157.0,14.0,wc_14,,0.0,,,,0.0,,,,Fail,,,,,
157.0,14.0,wc_14,,0.0,,,64.0,,,,,Fail,,,,,
157.0,14.0,wc_14,,0.0,,,,0.0,,,,Fail,,,,,
157.0,14.0,wc_14,wc_14,0.0,"[('wc_14', 0.4800000000000003)]",0.4800000000000003,,,25.0,0.002743,['Fail'],Fail,0.4800000000000003,-0.3688888888888892,1.0,9.0,0.6
157.0,14.0,wc_14,,0.0,,,,0.0,,,,Fail,,,,,
157.0,14.0,wc_14,wc_15,0.0,"[('wc_15', 0.7200000000000005), ('wc_14', 0.4800000000000003)]",0.8544000000000004,,,26.0,0.006305,['Fail'],Fail,0.7200000000000005,-0.22000000000000053,4.0,8.0,1.0
157.0,14.0,wc_14,,0.0,,,,0.0,,,,Fail,,,,,
157.0,14.0,wc_14,wc_16,1.0,"[('wc_16', 0.8300000000000006), ('wc_14', 0.4800000000000003), ('wc_15', 0.7200000000000005)]",0.9752480000000001,,,28.0,0.042910000000000004,['Fail'],Fail,0.8300000000000006,0.16999999999999937,8.0,8.0,0.9
160.0,14.0,wc_14,,0.0,,,,81.0,,,,Pass,,,,,
160.0,14.0,wc_14,,0.0,,,50.0,,,,,Pass,,,,,
160.0,14.0,wc_14,,0.0,,,,0.0,,,,Pass,,,,,
160.0,14.0,wc_14,wc_14,0.0,"[('wc_14', 0.4800000000000003)]",0.4800000000000003,,,21.0,0.002238,['Pass'],Pass,0.4800000000000003,-0.2800000000000003,0.0,0.0,0.6
160.0,14.0,wc_14,,0.0,,,,0.0,,,,Pass,,,,,
160.0,14.0,wc_14,wc_15,0.0,"[('wc_15', 0.7200000000000005), ('wc_14', 0.4800000000000003)]",0.8544000000000004,,,26.0,0.004635,['Pass'],Pass,0.7200000000000005,-0.16444444444444495,5.0,9.0,1.0
160.0,14.0,wc_14,,0.0,,,,0.0,,,,Pass,,,,,
160.0,14.0,wc_14,wc_16,1.0,"[('wc_16', 0.8300000000000006), ('wc_14', 0.4800000000000003), ('wc_15', 0.7200000000000005)]",0.9752480000000001,,,28.0,0.045935,['Pass'],Pass,0.8300000000000006,0.16999999999999937,9.0,9.0,0.9
162.0,17.0,wc_17,,0.0,,,,0.0,,,,Pass,,,,,
162.0,17.0,wc_17,,0.0,,,74.0,,,,,Pass,,,,,
162.0,17.0,wc_17,,0.0,,,,0.0,,,,Pass,,,,,
162.0,17.0,wc_17,wc_17,0.0,"[('wc_17', 0.6900000000000005)]",0.6900000000000005,,,25.0,0.002483,['Pass'],Pass,0.6900000000000005,0.0599999999999995,6.0,8.0,0.6
162.0,17.0,wc_17,,0.0,,,,21.0,,,,Pass,,,,,
162.0,17.0,wc_17,wc_12,0.0,"[('wc_12', 0.9300000000000008), ('wc_17', 0.6900000000000005)]",0.9783000000000003,,,21.0,0.004533000000000001,['Pass'],Pass,0.9300000000000008,-0.9300000000000008,0.0,2.0,0.7
162.0,17.0,wc_17,,0.0,,,,0.0,,,,Pass,,,,,
162.0,17.0,wc_17,wc_13,1.0,"[('wc_13', 0.9700000000000008), ('wc_17', 0.6900000000000005), ('wc_12', 0.9300000000000008)]",0.999349,,,39.0,0.04463499999999999,['Pass'],Pass,0.9700000000000008,-0.662307692307693,0.0,0.0,1.0
