mpecck/BCQC/bcqc_with_qdt/results/raw/input_18/independent_qc/training/20_workpiece/20200429_095234/wp_15_qc_majority_0.9.csv
production_index,step_idx,production_workcell,qc,consent,winner_qc_list,score,production_time,transport_time,inspection_time,network_time,qc_results,actual_quality,qc_score,score_error,in_winner_counter,in_qc_counter,qc_capability
43.0,1.0,wc_1,,0.0,,,77.0,,,,,Pass,,,,,
43.0,1.0,wc_1,,0.0,,,,0.0,,,,Pass,,,,,
43.0,1.0,wc_1,wc_1,0.0,"[('wc_1', 0.7000000000000005)]",0.7000000000000005,,,39.0,0.002535,['Pass'],Pass,0.7000000000000005,-0.5750000000000005,0.0,0.0,0.7
43.0,1.0,wc_1,,0.0,,,,162.0,,,,Pass,,,,,
43.0,1.0,wc_1,wc_7,0.0,"[('wc_7', 0.7900000000000006), ('wc_1', 0.7000000000000005)]",0.9370000000000003,,,37.0,0.00413,['Pass'],Pass,0.7900000000000006,-0.7900000000000006,0.0,4.0,0.9
43.0,1.0,wc_1,,0.0,,,,0.0,,,,Pass,,,,,
43.0,1.0,wc_1,wc_8,1.0,"[('wc_8', 0.31000000000000016), ('wc_1', 0.7000000000000005), ('wc_7', 0.7900000000000006)]",0.9565300000000002,,,22.0,0.047588,['Pass'],Pass,0.31000000000000016,-0.16714285714285732,1.0,7.0,0.3
53.0,2.0,wc_2,,0.0,,,,182.0,,,,Pass,,,,,
53.0,2.0,wc_2,,0.0,,,57.0,,,,,Pass,,,,,
53.0,2.0,wc_2,,0.0,,,,0.0,,,,Pass,,,,,
53.0,2.0,wc_2,wc_2,0.0,"[('wc_2', 0.29000000000000015)]",0.29000000000000015,,,21.0,0.002384,['Fail'],Pass,0.29000000000000015,-0.12333333333333349,1.0,6.0,0.1
53.0,2.0,wc_2,,0.0,,,,162.0,,,,Pass,,,,,
53.0,2.0,wc_2,wc_8,0.0,"[('wc_8', 0.31000000000000016)]",0.31000000000000016,,,31.0,0.0050539999999999995,['Pass'],Pass,0.31000000000000016,-0.16714285714285732,1.0,7.0,0.3
53.0,2.0,wc_2,,0.0,,,,162.0,,,,Pass,,,,,
53.0,2.0,wc_2,wc_14,0.0,"[('wc_14', 0.6800000000000005), ('wc_8', 0.31000000000000016)]",0.7792000000000003,,,35.0,0.006600999999999999,['Pass'],Pass,0.6800000000000005,-0.3050000000000005,3.0,8.0,0.5
53.0,2.0,wc_2,,0.0,,,,321.0,,,,Pass,,,,,
53.0,2.0,wc_2,wc_11,1.0,"[('wc_11', 0.8100000000000006), ('wc_8', 0.31000000000000016), ('wc_14', 0.6800000000000005)]",0.9580480000000002,,,33.0,0.03987600000000001,['Pass'],Pass,0.8100000000000006,-0.4100000000000006,2.0,5.0,1.0
63.0,4.0,wc_4,,0.0,,,,342.0,,,,Pass,,,,,
63.0,4.0,wc_4,,0.0,,,52.0,,,,,Pass,,,,,
63.0,4.0,wc_4,,0.0,,,,0.0,,,,Pass,,,,,
63.0,4.0,wc_4,wc_4,0.0,"[('wc_4', 0.6500000000000005)]",0.6500000000000005,,,38.0,0.002251,['Pass'],Pass,0.6500000000000005,-0.5944444444444449,0.0,0.0,0.7
63.0,4.0,wc_4,,0.0,,,,103.0,,,,Pass,,,,,
63.0,4.0,wc_4,wc_3,0.0,"[('wc_4', 0.6500000000000005)]",0.6500000000000005,,,25.0,0.004395,['Pass'],Pass,0.13,-0.13,0.0,3.0,0.1
63.0,4.0,wc_4,,0.0,,,,162.0,,,,Pass,,,,,
63.0,4.0,wc_4,wc_9,0.0,"[('wc_9', 0.16000000000000003), ('wc_4', 0.6500000000000005)]",0.7060000000000004,,,38.0,0.0065260000000000006,['Pass'],Pass,0.16000000000000003,0.17333333333333328,1.0,3.0,0.1
63.0,4.0,wc_4,,0.0,,,,81.0,,,,Pass,,,,,
63.0,4.0,wc_4,wc_7,1.0,"[('wc_7', 0.7900000000000006), ('wc_4', 0.6500000000000005), ('wc_9', 0.16000000000000003)]",0.9382600000000003,,,34.0,0.040161999999999996,['Pass'],Pass,0.7900000000000006,-0.5042857142857149,2.0,7.0,0.9
79.0,3.0,wc_3,,0.0,,,,301.0,,,,Fail,,,,,
79.0,3.0,wc_3,,0.0,,,69.0,,,,,Fail,,,,,
79.0,3.0,wc_3,,0.0,,,,0.0,,,,Fail,,,,,
79.0,3.0,wc_3,wc_3,0.0,"[('wc_3', 0.12000000000000001)]",0.12,,,23.0,0.002002,['Fail'],Fail,0.12000000000000001,-0.12000000000000001,0.0,4.0,0.1
79.0,3.0,wc_3,,0.0,,,,242.0,,,,Fail,,,,,
79.0,3.0,wc_3,wc_17,0.0,"[('wc_17', 0.6800000000000005), ('wc_3', 0.12000000000000001)]",0.7184000000000004,,,27.0,0.005459,['Fail'],Fail,0.6800000000000005,-0.4300000000000005,1.0,4.0,0.6
79.0,3.0,wc_3,,0.0,,,,362.0,,,,Fail,,,,,
79.0,3.0,wc_3,wc_11,1.0,"[('wc_11', 0.8100000000000006), ('wc_3', 0.12000000000000001), ('wc_17', 0.6800000000000005)]",0.9464960000000002,,,40.0,0.038726,['Fail'],Fail,0.8100000000000006,-0.38142857142857206,3.0,7.0,1.0
109.0,3.0,wc_3,,0.0,,,,322.0,,,,Pass,,,,,
109.0,3.0,wc_3,,0.0,,,79.0,,,,,Pass,,,,,
109.0,3.0,wc_3,,0.0,,,,0.0,,,,Pass,,,,,
109.0,3.0,wc_3,wc_3,0.0,"[('wc_3', 0.13)]",0.13,,,35.0,0.002579,['Fail'],Pass,0.13,0.07,1.0,5.0,0.1
109.0,3.0,wc_3,,0.0,,,,202.0,,,,Pass,,,,,
109.0,3.0,wc_3,wc_15,0.0,"[('wc_15', 0.5300000000000004)]",0.5300000000000004,,,24.0,0.004069,['Pass'],Pass,0.5300000000000004,-0.46750000000000036,0.0,0.0,0.5
109.0,3.0,wc_3,,0.0,,,,362.0,,,,Pass,,,,,
109.0,3.0,wc_3,wc_9,0.0,"[('wc_15', 0.5300000000000004)]",0.5300000000000004,,,23.0,0.005772,['Pass'],Pass,0.17000000000000004,0.22999999999999998,2.0,5.0,0.1
109.0,3.0,wc_3,,0.0,,,,81.0,,,,Pass,,,,,
109.0,3.0,wc_3,wc_7,0.0,"[('wc_7', 0.7900000000000006), ('wc_15', 0.5300000000000004)]",0.9013000000000003,,,40.0,0.008002,['Pass'],Pass,0.7900000000000006,-0.5400000000000006,2.0,8.0,0.9
109.0,3.0,wc_3,,0.0,,,,243.0,,,,Pass,,,,,
109.0,3.0,wc_3,wc_17,1.0,"[('wc_17', 0.6800000000000005), ('wc_15', 0.5300000000000004), ('wc_7', 0.7900000000000006)]",0.9684160000000002,,,35.0,0.042813000000000004,['Pass'],Pass,0.6800000000000005,-0.1800000000000005,3.0,6.0,0.6
115.0,5.0,wc_5,,0.0,,,,402.0,,,,Fail,,,,,
115.0,5.0,wc_5,,0.0,,,51.0,,,,,Fail,,,,,
115.0,5.0,wc_5,,0.0,,,,0.0,,,,Fail,,,,,
115.0,5.0,wc_5,wc_5,0.0,"[('wc_5', 0.7000000000000005)]",0.7000000000000005,,,26.0,0.002,['Fail'],Fail,0.7000000000000005,-0.7000000000000005,0.0,7.0,0.8
115.0,5.0,wc_5,,0.0,,,,121.0,,,,Fail,,,,,
115.0,5.0,wc_5,wc_13,0.0,"[('wc_13', 0.3600000000000002), ('wc_5', 0.7000000000000005)]",0.8080000000000004,,,39.0,0.0039,['Fail'],Fail,0.3600000000000002,-0.12923076923076943,0.0,0.0,0.1
115.0,5.0,wc_5,,0.0,,,,0.0,,,,Fail,,,,,
115.0,5.0,wc_5,wc_15,1.0,"[('wc_15', 0.5400000000000004), ('wc_5', 0.7000000000000005), ('wc_13', 0.3600000000000002)]",0.9116800000000003,,,20.0,0.039729,['Fail'],Fail,0.5500000000000004,0.4499999999999996,2.0,2.0,0.5
136.0,5.0,wc_5,,0.0,,,,442.0,,,,Fail,,,,,
136.0,5.0,wc_5,,0.0,,,79.0,,,,,Fail,,,,,
136.0,5.0,wc_5,,0.0,,,,0.0,,,,Fail,,,,,
136.0,5.0,wc_5,wc_5,0.0,"[('wc_5', 0.7000000000000005)]",0.7000000000000005,,,26.0,0.002297,['Fail'],Fail,0.7000000000000005,-0.5750000000000005,1.0,8.0,0.8
136.0,5.0,wc_5,,0.0,,,,202.0,,,,Fail,,,,,
136.0,5.0,wc_5,wc_17,0.0,"[('wc_17', 0.6800000000000005), ('wc_5', 0.7000000000000005)]",0.9040000000000004,,,33.0,0.004852,['Fail'],Fail,0.6800000000000005,-0.25142857142857195,3.0,7.0,0.6
136.0,5.0,wc_5,,0.0,,,,61.0,,,,Fail,,,,,
136.0,5.0,wc_5,wc_14,1.0,"[('wc_14', 0.6800000000000005), ('wc_5', 0.7000000000000005), ('wc_17', 0.6800000000000005)]",0.9692800000000001,,,28.0,0.066927,['Fail'],Fail,0.6800000000000005,-0.6800000000000005,0.0,0.0,0.5
152.0,5.0,wc_5,,0.0,,,,361.0,,,,Pass,,,,,
152.0,5.0,wc_5,,0.0,,,73.0,,,,,Pass,,,,,
152.0,5.0,wc_5,,0.0,,,,0.0,,,,Pass,,,,,
152.0,5.0,wc_5,wc_5,0.0,"[('wc_5', 0.7000000000000005)]",0.7000000000000005,,,40.0,0.002848,['Pass'],Pass,0.7000000000000005,-0.4777777777777783,2.0,9.0,0.8
152.0,5.0,wc_5,,0.0,,,,61.0,,,,Pass,,,,,
152.0,5.0,wc_5,wc_2,0.0,"[('wc_2', 0.28000000000000014), ('wc_5', 0.7000000000000005)]",0.7840000000000005,,,38.0,0.005107,['Pass'],Pass,0.28000000000000014,-0.19666666666666682,0.0,0.0,0.1
152.0,5.0,wc_5,,0.0,,,,223.0,,,,Pass,,,,,
152.0,5.0,wc_5,wc_11,1.0,"[('wc_11', 0.8100000000000006), ('wc_5', 0.7000000000000005), ('wc_2', 0.28000000000000014)]",0.9589600000000003,,,37.0,0.03944099999999999,['Pass'],Pass,0.8100000000000006,-0.8100000000000006,0.0,0.0,1.0
162.0,6.0,wc_6,,0.0,,,,21.0,,,,Pass,,,,,
162.0,6.0,wc_6,,0.0,,,51.0,,,,,Pass,,,,,
162.0,6.0,wc_6,,0.0,,,,0.0,,,,Pass,,,,,
162.0,6.0,wc_6,wc_6,0.0,"[('wc_6', 0.3800000000000002)]",0.3800000000000002,,,22.0,0.002303,['Pass'],Pass,0.3800000000000002,-0.3211764705882355,0.0,0.0,0.2
162.0,6.0,wc_6,,0.0,,,,202.0,,,,Pass,,,,,
162.0,6.0,wc_6,wc_14,0.0,"[('wc_14', 0.6800000000000005)]",0.6800000000000005,,,39.0,0.0045780000000000005,['Fail'],Pass,0.6800000000000005,-0.6800000000000005,0.0,1.0,0.5
162.0,6.0,wc_6,,0.0,,,,162.0,,,,Pass,,,,,
162.0,6.0,wc_6,wc_7,0.0,"[('wc_7', 0.7900000000000006), ('wc_6', 0.3800000000000002)]",0.8698000000000004,,,22.0,0.006026,['Pass'],Pass,0.7900000000000006,-0.5400000000000006,0.0,0.0,0.9
162.0,6.0,wc_6,,0.0,,,,203.0,,,,Pass,,,,,
162.0,6.0,wc_6,wc_15,0.0,"[('wc_6', 0.3800000000000002), ('wc_7', 0.7900000000000006)]",0.8698000000000004,,,39.0,0.008453,['Pass'],Pass,0.5500000000000004,-0.05000000000000038,2.0,4.0,0.5
162.0,6.0,wc_6,,0.0,,,,303.0,,,,Pass,,,,,
162.0,6.0,wc_6,wc_2,1.0,"[('wc_2', 0.29000000000000015), ('wc_6', 0.3800000000000002), ('wc_7', 0.7900000000000006)]",0.9075580000000003,,,38.0,0.03934,['Pass'],Pass,0.30000000000000016,0.6999999999999998,2.0,2.0,0.1
173.0,8.0,wc_8,,0.0,,,,162.0,,,,Pass,,,,,
173.0,8.0,wc_8,,0.0,,,57.0,,,,,Pass,,,,,
173.0,8.0,wc_8,,0.0,,,,0.0,,,,Pass,,,,,
173.0,8.0,wc_8,wc_8,0.0,"[('wc_8', 0.31000000000000016)]",0.31000000000000016,,,32.0,0.002273,['Fail'],Pass,0.31000000000000016,-0.17666666666666683,0.0,0.0,0.3
173.0,8.0,wc_8,,0.0,,,,0.0,,,,Pass,,,,,
173.0,8.0,wc_8,wc_11,0.0,"[('wc_11', 0.8100000000000006)]",0.8100000000000006,,,29.0,0.003895,['Pass'],Pass,0.8100000000000006,-0.8100000000000006,0.0,1.0,1.0
173.0,8.0,wc_8,,0.0,,,,322.0,,,,Pass,,,,,
173.0,8.0,wc_8,wc_3,0.0,"[('wc_11', 0.8100000000000006)]",0.8100000000000006,,,26.0,0.006227,['Pass'],Pass,0.13,-0.03,0.0,0.0,0.1
173.0,8.0,wc_8,,0.0,,,,0.0,,,,Pass,,,,,
173.0,8.0,wc_8,wc_5,0.0,"[('wc_5', 0.7000000000000005), ('wc_11', 0.8100000000000006)]",0.9430000000000003,,,20.0,0.011506,['Pass'],Pass,0.7000000000000005,-0.7000000000000005,0.0,1.0,0.8
173.0,8.0,wc_8,,0.0,,,,182.0,,,,Pass,,,,,
173.0,8.0,wc_8,wc_16,1.0,"[('wc_16', 0.5800000000000004), ('wc_11', 0.8100000000000006), ('wc_5', 0.7000000000000005)]",0.9760600000000001,,,23.0,0.048678000000000006,['Pass'],Pass,0.5800000000000004,-0.5800000000000004,0.0,0.0,0.6
180.0,11.0,wc_11,,0.0,,,,382.0,,,,Pass,,,,,
180.0,11.0,wc_11,,0.0,,,54.0,,,,,Pass,,,,,
180.0,11.0,wc_11,,0.0,,,,0.0,,,,Pass,,,,,
180.0,11.0,wc_11,wc_11,0.0,"[('wc_11', 0.8100000000000006)]",0.8100000000000006,,,24.0,0.002191,['Pass'],Pass,0.8100000000000006,-0.3100000000000006,1.0,2.0,1.0
180.0,11.0,wc_11,,0.0,,,,203.0,,,,Pass,,,,,
180.0,11.0,wc_11,wc_1,0.0,"[('wc_1', 0.7100000000000005), ('wc_11', 0.8100000000000006)]",0.9449000000000003,,,39.0,0.0043490000000000004,['Pass'],Pass,0.7100000000000005,-0.6100000000000005,0.0,0.0,0.7
180.0,11.0,wc_11,,0.0,,,,142.0,,,,Pass,,,,,
180.0,11.0,wc_11,wc_6,0.0,"[('wc_11', 0.8100000000000006), ('wc_1', 0.7100000000000005)]",0.9449000000000003,,,33.0,0.0075060000000000005,['Pass'],Pass,0.39000000000000024,0.10999999999999976,1.0,2.0,0.2
180.0,11.0,wc_11,,0.0,,,,341.0,,,,Pass,,,,,
180.0,11.0,wc_11,wc_4,1.0,"[('wc_4', 0.6600000000000005), ('wc_11', 0.8100000000000006), ('wc_1', 0.7100000000000005)]",0.9812660000000001,,,27.0,0.040628,['Pass'],Pass,0.6600000000000005,-0.43777777777777827,2.0,9.0,0.7
194.0,10.0,wc_10,,0.0,,,,162.0,,,,Fail,,,,,
194.0,10.0,wc_10,,0.0,,,74.0,,,,,Fail,,,,,
194.0,10.0,wc_10,,0.0,,,,0.0,,,,Fail,,,,,
194.0,10.0,wc_10,wc_10,0.0,"[('wc_10', 0.7800000000000006)]",0.7800000000000006,,,23.0,0.002363,['Fail'],Fail,0.7800000000000006,-0.6550000000000006,0.0,0.0,0.8
194.0,10.0,wc_10,,0.0,,,,162.0,,,,Fail,,,,,
194.0,10.0,wc_10,wc_16,0.0,"[('wc_16', 0.5800000000000004), ('wc_10', 0.7800000000000006)]",0.9076000000000003,,,27.0,0.004207,['Fail'],Fail,0.5800000000000004,-0.5800000000000004,0.0,1.0,0.6
194.0,10.0,wc_10,,0.0,,,,61.0,,,,Fail,,,,,
194.0,10.0,wc_10,wc_13,0.0,"[('wc_10', 0.7800000000000006), ('wc_16', 0.5800000000000004)]",0.9076000000000003,,,23.0,0.006078,['Fail'],Fail,0.3700000000000002,-0.20333333333333356,1.0,6.0,0.1
194.0,10.0,wc_10,,0.0,,,,0.0,,,,Fail,,,,,
194.0,10.0,wc_10,wc_15,1.0,"[('wc_15', 0.5400000000000004), ('wc_10', 0.7800000000000006), ('wc_16', 0.5800000000000004)]",0.9574960000000002,,,25.0,0.047553,['Fail'],Fail,0.5400000000000004,-0.16500000000000037,3.0,8.0,0.5
206.0,10.0,wc_10,,0.0,,,,382.0,,,,Pass,,,,,
206.0,10.0,wc_10,,0.0,,,62.0,,,,,Pass,,,,,
206.0,10.0,wc_10,,0.0,,,,0.0,,,,Pass,,,,,
206.0,10.0,wc_10,wc_10,0.0,"[('wc_10', 0.7900000000000006)]",0.7900000000000006,,,28.0,0.002182,['Pass'],Pass,0.7900000000000006,0.2099999999999994,1.0,1.0,0.8
206.0,10.0,wc_10,,0.0,,,,41.0,,,,Pass,,,,,
206.0,10.0,wc_10,wc_6,0.0,"[('wc_6', 0.3800000000000002), ('wc_10', 0.7900000000000006)]",0.8698000000000004,,,37.0,0.004043,['Pass'],Pass,0.3800000000000002,-0.13000000000000023,1.0,4.0,0.2
206.0,10.0,wc_10,,0.0,,,,222.0,,,,Pass,,,,,
206.0,10.0,wc_10,wc_2,1.0,"[('wc_2', 0.30000000000000016), ('wc_10', 0.7900000000000006), ('wc_6', 0.3800000000000002)]",0.9088600000000003,,,28.0,0.040505,['Pass'],Pass,0.31000000000000016,0.18999999999999984,3.0,6.0,0.1
220.0,7.0,wc_7,,0.0,,,,142.0,,,,Fail,,,,,
220.0,7.0,wc_7,,0.0,,,69.0,,,,,Fail,,,,,
220.0,7.0,wc_7,,0.0,,,,0.0,,,,Fail,,,,,
220.0,7.0,wc_7,wc_7,0.0,"[('wc_7', 0.8000000000000006)]",0.8000000000000006,,,21.0,0.002268,['Fail'],Fail,0.8000000000000006,-0.6000000000000005,1.0,5.0,0.9
220.0,7.0,wc_7,,0.0,,,,301.0,,,,Fail,,,,,
220.0,7.0,wc_7,wc_3,0.0,"[('wc_3', 0.12000000000000001), ('wc_7', 0.8000000000000006)]",0.8240000000000005,,,39.0,0.004428,['Fail'],Fail,0.12000000000000001,-0.12000000000000001,0.0,4.0,0.1
220.0,7.0,wc_7,,0.0,,,,162.0,,,,Fail,,,,,
220.0,7.0,wc_7,wc_9,0.0,"[('wc_7', 0.8000000000000006), ('wc_3', 0.12000000000000001)]",0.8240000000000005,,,40.0,0.005805,['Fail'],Fail,0.17000000000000004,-0.02714285714285719,0.0,0.0,0.1
220.0,7.0,wc_7,,0.0,,,,101.0,,,,Fail,,,,,
220.0,7.0,wc_7,wc_8,0.0,"[('wc_7', 0.8000000000000006), ('wc_3', 0.12000000000000001)]",0.8240000000000005,,,21.0,0.008643,['Fail'],Fail,0.30000000000000016,-0.30000000000000016,0.0,4.0,0.3
220.0,7.0,wc_7,,0.0,,,,0.0,,,,Fail,,,,,
220.0,7.0,wc_7,wc_11,1.0,"[('wc_11', 0.8100000000000006), ('wc_7', 0.8000000000000006), ('wc_3', 0.12000000000000001)]",0.9665600000000002,,,24.0,0.049914,['Fail'],Fail,0.8100000000000006,-0.3100000000000006,3.0,6.0,1.0
230.0,9.0,wc_9,,0.0,,,,83.0,,,,Pass,,,,,
230.0,9.0,wc_9,,0.0,,,57.0,,,,,Pass,,,,,
230.0,9.0,wc_9,,0.0,,,,0.0,,,,Pass,,,,,
230.0,9.0,wc_9,wc_9,0.0,"[('wc_9', 0.16000000000000003)]",0.16000000000000003,,,21.0,0.002354,['Fail'],Pass,0.16000000000000003,-0.16000000000000003,0.0,1.0,0.1
230.0,9.0,wc_9,,0.0,,,,202.0,,,,Pass,,,,,
230.0,9.0,wc_9,wc_17,0.0,"[('wc_17', 0.6800000000000005)]",0.6800000000000005,,,28.0,0.004744,['Pass'],Pass,0.6800000000000005,-0.41333333333333383,0.0,0.0,0.6
230.0,9.0,wc_9,,0.0,,,,382.0,,,,Pass,,,,,
230.0,9.0,wc_9,wc_4,0.0,"[('wc_4', 0.6600000000000005), ('wc_17', 0.6800000000000005)]",0.8912000000000003,,,32.0,0.007105,['Pass'],Pass,0.6600000000000005,-0.49333333333333385,0.0,0.0,0.7
230.0,9.0,wc_9,,0.0,,,,182.0,,,,Pass,,,,,
230.0,9.0,wc_9,wc_11,1.0,"[('wc_11', 0.8100000000000006), ('wc_17', 0.6800000000000005), ('wc_4', 0.6600000000000005)]",0.9793280000000001,,,27.0,0.04228,['Pass'],Pass,0.8100000000000006,-0.2385714285714292,4.0,7.0,1.0
255.0,7.0,wc_7,,0.0,,,,41.0,,,,Fail,,,,,
255.0,7.0,wc_7,,0.0,,,75.0,,,,,Fail,,,,,
255.0,7.0,wc_7,,0.0,,,,0.0,,,,Fail,,,,,
255.0,7.0,wc_7,wc_7,0.0,"[('wc_7', 0.8000000000000006)]",0.8000000000000006,,,30.0,0.002332,['Fail'],Fail,0.8000000000000006,-0.5142857142857149,2.0,7.0,0.9
255.0,7.0,wc_7,,0.0,,,,223.0,,,,Fail,,,,,
255.0,7.0,wc_7,wc_16,0.0,"[('wc_16', 0.5800000000000004), ('wc_7', 0.8000000000000006)]",0.9160000000000004,,,25.0,0.0037679999999999996,['Fail'],Fail,0.5800000000000004,-0.3800000000000004,1.0,5.0,0.6
255.0,7.0,wc_7,,0.0,,,,382.0,,,,Fail,,,,,
255.0,7.0,wc_7,wc_11,1.0,"[('wc_11', 0.8100000000000006), ('wc_7', 0.8000000000000006), ('wc_16', 0.5800000000000004)]",0.9840400000000001,,,30.0,0.040644999999999994,['Fail'],Fail,0.8100000000000006,-0.1850000000000006,5.0,8.0,1.0
267.0,7.0,wc_7,,0.0,,,,41.0,,,,Pass,,,,,
267.0,7.0,wc_7,,0.0,,,69.0,,,,,Pass,,,,,
267.0,7.0,wc_7,,0.0,,,,0.0,,,,Pass,,,,,
267.0,7.0,wc_7,wc_7,0.0,"[('wc_7', 0.8000000000000006)]",0.8000000000000006,,,31.0,0.002445,['Pass'],Pass,0.8000000000000006,-0.4250000000000006,3.0,8.0,0.9
267.0,7.0,wc_7,,0.0,,,,182.0,,,,Pass,,,,,
267.0,7.0,wc_7,wc_1,0.0,"[('wc_7', 0.8000000000000006)]",0.8000000000000006,,,37.0,0.00397,['Pass'],Pass,0.7200000000000005,-0.5533333333333339,1.0,6.0,0.7
267.0,7.0,wc_7,,0.0,,,,182.0,,,,Pass,,,,,
267.0,7.0,wc_7,wc_12,0.0,"[('wc_12', 0.8900000000000007), ('wc_7', 0.8000000000000006)]",0.9780000000000002,,,25.0,0.006222,['Pass'],Pass,0.8900000000000007,-0.8900000000000007,0.0,0.0,1.0
267.0,7.0,wc_7,,0.0,,,,321.0,,,,Pass,,,,,
267.0,7.0,wc_7,wc_9,0.0,"[('wc_7', 0.8000000000000006), ('wc_12', 0.8900000000000007)]",0.9780000000000002,,,39.0,0.007958,['Pass'],Pass,0.15000000000000002,-0.15000000000000002,0.0,3.0,0.1
267.0,7.0,wc_7,,0.0,,,,61.0,,,,Pass,,,,,
267.0,7.0,wc_7,wc_6,1.0,"[('wc_6', 0.39000000000000024), ('wc_7', 0.8000000000000006), ('wc_12', 0.8900000000000007)]",0.9865800000000001,,,30.0,0.04236500000000001,['Pass'],Pass,0.39000000000000024,-0.05666666666666692,3.0,9.0,0.2
296.0,12.0,wc_12,,0.0,,,,162.0,,,,Pass,,,,,
296.0,12.0,wc_12,,0.0,,,50.0,,,,,Pass,,,,,
296.0,12.0,wc_12,,0.0,,,,0.0,,,,Pass,,,,,
296.0,12.0,wc_12,wc_12,0.0,"[('wc_12', 0.9000000000000007)]",0.9000000000000007,,,39.0,0.002433,['Pass'],Pass,0.9000000000000007,0.09999999999999931,1.0,1.0,1.0
296.0,12.0,wc_12,,0.0,,,,321.0,,,,Pass,,,,,
296.0,12.0,wc_12,wc_9,0.0,"[('wc_9', 0.14), ('wc_12', 0.9000000000000007)]",0.9140000000000006,,,31.0,0.004164,['Pass'],Pass,0.14,-0.14,0.0,4.0,0.1
296.0,12.0,wc_12,,0.0,,,,121.0,,,,Pass,,,,,
296.0,12.0,wc_12,wc_13,1.0,"[('wc_13', 0.3600000000000002), ('wc_12', 0.9000000000000007), ('wc_9', 0.14)]",0.9449600000000004,,,25.0,0.039577,['Pass'],Pass,0.3600000000000002,-0.3600000000000002,0.0,0.0,0.1
308.0,13.0,wc_13,,0.0,,,,0.0,,,,Fail,,,,,
308.0,13.0,wc_13,,0.0,,,72.0,,,,,Fail,,,,,
308.0,13.0,wc_13,,0.0,,,,0.0,,,,Fail,,,,,
308.0,13.0,wc_13,wc_13,0.0,"[('wc_13', 0.3600000000000002)]",0.3600000000000002,,,31.0,0.002135,['Fail'],Fail,0.3600000000000002,-0.3600000000000002,0.0,0.0,0.1
308.0,13.0,wc_13,,0.0,,,,381.0,,,,Fail,,,,,
308.0,13.0,wc_13,wc_5,0.0,"[('wc_5', 0.7000000000000005), ('wc_13', 0.3600000000000002)]",0.8080000000000004,,,34.0,0.003951,['Fail'],Fail,0.7000000000000005,-0.6000000000000005,0.0,0.0,0.8
308.0,13.0,wc_13,,0.0,,,,83.0,,,,Fail,,,,,
308.0,13.0,wc_13,wc_3,0.0,"[('wc_13', 0.3600000000000002), ('wc_5', 0.7000000000000005)]",0.8080000000000004,,,35.0,0.006045,['Fail'],Fail,0.13,-0.0188888888888889,1.0,9.0,0.1
308.0,13.0,wc_13,,0.0,,,,181.0,,,,Fail,,,,,
308.0,13.0,wc_13,wc_14,0.0,"[('wc_13', 0.3600000000000002), ('wc_5', 0.7000000000000005)]",0.8080000000000004,,,37.0,0.008997999999999999,['Fail'],Fail,0.6700000000000005,-0.6700000000000005,0.0,0.0,0.5
308.0,13.0,wc_13,,0.0,,,,142.0,,,,Fail,,,,,
308.0,13.0,wc_13,wc_6,0.0,"[('wc_6', 0.39000000000000024), ('wc_13', 0.3600000000000002), ('wc_5', 0.7000000000000005)]",0.8828800000000003,,,28.0,0.010069999999999999,['Fail'],Fail,0.39000000000000024,-0.09000000000000025,0.0,0.0,0.2
308.0,13.0,wc_13,,0.0,,,,341.0,,,,Fail,,,,,
308.0,13.0,wc_13,wc_4,1.0,"[('wc_4', 0.6700000000000005), ('wc_13', 0.3600000000000002), ('wc_5', 0.7000000000000005), ('wc_6', 0.39000000000000024)]",0.9613504000000002,,,32.0,0.07244799999999998,['Fail'],Fail,0.6700000000000005,-0.27000000000000046,2.0,5.0,0.7
330.0,13.0,wc_13,,0.0,,,,141.0,,,,Pass,,,,,
330.0,13.0,wc_13,,0.0,,,53.0,,,,,Pass,,,,,
330.0,13.0,wc_13,,0.0,,,,0.0,,,,Pass,,,,,
330.0,13.0,wc_13,wc_13,0.0,"[('wc_13', 0.3700000000000002)]",0.3700000000000002,,,38.0,0.002037,['Fail'],Pass,0.3700000000000002,0.6299999999999998,1.0,1.0,0.1
330.0,13.0,wc_13,,0.0,,,,0.0,,,,Pass,,,,,
330.0,13.0,wc_13,wc_15,0.0,"[('wc_15', 0.5400000000000004)]",0.5400000000000004,,,24.0,0.004386,['Pass'],Pass,0.5400000000000004,-0.34000000000000036,0.0,0.0,0.5
330.0,13.0,wc_13,,0.0,,,,243.0,,,,Pass,,,,,
330.0,13.0,wc_13,wc_7,0.0,"[('wc_7', 0.8000000000000006), ('wc_15', 0.5400000000000004)]",0.9080000000000004,,,30.0,0.006171,['Pass'],Pass,0.8000000000000006,-0.43636363636363695,0.0,0.0,0.9
330.0,13.0,wc_13,,0.0,,,,321.0,,,,Pass,,,,,
330.0,13.0,wc_13,wc_4,0.0,"[('wc_15', 0.5400000000000004), ('wc_7', 0.8000000000000006)]",0.9080000000000004,,,28.0,0.007908,['Pass'],Pass,0.6700000000000005,-0.27000000000000046,2.0,5.0,0.7
330.0,13.0,wc_13,,0.0,,,,142.0,,,,Pass,,,,,
330.0,13.0,wc_13,wc_9,0.0,"[('wc_15', 0.5400000000000004), ('wc_7', 0.8000000000000006)]",0.9080000000000004,,,34.0,0.010965,['Pass'],Pass,0.15000000000000002,0.016666666666666635,1.0,6.0,0.1
330.0,13.0,wc_13,,0.0,,,,263.0,,,,Pass,,,,,
330.0,13.0,wc_13,wc_2,0.0,"[('wc_15', 0.5400000000000004), ('wc_7', 0.8000000000000006)]",0.9080000000000004,,,39.0,0.012549,['Pass'],Pass,0.31000000000000016,-0.060000000000000164,0.0,0.0,0.1
330.0,13.0,wc_13,,0.0,,,,243.0,,,,Pass,,,,,
330.0,13.0,wc_13,wc_16,1.0,"[('wc_16', 0.5800000000000004), ('wc_15', 0.5400000000000004), ('wc_7', 0.8000000000000006)]",0.9613600000000002,,,34.0,0.044941,['Pass'],Pass,0.5800000000000004,-0.5800000000000004,0.0,0.0,0.6
342.0,15.0,wc_15,,0.0,,,,103.0,,,,Fail,,,,,
342.0,15.0,wc_15,,0.0,,,67.0,,,,,Fail,,,,,
342.0,15.0,wc_15,,0.0,,,,0.0,,,,Fail,,,,,
342.0,15.0,wc_15,wc_15,0.0,"[('wc_15', 0.5500000000000004)]",0.5500000000000004,,,22.0,0.002234,['Fail'],Fail,0.5500000000000004,0.4499999999999996,1.0,1.0,0.5
342.0,15.0,wc_15,,0.0,,,,402.0,,,,Fail,,,,,
342.0,15.0,wc_15,wc_11,0.0,"[('wc_11', 0.8100000000000006), ('wc_15', 0.5500000000000004)]",0.9145000000000003,,,23.0,0.004217,['Fail'],Fail,0.8100000000000006,-0.3933333333333339,0.0,0.0,1.0
342.0,15.0,wc_15,,0.0,,,,61.0,,,,Fail,,,,,
342.0,15.0,wc_15,wc_12,1.0,"[('wc_12', 0.9100000000000007), ('wc_15', 0.5500000000000004), ('wc_11', 0.8100000000000006)]",0.9923050000000001,,,20.0,0.04272000000000001,['Fail'],Fail,0.9100000000000007,-0.3100000000000007,3.0,5.0,1.0
352.0,16.0,wc_16,,0.0,,,,0.0,,,,Pass,,,,,
352.0,16.0,wc_16,,0.0,,,66.0,,,,,Pass,,,,,
352.0,16.0,wc_16,,0.0,,,,0.0,,,,Pass,,,,,
352.0,16.0,wc_16,wc_16,0.0,"[('wc_16', 0.5800000000000004)]",0.5800000000000004,,,35.0,0.002423,['Pass'],Pass,0.5800000000000004,-0.5800000000000004,0.0,1.0,0.6
352.0,16.0,wc_16,,0.0,,,,283.0,,,,Pass,,,,,
352.0,16.0,wc_16,wc_2,0.0,"[('wc_16', 0.5800000000000004)]",0.5800000000000004,,,27.0,0.004288999999999999,['Pass'],Pass,0.30000000000000016,-0.30000000000000016,0.0,2.0,0.1
352.0,16.0,wc_16,,0.0,,,,0.0,,,,Pass,,,,,
352.0,16.0,wc_16,wc_4,0.0,"[('wc_4', 0.6600000000000005), ('wc_16', 0.5800000000000004)]",0.8572000000000004,,,27.0,0.007418999999999999,['Pass'],Pass,0.6600000000000005,-0.3742857142857148,2.0,7.0,0.7
352.0,16.0,wc_16,,0.0,,,,0.0,,,,Pass,,,,,
352.0,16.0,wc_16,wc_5,1.0,"[('wc_5', 0.7100000000000005), ('wc_16', 0.5800000000000004), ('wc_4', 0.6600000000000005)]",0.9585880000000002,,,37.0,0.043508000000000005,['Pass'],Pass,0.7100000000000005,-0.21000000000000052,2.0,4.0,0.8
362.0,15.0,wc_15,,0.0,,,,162.0,,,,Pass,,,,,
362.0,15.0,wc_15,,0.0,,,56.0,,,,,Pass,,,,,
362.0,15.0,wc_15,,0.0,,,,0.0,,,,Pass,,,,,
362.0,15.0,wc_15,wc_15,0.0,"[('wc_15', 0.5600000000000004)]",0.5600000000000004,,,34.0,0.002092,['Fail'],Pass,0.5600000000000004,0.10666666666666624,2.0,3.0,0.5
362.0,15.0,wc_15,,0.0,,,,0.0,,,,Pass,,,,,
362.0,15.0,wc_15,wc_17,0.0,"[('wc_17', 0.6900000000000005)]",0.6900000000000005,,,40.0,0.00422,['Pass'],Pass,0.6900000000000005,-0.5650000000000005,1.0,8.0,0.6
362.0,15.0,wc_15,,0.0,,,,103.0,,,,Pass,,,,,
362.0,15.0,wc_15,wc_16,0.0,"[('wc_16', 0.5800000000000004), ('wc_17', 0.6900000000000005)]",0.8698000000000004,,,20.0,0.00605,['Pass'],Pass,0.5800000000000004,-0.0800000000000004,1.0,2.0,0.6
362.0,15.0,wc_15,,0.0,,,,382.0,,,,Pass,,,,,
362.0,15.0,wc_15,wc_3,0.0,"[('wc_17', 0.6900000000000005), ('wc_16', 0.5800000000000004)]",0.8698000000000004,,,37.0,0.0076489999999999995,['Pass'],Pass,0.12000000000000001,-0.12000000000000001,0.0,3.0,0.1
362.0,15.0,wc_15,,0.0,,,,161.0,,,,Pass,,,,,
362.0,15.0,wc_15,wc_13,1.0,"[('wc_13', 0.3700000000000002), ('wc_17', 0.6900000000000005), ('wc_16', 0.5800000000000004)]",0.9179740000000003,,,32.0,0.046024,['Pass'],Pass,0.3800000000000002,0.019999999999999796,2.0,5.0,0.1
376.0,14.0,wc_14,,0.0,,,,0.0,,,,Pass,,,,,
376.0,14.0,wc_14,,0.0,,,68.0,,,,,Pass,,,,,
376.0,14.0,wc_14,,0.0,,,,0.0,,,,Pass,,,,,
376.0,14.0,wc_14,wc_14,0.0,"[('wc_14', 0.6600000000000005)]",0.6600000000000005,,,39.0,0.002821,['Fail'],Pass,0.6600000000000005,-0.6600000000000005,0.0,5.0,0.5
376.0,14.0,wc_14,,0.0,,,,301.0,,,,Pass,,,,,
376.0,14.0,wc_14,wc_10,0.0,"[('wc_10', 0.8000000000000006)]",0.8000000000000006,,,31.0,0.00443,['Pass'],Pass,0.8000000000000006,-0.633333333333334,0.0,0.0,0.8
376.0,14.0,wc_14,,0.0,,,,162.0,,,,Pass,,,,,
376.0,14.0,wc_14,wc_16,0.0,"[('wc_16', 0.5900000000000004), ('wc_14', 0.6600000000000005)]",0.8606000000000004,,,30.0,0.0059240000000000004,['Fail'],Pass,0.5900000000000004,0.07666666666666622,2.0,3.0,0.6
376.0,14.0,wc_14,,0.0,,,,342.0,,,,Pass,,,,,
376.0,14.0,wc_14,wc_9,0.0,"[('wc_14', 0.6600000000000005), ('wc_16', 0.5900000000000004)]",0.8606000000000004,,,26.0,0.009791000000000001,['Fail'],Pass,0.15000000000000002,-0.05000000000000002,0.0,0.0,0.1
376.0,14.0,wc_14,,0.0,,,,382.0,,,,Pass,,,,,
376.0,14.0,wc_14,wc_4,1.0,"[('wc_4', 0.6600000000000005), ('wc_10', 0.8000000000000006), ('wc_9', 0.15000000000000002)]",0.9422000000000003,,,28.0,0.050471999999999996,['Pass'],Pass,0.6600000000000005,-0.6600000000000005,0.0,0.0,0.7
385.0,17.0,wc_17,,0.0,,,,222.0,,,,Pass,,,,,
385.0,17.0,wc_17,,0.0,,,50.0,,,,,Pass,,,,,
385.0,17.0,wc_17,,0.0,,,,0.0,,,,Pass,,,,,
385.0,17.0,wc_17,wc_17,0.0,"[('wc_17', 0.6900000000000005)]",0.6900000000000005,,,26.0,0.003036,['Fail'],Pass,0.6900000000000005,-0.4900000000000005,0.0,0.0,0.6
385.0,17.0,wc_17,,0.0,,,,183.0,,,,Pass,,,,,
385.0,17.0,wc_17,wc_6,0.0,"[('wc_17', 0.6900000000000005)]",0.6900000000000005,,,31.0,0.004967,['Fail'],Pass,0.40000000000000024,-0.2333333333333336,1.0,6.0,0.2
385.0,17.0,wc_17,,0.0,,,,0.0,,,,Pass,,,,,
385.0,17.0,wc_17,wc_10,0.0,"[('wc_10', 0.8100000000000006), ('wc_6', 0.40000000000000024)]",0.8860000000000005,,,36.0,0.006939,['Pass'],Pass,0.8100000000000006,0.1899999999999994,1.0,1.0,0.8
385.0,17.0,wc_17,,0.0,,,,243.0,,,,Pass,,,,,
385.0,17.0,wc_17,wc_2,1.0,"[('wc_2', 0.29000000000000015), ('wc_6', 0.40000000000000024), ('wc_10', 0.8100000000000006)]",0.9190600000000003,,,28.0,0.043291,['Pass'],Pass,0.29000000000000015,-0.12333333333333349,1.0,6.0,0.1
