mpecck/BCQC/bcqc_with_qdt/results/raw/input_18/independent_qc/training/20_workpiece/20200429_095234/wp_19_qc_majority_0.9.csv
production_index,step_idx,production_workcell,qc,consent,winner_qc_list,score,production_time,transport_time,inspection_time,network_time,qc_results,actual_quality,qc_score,score_error,in_winner_counter,in_qc_counter,qc_capability
67.0,1.0,wc_1,,0.0,,,80.0,,,,,Pass,,,,,
67.0,1.0,wc_1,,0.0,,,,0.0,,,,Pass,,,,,
67.0,1.0,wc_1,wc_1,0.0,"[('wc_1', 0.7300000000000005)]",0.7300000000000005,,,28.0,0.002232,['Pass'],Pass,0.7300000000000005,-0.5300000000000005,1.0,5.0,0.7
67.0,1.0,wc_1,,0.0,,,,0.0,,,,Pass,,,,,
67.0,1.0,wc_1,wc_4,0.0,"[('wc_4', 0.6300000000000004), ('wc_1', 0.7300000000000005)]",0.9001000000000003,,,38.0,0.004176,['Pass'],Pass,0.6300000000000004,-0.5050000000000004,1.0,8.0,0.7
67.0,1.0,wc_1,,0.0,,,,0.0,,,,Pass,,,,,
67.0,1.0,wc_1,wc_5,1.0,"[('wc_5', 0.7500000000000006), ('wc_1', 0.7300000000000005), ('wc_4', 0.6300000000000004)]",0.9750250000000001,,,30.0,0.037847000000000006,['Pass'],Pass,0.7600000000000006,0.23999999999999944,1.0,1.0,0.8
76.0,4.0,wc_4,,0.0,,,,103.0,,,,Fail,,,,,
76.0,4.0,wc_4,,0.0,,,67.0,,,,,Fail,,,,,
76.0,4.0,wc_4,,0.0,,,,0.0,,,,Fail,,,,,
76.0,4.0,wc_4,wc_4,0.0,"[('wc_4', 0.6300000000000004)]",0.6300000000000004,,,24.0,0.002221,['Fail'],Fail,0.6300000000000004,-0.40777777777777824,2.0,9.0,0.7
76.0,4.0,wc_4,,0.0,,,,182.0,,,,Fail,,,,,
76.0,4.0,wc_4,wc_15,0.0,"[('wc_15', 0.5100000000000003), ('wc_4', 0.6300000000000004)]",0.8187000000000003,,,21.0,0.004432,['Fail'],Fail,0.5100000000000003,-0.31000000000000033,1.0,5.0,0.5
76.0,4.0,wc_4,,0.0,,,,442.0,,,,Fail,,,,,
76.0,4.0,wc_4,wc_5,1.0,"[('wc_5', 0.7600000000000006), ('wc_4', 0.6300000000000004), ('wc_15', 0.5100000000000003)]",0.9564880000000002,,,28.0,0.038396000000000007,['Fail'],Fail,0.7700000000000006,0.22999999999999943,2.0,2.0,0.8
83.0,2.0,wc_2,,0.0,,,,61.0,,,,Fail,,,,,
83.0,2.0,wc_2,,0.0,,,53.0,,,,,Fail,,,,,
83.0,2.0,wc_2,,0.0,,,,0.0,,,,Fail,,,,,
83.0,2.0,wc_2,wc_2,0.0,"[('wc_2', 0.2400000000000001)]",0.2400000000000001,,,28.0,0.002175,['Fail'],Fail,0.2400000000000001,-0.08615384615384625,0.0,0.0,0.1
83.0,2.0,wc_2,,0.0,,,,182.0,,,,Fail,,,,,
83.0,2.0,wc_2,wc_13,0.0,"[('wc_13', 0.3400000000000002), ('wc_2', 0.2400000000000001)]",0.4984000000000002,,,24.0,0.004702,['Fail'],Fail,0.3400000000000002,-0.17333333333333353,1.0,6.0,0.1
83.0,2.0,wc_2,,0.0,,,,162.0,,,,Fail,,,,,
83.0,2.0,wc_2,wc_6,0.0,"[('wc_2', 0.2400000000000001), ('wc_13', 0.3400000000000002)]",0.4984000000000002,,,30.0,0.007054,['Fail'],Fail,0.3500000000000002,-0.25909090909090926,0.0,0.0,0.2
83.0,2.0,wc_2,,0.0,,,,0.0,,,,Fail,,,,,
83.0,2.0,wc_2,wc_8,0.0,"[('wc_8', 0.3200000000000002), ('wc_2', 0.2400000000000001), ('wc_13', 0.3400000000000002)]",0.6589120000000002,,,37.0,0.008356,['Fail'],Fail,0.3200000000000002,-0.3200000000000002,0.0,0.0,0.3
83.0,2.0,wc_2,,0.0,,,,102.0,,,,Fail,,,,,
83.0,2.0,wc_2,wc_7,1.0,"[('wc_7', 0.8400000000000006), ('wc_2', 0.2400000000000001), ('wc_13', 0.3400000000000002), ('wc_8', 0.3200000000000002)]",0.9454259200000003,,,33.0,0.042706,['Fail'],Fail,0.8400000000000006,-0.34000000000000064,2.0,4.0,0.9
92.0,3.0,wc_3,,0.0,,,,301.0,,,,Fail,,,,,
92.0,3.0,wc_3,,0.0,,,56.0,,,,,Fail,,,,,
92.0,3.0,wc_3,,0.0,,,,0.0,,,,Fail,,,,,
92.0,3.0,wc_3,wc_3,0.0,"[('wc_3', 0.08000000000000003)]",0.08000000000000007,,,26.0,0.002581,['Fail'],Fail,0.08000000000000003,0.08666666666666663,1.0,6.0,0.1
92.0,3.0,wc_3,,0.0,,,,0.0,,,,Fail,,,,,
92.0,3.0,wc_3,wc_4,0.0,"[('wc_4', 0.6300000000000004)]",0.6300000000000004,,,27.0,0.005356,['Pass'],Fail,0.6300000000000004,-0.6300000000000004,0.0,1.0,0.7
92.0,3.0,wc_3,,0.0,,,,121.0,,,,Fail,,,,,
92.0,3.0,wc_3,wc_8,0.0,"[('wc_8', 0.3300000000000002), ('wc_4', 0.6300000000000004)]",0.7521000000000004,,,27.0,0.007598000000000001,['Pass'],Fail,0.3300000000000002,0.6699999999999998,1.0,1.0,0.3
92.0,3.0,wc_3,,0.0,,,,162.0,,,,Fail,,,,,
92.0,3.0,wc_3,wc_14,0.0,"[('wc_4', 0.6300000000000004), ('wc_8', 0.3300000000000002)]",0.7521000000000004,,,23.0,0.0073,['Pass'],Fail,0.6600000000000005,-0.49333333333333385,0.0,0.0,0.5
92.0,3.0,wc_3,,0.0,,,,301.0,,,,Fail,,,,,
92.0,3.0,wc_3,wc_10,1.0,"[('wc_10', 0.8500000000000006), ('wc_3', 0.08000000000000003), ('wc_14', 0.6600000000000005)]",0.9530800000000003,,,30.0,0.042994000000000004,['Fail'],Fail,0.8500000000000006,-0.5166666666666673,3.0,9.0,0.8
101.0,2.0,wc_2,,0.0,,,,243.0,,,,Fail,,,,,
101.0,2.0,wc_2,,0.0,,,78.0,,,,,Fail,,,,,
101.0,2.0,wc_2,,0.0,,,,0.0,,,,Fail,,,,,
101.0,2.0,wc_2,wc_2,0.0,"[('wc_2', 0.2500000000000001)]",0.2500000000000001,,,27.0,0.001967,['Pass'],Fail,0.2500000000000001,0.2499999999999999,1.0,2.0,0.1
101.0,2.0,wc_2,,0.0,,,,223.0,,,,Fail,,,,,
101.0,2.0,wc_2,wc_15,0.0,"[('wc_15', 0.5100000000000003)]",0.5100000000000003,,,25.0,0.004137,['Fail'],Fail,0.5100000000000003,-0.26000000000000034,2.0,8.0,0.5
101.0,2.0,wc_2,,0.0,,,,263.0,,,,Fail,,,,,
101.0,2.0,wc_2,wc_8,0.0,"[('wc_8', 0.3300000000000002), ('wc_15', 0.5100000000000003)]",0.6717000000000003,,,35.0,0.006343,['Fail'],Fail,0.3300000000000002,0.16999999999999982,1.0,2.0,0.3
101.0,2.0,wc_2,,0.0,,,,102.0,,,,Fail,,,,,
101.0,2.0,wc_2,wc_7,1.0,"[('wc_7', 0.8400000000000006), ('wc_15', 0.5100000000000003), ('wc_8', 0.3300000000000002)]",0.9474720000000003,,,35.0,0.037632,['Fail'],Fail,0.8400000000000006,-0.34000000000000064,3.0,6.0,0.9
126.0,4.0,wc_4,,0.0,,,,321.0,,,,Pass,,,,,
126.0,4.0,wc_4,,0.0,,,58.0,,,,,Pass,,,,,
126.0,4.0,wc_4,,0.0,,,,0.0,,,,Pass,,,,,
126.0,4.0,wc_4,wc_4,0.0,"[('wc_4', 0.6200000000000004)]",0.6200000000000004,,,40.0,0.002435,['Pass'],Pass,0.6200000000000004,-0.6200000000000004,0.0,3.0,0.7
126.0,4.0,wc_4,,0.0,,,,161.0,,,,Pass,,,,,
126.0,4.0,wc_4,wc_14,0.0,"[('wc_14', 0.6700000000000005), ('wc_4', 0.6200000000000004)]",0.8746000000000003,,,27.0,0.004023,['Pass'],Pass,0.6700000000000005,-0.17000000000000048,1.0,2.0,0.5
126.0,4.0,wc_4,,0.0,,,,0.0,,,,Pass,,,,,
126.0,4.0,wc_4,wc_16,0.0,"[('wc_4', 0.6200000000000004), ('wc_14', 0.6700000000000005)]",0.8746000000000003,,,23.0,0.005984,['Pass'],Pass,0.6900000000000005,-0.5990909090909096,0.0,0.0,0.6
126.0,4.0,wc_4,,0.0,,,,342.0,,,,Pass,,,,,
126.0,4.0,wc_4,wc_9,0.0,"[('wc_4', 0.6200000000000004), ('wc_14', 0.6700000000000005)]",0.8746000000000003,,,27.0,0.010025,['Pass'],Pass,0.29000000000000015,-0.16500000000000015,1.0,8.0,0.1
126.0,4.0,wc_4,,0.0,,,,263.0,,,,Pass,,,,,
126.0,4.0,wc_4,wc_2,0.0,"[('wc_4', 0.6200000000000004), ('wc_14', 0.6700000000000005)]",0.8746000000000003,,,28.0,0.009679,['Pass'],Pass,0.2500000000000001,0.0833333333333332,1.0,3.0,0.1
126.0,4.0,wc_4,,0.0,,,,142.0,,,,Pass,,,,,
126.0,4.0,wc_4,wc_7,1.0,"[('wc_7', 0.8400000000000006), ('wc_4', 0.6200000000000004), ('wc_14', 0.6700000000000005)]",0.9799360000000001,,,39.0,0.04566899999999999,['Pass'],Pass,0.8400000000000006,-0.26857142857142924,4.0,7.0,0.9
169.0,2.0,wc_2,,0.0,,,,202.0,,,,Pass,,,,,
169.0,2.0,wc_2,,0.0,,,73.0,,,,,Pass,,,,,
169.0,2.0,wc_2,,0.0,,,,0.0,,,,Pass,,,,,
169.0,2.0,wc_2,wc_2,0.0,"[('wc_2', 0.2500000000000001)]",0.2500000000000001,,,40.0,0.002189,['Fail'],Pass,0.2500000000000001,-1.1102230246251565e-16,1.0,4.0,0.1
169.0,2.0,wc_2,,0.0,,,,122.0,,,,Pass,,,,,
169.0,2.0,wc_2,wc_6,0.0,"[('wc_6', 0.3400000000000002)]",0.3400000000000002,,,39.0,0.004258,['Pass'],Pass,0.3400000000000002,-0.3400000000000002,0.0,4.0,0.2
169.0,2.0,wc_2,,0.0,,,,202.0,,,,Pass,,,,,
169.0,2.0,wc_2,wc_14,0.0,"[('wc_14', 0.6700000000000005), ('wc_6', 0.3400000000000002)]",0.7822000000000005,,,37.0,0.00626,['Pass'],Pass,0.6700000000000005,-0.0033333333333338544,2.0,3.0,0.5
169.0,2.0,wc_2,,0.0,,,,82.0,,,,Pass,,,,,
169.0,2.0,wc_2,wc_12,1.0,"[('wc_12', 0.9900000000000008), ('wc_6', 0.3400000000000002), ('wc_14', 0.6700000000000005)]",0.9978220000000002,,,37.0,0.042197,['Pass'],Pass,0.9900000000000008,-0.9900000000000008,0.0,0.0,1.0
196.0,3.0,wc_3,,0.0,,,,361.0,,,,Pass,,,,,
196.0,3.0,wc_3,,0.0,,,74.0,,,,,Pass,,,,,
196.0,3.0,wc_3,,0.0,,,,0.0,,,,Pass,,,,,
196.0,3.0,wc_3,wc_3,0.0,"[('wc_3', 0.09000000000000002)]",0.09000000000000008,,,20.0,0.002098,['Fail'],Pass,0.09000000000000002,0.10999999999999999,0.0,0.0,0.1
196.0,3.0,wc_3,,0.0,,,,81.0,,,,Pass,,,,,
196.0,3.0,wc_3,wc_1,0.0,"[('wc_1', 0.7300000000000005), ('wc_3', 0.09000000000000002)]",0.7543000000000005,,,24.0,0.004091,['Fail'],Pass,0.7300000000000005,-0.5633333333333339,0.0,0.0,0.7
196.0,3.0,wc_3,,0.0,,,,0.0,,,,Pass,,,,,
196.0,3.0,wc_3,wc_4,1.0,"[('wc_4', 0.6200000000000004), ('wc_3', 0.09000000000000002), ('wc_1', 0.7300000000000005)]",0.9066340000000003,,,24.0,0.041004,['Fail'],Pass,0.6200000000000004,-0.2866666666666671,2.0,6.0,0.7
215.0,5.0,wc_5,,0.0,,,,0.0,,,,Pass,,,,,
215.0,5.0,wc_5,,0.0,,,59.0,,,,,Pass,,,,,
215.0,5.0,wc_5,,0.0,,,,0.0,,,,Pass,,,,,
215.0,5.0,wc_5,wc_5,0.0,"[('wc_5', 0.7700000000000006)]",0.7700000000000006,,,35.0,0.002352,['Pass'],Pass,0.7700000000000006,-0.5200000000000006,2.0,8.0,0.8
215.0,5.0,wc_5,,0.0,,,,162.0,,,,Pass,,,,,
215.0,5.0,wc_5,wc_15,0.0,"[('wc_15', 0.5100000000000003), ('wc_5', 0.7700000000000006)]",0.8873000000000004,,,38.0,0.004165,['Pass'],Pass,0.5100000000000003,-0.26000000000000034,0.0,0.0,0.5
215.0,5.0,wc_5,,0.0,,,,382.0,,,,Pass,,,,,
215.0,5.0,wc_5,wc_10,1.0,"[('wc_10', 0.8500000000000006), ('wc_5', 0.7700000000000006), ('wc_15', 0.5100000000000003)]",0.9830950000000002,,,39.0,0.037729000000000006,['Pass'],Pass,0.8500000000000006,-0.8500000000000006,0.0,0.0,0.8
231.0,6.0,wc_6,,0.0,,,,41.0,,,,Pass,,,,,
231.0,6.0,wc_6,,0.0,,,69.0,,,,,Pass,,,,,
231.0,6.0,wc_6,,0.0,,,,0.0,,,,Pass,,,,,
231.0,6.0,wc_6,wc_6,0.0,"[('wc_6', 0.3400000000000002)]",0.3400000000000002,,,26.0,0.002285,['Fail'],Pass,0.3400000000000002,-0.19714285714285734,1.0,7.0,0.2
231.0,6.0,wc_6,,0.0,,,,0.0,,,,Pass,,,,,
231.0,6.0,wc_6,wc_10,0.0,"[('wc_10', 0.8500000000000006), ('wc_6', 0.3400000000000002)]",0.9010000000000005,,,40.0,0.004317,['Fail'],Pass,0.8500000000000006,-0.8500000000000006,0.0,0.0,0.8
231.0,6.0,wc_6,,0.0,,,,81.0,,,,Pass,,,,,
231.0,6.0,wc_6,wc_12,0.0,"[('wc_12', 0.9900000000000008)]",0.9900000000000008,,,38.0,0.006392,['Pass'],Pass,0.9900000000000008,-0.9900000000000008,0.0,2.0,1.0
231.0,6.0,wc_6,,0.0,,,,242.0,,,,Pass,,,,,
231.0,6.0,wc_6,wc_1,0.0,"[('wc_1', 0.7400000000000005), ('wc_12', 0.9900000000000008)]",0.9974000000000002,,,38.0,0.008565,['Pass'],Pass,0.7400000000000005,-0.24000000000000055,1.0,2.0,0.7
231.0,6.0,wc_6,,0.0,,,,243.0,,,,Pass,,,,,
231.0,6.0,wc_6,wc_15,0.0,"[('wc_12', 0.9900000000000008), ('wc_1', 0.7400000000000005)]",0.9974000000000002,,,23.0,0.009207,['Pass'],Pass,0.5200000000000004,0.47999999999999965,1.0,1.0,0.5
231.0,6.0,wc_6,,0.0,,,,402.0,,,,Pass,,,,,
231.0,6.0,wc_6,wc_3,0.0,"[('wc_12', 0.9900000000000008), ('wc_1', 0.7400000000000005)]",0.9974000000000002,,,23.0,0.01257,['Pass'],Pass,0.10000000000000002,0.39999999999999997,1.0,2.0,0.1
231.0,6.0,wc_6,,0.0,,,,0.0,,,,Pass,,,,,
231.0,6.0,wc_6,wc_4,0.0,"[('wc_12', 0.9900000000000008), ('wc_1', 0.7400000000000005)]",0.9974000000000002,,,27.0,0.013653000000000002,['Pass'],Pass,0.6200000000000004,-0.33428571428571474,2.0,7.0,0.7
231.0,6.0,wc_6,,0.0,,,,141.0,,,,Pass,,,,,
231.0,6.0,wc_6,wc_13,1.0,"[('wc_13', 0.3400000000000002), ('wc_12', 0.9900000000000008), ('wc_1', 0.7400000000000005)]",0.9982840000000002,,,20.0,0.044532,['Pass'],Pass,0.3400000000000002,-0.3400000000000002,0.0,0.0,0.1
237.0,9.0,wc_9,,0.0,,,,301.0,,,,Fail,,,,,
237.0,9.0,wc_9,,0.0,,,56.0,,,,,Fail,,,,,
237.0,9.0,wc_9,,0.0,,,,0.0,,,,Fail,,,,,
237.0,9.0,wc_9,wc_9,0.0,"[('wc_9', 0.28000000000000014)]",0.28000000000000014,,,31.0,0.002349,['Pass'],Fail,0.28000000000000014,-0.2030769230769232,0.0,0.0,0.1
237.0,9.0,wc_9,,0.0,,,,162.0,,,,Fail,,,,,
237.0,9.0,wc_9,wc_15,0.0,"[('wc_15', 0.5100000000000003)]",0.5100000000000003,,,20.0,0.004573,['Fail'],Fail,0.5100000000000003,-0.010000000000000342,1.0,2.0,0.5
237.0,9.0,wc_9,,0.0,,,,263.0,,,,Fail,,,,,
237.0,9.0,wc_9,wc_8,0.0,"[('wc_8', 0.3400000000000002), ('wc_15', 0.5100000000000003)]",0.6766000000000003,,,22.0,0.005967,['Fail'],Fail,0.3400000000000002,-0.09000000000000019,2.0,8.0,0.3
237.0,9.0,wc_9,,0.0,,,,162.0,,,,Fail,,,,,
237.0,9.0,wc_9,wc_14,0.0,"[('wc_14', 0.6800000000000005), ('wc_15', 0.5100000000000003), ('wc_8', 0.3400000000000002)]",0.8965120000000002,,,26.0,0.007479,['Fail'],Fail,0.6800000000000005,-0.25142857142857195,3.0,7.0,0.5
237.0,9.0,wc_9,,0.0,,,,202.0,,,,Fail,,,,,
237.0,9.0,wc_9,wc_1,1.0,"[('wc_1', 0.7400000000000005), ('wc_15', 0.5100000000000003), ('wc_8', 0.3400000000000002), ('wc_14', 0.6800000000000005)]",0.9730931200000001,,,29.0,0.040920000000000005,['Fail'],Fail,0.7400000000000005,0.009999999999999454,3.0,4.0,0.7
252.0,8.0,wc_8,,0.0,,,,182.0,,,,Pass,,,,,
252.0,8.0,wc_8,,0.0,,,72.0,,,,,Pass,,,,,
252.0,8.0,wc_8,,0.0,,,,0.0,,,,Pass,,,,,
252.0,8.0,wc_8,wc_8,0.0,"[('wc_8', 0.3400000000000002)]",0.3400000000000002,,,25.0,0.001975,['Pass'],Pass,0.3400000000000002,-0.006666666666666876,3.0,9.0,0.3
252.0,8.0,wc_8,,0.0,,,,301.0,,,,Pass,,,,,
252.0,8.0,wc_8,wc_4,0.0,"[('wc_4', 0.6100000000000004), ('wc_8', 0.3400000000000002)]",0.7426000000000004,,,39.0,0.003999,['Pass'],Pass,0.6100000000000004,-0.3877777777777782,2.0,9.0,0.7
252.0,8.0,wc_8,,0.0,,,,103.0,,,,Pass,,,,,
252.0,8.0,wc_8,wc_3,0.0,"[('wc_3', 0.10000000000000002), ('wc_8', 0.3400000000000002), ('wc_4', 0.6100000000000004)]",0.7683400000000002,,,22.0,0.0057410000000000004,['Pass'],Pass,0.10000000000000002,0.14999999999999997,1.0,4.0,0.1
252.0,8.0,wc_8,,0.0,,,,161.0,,,,Pass,,,,,
252.0,8.0,wc_8,wc_13,0.0,"[('wc_8', 0.3400000000000002), ('wc_4', 0.6100000000000004), ('wc_3', 0.10000000000000002)]",0.7683400000000004,,,37.0,0.008716999999999999,['Pass'],Pass,0.3400000000000002,-0.3400000000000002,0.0,1.0,0.1
252.0,8.0,wc_8,,0.0,,,,321.0,,,,Pass,,,,,
252.0,8.0,wc_8,wc_10,1.0,"[('wc_10', 0.8400000000000006), ('wc_8', 0.3400000000000002), ('wc_4', 0.6100000000000004), ('wc_3', 0.10000000000000002)]",0.9629344000000002,,,31.0,0.04221499999999999,['Pass'],Pass,0.8400000000000006,-0.5066666666666673,1.0,3.0,0.8
265.0,9.0,wc_9,,0.0,,,,103.0,,,,Fail,,,,,
265.0,9.0,wc_9,,0.0,,,64.0,,,,,Fail,,,,,
265.0,9.0,wc_9,,0.0,,,,0.0,,,,Fail,,,,,
265.0,9.0,wc_9,wc_9,0.0,"[('wc_9', 0.27000000000000013)]",0.27000000000000013,,,37.0,0.002245,['Pass'],Fail,0.27000000000000013,-0.27000000000000013,0.0,2.0,0.1
265.0,9.0,wc_9,,0.0,,,,182.0,,,,Fail,,,,,
265.0,9.0,wc_9,wc_16,0.0,"[('wc_16', 0.6800000000000005)]",0.6800000000000005,,,32.0,0.004822999999999999,['Fail'],Fail,0.6800000000000005,-0.6800000000000005,0.0,7.0,0.6
265.0,9.0,wc_9,,0.0,,,,402.0,,,,Fail,,,,,
265.0,9.0,wc_9,wc_4,0.0,"[('wc_4', 0.6100000000000004), ('wc_16', 0.6800000000000005)]",0.8752000000000003,,,23.0,0.006611,['Fail'],Fail,0.6100000000000004,-0.6100000000000004,0.0,0.0,0.7
265.0,9.0,wc_9,,0.0,,,,103.0,,,,Fail,,,,,
265.0,9.0,wc_9,wc_3,0.0,"[('wc_3', 0.11000000000000001), ('wc_16', 0.6800000000000005), ('wc_4', 0.6100000000000004)]",0.8889280000000003,,,27.0,0.012389,['Fail'],Fail,0.11000000000000001,0.29000000000000004,2.0,5.0,0.1
265.0,9.0,wc_9,,0.0,,,,0.0,,,,Fail,,,,,
265.0,9.0,wc_9,wc_5,1.0,"[('wc_5', 0.7700000000000006), ('wc_16', 0.6800000000000005), ('wc_4', 0.6100000000000004), ('wc_3', 0.11000000000000001)]",0.9744534400000001,,,28.0,0.045573,['Fail'],Fail,0.7700000000000006,-0.7700000000000006,0.0,0.0,0.8
275.0,9.0,wc_9,,0.0,,,,122.0,,,,Pass,,,,,
275.0,9.0,wc_9,,0.0,,,59.0,,,,,Pass,,,,,
275.0,9.0,wc_9,,0.0,,,,0.0,,,,Pass,,,,,
275.0,9.0,wc_9,wc_9,0.0,"[('wc_9', 0.2600000000000001)]",0.2600000000000001,,,31.0,0.002223,['Fail'],Pass,0.2600000000000001,-0.2600000000000001,0.0,3.0,0.1
275.0,9.0,wc_9,,0.0,,,,61.0,,,,Pass,,,,,
275.0,9.0,wc_9,wc_6,0.0,"[('wc_6', 0.3300000000000002)]",0.3300000000000002,,,33.0,0.004194,['Pass'],Pass,0.3300000000000002,-0.23909090909090927,0.0,0.0,0.2
275.0,9.0,wc_9,,0.0,,,,243.0,,,,Pass,,,,,
275.0,9.0,wc_9,wc_16,0.0,"[('wc_16', 0.6800000000000005), ('wc_6', 0.3300000000000002)]",0.7856000000000004,,,32.0,0.006888,['Pass'],Pass,0.6800000000000005,-0.5550000000000005,1.0,8.0,0.6
275.0,9.0,wc_9,,0.0,,,,382.0,,,,Pass,,,,,
275.0,9.0,wc_9,wc_3,0.0,"[('wc_3', 0.12000000000000001), ('wc_6', 0.3300000000000002), ('wc_16', 0.6800000000000005)]",0.8113280000000004,,,31.0,0.009075,['Pass'],Pass,0.12000000000000001,0.38,3.0,6.0,0.1
275.0,9.0,wc_9,,0.0,,,,101.0,,,,Pass,,,,,
275.0,9.0,wc_9,wc_2,0.0,"[('wc_6', 0.3300000000000002), ('wc_16', 0.6800000000000005), ('wc_3', 0.12000000000000001)]",0.8113280000000003,,,23.0,0.01061,['Pass'],Pass,0.2400000000000001,-0.1490909090909092,0.0,0.0,0.1
275.0,9.0,wc_9,,0.0,,,,223.0,,,,Pass,,,,,
275.0,9.0,wc_9,wc_15,1.0,"[('wc_15', 0.5200000000000004), ('wc_6', 0.3300000000000002), ('wc_16', 0.6800000000000005), ('wc_3', 0.12000000000000001)]",0.9094374400000003,,,25.0,0.053121999999999996,['Pass'],Pass,0.5200000000000004,-0.02000000000000035,3.0,6.0,0.5
290.0,7.0,wc_7,,0.0,,,,243.0,,,,Fail,,,,,
290.0,7.0,wc_7,,0.0,,,64.0,,,,,Fail,,,,,
290.0,7.0,wc_7,,0.0,,,,0.0,,,,Fail,,,,,
290.0,7.0,wc_7,wc_7,0.0,"[('wc_7', 0.8400000000000006)]",0.8400000000000006,,,30.0,0.002188,['Fail'],Fail,0.8400000000000006,-0.5733333333333339,0.0,0.0,0.9
290.0,7.0,wc_7,,0.0,,,,203.0,,,,Fail,,,,,
290.0,7.0,wc_7,wc_15,0.0,"[('wc_15', 0.5200000000000004), ('wc_7', 0.8400000000000006)]",0.9232000000000004,,,20.0,0.004061,['Fail'],Fail,0.5200000000000004,-0.02000000000000035,3.0,6.0,0.5
290.0,7.0,wc_7,,0.0,,,,402.0,,,,Fail,,,,,
290.0,7.0,wc_7,wc_11,1.0,"[('wc_11', 0.8700000000000007), ('wc_7', 0.8400000000000006), ('wc_15', 0.5200000000000004)]",0.9900160000000001,,,21.0,0.042859999999999995,['Fail'],Fail,0.8700000000000007,-0.8700000000000007,0.0,0.0,1.0
302.0,7.0,wc_7,,0.0,,,,41.0,,,,Fail,,,,,
302.0,7.0,wc_7,,0.0,,,58.0,,,,,Fail,,,,,
302.0,7.0,wc_7,,0.0,,,,0.0,,,,Fail,,,,,
302.0,7.0,wc_7,wc_7,0.0,"[('wc_7', 0.8500000000000006)]",0.8500000000000006,,,27.0,0.002128,['Pass'],Fail,0.8500000000000006,0.14999999999999936,1.0,1.0,0.9
302.0,7.0,wc_7,,0.0,,,,0.0,,,,Fail,,,,,
302.0,7.0,wc_7,wc_8,0.0,"[('wc_7', 0.8500000000000006)]",0.8500000000000006,,,37.0,0.004177,['Pass'],Fail,0.3500000000000002,-0.3500000000000002,0.0,3.0,0.3
302.0,7.0,wc_7,,0.0,,,,183.0,,,,Fail,,,,,
302.0,7.0,wc_7,wc_15,0.0,"[('wc_7', 0.8500000000000006)]",0.8500000000000006,,,38.0,0.006009,['Pass'],Fail,0.5300000000000004,0.04142857142857104,4.0,7.0,0.5
302.0,7.0,wc_7,,0.0,,,,283.0,,,,Fail,,,,,
302.0,7.0,wc_7,wc_1,1.0,"[('wc_1', 0.7400000000000005), ('wc_8', 0.3500000000000002), ('wc_15', 0.5300000000000004)]",0.9205700000000002,,,30.0,0.043191999999999994,['Fail'],Fail,0.7400000000000005,-0.2955555555555561,4.0,9.0,0.7
311.0,11.0,wc_11,,0.0,,,,243.0,,,,Pass,,,,,
311.0,11.0,wc_11,,0.0,,,56.0,,,,,Pass,,,,,
311.0,11.0,wc_11,,0.0,,,,0.0,,,,Pass,,,,,
311.0,11.0,wc_11,wc_11,0.0,"[('wc_11', 0.8700000000000007)]",0.8700000000000007,,,30.0,0.002025,['Pass'],Pass,0.8700000000000007,-0.8700000000000007,0.0,1.0,1.0
311.0,11.0,wc_11,,0.0,,,,83.0,,,,Pass,,,,,
311.0,11.0,wc_11,wc_9,0.0,"[('wc_11', 0.8700000000000007)]",0.8700000000000007,,,30.0,0.004582,['Pass'],Pass,0.2500000000000001,-0.2500000000000001,0.0,6.0,0.1
311.0,11.0,wc_11,,0.0,,,,362.0,,,,Pass,,,,,
311.0,11.0,wc_11,wc_3,0.0,"[('wc_3', 0.13), ('wc_11', 0.8700000000000007)]",0.8869000000000006,,,35.0,0.008548,['Pass'],Pass,0.13,0.3144444444444444,4.0,9.0,0.1
311.0,11.0,wc_11,,0.0,,,,81.0,,,,Pass,,,,,
311.0,11.0,wc_11,wc_1,1.0,"[('wc_1', 0.7400000000000005), ('wc_11', 0.8700000000000007), ('wc_3', 0.13)]",0.9705940000000002,,,30.0,0.04725000000000001,['Pass'],Pass,0.7400000000000005,-0.7400000000000005,0.0,0.0,0.7
333.0,10.0,wc_10,,0.0,,,,223.0,,,,Fail,,,,,
333.0,10.0,wc_10,,0.0,,,59.0,,,,,Fail,,,,,
333.0,10.0,wc_10,,0.0,,,,0.0,,,,Fail,,,,,
333.0,10.0,wc_10,wc_10,0.0,"[('wc_10', 0.8400000000000006)]",0.8400000000000006,,,25.0,0.003305,['Fail'],Fail,0.8400000000000006,-0.7150000000000006,1.0,8.0,0.8
333.0,10.0,wc_10,,0.0,,,,41.0,,,,Fail,,,,,
333.0,10.0,wc_10,wc_6,0.0,"[('wc_10', 0.8400000000000006)]",0.8400000000000006,,,32.0,0.004063000000000001,['Fail'],Fail,0.3400000000000002,-0.09000000000000019,1.0,4.0,0.2
333.0,10.0,wc_10,,0.0,,,,223.0,,,,Fail,,,,,
333.0,10.0,wc_10,wc_15,0.0,"[('wc_15', 0.5400000000000004), ('wc_10', 0.8400000000000006)]",0.9264000000000003,,,21.0,0.006561000000000001,['Fail'],Fail,0.5400000000000004,0.015555555555555212,5.0,9.0,0.5
333.0,10.0,wc_10,,0.0,,,,442.0,,,,Fail,,,,,
333.0,10.0,wc_10,wc_5,1.0,"[('wc_5', 0.7700000000000006), ('wc_10', 0.8400000000000006), ('wc_15', 0.5400000000000004)]",0.9830720000000002,,,29.0,0.057685999999999994,['Fail'],Fail,0.7700000000000006,-0.5700000000000005,1.0,5.0,0.8
348.0,10.0,wc_10,,0.0,,,,142.0,,,,Pass,,,,,
348.0,10.0,wc_10,,0.0,,,77.0,,,,,Pass,,,,,
348.0,10.0,wc_10,,0.0,,,,0.0,,,,Pass,,,,,
348.0,10.0,wc_10,wc_10,0.0,"[('wc_10', 0.8400000000000006)]",0.8400000000000006,,,39.0,0.002141,['Fail'],Pass,0.8400000000000006,-0.6177777777777784,2.0,9.0,0.8
348.0,10.0,wc_10,,0.0,,,,162.0,,,,Pass,,,,,
348.0,10.0,wc_10,wc_16,0.0,"[('wc_10', 0.8400000000000006)]",0.8400000000000006,,,28.0,0.0040680000000000004,['Fail'],Pass,0.6800000000000005,-0.5261538461538466,0.0,0.0,0.6
348.0,10.0,wc_10,,0.0,,,,0.0,,,,Pass,,,,,
348.0,10.0,wc_10,wc_17,0.0,"[('wc_17', 0.7300000000000005), ('wc_16', 0.6800000000000005)]",0.9136000000000003,,,36.0,0.007502,['Pass'],Pass,0.7300000000000005,-0.6300000000000006,0.0,0.0,0.6
348.0,10.0,wc_10,,0.0,,,,362.0,,,,Pass,,,,,
348.0,10.0,wc_10,wc_11,1.0,"[('wc_11', 0.8700000000000007), ('wc_16', 0.6800000000000005), ('wc_17', 0.7300000000000005)]",0.9887680000000001,,,25.0,0.040333,['Pass'],Pass,0.8700000000000007,-0.37000000000000066,2.0,4.0,1.0
381.0,7.0,wc_7,,0.0,,,,41.0,,,,Fail,,,,,
381.0,7.0,wc_7,,0.0,,,76.0,,,,,Fail,,,,,
381.0,7.0,wc_7,,0.0,,,,0.0,,,,Fail,,,,,
381.0,7.0,wc_7,wc_7,0.0,"[('wc_7', 0.8400000000000006)]",0.8400000000000006,,,20.0,0.002128,['Fail'],Fail,0.8400000000000006,-0.6400000000000006,1.0,5.0,0.9
381.0,7.0,wc_7,,0.0,,,,142.0,,,,Fail,,,,,
381.0,7.0,wc_7,wc_12,0.0,"[('wc_12', 0.9900000000000008), ('wc_7', 0.8400000000000006)]",0.9984000000000002,,,33.0,0.004273,['Fail'],Fail,0.9900000000000008,-0.9066666666666674,0.0,0.0,1.0
381.0,7.0,wc_7,,0.0,,,,341.0,,,,Fail,,,,,
381.0,7.0,wc_7,wc_10,1.0,"[('wc_10', 0.8300000000000006), ('wc_7', 0.8400000000000006), ('wc_12', 0.9900000000000008)]",0.9997280000000001,,,38.0,0.041847999999999996,['Fail'],Fail,0.8400000000000006,0.15999999999999936,1.0,1.0,0.8
424.0,7.0,wc_7,,0.0,,,,61.0,,,,Fail,,,,,
424.0,7.0,wc_7,,0.0,,,72.0,,,,,Fail,,,,,
424.0,7.0,wc_7,,0.0,,,,0.0,,,,Fail,,,,,
424.0,7.0,wc_7,wc_7,0.0,"[('wc_7', 0.8400000000000006)]",0.8400000000000006,,,23.0,0.002391,['Fail'],Fail,0.8400000000000006,-0.5066666666666673,2.0,6.0,0.9
424.0,7.0,wc_7,,0.0,,,,0.0,,,,Fail,,,,,
424.0,7.0,wc_7,wc_8,0.0,"[('wc_7', 0.8400000000000006)]",0.8400000000000006,,,24.0,0.00409,['Fail'],Fail,0.3500000000000002,-0.2250000000000002,1.0,8.0,0.3
424.0,7.0,wc_7,,0.0,,,,301.0,,,,Fail,,,,,
424.0,7.0,wc_7,wc_4,0.0,"[('wc_7', 0.8400000000000006)]",0.8400000000000006,,,24.0,0.006344000000000001,['Fail'],Fail,0.6200000000000004,-0.49500000000000044,1.0,8.0,0.7
424.0,7.0,wc_7,,0.0,,,,141.0,,,,Fail,,,,,
424.0,7.0,wc_7,wc_13,0.0,"[('wc_7', 0.8400000000000006)]",0.8400000000000006,,,23.0,0.008656,['Fail'],Fail,0.3300000000000002,-0.3300000000000002,0.0,0.0,0.1
424.0,7.0,wc_7,,0.0,,,,0.0,,,,Fail,,,,,
424.0,7.0,wc_7,wc_17,0.0,"[('wc_17', 0.7400000000000005), ('wc_7', 0.8400000000000006)]",0.9584000000000003,,,31.0,0.010087,['Fail'],Fail,0.7400000000000005,-0.24000000000000055,1.0,2.0,0.6
424.0,7.0,wc_7,,0.0,,,,402.0,,,,Fail,,,,,
424.0,7.0,wc_7,wc_5,1.0,"[('wc_5', 0.7700000000000006), ('wc_7', 0.8400000000000006), ('wc_17', 0.7400000000000005)]",0.9904320000000001,,,20.0,0.049983000000000014,['Fail'],Fail,0.7700000000000006,-0.5200000000000006,2.0,8.0,0.8
456.0,7.0,wc_7,,0.0,,,,81.0,,,,Pass,,,,,
456.0,7.0,wc_7,,0.0,,,54.0,,,,,Pass,,,,,
456.0,7.0,wc_7,,0.0,,,,0.0,,,,Pass,,,,,
456.0,7.0,wc_7,wc_7,0.0,"[('wc_7', 0.8400000000000006)]",0.8400000000000006,,,36.0,0.002441,['Pass'],Pass,0.8400000000000006,-0.4114285714285721,3.0,7.0,0.9
456.0,7.0,wc_7,,0.0,,,,0.0,,,,Pass,,,,,
456.0,7.0,wc_7,wc_9,0.0,"[('wc_9', 0.2400000000000001), ('wc_7', 0.8400000000000006)]",0.8784000000000005,,,24.0,0.004385,['Pass'],Pass,0.2400000000000001,-0.2400000000000001,0.0,0.0,0.1
456.0,7.0,wc_7,,0.0,,,,243.0,,,,Pass,,,,,
456.0,7.0,wc_7,wc_1,0.0,"[('wc_7', 0.8400000000000006), ('wc_9', 0.2400000000000001)]",0.8784000000000005,,,28.0,0.0060420000000000005,['Pass'],Pass,0.7400000000000005,-0.7400000000000005,0.0,4.0,0.7
456.0,7.0,wc_7,,0.0,,,,283.0,,,,Pass,,,,,
456.0,7.0,wc_7,wc_17,0.0,"[('wc_17', 0.7400000000000005), ('wc_1', 0.7400000000000005)]",0.9324000000000003,,,28.0,0.007933,['Fail'],Pass,0.7400000000000005,-0.07333333333333392,2.0,3.0,0.6
456.0,7.0,wc_7,,0.0,,,,342.0,,,,Pass,,,,,
456.0,7.0,wc_7,wc_10,1.0,"[('wc_10', 0.8400000000000006), ('wc_7', 0.8400000000000006), ('wc_9', 0.2400000000000001)]",0.9805440000000002,,,38.0,0.045647,['Pass'],Pass,0.8400000000000006,-0.173333333333334,2.0,3.0,0.8
473.0,12.0,wc_12,,0.0,,,,81.0,,,,Fail,,,,,
473.0,12.0,wc_12,,0.0,,,58.0,,,,,Fail,,,,,
473.0,12.0,wc_12,,0.0,,,,0.0,,,,Fail,,,,,
473.0,12.0,wc_12,wc_12,0.0,"[('wc_12', 0.9900000000000008)]",0.9900000000000008,,,36.0,0.002717,['Fail'],Fail,0.9900000000000008,-0.6566666666666674,1.0,3.0,1.0
473.0,12.0,wc_12,,0.0,,,,341.0,,,,Fail,,,,,
473.0,12.0,wc_12,wc_10,0.0,"[('wc_10', 0.8400000000000006), ('wc_12', 0.9900000000000008)]",0.9984000000000002,,,31.0,0.003994,['Fail'],Fail,0.8400000000000006,-0.173333333333334,2.0,3.0,0.8
473.0,12.0,wc_12,,0.0,,,,103.0,,,,Fail,,,,,
473.0,12.0,wc_12,wc_9,1.0,"[('wc_9', 0.2500000000000001), ('wc_12', 0.9900000000000008), ('wc_10', 0.8400000000000006)]",0.9988000000000001,,,33.0,0.038937000000000006,['Fail'],Fail,0.2600000000000001,0.7399999999999999,2.0,2.0,0.1
487.0,12.0,wc_12,,0.0,,,,101.0,,,,Pass,,,,,
487.0,12.0,wc_12,,0.0,,,77.0,,,,,Pass,,,,,
487.0,12.0,wc_12,,0.0,,,,0.0,,,,Pass,,,,,
487.0,12.0,wc_12,wc_12,0.0,"[('wc_12', 0.9900000000000008)]",0.9900000000000008,,,22.0,0.002159,['Pass'],Pass,0.9900000000000008,-0.49000000000000077,2.0,4.0,1.0
487.0,12.0,wc_12,,0.0,,,,321.0,,,,Pass,,,,,
487.0,12.0,wc_12,wc_9,0.0,"[('wc_12', 0.9900000000000008)]",0.9900000000000008,,,27.0,0.004352,['Pass'],Pass,0.2600000000000001,0.7399999999999999,2.0,2.0,0.1
487.0,12.0,wc_12,,0.0,,,,182.0,,,,Pass,,,,,
487.0,12.0,wc_12,wc_16,0.0,"[('wc_16', 0.6900000000000005), ('wc_12', 0.9900000000000008)]",0.9969000000000002,,,37.0,0.0064,['Pass'],Pass,0.6900000000000005,-0.4900000000000005,1.0,5.0,0.6
487.0,12.0,wc_12,,0.0,,,,263.0,,,,Pass,,,,,
487.0,12.0,wc_12,wc_1,1.0,"[('wc_1', 0.7300000000000005), ('wc_12', 0.9900000000000008), ('wc_16', 0.6900000000000005)]",0.999163,,,26.0,0.039999,['Pass'],Pass,0.7300000000000005,-0.5871428571428576,1.0,7.0,0.7
506.0,13.0,wc_13,,0.0,,,,202.0,,,,Fail,,,,,
506.0,13.0,wc_13,,0.0,,,53.0,,,,,Fail,,,,,
506.0,13.0,wc_13,,0.0,,,,0.0,,,,Fail,,,,,
506.0,13.0,wc_13,wc_13,0.0,"[('wc_13', 0.3200000000000002)]",0.3200000000000002,,,35.0,0.002121,['Fail'],Fail,0.3200000000000002,-0.3200000000000002,0.0,4.0,0.1
506.0,13.0,wc_13,,0.0,,,,321.0,,,,Fail,,,,,
506.0,13.0,wc_13,wc_10,0.0,"[('wc_10', 0.8400000000000006), ('wc_13', 0.3200000000000002)]",0.8912000000000004,,,28.0,0.004155,['Fail'],Fail,0.8400000000000006,-0.24000000000000066,3.0,5.0,0.8
506.0,13.0,wc_13,,0.0,,,,342.0,,,,Fail,,,,,
506.0,13.0,wc_13,wc_3,0.0,"[('wc_13', 0.3200000000000002), ('wc_10', 0.8400000000000006)]",0.8912000000000004,,,29.0,0.005845,['Fail'],Fail,0.14,-0.14,0.0,7.0,0.1
506.0,13.0,wc_13,,0.0,,,,202.0,,,,Fail,,,,,
506.0,13.0,wc_13,wc_11,1.0,"[('wc_11', 0.8700000000000007), ('wc_13', 0.3200000000000002), ('wc_10', 0.8400000000000006)]",0.9858560000000002,,,36.0,0.044224999999999993,['Fail'],Fail,0.8700000000000007,-0.8700000000000007,0.0,0.0,1.0
528.0,13.0,wc_13,,0.0,,,,81.0,,,,Fail,,,,,
528.0,13.0,wc_13,,0.0,,,61.0,,,,,Fail,,,,,
528.0,13.0,wc_13,,0.0,,,,0.0,,,,Fail,,,,,
528.0,13.0,wc_13,wc_13,0.0,"[('wc_13', 0.3200000000000002)]",0.3200000000000002,,,26.0,0.002391,['Pass'],Fail,0.3200000000000002,-0.12000000000000016,1.0,5.0,0.1
528.0,13.0,wc_13,,0.0,,,,162.0,,,,Fail,,,,,
528.0,13.0,wc_13,wc_6,0.0,"[('wc_6', 0.3300000000000002), ('wc_13', 0.3200000000000002)]",0.5444000000000002,,,30.0,0.004528000000000001,['Pass'],Fail,0.3300000000000002,-0.24666666666666687,0.0,0.0,0.2
528.0,13.0,wc_13,,0.0,,,,202.0,,,,Fail,,,,,
528.0,13.0,wc_13,wc_1,0.0,"[('wc_1', 0.7300000000000005), ('wc_13', 0.3200000000000002), ('wc_6', 0.3300000000000002)]",0.8769880000000003,,,38.0,0.005777,['Pass'],Fail,0.7300000000000005,-0.6050000000000005,1.0,8.0,0.7
528.0,13.0,wc_13,,0.0,,,,223.0,,,,Fail,,,,,
528.0,13.0,wc_13,wc_10,0.0,"[('wc_13', 0.3200000000000002), ('wc_6', 0.3300000000000002), ('wc_1', 0.7300000000000005)]",0.8769880000000003,,,40.0,0.00753,['Pass'],Fail,0.8400000000000006,-0.173333333333334,4.0,6.0,0.8
528.0,13.0,wc_13,,0.0,,,,382.0,,,,Fail,,,,,
528.0,13.0,wc_13,wc_5,0.0,"[('wc_5', 0.7700000000000006), ('wc_10', 0.8400000000000006)]",0.9632000000000003,,,25.0,0.012669000000000001,['Fail'],Fail,0.7700000000000006,-0.6033333333333339,0.0,0.0,0.8
528.0,13.0,wc_13,,0.0,,,,103.0,,,,Fail,,,,,
528.0,13.0,wc_13,wc_4,1.0,"[('wc_4', 0.6100000000000004), ('wc_10', 0.8400000000000006), ('wc_5', 0.7700000000000006)]",0.9856480000000001,,,22.0,0.048679,['Fail'],Fail,0.6100000000000004,-0.6100000000000004,0.0,0.0,0.7
534.0,13.0,wc_13,,0.0,,,,141.0,,,,Fail,,,,,
534.0,13.0,wc_13,,0.0,,,55.0,,,,,Fail,,,,,
534.0,13.0,wc_13,,0.0,,,,0.0,,,,Fail,,,,,
534.0,13.0,wc_13,wc_13,0.0,"[('wc_13', 0.31000000000000016)]",0.31000000000000016,,,30.0,0.002461,['Fail'],Fail,0.31000000000000016,-0.1433333333333335,1.0,6.0,0.1
534.0,13.0,wc_13,,0.0,,,,242.0,,,,Fail,,,,,
534.0,13.0,wc_13,wc_2,0.0,"[('wc_2', 0.2300000000000001), ('wc_13', 0.31000000000000016)]",0.4687000000000002,,,40.0,0.00484,['Fail'],Fail,0.2300000000000001,-0.2300000000000001,0.0,0.0,0.1
534.0,13.0,wc_13,,0.0,,,,0.0,,,,Fail,,,,,
534.0,13.0,wc_13,wc_5,0.0,"[('wc_5', 0.7800000000000006), ('wc_13', 0.31000000000000016), ('wc_2', 0.2300000000000001)]",0.8831140000000004,,,22.0,0.006332000000000001,['Fail'],Fail,0.7800000000000006,0.21999999999999942,1.0,1.0,0.8
534.0,13.0,wc_13,,0.0,,,,162.0,,,,Fail,,,,,
534.0,13.0,wc_13,wc_15,1.0,"[('wc_15', 0.5500000000000004), ('wc_13', 0.31000000000000016), ('wc_2', 0.2300000000000001), ('wc_5', 0.7800000000000006)]",0.9474013000000002,,,21.0,0.051326000000000004,['Fail'],Fail,0.5500000000000004,-0.4388888888888893,1.0,9.0,0.5
542.0,13.0,wc_13,,0.0,,,,81.0,,,,Pass,,,,,
542.0,13.0,wc_13,,0.0,,,56.0,,,,,Pass,,,,,
542.0,13.0,wc_13,,0.0,,,,0.0,,,,Pass,,,,,
542.0,13.0,wc_13,wc_13,0.0,"[('wc_13', 0.31000000000000016)]",0.31000000000000016,,,36.0,0.002224,['Pass'],Pass,0.31000000000000016,-0.024285714285714466,2.0,7.0,0.1
542.0,13.0,wc_13,,0.0,,,,182.0,,,,Pass,,,,,
542.0,13.0,wc_13,wc_7,0.0,"[('wc_7', 0.8400000000000006), ('wc_13', 0.31000000000000016)]",0.8896000000000005,,,30.0,0.004607,['Pass'],Pass,0.8400000000000006,-0.5323076923076929,0.0,0.0,0.9
542.0,13.0,wc_13,,0.0,,,,202.0,,,,Pass,,,,,
542.0,13.0,wc_13,wc_2,1.0,"[('wc_2', 0.2400000000000001), ('wc_13', 0.31000000000000016), ('wc_7', 0.8400000000000006)]",0.9160960000000004,,,20.0,0.041762999999999995,['Pass'],Pass,0.2500000000000001,0.7499999999999999,2.0,2.0,0.1
549.0,14.0,wc_14,,0.0,,,,202.0,,,,Pass,,,,,
549.0,14.0,wc_14,,0.0,,,78.0,,,,,Pass,,,,,
549.0,14.0,wc_14,,0.0,,,,0.0,,,,Pass,,,,,
549.0,14.0,wc_14,wc_14,0.0,"[('wc_14', 0.6800000000000005)]",0.6800000000000005,,,22.0,0.00203,['Pass'],Pass,0.6800000000000005,-0.5200000000000005,0.0,0.0,0.5
549.0,14.0,wc_14,,0.0,,,,0.0,,,,Pass,,,,,
549.0,14.0,wc_14,wc_16,0.0,"[('wc_16', 0.6900000000000005), ('wc_14', 0.6800000000000005)]",0.9008000000000003,,,30.0,0.004074,['Pass'],Pass,0.6900000000000005,-0.4900000000000005,0.0,0.0,0.6
549.0,14.0,wc_14,,0.0,,,,103.0,,,,Pass,,,,,
549.0,14.0,wc_14,wc_15,1.0,"[('wc_15', 0.5500000000000004), ('wc_14', 0.6800000000000005), ('wc_16', 0.6900000000000005)]",0.9553600000000002,,,38.0,0.04119999999999999,['Pass'],Pass,0.5500000000000004,-0.5500000000000004,0.0,0.0,0.5
557.0,15.0,wc_15,,0.0,,,,0.0,,,,Pass,,,,,
557.0,15.0,wc_15,,0.0,,,56.0,,,,,Pass,,,,,
557.0,15.0,wc_15,,0.0,,,,0.0,,,,Pass,,,,,
557.0,15.0,wc_15,wc_15,0.0,"[('wc_15', 0.5500000000000004)]",0.5500000000000004,,,32.0,0.002284,['Pass'],Pass,0.5500000000000004,-0.5500000000000004,0.0,0.0,0.5
557.0,15.0,wc_15,,0.0,,,,0.0,,,,Pass,,,,,
557.0,15.0,wc_15,wc_16,0.0,"[('wc_16', 0.7000000000000005), ('wc_15', 0.5500000000000004)]",0.8650000000000003,,,35.0,0.003962,['Pass'],Pass,0.7000000000000005,0.2999999999999995,1.0,1.0,0.6
557.0,15.0,wc_15,,0.0,,,,382.0,,,,Pass,,,,,
557.0,15.0,wc_15,wc_3,0.0,"[('wc_15', 0.5500000000000004), ('wc_16', 0.7000000000000005)]",0.8650000000000003,,,28.0,0.005937,['Pass'],Pass,0.13,-0.13,0.0,0.0,0.1
557.0,15.0,wc_15,,0.0,,,,121.0,,,,Pass,,,,,
557.0,15.0,wc_15,wc_7,1.0,"[('wc_7', 0.8500000000000006), ('wc_15', 0.5500000000000004), ('wc_16', 0.7000000000000005)]",0.9797500000000001,,,33.0,0.047859000000000006,['Pass'],Pass,0.8500000000000006,-0.18333333333333401,2.0,3.0,0.9
565.0,16.0,wc_16,,0.0,,,,223.0,,,,Pass,,,,,
565.0,16.0,wc_16,,0.0,,,71.0,,,,,Pass,,,,,
565.0,16.0,wc_16,,0.0,,,,0.0,,,,Pass,,,,,
565.0,16.0,wc_16,wc_16,0.0,"[('wc_16', 0.7100000000000005)]",0.7100000000000005,,,32.0,0.002314,['Pass'],Pass,0.7100000000000005,0.2899999999999995,2.0,2.0,0.6
565.0,16.0,wc_16,,0.0,,,,203.0,,,,Pass,,,,,
565.0,16.0,wc_16,wc_6,0.0,"[('wc_16', 0.7100000000000005)]",0.7100000000000005,,,35.0,0.004179,['Pass'],Pass,0.3200000000000002,-0.3200000000000002,0.0,5.0,0.2
565.0,16.0,wc_16,,0.0,,,,341.0,,,,Pass,,,,,
565.0,16.0,wc_16,wc_4,0.0,"[('wc_4', 0.6100000000000004), ('wc_16', 0.7100000000000005)]",0.8869000000000004,,,39.0,0.006163,['Pass'],Pass,0.6100000000000004,-0.6100000000000004,0.0,4.0,0.7
565.0,16.0,wc_16,,0.0,,,,182.0,,,,Pass,,,,,
565.0,16.0,wc_16,wc_11,1.0,"[('wc_11', 0.8700000000000007), ('wc_16', 0.7100000000000005), ('wc_4', 0.6100000000000004)]",0.9852970000000001,,,26.0,0.046285999999999994,['Pass'],Pass,0.8700000000000007,-0.703333333333334,1.0,6.0,1.0
572.0,17.0,wc_17,,0.0,,,,162.0,,,,Fail,,,,,
572.0,17.0,wc_17,,0.0,,,65.0,,,,,Fail,,,,,
572.0,17.0,wc_17,,0.0,,,,0.0,,,,Fail,,,,,
572.0,17.0,wc_17,wc_17,0.0,"[('wc_17', 0.7300000000000005)]",0.7300000000000005,,,29.0,0.002252,['Fail'],Fail,0.7300000000000005,-0.5761538461538467,0.0,0.0,0.6
572.0,17.0,wc_17,,0.0,,,,362.0,,,,Fail,,,,,
572.0,17.0,wc_17,wc_11,0.0,"[('wc_11', 0.8700000000000007)]",0.8700000000000007,,,29.0,0.003961,['Pass'],Fail,0.8700000000000007,-0.703333333333334,1.0,6.0,1.0
572.0,17.0,wc_17,,0.0,,,,203.0,,,,Fail,,,,,
572.0,17.0,wc_17,wc_1,0.0,"[('wc_1', 0.7200000000000005), ('wc_17', 0.7300000000000005)]",0.9244000000000003,,,36.0,0.006033,['Fail'],Fail,0.7200000000000005,-0.6485714285714291,0.0,0.0,0.7
572.0,17.0,wc_17,,0.0,,,,0.0,,,,Fail,,,,,
572.0,17.0,wc_17,wc_3,1.0,"[('wc_3', 0.12000000000000001), ('wc_17', 0.7300000000000005), ('wc_1', 0.7200000000000005)]",0.9334720000000003,,,29.0,0.04435599999999999,['Fail'],Fail,0.13,0.2033333333333333,1.0,3.0,0.1
584.0,17.0,wc_17,,0.0,,,,242.0,,,,Pass,,,,,
584.0,17.0,wc_17,,0.0,,,70.0,,,,,Pass,,,,,
584.0,17.0,wc_17,,0.0,,,,0.0,,,,Pass,,,,,
584.0,17.0,wc_17,wc_17,0.0,"[('wc_17', 0.7400000000000005)]",0.7400000000000005,,,30.0,0.002214,['Pass'],Pass,0.7400000000000005,0.25999999999999945,1.0,1.0,0.6
584.0,17.0,wc_17,,0.0,,,,41.0,,,,Pass,,,,,
584.0,17.0,wc_17,wc_13,0.0,"[('wc_13', 0.3200000000000002), ('wc_17', 0.7400000000000005)]",0.8232000000000004,,,26.0,0.004047,['Pass'],Pass,0.3200000000000002,-0.07000000000000017,0.0,0.0,0.1
584.0,17.0,wc_17,,0.0,,,,102.0,,,,Pass,,,,,
584.0,17.0,wc_17,wc_12,1.0,"[('wc_12', 0.9900000000000008), ('wc_17', 0.7400000000000005), ('wc_13', 0.3200000000000002)]",0.9982320000000001,,,25.0,0.047597,['Pass'],Pass,0.9900000000000008,-0.9900000000000008,0.0,0.0,1.0
