mpecck/BCQC/bcqc_with_qdt/results/raw/input_18/independent_qc/training/20_workpiece/20200429_095234/wp_20_qc_majority_0.9.csv
production_index,step_idx,production_workcell,qc,consent,winner_qc_list,score,production_time,transport_time,inspection_time,network_time,qc_results,actual_quality,qc_score,score_error,in_winner_counter,in_qc_counter,qc_capability
72.0,1.0,wc_1,,0.0,,,51.0,,,,,Fail,,,,,
72.0,1.0,wc_1,,0.0,,,,0.0,,,,Fail,,,,,
72.0,1.0,wc_1,wc_1,0.0,"[('wc_1', 0.7300000000000005)]",0.7300000000000005,,,24.0,0.002161,['Pass'],Fail,0.7300000000000005,-0.23000000000000054,1.0,2.0,0.7
72.0,1.0,wc_1,,0.0,,,,222.0,,,,Fail,,,,,
72.0,1.0,wc_1,wc_14,0.0,"[('wc_14', 0.6900000000000005), ('wc_1', 0.7300000000000005)]",0.9163000000000003,,,21.0,0.004919,['Pass'],Fail,0.6900000000000005,-0.4900000000000005,1.0,5.0,0.5
72.0,1.0,wc_1,,0.0,,,,182.0,,,,Fail,,,,,
72.0,1.0,wc_1,wc_8,0.0,"[('wc_1', 0.7300000000000005), ('wc_14', 0.6900000000000005)]",0.9163000000000003,,,24.0,0.006919,['Pass'],Fail,0.3400000000000002,-0.2923809523809526,0.0,0.0,0.3
72.0,1.0,wc_1,,0.0,,,,122.0,,,,Fail,,,,,
72.0,1.0,wc_1,wc_12,0.0,"[('wc_12', 0.9900000000000008), ('wc_8', 0.3400000000000002)]",0.9934000000000005,,,25.0,0.007666000000000001,['Fail'],Fail,0.9900000000000008,-0.9900000000000008,0.0,0.0,1.0
72.0,1.0,wc_1,,0.0,,,,182.0,,,,Fail,,,,,
72.0,1.0,wc_1,wc_6,0.0,"[('wc_8', 0.3400000000000002), ('wc_12', 0.9900000000000008)]",0.9934000000000005,,,39.0,0.01348,['Fail'],Fail,0.31000000000000016,-0.31000000000000016,0.0,8.0,0.2
72.0,1.0,wc_1,,0.0,,,,222.0,,,,Fail,,,,,
72.0,1.0,wc_1,wc_2,0.0,"[('wc_8', 0.3400000000000002), ('wc_12', 0.9900000000000008)]",0.9934000000000005,,,38.0,0.010918,['Fail'],Fail,0.2500000000000001,0.03571428571428559,2.0,7.0,0.1
72.0,1.0,wc_1,,0.0,,,,0.0,,,,Fail,,,,,
72.0,1.0,wc_1,wc_3,0.0,"[('wc_8', 0.3400000000000002), ('wc_12', 0.9900000000000008)]",0.9934000000000005,,,36.0,0.015191,['Fail'],Fail,0.13,0.12,1.0,4.0,0.1
72.0,1.0,wc_1,,0.0,,,,162.0,,,,Fail,,,,,
72.0,1.0,wc_1,wc_9,0.0,"[('wc_8', 0.3400000000000002), ('wc_12', 0.9900000000000008)]",0.9934000000000005,,,23.0,0.016189000000000002,['Fail'],Fail,0.2600000000000001,-0.09333333333333346,0.0,0.0,0.1
72.0,1.0,wc_1,,0.0,,,,121.0,,,,Fail,,,,,
72.0,1.0,wc_1,wc_13,0.0,"[('wc_8', 0.3400000000000002), ('wc_12', 0.9900000000000008)]",0.9934000000000005,,,36.0,0.01731,['Fail'],Fail,0.3300000000000002,0.6699999999999998,1.0,1.0,0.1
72.0,1.0,wc_1,,0.0,,,,321.0,,,,Fail,,,,,
72.0,1.0,wc_1,wc_10,1.0,"[('wc_10', 0.8400000000000006), ('wc_8', 0.3400000000000002), ('wc_12', 0.9900000000000008)]",0.998944,,,21.0,0.062558,['Fail'],Fail,0.8400000000000006,-0.8400000000000006,0.0,0.0,0.8
153.0,1.0,wc_1,,0.0,,,,223.0,,,,Fail,,,,,
153.0,1.0,wc_1,,0.0,,,70.0,,,,,Fail,,,,,
153.0,1.0,wc_1,,0.0,,,,0.0,,,,Fail,,,,,
153.0,1.0,wc_1,wc_1,0.0,"[('wc_1', 0.7200000000000005)]",0.7200000000000005,,,22.0,0.002081,['Fail'],Fail,0.7200000000000005,-0.3866666666666672,1.0,3.0,0.7
153.0,1.0,wc_1,,0.0,,,,182.0,,,,Fail,,,,,
153.0,1.0,wc_1,wc_8,0.0,"[('wc_8', 0.3500000000000002), ('wc_1', 0.7200000000000005)]",0.8180000000000004,,,27.0,0.004628,['Fail'],Fail,0.3500000000000002,0.6499999999999998,1.0,1.0,0.3
153.0,1.0,wc_1,,0.0,,,,142.0,,,,Fail,,,,,
153.0,1.0,wc_1,wc_13,0.0,"[('wc_1', 0.7200000000000005), ('wc_8', 0.3500000000000002)]",0.8180000000000004,,,21.0,0.008257,['Fail'],Fail,0.3300000000000002,0.16999999999999982,1.0,2.0,0.1
153.0,1.0,wc_1,,0.0,,,,0.0,,,,Fail,,,,,
153.0,1.0,wc_1,wc_14,1.0,"[('wc_14', 0.6800000000000005), ('wc_1', 0.7200000000000005), ('wc_8', 0.3500000000000002)]",0.9417600000000003,,,40.0,0.039321,['Fail'],Fail,0.6800000000000005,-0.3942857142857148,2.0,7.0,0.5
181.0,1.0,wc_1,,0.0,,,,202.0,,,,Pass,,,,,
181.0,1.0,wc_1,,0.0,,,58.0,,,,,Pass,,,,,
181.0,1.0,wc_1,,0.0,,,,0.0,,,,Pass,,,,,
181.0,1.0,wc_1,wc_1,0.0,"[('wc_1', 0.7200000000000005)]",0.7200000000000005,,,37.0,0.002228,['Pass'],Pass,0.7200000000000005,-0.22000000000000053,2.0,4.0,0.7
181.0,1.0,wc_1,,0.0,,,,0.0,,,,Pass,,,,,
181.0,1.0,wc_1,wc_3,0.0,"[('wc_3', 0.13), ('wc_1', 0.7200000000000005)]",0.7564000000000004,,,20.0,0.0046040000000000005,['Pass'],Pass,0.13,0.03666666666666665,1.0,6.0,0.1
181.0,1.0,wc_1,,0.0,,,,181.0,,,,Pass,,,,,
181.0,1.0,wc_1,wc_14,0.0,"[('wc_1', 0.7200000000000005), ('wc_3', 0.13)]",0.7564000000000004,,,21.0,0.013885999999999999,['Pass'],Pass,0.6800000000000005,-0.3942857142857148,2.0,7.0,0.5
181.0,1.0,wc_1,,0.0,,,,0.0,,,,Pass,,,,,
181.0,1.0,wc_1,wc_17,1.0,"[('wc_17', 0.7500000000000006), ('wc_1', 0.7200000000000005), ('wc_3', 0.13)]",0.9391000000000003,,,40.0,0.047562999999999994,['Pass'],Pass,0.7500000000000006,-0.15000000000000058,3.0,5.0,0.6
204.0,3.0,wc_3,,0.0,,,,362.0,,,,Pass,,,,,
204.0,3.0,wc_3,,0.0,,,50.0,,,,,Pass,,,,,
204.0,3.0,wc_3,,0.0,,,,0.0,,,,Pass,,,,,
204.0,3.0,wc_3,wc_3,0.0,"[('wc_3', 0.14)]",0.14,,,24.0,0.001991,['Pass'],Pass,0.14,0.14571428571428569,2.0,7.0,0.1
204.0,3.0,wc_3,,0.0,,,,81.0,,,,Pass,,,,,
204.0,3.0,wc_3,wc_1,0.0,"[('wc_1', 0.7200000000000005), ('wc_3', 0.14)]",0.7592000000000004,,,24.0,0.005056,['Pass'],Pass,0.7200000000000005,-0.12000000000000055,3.0,5.0,0.7
204.0,3.0,wc_3,,0.0,,,,142.0,,,,Pass,,,,,
204.0,3.0,wc_3,wc_6,0.0,"[('wc_6', 0.30000000000000016), ('wc_3', 0.14), ('wc_1', 0.7200000000000005)]",0.8314400000000004,,,33.0,0.00584,['Pass'],Pass,0.30000000000000016,-0.30000000000000016,0.0,0.0,0.2
204.0,3.0,wc_3,,0.0,,,,182.0,,,,Pass,,,,,
204.0,3.0,wc_3,wc_13,0.0,"[('wc_13', 0.3300000000000002), ('wc_3', 0.14), ('wc_1', 0.7200000000000005), ('wc_6', 0.30000000000000016)]",0.8870648000000003,,,35.0,0.009687000000000001,['Pass'],Pass,0.3300000000000002,-0.08000000000000018,1.0,4.0,0.1
204.0,3.0,wc_3,,0.0,,,,0.0,,,,Pass,,,,,
204.0,3.0,wc_3,wc_14,1.0,"[('wc_14', 0.6700000000000005), ('wc_3', 0.14), ('wc_1', 0.7200000000000005), ('wc_6', 0.30000000000000016), ('wc_13', 0.3300000000000002)]",0.9627313840000001,,,25.0,0.045348999999999993,['Pass'],Pass,0.6700000000000005,-0.33666666666666717,3.0,9.0,0.5
246.0,2.0,wc_2,,0.0,,,,222.0,,,,Fail,,,,,
246.0,2.0,wc_2,,0.0,,,66.0,,,,,Fail,,,,,
246.0,2.0,wc_2,,0.0,,,,0.0,,,,Fail,,,,,
246.0,2.0,wc_2,wc_2,0.0,"[('wc_2', 0.2500000000000001)]",0.2500000000000001,,,27.0,0.002059,['Fail'],Fail,0.2500000000000001,-0.06818181818181829,0.0,0.0,0.1
246.0,2.0,wc_2,,0.0,,,,142.0,,,,Fail,,,,,
246.0,2.0,wc_2,wc_7,0.0,"[('wc_7', 0.8500000000000006), ('wc_2', 0.2500000000000001)]",0.8875000000000005,,,23.0,0.00442,['Fail'],Fail,0.8500000000000006,-0.6500000000000006,0.0,0.0,0.9
246.0,2.0,wc_2,,0.0,,,,0.0,,,,Fail,,,,,
246.0,2.0,wc_2,wc_10,1.0,"[('wc_10', 0.8400000000000006), ('wc_2', 0.2500000000000001), ('wc_7', 0.8500000000000006)]",0.9820000000000002,,,32.0,0.038529999999999995,['Fail'],Fail,0.8400000000000006,-0.5900000000000006,1.0,4.0,0.8
271.0,4.0,wc_4,,0.0,,,,362.0,,,,Fail,,,,,
271.0,4.0,wc_4,,0.0,,,67.0,,,,,Fail,,,,,
271.0,4.0,wc_4,,0.0,,,,0.0,,,,Fail,,,,,
271.0,4.0,wc_4,wc_4,0.0,"[('wc_4', 0.6100000000000004)]",0.6100000000000004,,,27.0,0.002967,['Fail'],Fail,0.6100000000000004,-0.5266666666666671,0.0,0.0,0.7
271.0,4.0,wc_4,,0.0,,,,81.0,,,,Fail,,,,,
271.0,4.0,wc_4,wc_6,0.0,"[('wc_4', 0.6100000000000004)]",0.6100000000000004,,,35.0,0.004534,['Fail'],Fail,0.31000000000000016,0.18999999999999984,1.0,2.0,0.2
271.0,4.0,wc_4,,0.0,,,,222.0,,,,Fail,,,,,
271.0,4.0,wc_4,wc_2,0.0,"[('wc_4', 0.6100000000000004)]",0.6100000000000004,,,21.0,0.005704,['Fail'],Fail,0.2600000000000001,0.7399999999999999,1.0,1.0,0.1
271.0,4.0,wc_4,,0.0,,,,142.0,,,,Fail,,,,,
271.0,4.0,wc_4,wc_7,0.0,"[('wc_7', 0.8600000000000007), ('wc_4', 0.6100000000000004)]",0.9454000000000004,,,20.0,0.008345,['Fail'],Fail,0.8600000000000007,0.13999999999999935,1.0,1.0,0.9
271.0,4.0,wc_4,,0.0,,,,341.0,,,,Fail,,,,,
271.0,4.0,wc_4,wc_5,1.0,"[('wc_5', 0.7900000000000006), ('wc_4', 0.6100000000000004), ('wc_7', 0.8600000000000007)]",0.9885340000000001,,,40.0,0.039983000000000005,['Fail'],Fail,0.7900000000000006,-0.7900000000000006,0.0,0.0,0.8
289.0,4.0,wc_4,,0.0,,,,103.0,,,,Pass,,,,,
289.0,4.0,wc_4,,0.0,,,60.0,,,,,Pass,,,,,
289.0,4.0,wc_4,,0.0,,,,0.0,,,,Pass,,,,,
289.0,4.0,wc_4,wc_4,0.0,"[('wc_4', 0.6200000000000004)]",0.6200000000000004,,,37.0,0.003207,['Pass'],Pass,0.6200000000000004,0.37999999999999956,1.0,1.0,0.7
289.0,4.0,wc_4,,0.0,,,,61.0,,,,Pass,,,,,
289.0,4.0,wc_4,wc_1,0.0,"[('wc_1', 0.7200000000000005), ('wc_4', 0.6200000000000004)]",0.8936000000000003,,,32.0,0.004626,['Pass'],Pass,0.7200000000000005,-0.22000000000000053,4.0,8.0,0.7
289.0,4.0,wc_4,,0.0,,,,223.0,,,,Pass,,,,,
289.0,4.0,wc_4,wc_10,1.0,"[('wc_10', 0.8400000000000006), ('wc_4', 0.6200000000000004), ('wc_1', 0.7200000000000005)]",0.9829760000000001,,,20.0,0.036378,['Pass'],Pass,0.8400000000000006,-0.5066666666666673,2.0,6.0,0.8
312.0,2.0,wc_2,,0.0,,,,243.0,,,,Fail,,,,,
312.0,2.0,wc_2,,0.0,,,55.0,,,,,Fail,,,,,
312.0,2.0,wc_2,,0.0,,,,0.0,,,,Fail,,,,,
312.0,2.0,wc_2,wc_2,0.0,"[('wc_2', 0.2600000000000001)]",0.2600000000000001,,,38.0,0.002129,['Pass'],Fail,0.2600000000000001,0.0733333333333332,1.0,3.0,0.1
312.0,2.0,wc_2,,0.0,,,,142.0,,,,Fail,,,,,
312.0,2.0,wc_2,wc_7,0.0,"[('wc_7', 0.8700000000000007)]",0.8700000000000007,,,22.0,0.004632000000000001,['Fail'],Fail,0.8700000000000007,-0.20333333333333403,2.0,3.0,0.9
312.0,2.0,wc_2,,0.0,,,,162.0,,,,Fail,,,,,
312.0,2.0,wc_2,wc_13,0.0,"[('wc_7', 0.8700000000000007)]",0.8700000000000007,,,27.0,0.010109,['Fail'],Fail,0.3400000000000002,-0.09000000000000019,2.0,8.0,0.1
312.0,2.0,wc_2,,0.0,,,,0.0,,,,Fail,,,,,
312.0,2.0,wc_2,wc_15,0.0,"[('wc_15', 0.5600000000000004), ('wc_7', 0.8700000000000007)]",0.9428000000000003,,,35.0,0.007267,['Fail'],Fail,0.5600000000000004,-0.46909090909090945,0.0,0.0,0.5
312.0,2.0,wc_2,,0.0,,,,382.0,,,,Fail,,,,,
312.0,2.0,wc_2,wc_10,1.0,"[('wc_10', 0.8400000000000006), ('wc_7', 0.8700000000000007), ('wc_15', 0.5600000000000004)]",0.9908480000000001,,,23.0,0.045722000000000006,['Fail'],Fail,0.8400000000000006,-0.4114285714285721,3.0,7.0,0.8
338.0,2.0,wc_2,,0.0,,,,243.0,,,,Fail,,,,,
338.0,2.0,wc_2,,0.0,,,77.0,,,,,Fail,,,,,
338.0,2.0,wc_2,,0.0,,,,0.0,,,,Fail,,,,,
338.0,2.0,wc_2,wc_2,0.0,"[('wc_2', 0.2500000000000001)]",0.2500000000000001,,,23.0,0.002035,['Pass'],Fail,0.2500000000000001,-1.1102230246251565e-16,1.0,4.0,0.1
338.0,2.0,wc_2,,0.0,,,,162.0,,,,Fail,,,,,
338.0,2.0,wc_2,wc_8,0.0,"[('wc_8', 0.3600000000000002)]",0.3600000000000002,,,33.0,0.004169,['Fail'],Fail,0.3600000000000002,-0.11000000000000021,2.0,8.0,0.3
338.0,2.0,wc_2,,0.0,,,,0.0,,,,Fail,,,,,
338.0,2.0,wc_2,wc_11,0.0,"[('wc_11', 0.8600000000000007), ('wc_8', 0.3600000000000002)]",0.9104000000000004,,,39.0,0.013229,['Fail'],Fail,0.8600000000000007,-0.7975000000000007,0.0,0.0,1.0
338.0,2.0,wc_2,,0.0,,,,41.0,,,,Fail,,,,,
338.0,2.0,wc_2,wc_7,1.0,"[('wc_7', 0.8700000000000007), ('wc_8', 0.3600000000000002), ('wc_11', 0.8600000000000007)]",0.9883520000000001,,,29.0,0.041215,['Fail'],Fail,0.8700000000000007,-0.07000000000000062,4.0,5.0,0.9
360.0,2.0,wc_2,,0.0,,,,202.0,,,,Fail,,,,,
360.0,2.0,wc_2,,0.0,,,68.0,,,,,Fail,,,,,
360.0,2.0,wc_2,,0.0,,,,0.0,,,,Fail,,,,,
360.0,2.0,wc_2,wc_2,0.0,"[('wc_2', 0.2400000000000001)]",0.2400000000000001,,,23.0,0.002432,['Fail'],Fail,0.2400000000000001,-0.04000000000000009,1.0,5.0,0.1
360.0,2.0,wc_2,,0.0,,,,183.0,,,,Fail,,,,,
360.0,2.0,wc_2,wc_9,0.0,"[('wc_9', 0.2500000000000001)]",0.2500000000000001,,,31.0,0.004394,['Pass'],Fail,0.2500000000000001,-0.2500000000000001,0.0,9.0,0.1
360.0,2.0,wc_2,,0.0,,,,243.0,,,,Fail,,,,,
360.0,2.0,wc_2,wc_1,0.0,"[('wc_1', 0.7200000000000005), ('wc_2', 0.2400000000000001)]",0.7872000000000005,,,39.0,0.00625,['Fail'],Fail,0.7200000000000005,-0.265454545454546,0.0,0.0,0.7
360.0,2.0,wc_2,,0.0,,,,202.0,,,,Fail,,,,,
360.0,2.0,wc_2,wc_13,0.0,"[('wc_13', 0.3300000000000002), ('wc_2', 0.2400000000000001), ('wc_1', 0.7200000000000005)]",0.8574240000000003,,,22.0,0.008104,['Fail'],Fail,0.3300000000000002,-0.13000000000000017,0.0,0.0,0.1
360.0,2.0,wc_2,,0.0,,,,182.0,,,,Fail,,,,,
360.0,2.0,wc_2,wc_7,1.0,"[('wc_7', 0.8700000000000007), ('wc_2', 0.2400000000000001), ('wc_1', 0.7200000000000005), ('wc_13', 0.3300000000000002)]",0.9814651200000002,,,36.0,0.040191,['Fail'],Fail,0.8700000000000007,-0.03666666666666729,5.0,6.0,0.9
382.0,2.0,wc_2,,0.0,,,,202.0,,,,Pass,,,,,
382.0,2.0,wc_2,,0.0,,,52.0,,,,,Pass,,,,,
382.0,2.0,wc_2,,0.0,,,,0.0,,,,Pass,,,,,
382.0,2.0,wc_2,wc_2,0.0,"[('wc_2', 0.2500000000000001)]",0.2500000000000001,,,38.0,0.002135,['Fail'],Pass,0.2500000000000001,0.0833333333333332,2.0,6.0,0.1
382.0,2.0,wc_2,,0.0,,,,223.0,,,,Pass,,,,,
382.0,2.0,wc_2,wc_15,0.0,"[('wc_15', 0.5700000000000004), ('wc_2', 0.2500000000000001)]",0.6775000000000003,,,28.0,0.003667,['Fail'],Pass,0.5700000000000004,-0.23666666666666708,1.0,3.0,0.5
382.0,2.0,wc_2,,0.0,,,,283.0,,,,Pass,,,,,
382.0,2.0,wc_2,wc_1,0.0,"[('wc_1', 0.7300000000000005)]",0.7300000000000005,,,39.0,0.0057139999999999995,['Pass'],Pass,0.7300000000000005,0.26999999999999946,1.0,1.0,0.7
382.0,2.0,wc_2,,0.0,,,,142.0,,,,Pass,,,,,
382.0,2.0,wc_2,wc_6,0.0,"[('wc_6', 0.31000000000000016), ('wc_1', 0.7300000000000005)]",0.8137000000000004,,,29.0,0.007232000000000001,['Pass'],Pass,0.31000000000000016,-0.16714285714285732,1.0,7.0,0.2
382.0,2.0,wc_2,,0.0,,,,243.0,,,,Pass,,,,,
382.0,2.0,wc_2,wc_16,1.0,"[('wc_16', 0.7200000000000005), ('wc_1', 0.7300000000000005), ('wc_6', 0.31000000000000016)]",0.9478360000000002,,,34.0,0.044438000000000005,['Pass'],Pass,0.7200000000000005,-0.7200000000000005,0.0,0.0,0.6
408.0,5.0,wc_5,,0.0,,,,422.0,,,,Fail,,,,,
408.0,5.0,wc_5,,0.0,,,76.0,,,,,Fail,,,,,
408.0,5.0,wc_5,,0.0,,,,0.0,,,,Fail,,,,,
408.0,5.0,wc_5,wc_5,0.0,"[('wc_5', 0.7900000000000006)]",0.7900000000000006,,,32.0,0.002214,['Fail'],Fail,0.7900000000000006,-0.7900000000000006,0.0,5.0,0.8
408.0,5.0,wc_5,,0.0,,,,41.0,,,,Fail,,,,,
408.0,5.0,wc_5,wc_1,0.0,"[('wc_1', 0.7400000000000005), ('wc_5', 0.7900000000000006)]",0.9454000000000002,,,33.0,0.004151,['Fail'],Fail,0.7400000000000005,0.25999999999999945,2.0,2.0,0.7
408.0,5.0,wc_5,,0.0,,,,203.0,,,,Fail,,,,,
408.0,5.0,wc_5,wc_9,0.0,"[('wc_5', 0.7900000000000006), ('wc_1', 0.7400000000000005)]",0.9454000000000002,,,24.0,0.008125,['Fail'],Fail,0.2400000000000001,-0.2400000000000001,0.0,1.0,0.1
408.0,5.0,wc_5,,0.0,,,,182.0,,,,Fail,,,,,
408.0,5.0,wc_5,wc_16,1.0,"[('wc_16', 0.7200000000000005), ('wc_5', 0.7900000000000006), ('wc_1', 0.7400000000000005)]",0.9847120000000001,,,22.0,0.046333000000000006,['Fail'],Fail,0.7300000000000005,0.26999999999999946,1.0,1.0,0.6
444.0,5.0,wc_5,,0.0,,,,422.0,,,,Fail,,,,,
444.0,5.0,wc_5,,0.0,,,67.0,,,,,Fail,,,,,
444.0,5.0,wc_5,,0.0,,,,0.0,,,,Fail,,,,,
444.0,5.0,wc_5,wc_5,0.0,"[('wc_5', 0.7900000000000006)]",0.7900000000000006,,,35.0,0.002314,['Fail'],Fail,0.7900000000000006,-0.623333333333334,1.0,6.0,0.8
444.0,5.0,wc_5,,0.0,,,,122.0,,,,Fail,,,,,
444.0,5.0,wc_5,wc_9,0.0,"[('wc_9', 0.2300000000000001), ('wc_5', 0.7900000000000006)]",0.8383000000000005,,,39.0,0.0039559999999999994,['Fail'],Fail,0.2300000000000001,-0.2300000000000001,0.0,2.0,0.1
444.0,5.0,wc_5,,0.0,,,,202.0,,,,Fail,,,,,
444.0,5.0,wc_5,wc_17,1.0,"[('wc_17', 0.7500000000000006), ('wc_5', 0.7900000000000006), ('wc_9', 0.2300000000000001)]",0.9595750000000002,,,24.0,0.03832699999999999,['Fail'],Fail,0.7500000000000006,-0.7500000000000006,0.0,0.0,0.6
467.0,5.0,wc_5,,0.0,,,,402.0,,,,Pass,,,,,
467.0,5.0,wc_5,,0.0,,,76.0,,,,,Pass,,,,,
467.0,5.0,wc_5,,0.0,,,,0.0,,,,Pass,,,,,
467.0,5.0,wc_5,wc_5,0.0,"[('wc_5', 0.7900000000000006)]",0.7900000000000006,,,26.0,0.002257,['Pass'],Pass,0.7900000000000006,-0.5042857142857149,2.0,7.0,0.8
467.0,5.0,wc_5,,0.0,,,,122.0,,,,Pass,,,,,
467.0,5.0,wc_5,wc_9,0.0,"[('wc_5', 0.7900000000000006)]",0.7900000000000006,,,33.0,0.00507,['Pass'],Pass,0.2400000000000001,0.09333333333333321,1.0,3.0,0.1
467.0,5.0,wc_5,,0.0,,,,182.0,,,,Pass,,,,,
467.0,5.0,wc_5,wc_16,0.0,"[('wc_16', 0.7300000000000005), ('wc_5', 0.7900000000000006)]",0.9433000000000002,,,22.0,0.006248,['Pass'],Pass,0.7300000000000005,-0.23000000000000054,1.0,2.0,0.6
467.0,5.0,wc_5,,0.0,,,,402.0,,,,Pass,,,,,
467.0,5.0,wc_5,wc_4,1.0,"[('wc_4', 0.6300000000000004), ('wc_5', 0.7900000000000006), ('wc_16', 0.7300000000000005)]",0.9790210000000001,,,27.0,0.039842,['Pass'],Pass,0.6300000000000004,-0.29666666666666713,3.0,9.0,0.7
479.0,6.0,wc_6,,0.0,,,,81.0,,,,Pass,,,,,
479.0,6.0,wc_6,,0.0,,,79.0,,,,,Pass,,,,,
479.0,6.0,wc_6,,0.0,,,,0.0,,,,Pass,,,,,
479.0,6.0,wc_6,wc_6,0.0,"[('wc_6', 0.31000000000000016)]",0.31000000000000016,,,37.0,0.002066,['Pass'],Pass,0.31000000000000016,-0.12818181818181834,0.0,0.0,0.2
479.0,6.0,wc_6,,0.0,,,,182.0,,,,Pass,,,,,
479.0,6.0,wc_6,wc_13,0.0,"[('wc_13', 0.3400000000000002)]",0.3400000000000002,,,31.0,0.004055,['Fail'],Pass,0.3400000000000002,-0.14000000000000018,1.0,5.0,0.1
479.0,6.0,wc_6,,0.0,,,,242.0,,,,Pass,,,,,
479.0,6.0,wc_6,wc_2,0.0,"[('wc_2', 0.2500000000000001), ('wc_13', 0.3400000000000002)]",0.5050000000000002,,,30.0,0.006017,['Fail'],Pass,0.2500000000000001,-0.0500000000000001,0.0,0.0,0.1
479.0,6.0,wc_6,,0.0,,,,0.0,,,,Pass,,,,,
479.0,6.0,wc_6,wc_3,0.0,"[('wc_3', 0.15000000000000002), ('wc_13', 0.3400000000000002), ('wc_2', 0.2500000000000001)]",0.5792500000000003,,,31.0,0.007698999999999999,['Fail'],Pass,0.15000000000000002,0.016666666666666635,0.0,0.0,0.1
479.0,6.0,wc_6,,0.0,,,,141.0,,,,Pass,,,,,
479.0,6.0,wc_6,wc_12,0.0,"[('wc_12', 0.9900000000000008), ('wc_6', 0.31000000000000016)]",0.9931000000000005,,,28.0,0.010054,['Pass'],Pass,0.9900000000000008,-0.9185714285714294,0.0,0.0,1.0
479.0,6.0,wc_6,,0.0,,,,381.0,,,,Pass,,,,,
479.0,6.0,wc_6,wc_4,1.0,"[('wc_4', 0.6300000000000004), ('wc_6', 0.31000000000000016), ('wc_12', 0.9900000000000008)]",0.9974470000000002,,,33.0,0.04392,['Pass'],Pass,0.6300000000000004,-0.6300000000000004,0.0,0.0,0.7
488.0,11.0,wc_11,,0.0,,,,182.0,,,,Fail,,,,,
488.0,11.0,wc_11,,0.0,,,52.0,,,,,Fail,,,,,
488.0,11.0,wc_11,,0.0,,,,0.0,,,,Fail,,,,,
488.0,11.0,wc_11,wc_11,0.0,"[('wc_11', 0.8700000000000007)]",0.8700000000000007,,,24.0,0.002055,['Fail'],Fail,0.8700000000000007,-0.7271428571428578,1.0,7.0,1.0
488.0,11.0,wc_11,,0.0,,,,162.0,,,,Fail,,,,,
488.0,11.0,wc_11,wc_17,0.0,"[('wc_17', 0.7500000000000006), ('wc_11', 0.8700000000000007)]",0.9675000000000002,,,30.0,0.004088,['Fail'],Fail,0.7500000000000006,-0.7500000000000006,0.0,2.0,0.6
488.0,11.0,wc_11,,0.0,,,,362.0,,,,Fail,,,,,
488.0,11.0,wc_11,wc_3,0.0,"[('wc_11', 0.8700000000000007), ('wc_17', 0.7500000000000006)]",0.9675000000000002,,,39.0,0.007384999999999999,['Fail'],Fail,0.14,-0.14,0.0,1.0,0.1
488.0,11.0,wc_11,,0.0,,,,101.0,,,,Fail,,,,,
488.0,11.0,wc_11,wc_2,0.0,"[('wc_11', 0.8700000000000007), ('wc_17', 0.7500000000000006)]",0.9675000000000002,,,22.0,0.008716000000000002,['Fail'],Fail,0.2400000000000001,-0.2400000000000001,0.0,1.0,0.1
488.0,11.0,wc_11,,0.0,,,,203.0,,,,Fail,,,,,
488.0,11.0,wc_11,wc_10,1.0,"[('wc_10', 0.8400000000000006), ('wc_11', 0.8700000000000007), ('wc_17', 0.7500000000000006)]",0.9948,,,27.0,0.040592,['Fail'],Fail,0.8400000000000006,-0.8400000000000006,0.0,0.0,0.8
494.0,9.0,wc_9,,0.0,,,,103.0,,,,Pass,,,,,
494.0,9.0,wc_9,,0.0,,,53.0,,,,,Pass,,,,,
494.0,9.0,wc_9,,0.0,,,,0.0,,,,Pass,,,,,
494.0,9.0,wc_9,wc_9,0.0,"[('wc_9', 0.2400000000000001)]",0.2400000000000001,,,34.0,0.002286,['Fail'],Pass,0.2400000000000001,-0.07333333333333344,1.0,6.0,0.1
494.0,9.0,wc_9,,0.0,,,,81.0,,,,Pass,,,,,
494.0,9.0,wc_9,wc_7,0.0,"[('wc_7', 0.8700000000000007)]",0.8700000000000007,,,21.0,0.00472,['Pass'],Pass,0.8700000000000007,-0.453333333333334,0.0,0.0,0.9
494.0,9.0,wc_9,,0.0,,,,162.0,,,,Pass,,,,,
494.0,9.0,wc_9,wc_13,0.0,"[('wc_13', 0.3300000000000002), ('wc_7', 0.8700000000000007)]",0.9129000000000005,,,38.0,0.006149999999999999,['Pass'],Pass,0.3300000000000002,-0.18714285714285733,1.0,7.0,0.1
494.0,9.0,wc_9,,0.0,,,,102.0,,,,Pass,,,,,
494.0,9.0,wc_9,wc_12,1.0,"[('wc_12', 0.9900000000000008), ('wc_7', 0.8700000000000007), ('wc_13', 0.3300000000000002)]",0.999129,,,35.0,0.04385,['Pass'],Pass,0.9900000000000008,-0.32333333333333414,2.0,3.0,1.0
500.0,10.0,wc_10,,0.0,,,,341.0,,,,Pass,,,,,
500.0,10.0,wc_10,,0.0,,,54.0,,,,,Pass,,,,,
500.0,10.0,wc_10,,0.0,,,,0.0,,,,Pass,,,,,
500.0,10.0,wc_10,wc_10,0.0,"[('wc_10', 0.8400000000000006)]",0.8400000000000006,,,28.0,0.002101,['Pass'],Pass,0.8400000000000006,-0.8400000000000006,0.0,1.0,0.8
500.0,10.0,wc_10,,0.0,,,,162.0,,,,Pass,,,,,
500.0,10.0,wc_10,wc_16,0.0,"[('wc_16', 0.7300000000000005), ('wc_10', 0.8400000000000006)]",0.9568000000000002,,,31.0,0.0043630000000000006,['Pass'],Pass,0.7300000000000005,-0.3966666666666672,2.0,6.0,0.6
500.0,10.0,wc_10,,0.0,,,,283.0,,,,Pass,,,,,
500.0,10.0,wc_10,wc_2,1.0,"[('wc_2', 0.2300000000000001), ('wc_10', 0.8400000000000006), ('wc_16', 0.7300000000000005)]",0.9667360000000003,,,20.0,0.038371,['Pass'],Pass,0.2400000000000001,0.009999999999999898,1.0,4.0,0.1
513.0,8.0,wc_8,,0.0,,,,162.0,,,,Fail,,,,,
513.0,8.0,wc_8,,0.0,,,80.0,,,,,Fail,,,,,
513.0,8.0,wc_8,,0.0,,,,0.0,,,,Fail,,,,,
513.0,8.0,wc_8,wc_8,0.0,"[('wc_8', 0.3600000000000002)]",0.3600000000000002,,,33.0,0.002522,['Fail'],Fail,0.3600000000000002,-0.19333333333333355,0.0,0.0,0.3
513.0,8.0,wc_8,,0.0,,,,162.0,,,,Fail,,,,,
513.0,8.0,wc_8,wc_1,0.0,"[('wc_1', 0.7500000000000006), ('wc_8', 0.3600000000000002)]",0.8400000000000004,,,34.0,0.0038009999999999997,['Fail'],Fail,0.7500000000000006,-0.41666666666666724,3.0,9.0,0.7
513.0,8.0,wc_8,,0.0,,,,202.0,,,,Fail,,,,,
513.0,8.0,wc_8,wc_13,0.0,"[('wc_8', 0.3600000000000002), ('wc_1', 0.7500000000000006)]",0.8400000000000004,,,36.0,0.005693999999999999,['Fail'],Fail,0.3300000000000002,-0.10777777777777797,2.0,9.0,0.1
513.0,8.0,wc_8,,0.0,,,,162.0,,,,Fail,,,,,
513.0,8.0,wc_8,wc_6,0.0,"[('wc_6', 0.3200000000000002), ('wc_8', 0.3600000000000002), ('wc_1', 0.7500000000000006)]",0.8912000000000003,,,28.0,0.007968,['Fail'],Fail,0.3200000000000002,-0.07000000000000017,1.0,4.0,0.2
513.0,8.0,wc_8,,0.0,,,,0.0,,,,Fail,,,,,
513.0,8.0,wc_8,wc_9,0.0,"[('wc_8', 0.3600000000000002), ('wc_1', 0.7500000000000006), ('wc_6', 0.3200000000000002)]",0.8912000000000003,,,29.0,0.015464,['Fail'],Fail,0.2300000000000001,-0.1050000000000001,1.0,8.0,0.1
513.0,8.0,wc_8,,0.0,,,,141.0,,,,Fail,,,,,
513.0,8.0,wc_8,wc_14,1.0,"[('wc_14', 0.6700000000000005), ('wc_8', 0.3600000000000002), ('wc_1', 0.7500000000000006), ('wc_6', 0.3200000000000002)]",0.9640960000000002,,,37.0,0.04554199999999999,['Fail'],Fail,0.6700000000000005,-0.6700000000000005,0.0,0.0,0.5
519.0,8.0,wc_8,,0.0,,,,182.0,,,,Fail,,,,,
519.0,8.0,wc_8,,0.0,,,66.0,,,,,Fail,,,,,
519.0,8.0,wc_8,,0.0,,,,0.0,,,,Fail,,,,,
519.0,8.0,wc_8,wc_8,0.0,"[('wc_8', 0.3700000000000002)]",0.3700000000000002,,,39.0,0.002131,['Fail'],Fail,0.3700000000000002,0.6299999999999998,1.0,1.0,0.3
519.0,8.0,wc_8,,0.0,,,,183.0,,,,Fail,,,,,
519.0,8.0,wc_8,wc_15,0.0,"[('wc_15', 0.5600000000000004), ('wc_8', 0.3700000000000002)]",0.7228000000000003,,,39.0,0.004665,['Fail'],Fail,0.5600000000000004,-0.47666666666666707,0.0,0.0,0.5
519.0,8.0,wc_8,,0.0,,,,422.0,,,,Fail,,,,,
519.0,8.0,wc_8,wc_4,0.0,"[('wc_4', 0.6300000000000004), ('wc_8', 0.3700000000000002), ('wc_15', 0.5600000000000004)]",0.8974360000000002,,,22.0,0.00573,['Fail'],Fail,0.6300000000000004,-0.6300000000000004,0.0,4.0,0.7
519.0,8.0,wc_8,,0.0,,,,101.0,,,,Fail,,,,,
519.0,8.0,wc_8,wc_7,1.0,"[('wc_7', 0.8800000000000007), ('wc_8', 0.3700000000000002), ('wc_15', 0.5600000000000004), ('wc_4', 0.6300000000000004)]",0.9876923200000001,,,38.0,0.042545000000000006,['Fail'],Fail,0.8800000000000007,-0.38000000000000067,2.0,4.0,0.9
525.0,11.0,wc_11,,0.0,,,,0.0,,,,Pass,,,,,
525.0,11.0,wc_11,,0.0,,,57.0,,,,,Pass,,,,,
525.0,11.0,wc_11,,0.0,,,,0.0,,,,Pass,,,,,
525.0,11.0,wc_11,wc_11,0.0,"[('wc_11', 0.8700000000000007)]",0.8700000000000007,,,39.0,0.00213,['Pass'],Pass,0.8700000000000007,-0.703333333333334,0.0,0.0,1.0
525.0,11.0,wc_11,,0.0,,,,362.0,,,,Pass,,,,,
525.0,11.0,wc_11,wc_5,0.0,"[('wc_5', 0.7900000000000006), ('wc_11', 0.8700000000000007)]",0.9727000000000002,,,40.0,0.004684000000000001,['Pass'],Pass,0.7900000000000006,-0.5757142857142863,0.0,0.0,0.8
525.0,11.0,wc_11,,0.0,,,,101.0,,,,Pass,,,,,
525.0,11.0,wc_11,wc_8,1.0,"[('wc_8', 0.3800000000000002), ('wc_11', 0.8700000000000007), ('wc_5', 0.7900000000000006)]",0.9830740000000001,,,25.0,0.039068,['Pass'],Pass,0.39000000000000024,0.6099999999999998,3.0,3.0,0.3
537.0,8.0,wc_8,,0.0,,,,0.0,,,,Fail,,,,,
537.0,8.0,wc_8,,0.0,,,66.0,,,,,Fail,,,,,
537.0,8.0,wc_8,,0.0,,,,0.0,,,,Fail,,,,,
537.0,8.0,wc_8,wc_8,0.0,"[('wc_8', 0.39000000000000024)]",0.39000000000000024,,,40.0,0.00211,['Fail'],Fail,0.39000000000000024,0.6099999999999998,3.0,3.0,0.3
537.0,8.0,wc_8,,0.0,,,,223.0,,,,Fail,,,,,
537.0,8.0,wc_8,wc_17,0.0,"[('wc_17', 0.7500000000000006), ('wc_8', 0.39000000000000024)]",0.8475000000000004,,,26.0,0.004038,['Fail'],Fail,0.7500000000000006,-0.6250000000000006,1.0,8.0,0.6
537.0,8.0,wc_8,,0.0,,,,103.0,,,,Fail,,,,,
537.0,8.0,wc_8,wc_16,1.0,"[('wc_16', 0.7300000000000005), ('wc_8', 0.39000000000000024), ('wc_17', 0.7500000000000006)]",0.9588250000000001,,,34.0,0.04168900000000001,['Fail'],Fail,0.7300000000000005,-0.7300000000000005,0.0,0.0,0.6
547.0,8.0,wc_8,,0.0,,,,243.0,,,,Fail,,,,,
547.0,8.0,wc_8,,0.0,,,80.0,,,,,Fail,,,,,
547.0,8.0,wc_8,,0.0,,,,0.0,,,,Fail,,,,,
547.0,8.0,wc_8,wc_8,0.0,"[('wc_8', 0.40000000000000024)]",0.40000000000000024,,,37.0,0.002232,['Fail'],Fail,0.40000000000000024,0.5999999999999998,4.0,4.0,0.3
547.0,8.0,wc_8,,0.0,,,,142.0,,,,Fail,,,,,
547.0,8.0,wc_8,wc_13,0.0,"[('wc_8', 0.40000000000000024)]",0.40000000000000024,,,28.0,0.004383,['Fail'],Fail,0.3200000000000002,-0.3200000000000002,0.0,3.0,0.1
547.0,8.0,wc_8,,0.0,,,,222.0,,,,Fail,,,,,
547.0,8.0,wc_8,wc_1,0.0,"[('wc_1', 0.7500000000000006), ('wc_8', 0.40000000000000024)]",0.8500000000000004,,,27.0,0.005940000000000001,['Fail'],Fail,0.7500000000000006,-0.7500000000000006,0.0,3.0,0.7
547.0,8.0,wc_8,,0.0,,,,0.0,,,,Fail,,,,,
547.0,8.0,wc_8,wc_5,1.0,"[('wc_5', 0.8000000000000006), ('wc_8', 0.40000000000000024), ('wc_1', 0.7500000000000006)]",0.9700000000000002,,,29.0,0.044023999999999994,['Fail'],Fail,0.8000000000000006,-0.13333333333333397,2.0,3.0,0.8
555.0,8.0,wc_8,,0.0,,,,101.0,,,,Pass,,,,,
555.0,8.0,wc_8,,0.0,,,65.0,,,,,Pass,,,,,
555.0,8.0,wc_8,,0.0,,,,0.0,,,,Pass,,,,,
555.0,8.0,wc_8,wc_8,0.0,"[('wc_8', 0.41000000000000025)]",0.41000000000000025,,,23.0,0.002202,['Pass'],Pass,0.41000000000000025,0.5899999999999997,5.0,5.0,0.3
555.0,8.0,wc_8,,0.0,,,,82.0,,,,Pass,,,,,
555.0,8.0,wc_8,wc_6,0.0,"[('wc_6', 0.3300000000000002), ('wc_8', 0.41000000000000025)]",0.6047000000000002,,,24.0,0.004129,['Pass'],Pass,0.3300000000000002,-0.10777777777777797,2.0,9.0,0.2
555.0,8.0,wc_8,,0.0,,,,182.0,,,,Pass,,,,,
555.0,8.0,wc_8,wc_13,0.0,"[('wc_13', 0.31000000000000016), ('wc_8', 0.41000000000000025), ('wc_6', 0.3300000000000002)]",0.7272430000000003,,,36.0,0.0075390000000000006,['Pass'],Pass,0.31000000000000016,-0.31000000000000016,0.0,4.0,0.1
555.0,8.0,wc_8,,0.0,,,,0.0,,,,Pass,,,,,
555.0,8.0,wc_8,wc_14,1.0,"[('wc_14', 0.6700000000000005), ('wc_8', 0.41000000000000025), ('wc_6', 0.3300000000000002), ('wc_13', 0.31000000000000016)]",0.9099901900000003,,,24.0,0.041818,['Pass'],Pass,0.6700000000000005,-0.4700000000000005,1.0,5.0,0.5
567.0,7.0,wc_7,,0.0,,,,162.0,,,,Fail,,,,,
567.0,7.0,wc_7,,0.0,,,54.0,,,,,Fail,,,,,
567.0,7.0,wc_7,,0.0,,,,0.0,,,,Fail,,,,,
567.0,7.0,wc_7,wc_7,0.0,"[('wc_7', 0.8800000000000007)]",0.8800000000000007,,,33.0,0.002027,['Fail'],Fail,0.8800000000000007,-0.6300000000000007,2.0,8.0,0.9
567.0,7.0,wc_7,,0.0,,,,202.0,,,,Fail,,,,,
567.0,7.0,wc_7,wc_2,0.0,"[('wc_7', 0.8800000000000007)]",0.8800000000000007,,,23.0,0.004124,['Fail'],Fail,0.2400000000000001,-0.1400000000000001,0.0,0.0,0.1
567.0,7.0,wc_7,,0.0,,,,162.0,,,,Fail,,,,,
567.0,7.0,wc_7,wc_12,0.0,"[('wc_12', 0.9900000000000008), ('wc_7', 0.8800000000000007)]",0.9988000000000001,,,36.0,0.006801,['Fail'],Fail,0.9900000000000008,-0.7900000000000007,0.0,0.0,1.0
567.0,7.0,wc_7,,0.0,,,,341.0,,,,Fail,,,,,
567.0,7.0,wc_7,wc_10,1.0,"[('wc_10', 0.8400000000000006), ('wc_7', 0.8800000000000007), ('wc_12', 0.9900000000000008)]",0.999808,,,20.0,0.04240300000000001,['Fail'],Fail,0.8400000000000006,-0.6177777777777784,2.0,9.0,0.8
576.0,7.0,wc_7,,0.0,,,,61.0,,,,Fail,,,,,
576.0,7.0,wc_7,,0.0,,,71.0,,,,,Fail,,,,,
576.0,7.0,wc_7,,0.0,,,,0.0,,,,Fail,,,,,
576.0,7.0,wc_7,wc_7,0.0,"[('wc_7', 0.8800000000000007)]",0.8800000000000007,,,30.0,0.002147,['Fail'],Fail,0.8800000000000007,-0.5466666666666673,3.0,9.0,0.9
576.0,7.0,wc_7,,0.0,,,,0.0,,,,Fail,,,,,
576.0,7.0,wc_7,wc_8,0.0,"[('wc_7', 0.8800000000000007)]",0.8800000000000007,,,29.0,0.00448,['Fail'],Fail,0.42000000000000026,0.43714285714285683,6.0,7.0,0.3
576.0,7.0,wc_7,,0.0,,,,182.0,,,,Fail,,,,,
576.0,7.0,wc_7,wc_2,0.0,"[('wc_7', 0.8800000000000007)]",0.8800000000000007,,,34.0,0.006829,['Fail'],Fail,0.2300000000000001,-0.2300000000000001,0.0,1.0,0.1
576.0,7.0,wc_7,,0.0,,,,0.0,,,,Fail,,,,,
576.0,7.0,wc_7,wc_3,0.0,"[('wc_7', 0.8800000000000007)]",0.8800000000000007,,,39.0,0.00775,['Fail'],Fail,0.13,-0.13,0.0,0.0,0.1
576.0,7.0,wc_7,,0.0,,,,0.0,,,,Fail,,,,,
576.0,7.0,wc_7,wc_5,1.0,"[('wc_5', 0.8000000000000006), ('wc_8', 0.42000000000000026), ('wc_2', 0.2300000000000001), ('wc_3', 0.13)]",0.9222916000000003,,,25.0,0.047251999999999995,['Pass'],Fail,0.8000000000000006,-0.3000000000000006,3.0,6.0,0.8
582.0,7.0,wc_7,,0.0,,,,81.0,,,,Pass,,,,,
582.0,7.0,wc_7,,0.0,,,72.0,,,,,Pass,,,,,
582.0,7.0,wc_7,,0.0,,,,0.0,,,,Pass,,,,,
582.0,7.0,wc_7,wc_7,0.0,"[('wc_7', 0.8700000000000007)]",0.8700000000000007,,,28.0,0.002751,['Pass'],Pass,0.8700000000000007,-0.8700000000000007,0.0,0.0,0.9
582.0,7.0,wc_7,,0.0,,,,162.0,,,,Pass,,,,,
582.0,7.0,wc_7,wc_13,0.0,"[('wc_7', 0.8700000000000007)]",0.8700000000000007,,,24.0,0.0042769999999999996,['Pass'],Pass,0.31000000000000016,-0.16714285714285732,1.0,7.0,0.1
582.0,7.0,wc_7,,0.0,,,,102.0,,,,Pass,,,,,
582.0,7.0,wc_7,wc_12,0.0,"[('wc_12', 0.9900000000000008), ('wc_7', 0.8700000000000007)]",0.9987000000000001,,,25.0,0.006448000000000001,['Pass'],Pass,0.9900000000000008,-0.49000000000000077,1.0,2.0,1.0
582.0,7.0,wc_7,,0.0,,,,0.0,,,,Pass,,,,,
582.0,7.0,wc_7,wc_15,1.0,"[('wc_15', 0.5700000000000004), ('wc_7', 0.8700000000000007), ('wc_12', 0.9900000000000008)]",0.999441,,,20.0,0.042576,['Pass'],Pass,0.5700000000000004,-0.3200000000000004,2.0,8.0,0.5
597.0,12.0,wc_12,,0.0,,,,61.0,,,,Fail,,,,,
597.0,12.0,wc_12,,0.0,,,70.0,,,,,Fail,,,,,
597.0,12.0,wc_12,,0.0,,,,0.0,,,,Fail,,,,,
597.0,12.0,wc_12,wc_12,0.0,"[('wc_12', 0.9900000000000008)]",0.9900000000000008,,,28.0,0.002486,['Fail'],Fail,0.9900000000000008,-0.32333333333333414,2.0,3.0,1.0
597.0,12.0,wc_12,,0.0,,,,222.0,,,,Fail,,,,,
597.0,12.0,wc_12,wc_8,0.0,"[('wc_8', 0.43000000000000027), ('wc_12', 0.9900000000000008)]",0.9943000000000004,,,26.0,0.0040479999999999995,['Fail'],Fail,0.43000000000000027,0.3477777777777775,7.0,9.0,0.3
597.0,12.0,wc_12,,0.0,,,,0.0,,,,Fail,,,,,
597.0,12.0,wc_12,wc_9,1.0,"[('wc_9', 0.22000000000000008), ('wc_12', 0.9900000000000008), ('wc_8', 0.43000000000000027)]",0.9955540000000004,,,34.0,0.045858,['Fail'],Fail,0.22000000000000008,-0.22000000000000008,0.0,0.0,0.1
612.0,12.0,wc_12,,0.0,,,,101.0,,,,Fail,,,,,
612.0,12.0,wc_12,,0.0,,,60.0,,,,,Fail,,,,,
612.0,12.0,wc_12,,0.0,,,,0.0,,,,Fail,,,,,
612.0,12.0,wc_12,wc_12,0.0,"[('wc_12', 0.9900000000000008)]",0.9900000000000008,,,20.0,0.002656,['Fail'],Fail,0.9900000000000008,-0.24000000000000077,3.0,4.0,1.0
612.0,12.0,wc_12,,0.0,,,,341.0,,,,Fail,,,,,
612.0,12.0,wc_12,wc_10,0.0,"[('wc_10', 0.8400000000000006), ('wc_12', 0.9900000000000008)]",0.9984000000000002,,,34.0,0.003977,['Fail'],Fail,0.8400000000000006,-0.673333333333334,0.0,0.0,0.8
612.0,12.0,wc_12,,0.0,,,,382.0,,,,Fail,,,,,
612.0,12.0,wc_12,wc_5,1.0,"[('wc_5', 0.8000000000000006), ('wc_12', 0.9900000000000008), ('wc_10', 0.8400000000000006)]",0.99968,,,30.0,0.04348799999999999,['Fail'],Fail,0.8000000000000006,-0.3555555555555562,4.0,9.0,0.8
620.0,12.0,wc_12,,0.0,,,,101.0,,,,Fail,,,,,
620.0,12.0,wc_12,,0.0,,,75.0,,,,,Fail,,,,,
620.0,12.0,wc_12,,0.0,,,,0.0,,,,Fail,,,,,
620.0,12.0,wc_12,wc_12,0.0,"[('wc_12', 0.9900000000000008)]",0.9900000000000008,,,39.0,0.002127,['Fail'],Fail,0.9900000000000008,-0.19000000000000072,4.0,5.0,1.0
620.0,12.0,wc_12,,0.0,,,,361.0,,,,Fail,,,,,
620.0,12.0,wc_12,wc_11,0.0,"[('wc_11', 0.8800000000000007), ('wc_12', 0.9900000000000008)]",0.9988000000000001,,,20.0,0.005274,['Fail'],Fail,0.8800000000000007,-0.7688888888888896,1.0,9.0,1.0
620.0,12.0,wc_12,,0.0,,,,362.0,,,,Fail,,,,,
620.0,12.0,wc_12,wc_5,1.0,"[('wc_5', 0.8000000000000006), ('wc_12', 0.9900000000000008), ('wc_11', 0.8800000000000007)]",0.99976,,,29.0,0.042008000000000004,['Fail'],Fail,0.8000000000000006,-0.8000000000000006,0.0,0.0,0.8
627.0,12.0,wc_12,,0.0,,,,101.0,,,,Fail,,,,,
627.0,12.0,wc_12,,0.0,,,61.0,,,,,Fail,,,,,
627.0,12.0,wc_12,,0.0,,,,0.0,,,,Fail,,,,,
627.0,12.0,wc_12,wc_12,0.0,"[('wc_12', 0.9900000000000008)]",0.9900000000000008,,,21.0,0.008062,['Fail'],Fail,0.9900000000000008,-0.1566666666666674,5.0,6.0,1.0
627.0,12.0,wc_12,,0.0,,,,0.0,,,,Fail,,,,,
627.0,12.0,wc_12,wc_14,0.0,"[('wc_12', 0.9900000000000008)]",0.9900000000000008,,,20.0,0.008702999999999999,['Fail'],Fail,0.6700000000000005,-0.5790909090909095,0.0,0.0,0.5
627.0,12.0,wc_12,,0.0,,,,0.0,,,,Fail,,,,,
627.0,12.0,wc_12,wc_16,0.0,"[('wc_16', 0.7300000000000005), ('wc_12', 0.9900000000000008)]",0.9973000000000002,,,22.0,0.006115000000000001,['Fail'],Fail,0.7300000000000005,-0.7300000000000005,0.0,8.0,0.6
627.0,12.0,wc_12,,0.0,,,,0.0,,,,Fail,,,,,
627.0,12.0,wc_12,wc_17,0.0,"[('wc_12', 0.9900000000000008), ('wc_16', 0.7300000000000005)]",0.9973000000000002,,,21.0,0.010839000000000001,['Fail'],Fail,0.7500000000000006,-0.6323529411764711,0.0,0.0,0.6
627.0,12.0,wc_12,,0.0,,,,183.0,,,,Fail,,,,,
627.0,12.0,wc_12,wc_6,0.0,"[('wc_12', 0.9900000000000008), ('wc_16', 0.7300000000000005)]",0.9973000000000002,,,31.0,0.010185999999999999,['Fail'],Fail,0.3300000000000002,-0.3300000000000002,0.0,6.0,0.2
627.0,12.0,wc_12,,0.0,,,,0.0,,,,Fail,,,,,
627.0,12.0,wc_12,wc_9,1.0,"[('wc_9', 0.22000000000000008), ('wc_12', 0.9900000000000008), ('wc_16', 0.7300000000000005)]",0.9978940000000002,,,28.0,0.045015,['Fail'],Fail,0.2300000000000001,0.10333333333333322,1.0,3.0,0.1
632.0,12.0,wc_12,,0.0,,,,101.0,,,,Pass,,,,,
632.0,12.0,wc_12,,0.0,,,75.0,,,,,Pass,,,,,
632.0,12.0,wc_12,,0.0,,,,0.0,,,,Pass,,,,,
632.0,12.0,wc_12,wc_12,0.0,"[('wc_12', 0.9900000000000008)]",0.9900000000000008,,,23.0,0.002392,['Pass'],Pass,0.9900000000000008,-0.13285714285714367,6.0,7.0,1.0
632.0,12.0,wc_12,,0.0,,,,361.0,,,,Pass,,,,,
632.0,12.0,wc_12,wc_11,0.0,"[('wc_11', 0.8800000000000007), ('wc_12', 0.9900000000000008)]",0.9988000000000001,,,25.0,0.004409,['Pass'],Pass,0.8800000000000007,-0.8800000000000007,0.0,1.0,1.0
632.0,12.0,wc_12,,0.0,,,,103.0,,,,Pass,,,,,
632.0,12.0,wc_12,wc_10,1.0,"[('wc_10', 0.8500000000000006), ('wc_12', 0.9900000000000008), ('wc_11', 0.8800000000000007)]",0.99982,,,38.0,0.045607999999999996,['Pass'],Pass,0.8500000000000006,-0.35000000000000064,2.0,4.0,0.8
639.0,13.0,wc_13,,0.0,,,,101.0,,,,Fail,,,,,
639.0,13.0,wc_13,,0.0,,,73.0,,,,,Fail,,,,,
639.0,13.0,wc_13,,0.0,,,,0.0,,,,Fail,,,,,
639.0,13.0,wc_13,wc_13,0.0,"[('wc_13', 0.30000000000000016)]",0.30000000000000016,,,30.0,0.002242,['Fail'],Fail,0.30000000000000016,-0.22307692307692323,0.0,0.0,0.1
639.0,13.0,wc_13,,0.0,,,,361.0,,,,Fail,,,,,
639.0,13.0,wc_13,wc_4,0.0,"[('wc_4', 0.6300000000000004), ('wc_13', 0.30000000000000016)]",0.7410000000000003,,,27.0,0.003989,['Fail'],Fail,0.6300000000000004,-0.5711764705882357,0.0,0.0,0.7
639.0,13.0,wc_13,,0.0,,,,81.0,,,,Fail,,,,,
639.0,13.0,wc_13,wc_6,0.0,"[('wc_13', 0.30000000000000016), ('wc_4', 0.6300000000000004)]",0.7410000000000003,,,27.0,0.00651,['Fail'],Fail,0.3200000000000002,-0.3200000000000002,0.0,8.0,0.2
639.0,13.0,wc_13,,0.0,,,,0.0,,,,Fail,,,,,
639.0,13.0,wc_13,wc_8,0.0,"[('wc_13', 0.30000000000000016), ('wc_4', 0.6300000000000004)]",0.7410000000000003,,,40.0,0.007523,['Fail'],Fail,0.4400000000000003,-0.4400000000000003,0.0,4.0,0.3
639.0,13.0,wc_13,,0.0,,,,162.0,,,,Fail,,,,,
639.0,13.0,wc_13,wc_1,1.0,"[('wc_1', 0.7500000000000006), ('wc_13', 0.30000000000000016), ('wc_4', 0.6300000000000004)]",0.9352500000000002,,,20.0,0.051371,['Fail'],Fail,0.7500000000000006,-0.7500000000000006,0.0,0.0,0.7
644.0,13.0,wc_13,,0.0,,,,202.0,,,,Fail,,,,,
644.0,13.0,wc_13,,0.0,,,51.0,,,,,Fail,,,,,
644.0,13.0,wc_13,,0.0,,,,0.0,,,,Fail,,,,,
644.0,13.0,wc_13,wc_13,0.0,"[('wc_13', 0.31000000000000016)]",0.31000000000000016,,,29.0,0.002136,['Pass'],Fail,0.31000000000000016,0.6899999999999998,1.0,1.0,0.1
644.0,13.0,wc_13,,0.0,,,,0.0,,,,Fail,,,,,
644.0,13.0,wc_13,wc_15,0.0,"[('wc_15', 0.5700000000000004)]",0.5700000000000004,,,40.0,0.004079,['Fail'],Fail,0.5700000000000004,-0.42714285714285755,0.0,0.0,0.5
644.0,13.0,wc_13,,0.0,,,,362.0,,,,Fail,,,,,
644.0,13.0,wc_13,wc_9,0.0,"[('wc_9', 0.2300000000000001), ('wc_15', 0.5700000000000004)]",0.6689000000000003,,,23.0,0.007380999999999999,['Fail'],Fail,0.2300000000000001,-0.030000000000000082,1.0,5.0,0.1
644.0,13.0,wc_13,,0.0,,,,362.0,,,,Fail,,,,,
644.0,13.0,wc_13,wc_3,0.0,"[('wc_3', 0.14), ('wc_15', 0.5700000000000004), ('wc_9', 0.2300000000000001)]",0.7152540000000003,,,20.0,0.00787,['Fail'],Fail,0.14,-0.015000000000000013,1.0,8.0,0.1
644.0,13.0,wc_13,,0.0,,,,141.0,,,,Fail,,,,,
644.0,13.0,wc_13,wc_12,1.0,"[('wc_12', 0.9900000000000008), ('wc_15', 0.5700000000000004), ('wc_9', 0.2300000000000001), ('wc_3', 0.14)]",0.9971525400000002,,,21.0,0.047378,['Fail'],Fail,0.9900000000000008,-0.9900000000000008,0.0,0.0,1.0
649.0,13.0,wc_13,,0.0,,,,0.0,,,,Fail,,,,,
649.0,13.0,wc_13,,0.0,,,58.0,,,,,Fail,,,,,
649.0,13.0,wc_13,,0.0,,,,0.0,,,,Fail,,,,,
649.0,13.0,wc_13,wc_13,0.0,"[('wc_13', 0.31000000000000016)]",0.31000000000000016,,,35.0,0.002306,['Pass'],Fail,0.31000000000000016,0.18999999999999984,1.0,2.0,0.1
649.0,13.0,wc_13,,0.0,,,,361.0,,,,Fail,,,,,
649.0,13.0,wc_13,wc_4,0.0,"[('wc_4', 0.6400000000000005)]",0.6400000000000005,,,26.0,0.003953,['Fail'],Fail,0.6400000000000005,-0.14000000000000046,1.0,2.0,0.7
649.0,13.0,wc_13,,0.0,,,,103.0,,,,Fail,,,,,
649.0,13.0,wc_13,wc_3,0.0,"[('wc_3', 0.15000000000000002), ('wc_4', 0.6400000000000005)]",0.6940000000000004,,,25.0,0.006471,['Fail'],Fail,0.15000000000000002,0.07222222222222219,2.0,9.0,0.1
649.0,13.0,wc_13,,0.0,,,,202.0,,,,Fail,,,,,
649.0,13.0,wc_13,wc_11,1.0,"[('wc_11', 0.8800000000000007), ('wc_4', 0.6400000000000005), ('wc_3', 0.15000000000000002)]",0.9632800000000002,,,37.0,0.043882000000000004,['Fail'],Fail,0.8800000000000007,-0.48000000000000065,2.0,5.0,1.0
651.0,13.0,wc_13,,0.0,,,,81.0,,,,Pass,,,,,
651.0,13.0,wc_13,,0.0,,,74.0,,,,,Pass,,,,,
651.0,13.0,wc_13,,0.0,,,,0.0,,,,Pass,,,,,
651.0,13.0,wc_13,wc_13,0.0,"[('wc_13', 0.31000000000000016)]",0.31000000000000016,,,25.0,0.002196,['Fail'],Pass,0.31000000000000016,0.02333333333333315,1.0,3.0,0.1
651.0,13.0,wc_13,,0.0,,,,0.0,,,,Pass,,,,,
651.0,13.0,wc_13,wc_17,0.0,"[('wc_17', 0.7400000000000005)]",0.7400000000000005,,,21.0,0.004095,['Pass'],Pass,0.7400000000000005,-0.7400000000000005,0.0,5.0,0.6
651.0,13.0,wc_13,,0.0,,,,183.0,,,,Pass,,,,,
651.0,13.0,wc_13,wc_6,0.0,"[('wc_6', 0.31000000000000016), ('wc_17', 0.7400000000000005)]",0.8206000000000004,,,32.0,0.006301,['Pass'],Pass,0.31000000000000016,-0.31000000000000016,0.0,0.0,0.2
651.0,13.0,wc_13,,0.0,,,,0.0,,,,Pass,,,,,
651.0,13.0,wc_13,wc_10,1.0,"[('wc_10', 0.8500000000000006), ('wc_17', 0.7400000000000005), ('wc_6', 0.31000000000000016)]",0.9730900000000002,,,24.0,0.04602199999999999,['Pass'],Pass,0.8500000000000006,-0.47500000000000064,3.0,8.0,0.8
654.0,16.0,wc_16,,0.0,,,,162.0,,,,Fail,,,,,
654.0,16.0,wc_16,,0.0,,,55.0,,,,,Fail,,,,,
654.0,16.0,wc_16,,0.0,,,,0.0,,,,Fail,,,,,
654.0,16.0,wc_16,wc_16,0.0,"[('wc_16', 0.7300000000000005)]",0.7300000000000005,,,28.0,0.002476,['Pass'],Fail,0.7300000000000005,-0.6585714285714291,0.0,0.0,0.6
654.0,16.0,wc_16,,0.0,,,,81.0,,,,Fail,,,,,
654.0,16.0,wc_16,wc_14,0.0,"[('wc_16', 0.7300000000000005)]",0.7300000000000005,,,22.0,0.0041860000000000005,['Pass'],Fail,0.6600000000000005,-0.6600000000000005,0.0,6.0,0.5
654.0,16.0,wc_16,,0.0,,,,82.0,,,,Fail,,,,,
654.0,16.0,wc_16,wc_12,0.0,"[('wc_12', 0.9900000000000008), ('wc_14', 0.6600000000000005)]",0.9966000000000003,,,32.0,0.0060929999999999995,['Fail'],Fail,0.9900000000000008,-0.9900000000000008,0.0,2.0,1.0
654.0,16.0,wc_16,,0.0,,,,0.0,,,,Fail,,,,,
654.0,16.0,wc_16,wc_13,0.0,"[('wc_14', 0.6600000000000005), ('wc_12', 0.9900000000000008)]",0.9966000000000003,,,30.0,0.007445,['Fail'],Fail,0.30000000000000016,-0.050000000000000155,1.0,4.0,0.1
654.0,16.0,wc_16,,0.0,,,,341.0,,,,Fail,,,,,
654.0,16.0,wc_16,wc_11,1.0,"[('wc_11', 0.8800000000000007), ('wc_14', 0.6600000000000005), ('wc_12', 0.9900000000000008)]",0.999592,,,33.0,0.053902000000000005,['Fail'],Fail,0.8800000000000007,-0.4514285714285721,3.0,7.0,1.0
657.0,15.0,wc_15,,0.0,,,,122.0,,,,Pass,,,,,
657.0,15.0,wc_15,,0.0,,,80.0,,,,,Pass,,,,,
657.0,15.0,wc_15,,0.0,,,,0.0,,,,Pass,,,,,
657.0,15.0,wc_15,wc_15,0.0,"[('wc_15', 0.5800000000000004)]",0.5800000000000004,,,20.0,0.002262,['Pass'],Pass,0.5800000000000004,-0.3300000000000004,1.0,4.0,0.5
657.0,15.0,wc_15,,0.0,,,,303.0,,,,Pass,,,,,
657.0,15.0,wc_15,wc_2,0.0,"[('wc_15', 0.5800000000000004)]",0.5800000000000004,,,24.0,0.00413,['Pass'],Pass,0.2400000000000001,-0.16307692307692317,0.0,0.0,0.1
657.0,15.0,wc_15,,0.0,,,,0.0,,,,Pass,,,,,
657.0,15.0,wc_15,wc_4,0.0,"[('wc_4', 0.6500000000000005), ('wc_15', 0.5800000000000004)]",0.8530000000000003,,,26.0,0.005769,['Pass'],Pass,0.6500000000000005,-0.25000000000000044,2.0,5.0,0.7
657.0,15.0,wc_15,,0.0,,,,142.0,,,,Pass,,,,,
657.0,15.0,wc_15,wc_9,0.0,"[('wc_15', 0.5800000000000004), ('wc_4', 0.6500000000000005)]",0.8530000000000003,,,27.0,0.009535,['Pass'],Pass,0.2400000000000001,-0.017777777777777892,2.0,9.0,0.1
657.0,15.0,wc_15,,0.0,,,,0.0,,,,Pass,,,,,
657.0,15.0,wc_15,wc_10,1.0,"[('wc_10', 0.8500000000000006), ('wc_15', 0.5800000000000004), ('wc_4', 0.6500000000000005)]",0.9779500000000001,,,40.0,0.053963000000000004,['Pass'],Pass,0.8500000000000006,-0.8500000000000006,0.0,0.0,0.8
660.0,16.0,wc_16,,0.0,,,,162.0,,,,Fail,,,,,
660.0,16.0,wc_16,,0.0,,,62.0,,,,,Fail,,,,,
660.0,16.0,wc_16,,0.0,,,,0.0,,,,Fail,,,,,
660.0,16.0,wc_16,wc_16,0.0,"[('wc_16', 0.7200000000000005)]",0.7200000000000005,,,21.0,0.003472,['Fail'],Fail,0.7200000000000005,-0.7200000000000005,0.0,2.0,0.6
660.0,16.0,wc_16,,0.0,,,,103.0,,,,Fail,,,,,
660.0,16.0,wc_16,wc_15,0.0,"[('wc_15', 0.5800000000000004), ('wc_16', 0.7200000000000005)]",0.8824000000000003,,,36.0,0.0049180000000000005,['Fail'],Fail,0.5800000000000004,-0.18000000000000038,2.0,5.0,0.5
660.0,16.0,wc_16,,0.0,,,,362.0,,,,Fail,,,,,
660.0,16.0,wc_16,wc_9,0.0,"[('wc_16', 0.7200000000000005), ('wc_15', 0.5800000000000004)]",0.8824000000000003,,,37.0,0.008367,['Fail'],Fail,0.2300000000000001,-0.2300000000000001,0.0,0.0,0.1
660.0,16.0,wc_16,,0.0,,,,382.0,,,,Fail,,,,,
660.0,16.0,wc_16,wc_4,1.0,"[('wc_4', 0.6500000000000005), ('wc_16', 0.7200000000000005), ('wc_15', 0.5800000000000004)]",0.9588400000000001,,,27.0,0.08667699999999999,['Fail'],Fail,0.6500000000000005,-0.07857142857142907,4.0,7.0,0.7
662.0,14.0,wc_14,,0.0,,,,161.0,,,,Pass,,,,,
662.0,14.0,wc_14,,0.0,,,69.0,,,,,Pass,,,,,
662.0,14.0,wc_14,,0.0,,,,0.0,,,,Pass,,,,,
662.0,14.0,wc_14,wc_14,0.0,"[('wc_14', 0.6600000000000005)]",0.6600000000000005,,,25.0,0.004838,['Fail'],Pass,0.6600000000000005,-0.5488888888888894,1.0,9.0,0.5
662.0,14.0,wc_14,,0.0,,,,0.0,,,,Pass,,,,,
662.0,14.0,wc_14,wc_17,0.0,"[('wc_17', 0.7400000000000005)]",0.7400000000000005,,,22.0,0.0048330000000000005,['Pass'],Pass,0.7400000000000005,-0.6288888888888895,1.0,9.0,0.6
662.0,14.0,wc_14,,0.0,,,,183.0,,,,Pass,,,,,
662.0,14.0,wc_14,wc_6,0.0,"[('wc_6', 0.3200000000000002), ('wc_14', 0.6600000000000005)]",0.7688000000000004,,,33.0,0.006143,['Fail'],Pass,0.3200000000000002,-0.07000000000000017,1.0,4.0,0.2
662.0,14.0,wc_14,,0.0,,,,321.0,,,,Pass,,,,,
662.0,14.0,wc_14,wc_3,0.0,"[('wc_3', 0.16000000000000003), ('wc_17', 0.7400000000000005)]",0.7816000000000005,,,37.0,0.00741,['Pass'],Pass,0.16000000000000003,-0.16000000000000003,0.0,4.0,0.1
662.0,14.0,wc_14,,0.0,,,,81.0,,,,Pass,,,,,
662.0,14.0,wc_14,wc_1,1.0,"[('wc_1', 0.7500000000000006), ('wc_17', 0.7400000000000005), ('wc_3', 0.16000000000000003)]",0.9454000000000002,,,37.0,0.04503,['Pass'],Pass,0.7500000000000006,-0.6071428571428577,1.0,7.0,0.7
664.0,16.0,wc_16,,0.0,,,,263.0,,,,Fail,,,,,
664.0,16.0,wc_16,,0.0,,,72.0,,,,,Fail,,,,,
664.0,16.0,wc_16,,0.0,,,,0.0,,,,Fail,,,,,
664.0,16.0,wc_16,wc_16,0.0,"[('wc_16', 0.7200000000000005)]",0.7200000000000005,,,25.0,0.002286,['Fail'],Fail,0.7200000000000005,-0.47000000000000053,1.0,4.0,0.6
664.0,16.0,wc_16,,0.0,,,,382.0,,,,Fail,,,,,
664.0,16.0,wc_16,wc_3,0.0,"[('wc_16', 0.7200000000000005)]",0.7200000000000005,,,27.0,0.004919,['Fail'],Fail,0.17000000000000004,0.02999999999999997,1.0,5.0,0.1
664.0,16.0,wc_16,,0.0,,,,242.0,,,,Fail,,,,,
664.0,16.0,wc_16,wc_17,0.0,"[('wc_17', 0.7400000000000005), ('wc_16', 0.7200000000000005)]",0.9272000000000002,,,23.0,0.009293000000000001,['Fail'],Fail,0.7400000000000005,-0.7400000000000005,0.0,0.0,0.6
664.0,16.0,wc_16,,0.0,,,,263.0,,,,Fail,,,,,
664.0,16.0,wc_16,wc_2,0.0,"[('wc_16', 0.7200000000000005), ('wc_17', 0.7400000000000005)]",0.9272000000000002,,,27.0,0.007405999999999999,['Fail'],Fail,0.2300000000000001,-0.2300000000000001,0.0,3.0,0.1
664.0,16.0,wc_16,,0.0,,,,102.0,,,,Fail,,,,,
664.0,16.0,wc_16,wc_1,1.0,"[('wc_1', 0.7500000000000006), ('wc_16', 0.7200000000000005), ('wc_17', 0.7400000000000005)]",0.9818000000000001,,,39.0,0.050293,['Fail'],Fail,0.7500000000000006,-0.5000000000000006,2.0,8.0,0.7
667.0,16.0,wc_16,,0.0,,,,263.0,,,,Pass,,,,,
667.0,16.0,wc_16,,0.0,,,73.0,,,,,Pass,,,,,
667.0,16.0,wc_16,,0.0,,,,0.0,,,,Pass,,,,,
667.0,16.0,wc_16,wc_16,0.0,"[('wc_16', 0.7200000000000005)]",0.7200000000000005,,,31.0,0.002351,['Pass'],Pass,0.7200000000000005,-0.3200000000000005,2.0,5.0,0.6
667.0,16.0,wc_16,,0.0,,,,41.0,,,,Pass,,,,,
667.0,16.0,wc_16,wc_12,0.0,"[('wc_12', 0.9900000000000008), ('wc_16', 0.7200000000000005)]",0.9972000000000002,,,37.0,0.004181,['Pass'],Pass,0.9900000000000008,-0.8471428571428579,1.0,7.0,1.0
667.0,16.0,wc_16,,0.0,,,,321.0,,,,Pass,,,,,
667.0,16.0,wc_16,wc_9,1.0,"[('wc_9', 0.22000000000000008), ('wc_16', 0.7200000000000005), ('wc_12', 0.9900000000000008)]",0.9978160000000001,,,24.0,0.04739,['Pass'],Pass,0.2300000000000001,0.019999999999999907,1.0,4.0,0.1
669.0,17.0,wc_17,,0.0,,,,202.0,,,,Fail,,,,,
669.0,17.0,wc_17,,0.0,,,50.0,,,,,Fail,,,,,
669.0,17.0,wc_17,,0.0,,,,0.0,,,,Fail,,,,,
669.0,17.0,wc_17,wc_17,0.0,"[('wc_17', 0.7500000000000006)]",0.7500000000000006,,,35.0,0.002206,['Fail'],Fail,0.7500000000000006,-0.25000000000000056,1.0,2.0,0.6
669.0,17.0,wc_17,,0.0,,,,362.0,,,,Fail,,,,,
669.0,17.0,wc_17,wc_3,0.0,"[('wc_3', 0.17000000000000004), ('wc_17', 0.7500000000000006)]",0.7925000000000004,,,20.0,0.00413,['Fail'],Fail,0.17000000000000004,-0.02714285714285719,1.0,7.0,0.1
669.0,17.0,wc_17,,0.0,,,,141.0,,,,Fail,,,,,
669.0,17.0,wc_17,wc_12,1.0,"[('wc_12', 0.9900000000000008), ('wc_17', 0.7500000000000006), ('wc_3', 0.17000000000000004)]",0.9979250000000002,,,29.0,0.043974000000000006,['Fail'],Fail,0.9900000000000008,-0.6566666666666674,3.0,9.0,1.0
671.0,17.0,wc_17,,0.0,,,,0.0,,,,Pass,,,,,
671.0,17.0,wc_17,,0.0,,,69.0,,,,,Pass,,,,,
671.0,17.0,wc_17,,0.0,,,,0.0,,,,Pass,,,,,
671.0,17.0,wc_17,wc_17,0.0,"[('wc_17', 0.7500000000000006)]",0.7500000000000006,,,21.0,0.002233,['Pass'],Pass,0.7500000000000006,-0.08333333333333393,2.0,3.0,0.6
671.0,17.0,wc_17,,0.0,,,,243.0,,,,Pass,,,,,
671.0,17.0,wc_17,wc_1,0.0,"[('wc_1', 0.7500000000000006), ('wc_17', 0.7500000000000006)]",0.9375000000000002,,,28.0,0.003936,['Pass'],Pass,0.7500000000000006,-0.5500000000000005,0.0,0.0,0.7
671.0,17.0,wc_17,,0.0,,,,162.0,,,,Pass,,,,,
671.0,17.0,wc_17,wc_7,1.0,"[('wc_7', 0.8800000000000007), ('wc_17', 0.7500000000000006), ('wc_1', 0.7500000000000006)]",0.9925,,,24.0,0.046642,['Pass'],Pass,0.8800000000000007,-0.8800000000000007,0.0,0.0,0.9
