mpecck/BCQC/bcqc_with_qdt/results/raw/input_18/independent_qc/training/20_workpiece/20200429_095234/wp_4_qc_majority_0.9.csv
production_index,step_idx,production_workcell,qc,consent,winner_qc_list,score,production_time,transport_time,inspection_time,network_time,qc_results,actual_quality,qc_score,score_error,in_winner_counter,in_qc_counter,qc_capability
3.0,1.0,wc_1,,0.0,,,58.0,,,,,Pass,,,,,
3.0,1.0,wc_1,,0.0,,,,0.0,,,,Pass,,,,,
3.0,1.0,wc_1,wc_1,0.0,"[('wc_1', 0.5300000000000004)]",0.5300000000000004,,,24.0,0.002283,['Pass'],Pass,0.5300000000000004,-0.03000000000000036,2.0,4.0,0.7
3.0,1.0,wc_1,,0.0,,,,202.0,,,,Pass,,,,,
3.0,1.0,wc_1,wc_13,0.0,"[('wc_1', 0.5300000000000004)]",0.5300000000000004,,,33.0,0.004805,['Pass'],Pass,0.2400000000000001,-0.08615384615384625,0.0,0.0,0.1
3.0,1.0,wc_1,,0.0,,,,301.0,,,,Pass,,,,,
3.0,1.0,wc_1,wc_9,0.0,"[('wc_1', 0.5300000000000004)]",0.5300000000000004,,,25.0,0.006336999999999999,['Pass'],Pass,0.17000000000000004,-0.17000000000000004,0.0,5.0,0.1
3.0,1.0,wc_1,,0.0,,,,0.0,,,,Pass,,,,,
3.0,1.0,wc_1,wc_10,0.0,"[('wc_10', 0.5900000000000004), ('wc_1', 0.5300000000000004)]",0.8073000000000004,,,39.0,0.011356,['Pass'],Pass,0.5900000000000004,-0.2566666666666671,1.0,3.0,0.8
3.0,1.0,wc_1,,0.0,,,,121.0,,,,Pass,,,,,
3.0,1.0,wc_1,wc_14,1.0,"[('wc_14', 0.5000000000000003), ('wc_1', 0.5300000000000004), ('wc_10', 0.5900000000000004)]",0.9036500000000003,,,36.0,0.047107,['Pass'],Pass,0.5000000000000003,-0.5000000000000003,0.0,0.0,0.5
4.0,2.0,wc_2,,0.0,,,,222.0,,,,Pass,,,,,
4.0,2.0,wc_2,,0.0,,,50.0,,,,,Pass,,,,,
4.0,2.0,wc_2,,0.0,,,,0.0,,,,Pass,,,,,
4.0,2.0,wc_2,wc_2,0.0,"[('wc_2', 0.22000000000000008)]",0.22000000000000008,,,34.0,0.002462,['Fail'],Pass,0.22000000000000008,0.0022222222222221255,2.0,9.0,0.1
4.0,2.0,wc_2,,0.0,,,,203.0,,,,Pass,,,,,
4.0,2.0,wc_2,wc_10,0.0,"[('wc_10', 0.5900000000000004)]",0.5900000000000004,,,31.0,0.006481,['Pass'],Pass,0.5900000000000004,-0.09000000000000041,2.0,4.0,0.8
4.0,2.0,wc_2,,0.0,,,,121.0,,,,Pass,,,,,
4.0,2.0,wc_2,wc_14,0.0,"[('wc_14', 0.5000000000000003), ('wc_10', 0.5900000000000004)]",0.7950000000000004,,,22.0,0.009047,['Pass'],Pass,0.5000000000000003,-0.5000000000000003,0.0,0.0,0.5
4.0,2.0,wc_2,,0.0,,,,82.0,,,,Pass,,,,,
4.0,2.0,wc_2,wc_12,1.0,"[('wc_12', 0.5300000000000004), ('wc_10', 0.5900000000000004), ('wc_14', 0.5000000000000003)]",0.9036500000000003,,,28.0,0.039518,['Pass'],Pass,0.5400000000000004,-0.5400000000000004,0.0,0.0,1.0
6.0,3.0,wc_3,,0.0,,,,361.0,,,,Fail,,,,,
6.0,3.0,wc_3,,0.0,,,60.0,,,,,Fail,,,,,
6.0,3.0,wc_3,,0.0,,,,0.0,,,,Fail,,,,,
6.0,3.0,wc_3,wc_3,0.0,"[('wc_3', 0.18000000000000005)]",0.18000000000000005,,,34.0,0.002137,['Pass'],Fail,0.18000000000000005,0.06999999999999995,2.0,8.0,0.1
6.0,3.0,wc_3,,0.0,,,,121.0,,,,Fail,,,,,
6.0,3.0,wc_3,wc_7,0.0,"[('wc_7', 0.5200000000000004)]",0.5200000000000004,,,26.0,0.003841,['Fail'],Fail,0.5200000000000004,-0.5200000000000004,0.0,2.0,0.9
6.0,3.0,wc_3,,0.0,,,,142.0,,,,Fail,,,,,
6.0,3.0,wc_3,wc_12,0.0,"[('wc_12', 0.5400000000000004), ('wc_7', 0.5200000000000004)]",0.7792000000000003,,,25.0,0.006305,['Fail'],Fail,0.5400000000000004,-0.5400000000000004,0.0,0.0,1.0
6.0,3.0,wc_3,,0.0,,,,341.0,,,,Fail,,,,,
6.0,3.0,wc_3,wc_10,0.0,"[('wc_7', 0.5200000000000004), ('wc_12', 0.5400000000000004)]",0.7792000000000003,,,25.0,0.008346000000000001,['Fail'],Fail,0.5900000000000004,0.009999999999999565,3.0,5.0,0.8
6.0,3.0,wc_3,,0.0,,,,162.0,,,,Fail,,,,,
6.0,3.0,wc_3,wc_16,0.0,"[('wc_16', 0.41000000000000025), ('wc_7', 0.5200000000000004), ('wc_12', 0.5400000000000004)]",0.8697280000000003,,,26.0,0.009897999999999999,['Fail'],Fail,0.41000000000000025,-0.16000000000000025,2.0,8.0,0.6
6.0,3.0,wc_3,,0.0,,,,283.0,,,,Fail,,,,,
6.0,3.0,wc_3,wc_2,0.0,"[('wc_2', 0.21000000000000008), ('wc_7', 0.5200000000000004), ('wc_12', 0.5400000000000004), ('wc_16', 0.41000000000000025)]",0.8970851200000002,,,24.0,0.013129999999999998,['Fail'],Fail,0.21000000000000008,-0.21000000000000008,0.0,0.0,0.1
6.0,3.0,wc_3,,0.0,,,,182.0,,,,Fail,,,,,
6.0,3.0,wc_3,wc_13,1.0,"[('wc_13', 0.2300000000000001), ('wc_7', 0.5200000000000004), ('wc_12', 0.5400000000000004), ('wc_16', 0.41000000000000025), ('wc_2', 0.21000000000000008)]",0.9207555424000001,,,24.0,0.046826,['Fail'],Fail,0.2400000000000001,0.09333333333333321,1.0,3.0,0.1
8.0,4.0,wc_4,,0.0,,,,361.0,,,,Pass,,,,,
8.0,4.0,wc_4,,0.0,,,50.0,,,,,Pass,,,,,
8.0,4.0,wc_4,,0.0,,,,0.0,,,,Pass,,,,,
8.0,4.0,wc_4,wc_4,0.0,"[('wc_4', 0.3800000000000002)]",0.3800000000000002,,,27.0,0.002097,['Pass'],Pass,0.3800000000000002,-0.04666666666666691,2.0,6.0,0.7
8.0,4.0,wc_4,,0.0,,,,161.0,,,,Pass,,,,,
8.0,4.0,wc_4,wc_14,0.0,"[('wc_14', 0.5100000000000003)]",0.5100000000000003,,,22.0,0.0052499999999999995,['Fail'],Pass,0.5100000000000003,-0.010000000000000342,1.0,2.0,0.5
8.0,4.0,wc_4,,0.0,,,,281.0,,,,Pass,,,,,
8.0,4.0,wc_4,wc_9,0.0,"[('wc_14', 0.5100000000000003)]",0.5100000000000003,,,38.0,0.006368,['Fail'],Pass,0.16000000000000003,-0.16000000000000003,0.0,8.0,0.1
8.0,4.0,wc_4,,0.0,,,,182.0,,,,Pass,,,,,
8.0,4.0,wc_4,wc_16,0.0,"[('wc_16', 0.41000000000000025), ('wc_4', 0.3800000000000002), ('wc_9', 0.16000000000000003)]",0.6927280000000002,,,27.0,0.008705000000000001,['Pass'],Pass,0.41000000000000025,-0.07666666666666694,3.0,9.0,0.6
8.0,4.0,wc_4,,0.0,,,,382.0,,,,Pass,,,,,
8.0,4.0,wc_4,wc_3,0.0,"[('wc_3', 0.18000000000000005), ('wc_4', 0.3800000000000002), ('wc_9', 0.16000000000000003), ('wc_16', 0.41000000000000025)]",0.7480369600000003,,,40.0,0.009776,['Pass'],Pass,0.18000000000000005,0.04222222222222216,2.0,9.0,0.1
8.0,4.0,wc_4,,0.0,,,,101.0,,,,Pass,,,,,
8.0,4.0,wc_4,wc_2,0.0,"[('wc_2', 0.22000000000000008), ('wc_4', 0.3800000000000002), ('wc_9', 0.16000000000000003), ('wc_16', 0.41000000000000025), ('wc_3', 0.18000000000000005)]",0.8034688288000003,,,28.0,0.015066000000000001,['Pass'],Pass,0.22000000000000008,0.7799999999999999,1.0,1.0,0.1
8.0,4.0,wc_4,,0.0,,,,223.0,,,,Pass,,,,,
8.0,4.0,wc_4,wc_11,1.0,"[('wc_11', 0.5600000000000004), ('wc_4', 0.3800000000000002), ('wc_9', 0.16000000000000003), ('wc_16', 0.41000000000000025), ('wc_3', 0.18000000000000005), ('wc_2', 0.22000000000000008)]",0.9135262846720001,,,33.0,0.042578,['Pass'],Pass,0.5600000000000004,-0.5600000000000004,0.0,0.0,1.0
10.0,3.0,wc_3,,0.0,,,,322.0,,,,Fail,,,,,
10.0,3.0,wc_3,,0.0,,,67.0,,,,,Fail,,,,,
10.0,3.0,wc_3,,0.0,,,,0.0,,,,Fail,,,,,
10.0,3.0,wc_3,wc_3,0.0,"[('wc_3', 0.19000000000000006)]",0.19000000000000006,,,28.0,0.002511,['Pass'],Fail,0.19000000000000006,-0.19000000000000006,0.0,0.0,0.1
10.0,3.0,wc_3,,0.0,,,,141.0,,,,Fail,,,,,
10.0,3.0,wc_3,wc_8,0.0,"[('wc_8', 0.3200000000000002), ('wc_3', 0.19000000000000006)]",0.44920000000000015,,,20.0,0.005112,['Pass'],Fail,0.3200000000000002,-0.22909090909090926,0.0,0.0,0.3
10.0,3.0,wc_3,,0.0,,,,182.0,,,,Fail,,,,,
10.0,3.0,wc_3,wc_2,0.0,"[('wc_3', 0.19000000000000006), ('wc_8', 0.3200000000000002)]",0.44920000000000015,,,37.0,0.010676000000000001,['Pass'],Fail,0.2300000000000001,0.7699999999999999,2.0,2.0,0.1
10.0,3.0,wc_3,,0.0,,,,203.0,,,,Fail,,,,,
10.0,3.0,wc_3,wc_10,0.0,"[('wc_10', 0.5800000000000004), ('wc_2', 0.2300000000000001)]",0.6766000000000003,,,25.0,0.007715,['Fail'],Fail,0.5800000000000004,-0.15142857142857186,3.0,7.0,0.8
10.0,3.0,wc_3,,0.0,,,,61.0,,,,Fail,,,,,
10.0,3.0,wc_3,wc_7,0.0,"[('wc_7', 0.5200000000000004), ('wc_2', 0.2300000000000001), ('wc_10', 0.5800000000000004)]",0.8447680000000003,,,25.0,0.010362999999999999,['Fail'],Fail,0.5200000000000004,-0.27000000000000035,1.0,4.0,0.9
10.0,3.0,wc_3,,0.0,,,,182.0,,,,Fail,,,,,
10.0,3.0,wc_3,wc_14,0.0,"[('wc_2', 0.2300000000000001), ('wc_10', 0.5800000000000004), ('wc_7', 0.5200000000000004)]",0.8447680000000003,,,22.0,0.013926,['Fail'],Fail,0.5000000000000003,-0.16666666666666702,1.0,3.0,0.5
10.0,3.0,wc_3,,0.0,,,,281.0,,,,Fail,,,,,
10.0,3.0,wc_3,wc_9,0.0,"[('wc_2', 0.2300000000000001), ('wc_10', 0.5800000000000004), ('wc_7', 0.5200000000000004)]",0.8447680000000003,,,37.0,0.013614999999999999,['Fail'],Fail,0.16000000000000003,-0.048888888888888926,1.0,9.0,0.1
10.0,3.0,wc_3,,0.0,,,,0.0,,,,Fail,,,,,
10.0,3.0,wc_3,wc_11,1.0,"[('wc_11', 0.5600000000000004), ('wc_2', 0.2300000000000001), ('wc_10', 0.5800000000000004), ('wc_7', 0.5200000000000004)]",0.9316979200000002,,,20.0,0.055707999999999994,['Fail'],Fail,0.5700000000000004,0.4299999999999996,1.0,1.0,1.0
13.0,3.0,wc_3,,0.0,,,,322.0,,,,Pass,,,,,
13.0,3.0,wc_3,,0.0,,,68.0,,,,,Pass,,,,,
13.0,3.0,wc_3,,0.0,,,,0.0,,,,Pass,,,,,
13.0,3.0,wc_3,wc_3,0.0,"[('wc_3', 0.18000000000000005)]",0.18000000000000005,,,29.0,0.004256,['Fail'],Pass,0.18000000000000005,-0.18000000000000005,0.0,1.0,0.1
13.0,3.0,wc_3,,0.0,,,,121.0,,,,Pass,,,,,
13.0,3.0,wc_3,wc_7,0.0,"[('wc_7', 0.5200000000000004)]",0.5200000000000004,,,28.0,0.0049700000000000005,['Pass'],Pass,0.5200000000000004,-0.12000000000000033,2.0,5.0,0.9
13.0,3.0,wc_3,,0.0,,,,142.0,,,,Pass,,,,,
13.0,3.0,wc_3,wc_12,0.0,"[('wc_12', 0.5500000000000004), ('wc_7', 0.5200000000000004)]",0.7840000000000004,,,37.0,0.010264,['Pass'],Pass,0.5500000000000004,-0.21666666666666706,1.0,3.0,1.0
13.0,3.0,wc_3,,0.0,,,,182.0,,,,Pass,,,,,
13.0,3.0,wc_3,wc_6,0.0,"[('wc_7', 0.5200000000000004), ('wc_12', 0.5500000000000004)]",0.7840000000000004,,,25.0,0.007435,['Pass'],Pass,0.22000000000000008,-0.22000000000000008,0.0,0.0,0.2
13.0,3.0,wc_3,,0.0,,,,263.0,,,,Pass,,,,,
13.0,3.0,wc_3,wc_17,0.0,"[('wc_17', 0.4800000000000003), ('wc_7', 0.5200000000000004), ('wc_12', 0.5500000000000004)]",0.8876800000000002,,,40.0,0.010457,['Pass'],Pass,0.4800000000000003,-0.3133333333333337,1.0,6.0,0.6
13.0,3.0,wc_3,,0.0,,,,223.0,,,,Pass,,,,,
13.0,3.0,wc_3,wc_8,1.0,"[('wc_8', 0.31000000000000016), ('wc_7', 0.5200000000000004), ('wc_12', 0.5500000000000004), ('wc_17', 0.4800000000000003)]",0.9224992000000002,,,37.0,0.043168000000000005,['Pass'],Pass,0.3200000000000002,0.17999999999999983,1.0,2.0,0.3
16.0,5.0,wc_5,,0.0,,,,321.0,,,,Pass,,,,,
16.0,5.0,wc_5,,0.0,,,78.0,,,,,Pass,,,,,
16.0,5.0,wc_5,,0.0,,,,0.0,,,,Pass,,,,,
16.0,5.0,wc_5,wc_5,0.0,"[('wc_5', 0.5200000000000004)]",0.5200000000000004,,,40.0,0.002518,['Pass'],Pass,0.5200000000000004,-0.4533333333333337,0.0,0.0,0.8
16.0,5.0,wc_5,,0.0,,,,202.0,,,,Pass,,,,,
16.0,5.0,wc_5,wc_17,0.0,"[('wc_17', 0.4800000000000003), ('wc_5', 0.5200000000000004)]",0.7504000000000004,,,34.0,0.004162,['Pass'],Pass,0.4800000000000003,-0.19428571428571462,2.0,7.0,0.6
16.0,5.0,wc_5,,0.0,,,,362.0,,,,Pass,,,,,
16.0,5.0,wc_5,wc_11,0.0,"[('wc_11', 0.5700000000000004), ('wc_5', 0.5200000000000004), ('wc_17', 0.4800000000000003)]",0.8926720000000002,,,33.0,0.006957,['Pass'],Pass,0.5700000000000004,-0.0700000000000004,1.0,2.0,1.0
16.0,5.0,wc_5,,0.0,,,,223.0,,,,Pass,,,,,
16.0,5.0,wc_5,wc_2,0.0,"[('wc_5', 0.5200000000000004), ('wc_17', 0.4800000000000003), ('wc_11', 0.5700000000000004)]",0.8926720000000002,,,29.0,0.007893,['Pass'],Pass,0.2400000000000001,0.5099999999999999,3.0,4.0,0.1
16.0,5.0,wc_5,,0.0,,,,142.0,,,,Pass,,,,,
16.0,5.0,wc_5,wc_7,1.0,"[('wc_7', 0.5200000000000004), ('wc_5', 0.5200000000000004), ('wc_17', 0.4800000000000003), ('wc_11', 0.5700000000000004)]",0.9484825600000002,,,28.0,0.04155300000000001,['Pass'],Pass,0.5300000000000004,0.04142857142857104,4.0,7.0,0.9
22.0,6.0,wc_6,,0.0,,,,102.0,,,,Fail,,,,,
22.0,6.0,wc_6,,0.0,,,80.0,,,,,Fail,,,,,
22.0,6.0,wc_6,,0.0,,,,0.0,,,,Fail,,,,,
22.0,6.0,wc_6,wc_6,0.0,"[('wc_6', 0.21000000000000008)]",0.21000000000000008,,,37.0,0.001996,['Fail'],Fail,0.21000000000000008,-0.21000000000000008,0.0,2.0,0.2
22.0,6.0,wc_6,,0.0,,,,202.0,,,,Fail,,,,,
22.0,6.0,wc_6,wc_1,0.0,"[('wc_1', 0.5400000000000004), ('wc_6', 0.21000000000000008)]",0.6366000000000003,,,26.0,0.005412999999999999,['Fail'],Fail,0.5400000000000004,-0.26727272727272766,0.0,0.0,0.7
22.0,6.0,wc_6,,0.0,,,,223.0,,,,Fail,,,,,
22.0,6.0,wc_6,wc_10,0.0,"[('wc_10', 0.5800000000000004), ('wc_6', 0.21000000000000008), ('wc_1', 0.5400000000000004)]",0.8473720000000002,,,34.0,0.006000999999999999,['Fail'],Fail,0.5800000000000004,-0.18000000000000038,0.0,0.0,0.8
22.0,6.0,wc_6,,0.0,,,,362.0,,,,Fail,,,,,
22.0,6.0,wc_6,wc_4,1.0,"[('wc_4', 0.39000000000000024), ('wc_6', 0.21000000000000008), ('wc_1', 0.5400000000000004), ('wc_10', 0.5800000000000004)]",0.9068969200000002,,,31.0,0.041370000000000004,['Fail'],Fail,0.39000000000000024,-0.39000000000000024,0.0,0.0,0.7
26.0,6.0,wc_6,,0.0,,,,81.0,,,,Pass,,,,,
26.0,6.0,wc_6,,0.0,,,61.0,,,,,Pass,,,,,
26.0,6.0,wc_6,,0.0,,,,0.0,,,,Pass,,,,,
26.0,6.0,wc_6,wc_6,0.0,"[('wc_6', 0.22000000000000008)]",0.22000000000000008,,,40.0,0.003301,['Pass'],Pass,0.22000000000000008,0.11333333333333323,1.0,3.0,0.2
26.0,6.0,wc_6,,0.0,,,,0.0,,,,Pass,,,,,
26.0,6.0,wc_6,wc_11,0.0,"[('wc_11', 0.5800000000000004), ('wc_6', 0.22000000000000008)]",0.6724000000000003,,,35.0,0.0043549999999999995,['Pass'],Pass,0.5800000000000004,-0.0800000000000004,2.0,4.0,1.0
26.0,6.0,wc_6,,0.0,,,,83.0,,,,Pass,,,,,
26.0,6.0,wc_6,wc_9,0.0,"[('wc_6', 0.22000000000000008), ('wc_11', 0.5800000000000004)]",0.6724000000000003,,,21.0,0.005821,['Pass'],Pass,0.15000000000000002,-0.15000000000000002,0.0,3.0,0.1
26.0,6.0,wc_6,,0.0,,,,263.0,,,,Pass,,,,,
26.0,6.0,wc_6,wc_2,0.0,"[('wc_2', 0.2400000000000001), ('wc_6', 0.22000000000000008), ('wc_11', 0.5800000000000004)]",0.7510240000000004,,,22.0,0.009892000000000001,['Pass'],Pass,0.2400000000000001,0.2599999999999999,3.0,6.0,0.1
26.0,6.0,wc_6,,0.0,,,,203.0,,,,Pass,,,,,
26.0,6.0,wc_6,wc_10,0.0,"[('wc_10', 0.5900000000000004), ('wc_6', 0.22000000000000008), ('wc_11', 0.5800000000000004), ('wc_2', 0.2400000000000001)]",0.8979198400000002,,,23.0,0.010712,['Pass'],Pass,0.5900000000000004,0.4099999999999996,1.0,1.0,0.8
26.0,6.0,wc_6,,0.0,,,,342.0,,,,Pass,,,,,
26.0,6.0,wc_6,wc_3,0.0,"[('wc_6', 0.22000000000000008), ('wc_11', 0.5800000000000004), ('wc_2', 0.2400000000000001), ('wc_10', 0.5900000000000004)]",0.8979198400000002,,,24.0,0.015358999999999998,['Pass'],Pass,0.17000000000000004,-0.17000000000000004,0.0,4.0,0.1
26.0,6.0,wc_6,,0.0,,,,121.0,,,,Pass,,,,,
26.0,6.0,wc_6,wc_7,1.0,"[('wc_7', 0.5300000000000004), ('wc_6', 0.22000000000000008), ('wc_11', 0.5800000000000004), ('wc_2', 0.2400000000000001), ('wc_10', 0.5900000000000004)]",0.9520223248000002,,,30.0,0.04618900000000001,['Pass'],Pass,0.5400000000000004,0.015555555555555212,5.0,9.0,0.9
33.0,11.0,wc_11,,0.0,,,,0.0,,,,Pass,,,,,
33.0,11.0,wc_11,,0.0,,,78.0,,,,,Pass,,,,,
33.0,11.0,wc_11,,0.0,,,,0.0,,,,Pass,,,,,
33.0,11.0,wc_11,wc_11,0.0,"[('wc_11', 0.5900000000000004)]",0.5900000000000004,,,29.0,0.00199,['Pass'],Pass,0.5900000000000004,0.009999999999999565,3.0,5.0,1.0
33.0,11.0,wc_11,,0.0,,,,342.0,,,,Pass,,,,,
33.0,11.0,wc_11,wc_4,0.0,"[('wc_4', 0.39000000000000024), ('wc_11', 0.5900000000000004)]",0.7499000000000003,,,33.0,0.004471,['Pass'],Pass,0.39000000000000024,-0.39000000000000024,0.0,1.0,0.7
33.0,11.0,wc_11,,0.0,,,,61.0,,,,Pass,,,,,
33.0,11.0,wc_11,wc_1,0.0,"[('wc_1', 0.5500000000000004), ('wc_11', 0.5900000000000004), ('wc_4', 0.39000000000000024)]",0.8874550000000002,,,31.0,0.007471,['Pass'],Pass,0.5500000000000004,-0.05000000000000038,1.0,2.0,0.7
33.0,11.0,wc_11,,0.0,,,,142.0,,,,Pass,,,,,
33.0,11.0,wc_11,wc_6,0.0,"[('wc_11', 0.5900000000000004), ('wc_4', 0.39000000000000024), ('wc_1', 0.5500000000000004)]",0.8874550000000002,,,33.0,0.010057,['Pass'],Pass,0.2300000000000001,0.2699999999999999,2.0,4.0,0.2
33.0,11.0,wc_11,,0.0,,,,223.0,,,,Pass,,,,,
33.0,11.0,wc_11,wc_15,1.0,"[('wc_15', 0.42000000000000026), ('wc_11', 0.5900000000000004), ('wc_4', 0.39000000000000024), ('wc_1', 0.5500000000000004)]",0.9347239000000002,,,37.0,0.047182,['Pass'],Pass,0.42000000000000026,-0.42000000000000026,0.0,0.0,0.5
38.0,8.0,wc_8,,0.0,,,,263.0,,,,Fail,,,,,
38.0,8.0,wc_8,,0.0,,,78.0,,,,,Fail,,,,,
38.0,8.0,wc_8,,0.0,,,,0.0,,,,Fail,,,,,
38.0,8.0,wc_8,wc_8,0.0,"[('wc_8', 0.3200000000000002)]",0.3200000000000002,,,29.0,0.004176,['Fail'],Fail,0.3200000000000002,-0.15333333333333352,1.0,6.0,0.3
38.0,8.0,wc_8,,0.0,,,,0.0,,,,Fail,,,,,
38.0,8.0,wc_8,wc_10,0.0,"[('wc_10', 0.6000000000000004), ('wc_8', 0.3200000000000002)]",0.7280000000000004,,,21.0,0.0073880000000000005,['Fail'],Fail,0.6000000000000004,0.06666666666666621,2.0,3.0,0.8
38.0,8.0,wc_8,,0.0,,,,162.0,,,,Fail,,,,,
38.0,8.0,wc_8,wc_16,0.0,"[('wc_16', 0.41000000000000025), ('wc_8', 0.3200000000000002), ('wc_10', 0.6000000000000004)]",0.8395200000000003,,,25.0,0.007875,['Fail'],Fail,0.41000000000000025,-0.41000000000000025,0.0,6.0,0.6
38.0,8.0,wc_8,,0.0,,,,263.0,,,,Fail,,,,,
38.0,8.0,wc_8,wc_1,1.0,"[('wc_1', 0.5600000000000004), ('wc_8', 0.3200000000000002), ('wc_10', 0.6000000000000004), ('wc_16', 0.41000000000000025)]",0.9293888000000001,,,24.0,0.04123400000000001,['Fail'],Fail,0.5700000000000004,0.1799999999999996,3.0,4.0,0.7
44.0,7.0,wc_7,,0.0,,,,162.0,,,,Pass,,,,,
44.0,7.0,wc_7,,0.0,,,65.0,,,,,Pass,,,,,
44.0,7.0,wc_7,,0.0,,,,0.0,,,,Pass,,,,,
44.0,7.0,wc_7,wc_7,0.0,"[('wc_7', 0.5400000000000004)]",0.5400000000000004,,,28.0,0.00205,['Pass'],Pass,0.5400000000000004,-0.08545454545454584,0.0,0.0,0.9
44.0,7.0,wc_7,,0.0,,,,0.0,,,,Pass,,,,,
44.0,7.0,wc_7,wc_11,0.0,"[('wc_11', 0.6000000000000004), ('wc_7', 0.5400000000000004)]",0.8160000000000003,,,30.0,0.003953,['Pass'],Pass,0.6000000000000004,-0.028571428571429025,4.0,7.0,1.0
44.0,7.0,wc_7,,0.0,,,,103.0,,,,Pass,,,,,
44.0,7.0,wc_7,wc_10,1.0,"[('wc_10', 0.6100000000000004), ('wc_7', 0.5400000000000004), ('wc_11', 0.6000000000000004)]",0.9282400000000002,,,39.0,0.036828999999999994,['Pass'],Pass,0.6200000000000004,0.1799999999999996,4.0,5.0,0.8
49.0,8.0,wc_8,,0.0,,,,81.0,,,,Pass,,,,,
49.0,8.0,wc_8,,0.0,,,54.0,,,,,Pass,,,,,
49.0,8.0,wc_8,,0.0,,,,0.0,,,,Pass,,,,,
49.0,8.0,wc_8,wc_8,0.0,"[('wc_8', 0.3200000000000002)]",0.3200000000000002,,,29.0,0.002449,['Fail'],Pass,0.3200000000000002,-0.07000000000000017,2.0,8.0,0.3
49.0,8.0,wc_8,,0.0,,,,301.0,,,,Pass,,,,,
49.0,8.0,wc_8,wc_4,0.0,"[('wc_4', 0.40000000000000024)]",0.40000000000000024,,,21.0,0.003961,['Pass'],Pass,0.40000000000000024,-0.15000000000000024,1.0,4.0,0.7
49.0,8.0,wc_8,,0.0,,,,222.0,,,,Pass,,,,,
49.0,8.0,wc_8,wc_17,0.0,"[('wc_17', 0.4800000000000003), ('wc_4', 0.40000000000000024)]",0.6880000000000004,,,25.0,0.006736000000000001,['Pass'],Pass,0.4800000000000003,-0.24923076923076953,0.0,0.0,0.6
49.0,8.0,wc_8,,0.0,,,,21.0,,,,Pass,,,,,
49.0,8.0,wc_8,wc_12,0.0,"[('wc_12', 0.5500000000000004), ('wc_4', 0.40000000000000024), ('wc_17', 0.4800000000000003)]",0.8596000000000003,,,33.0,0.008628,['Pass'],Pass,0.5500000000000004,-0.35000000000000037,0.0,0.0,1.0
49.0,8.0,wc_8,,0.0,,,,182.0,,,,Pass,,,,,
49.0,8.0,wc_8,wc_6,0.0,"[('wc_4', 0.40000000000000024), ('wc_17', 0.4800000000000003), ('wc_12', 0.5500000000000004)]",0.8596000000000003,,,28.0,0.011296,['Pass'],Pass,0.2300000000000001,0.055714285714285605,2.0,7.0,0.2
49.0,8.0,wc_8,,0.0,,,,202.0,,,,Pass,,,,,
49.0,8.0,wc_8,wc_1,1.0,"[('wc_1', 0.5700000000000004), ('wc_4', 0.40000000000000024), ('wc_17', 0.4800000000000003), ('wc_12', 0.5500000000000004)]",0.9396280000000001,,,25.0,0.063381,['Pass'],Pass,0.5800000000000004,0.08666666666666623,4.0,6.0,0.7
54.0,10.0,wc_10,,0.0,,,,223.0,,,,Fail,,,,,
54.0,10.0,wc_10,,0.0,,,52.0,,,,,Fail,,,,,
54.0,10.0,wc_10,,0.0,,,,0.0,,,,Fail,,,,,
54.0,10.0,wc_10,wc_10,0.0,"[('wc_10', 0.6200000000000004)]",0.6200000000000004,,,36.0,0.00243,['Fail'],Fail,0.6200000000000004,0.04666666666666619,4.0,6.0,0.8
54.0,10.0,wc_10,,0.0,,,,382.0,,,,Fail,,,,,
54.0,10.0,wc_10,wc_5,0.0,"[('wc_5', 0.5300000000000004), ('wc_10', 0.6200000000000004)]",0.8214000000000004,,,29.0,0.0041270000000000005,['Fail'],Fail,0.5300000000000004,-0.3871428571428575,1.0,7.0,0.8
54.0,10.0,wc_10,,0.0,,,,162.0,,,,Fail,,,,,
54.0,10.0,wc_10,wc_11,1.0,"[('wc_11', 0.6100000000000004), ('wc_10', 0.6200000000000004), ('wc_5', 0.5300000000000004)]",0.9303460000000002,,,26.0,0.038686,['Fail'],Fail,0.6100000000000004,-0.6100000000000004,0.0,0.0,1.0
62.0,10.0,wc_10,,0.0,,,,103.0,,,,Pass,,,,,
62.0,10.0,wc_10,,0.0,,,72.0,,,,,Pass,,,,,
62.0,10.0,wc_10,,0.0,,,,0.0,,,,Pass,,,,,
62.0,10.0,wc_10,wc_10,0.0,"[('wc_10', 0.6300000000000004)]",0.6300000000000004,,,20.0,0.002029,['Pass'],Pass,0.6300000000000004,0.08428571428571385,5.0,7.0,0.8
62.0,10.0,wc_10,,0.0,,,,182.0,,,,Pass,,,,,
62.0,10.0,wc_10,wc_17,0.0,"[('wc_17', 0.4900000000000003), ('wc_10', 0.6300000000000004)]",0.8113000000000004,,,23.0,0.0039120000000000005,['Pass'],Pass,0.4900000000000003,0.009999999999999676,1.0,2.0,0.6
62.0,10.0,wc_10,,0.0,,,,183.0,,,,Pass,,,,,
62.0,10.0,wc_10,wc_6,0.0,"[('wc_6', 0.2300000000000001), ('wc_10', 0.6300000000000004), ('wc_17', 0.4900000000000003)]",0.8547010000000003,,,30.0,0.006326999999999999,['Pass'],Pass,0.2300000000000001,-0.007777777777777883,2.0,9.0,0.2
62.0,10.0,wc_10,,0.0,,,,243.0,,,,Pass,,,,,
62.0,10.0,wc_10,wc_16,1.0,"[('wc_16', 0.41000000000000025), ('wc_10', 0.6300000000000004), ('wc_17', 0.4900000000000003), ('wc_6', 0.2300000000000001)]",0.9142735900000002,,,35.0,0.043750000000000004,['Pass'],Pass,0.41000000000000025,-0.41000000000000025,0.0,0.0,0.6
68.0,9.0,wc_9,,0.0,,,,342.0,,,,Fail,,,,,
68.0,9.0,wc_9,,0.0,,,79.0,,,,,Fail,,,,,
68.0,9.0,wc_9,,0.0,,,,0.0,,,,Fail,,,,,
68.0,9.0,wc_9,wc_9,0.0,"[('wc_9', 0.14)]",0.14,,,28.0,0.002183,['Fail'],Fail,0.14,-0.14,0.0,0.0,0.1
68.0,9.0,wc_9,,0.0,,,,81.0,,,,Fail,,,,,
68.0,9.0,wc_9,wc_7,0.0,"[('wc_7', 0.5500000000000004), ('wc_9', 0.14)]",0.6130000000000003,,,29.0,0.004029,['Fail'],Fail,0.5500000000000004,-0.3000000000000004,1.0,4.0,0.9
68.0,9.0,wc_9,,0.0,,,,301.0,,,,Fail,,,,,
68.0,9.0,wc_9,wc_3,0.0,"[('wc_3', 0.16000000000000003), ('wc_9', 0.14), ('wc_7', 0.5500000000000004)]",0.6749200000000003,,,20.0,0.0057540000000000004,['Fail'],Fail,0.16000000000000003,-0.16000000000000003,0.0,0.0,0.1
68.0,9.0,wc_9,,0.0,,,,202.0,,,,Fail,,,,,
68.0,9.0,wc_9,wc_11,0.0,"[('wc_11', 0.6100000000000004), ('wc_9', 0.14), ('wc_7', 0.5500000000000004), ('wc_3', 0.16000000000000003)]",0.8732188000000003,,,36.0,0.008914000000000002,['Fail'],Fail,0.6100000000000004,-0.6100000000000004,0.0,1.0,1.0
68.0,9.0,wc_9,,0.0,,,,21.0,,,,Fail,,,,,
68.0,9.0,wc_9,wc_6,1.0,"[('wc_6', 0.2400000000000001), ('wc_9', 0.14), ('wc_7', 0.5500000000000004), ('wc_3', 0.16000000000000003), ('wc_11', 0.6100000000000004)]",0.9036462880000002,,,29.0,0.045771000000000006,['Fail'],Fail,0.2500000000000001,0.7499999999999999,1.0,1.0,0.2
75.0,9.0,wc_9,,0.0,,,,0.0,,,,Fail,,,,,
75.0,9.0,wc_9,,0.0,,,80.0,,,,,Fail,,,,,
75.0,9.0,wc_9,,0.0,,,,0.0,,,,Fail,,,,,
75.0,9.0,wc_9,wc_9,0.0,"[('wc_9', 0.15000000000000002)]",0.15000000000000002,,,34.0,0.002044,['Pass'],Fail,0.15000000000000002,0.85,1.0,1.0,0.1
75.0,9.0,wc_9,,0.0,,,,81.0,,,,Fail,,,,,
75.0,9.0,wc_9,wc_7,0.0,"[('wc_7', 0.5500000000000004)]",0.5500000000000004,,,31.0,0.004635,['Fail'],Fail,0.5500000000000004,-0.15000000000000036,2.0,5.0,0.9
75.0,9.0,wc_9,,0.0,,,,162.0,,,,Fail,,,,,
75.0,9.0,wc_9,wc_13,0.0,"[('wc_7', 0.5500000000000004)]",0.5500000000000004,,,38.0,0.006499,['Fail'],Fail,0.2400000000000001,-0.1775000000000001,0.0,0.0,0.1
75.0,9.0,wc_9,,0.0,,,,0.0,,,,Fail,,,,,
75.0,9.0,wc_9,wc_16,0.0,"[('wc_16', 0.41000000000000025), ('wc_7', 0.5500000000000004)]",0.7345000000000004,,,28.0,0.008571,['Fail'],Fail,0.41000000000000025,-0.41000000000000025,0.0,1.0,0.6
75.0,9.0,wc_9,,0.0,,,,243.0,,,,Fail,,,,,
75.0,9.0,wc_9,wc_8,0.0,"[('wc_7', 0.5500000000000004), ('wc_16', 0.41000000000000025)]",0.7345000000000004,,,27.0,0.009576,['Fail'],Fail,0.31000000000000016,-0.1433333333333335,0.0,0.0,0.3
75.0,9.0,wc_9,,0.0,,,,122.0,,,,Fail,,,,,
75.0,9.0,wc_9,wc_12,0.0,"[('wc_12', 0.5600000000000004), ('wc_7', 0.5500000000000004), ('wc_16', 0.41000000000000025)]",0.8831800000000003,,,20.0,0.013628,['Fail'],Fail,0.5600000000000004,-0.3100000000000004,1.0,4.0,1.0
75.0,9.0,wc_9,,0.0,,,,182.0,,,,Fail,,,,,
75.0,9.0,wc_9,wc_6,0.0,"[('wc_7', 0.5500000000000004), ('wc_16', 0.41000000000000025), ('wc_12', 0.5600000000000004)]",0.8831800000000003,,,23.0,0.014602999999999998,['Fail'],Fail,0.2500000000000001,0.7499999999999999,1.0,1.0,0.2
75.0,9.0,wc_9,,0.0,,,,0.0,,,,Fail,,,,,
75.0,9.0,wc_9,wc_11,1.0,"[('wc_11', 0.6100000000000004), ('wc_7', 0.5500000000000004), ('wc_16', 0.41000000000000025), ('wc_12', 0.5600000000000004)]",0.9544402000000002,,,31.0,0.052687,['Fail'],Fail,0.6200000000000004,0.04666666666666619,2.0,3.0,1.0
82.0,9.0,wc_9,,0.0,,,,83.0,,,,Fail,,,,,
82.0,9.0,wc_9,,0.0,,,59.0,,,,,Fail,,,,,
82.0,9.0,wc_9,,0.0,,,,0.0,,,,Fail,,,,,
82.0,9.0,wc_9,wc_9,0.0,"[('wc_9', 0.15000000000000002)]",0.15000000000000002,,,35.0,0.002554,['Pass'],Fail,0.15000000000000002,0.35,1.0,2.0,0.1
82.0,9.0,wc_9,,0.0,,,,61.0,,,,Fail,,,,,
82.0,9.0,wc_9,wc_6,0.0,"[('wc_6', 0.2500000000000001)]",0.2500000000000001,,,23.0,0.0043630000000000006,['Fail'],Fail,0.2500000000000001,0.2499999999999999,1.0,2.0,0.2
82.0,9.0,wc_9,,0.0,,,,321.0,,,,Fail,,,,,
82.0,9.0,wc_9,wc_3,0.0,"[('wc_3', 0.17000000000000004), ('wc_9', 0.15000000000000002)]",0.2945000000000001,,,37.0,0.008686,['Pass'],Fail,0.17000000000000004,0.32999999999999996,1.0,2.0,0.1
82.0,9.0,wc_9,,0.0,,,,222.0,,,,Fail,,,,,
82.0,9.0,wc_9,wc_16,0.0,"[('wc_16', 0.42000000000000026), ('wc_6', 0.2500000000000001)]",0.5650000000000003,,,33.0,0.015254,['Fail'],Fail,0.42000000000000026,0.07999999999999974,1.0,2.0,0.6
82.0,9.0,wc_9,,0.0,,,,41.0,,,,Fail,,,,,
82.0,9.0,wc_9,wc_12,0.0,"[('wc_12', 0.5600000000000004), ('wc_6', 0.2500000000000001), ('wc_16', 0.42000000000000026)]",0.8086000000000002,,,38.0,0.011013000000000002,['Fail'],Fail,0.5600000000000004,-0.16000000000000036,2.0,5.0,1.0
82.0,9.0,wc_9,,0.0,,,,202.0,,,,Fail,,,,,
82.0,9.0,wc_9,wc_7,1.0,"[('wc_7', 0.5500000000000004), ('wc_6', 0.2500000000000001), ('wc_16', 0.42000000000000026), ('wc_12', 0.5600000000000004)]",0.9138700000000002,,,40.0,0.06846800000000001,['Fail'],Fail,0.5600000000000004,0.01142857142857101,4.0,7.0,0.9
90.0,9.0,wc_9,,0.0,,,,0.0,,,,Fail,,,,,
90.0,9.0,wc_9,,0.0,,,62.0,,,,,Fail,,,,,
90.0,9.0,wc_9,,0.0,,,,0.0,,,,Fail,,,,,
90.0,9.0,wc_9,wc_9,0.0,"[('wc_9', 0.15000000000000002)]",0.15000000000000002,,,20.0,0.002394,['Pass'],Fail,0.15000000000000002,0.1833333333333333,1.0,3.0,0.1
90.0,9.0,wc_9,,0.0,,,,382.0,,,,Fail,,,,,
90.0,9.0,wc_9,wc_4,0.0,"[('wc_4', 0.40000000000000024)]",0.40000000000000024,,,31.0,0.004254,['Fail'],Fail,0.40000000000000024,-0.20000000000000023,0.0,0.0,0.7
90.0,9.0,wc_9,,0.0,,,,162.0,,,,Fail,,,,,
90.0,9.0,wc_9,wc_10,0.0,"[('wc_10', 0.6400000000000005), ('wc_4', 0.40000000000000024)]",0.7840000000000004,,,33.0,0.007338,['Fail'],Fail,0.6400000000000005,-0.09454545454545504,0.0,0.0,0.8
90.0,9.0,wc_9,,0.0,,,,41.0,,,,Fail,,,,,
90.0,9.0,wc_9,wc_6,0.0,"[('wc_4', 0.40000000000000024), ('wc_10', 0.6400000000000005)]",0.7840000000000004,,,27.0,0.008632,['Fail'],Fail,0.2600000000000001,0.4066666666666665,2.0,3.0,0.2
90.0,9.0,wc_9,,0.0,,,,222.0,,,,Fail,,,,,
90.0,9.0,wc_9,wc_2,0.0,"[('wc_4', 0.40000000000000024), ('wc_10', 0.6400000000000005)]",0.7840000000000004,,,34.0,0.010244999999999999,['Fail'],Fail,0.2500000000000001,-1.1102230246251565e-16,0.0,0.0,0.1
90.0,9.0,wc_9,,0.0,,,,0.0,,,,Fail,,,,,
90.0,9.0,wc_9,wc_3,0.0,"[('wc_4', 0.40000000000000024), ('wc_10', 0.6400000000000005)]",0.7840000000000004,,,37.0,0.012938999999999999,['Fail'],Fail,0.17000000000000004,0.16333333333333327,1.0,3.0,0.1
90.0,9.0,wc_9,,0.0,,,,181.0,,,,Fail,,,,,
90.0,9.0,wc_9,wc_14,0.0,"[('wc_14', 0.4900000000000003), ('wc_4', 0.40000000000000024), ('wc_10', 0.6400000000000005)]",0.8898400000000003,,,24.0,0.013992000000000001,['Fail'],Fail,0.4900000000000003,-0.4311764705882356,0.0,0.0,0.5
90.0,9.0,wc_9,,0.0,,,,102.0,,,,Fail,,,,,
90.0,9.0,wc_9,wc_13,0.0,"[('wc_4', 0.40000000000000024), ('wc_10', 0.6400000000000005), ('wc_14', 0.4900000000000003)]",0.8898400000000003,,,36.0,0.018529,['Fail'],Fail,0.2300000000000001,-0.2300000000000001,0.0,2.0,0.1
90.0,9.0,wc_9,,0.0,,,,0.0,,,,Fail,,,,,
90.0,9.0,wc_9,wc_15,1.0,"[('wc_15', 0.42000000000000026), ('wc_4', 0.40000000000000024), ('wc_10', 0.6400000000000005), ('wc_14', 0.4900000000000003)]",0.9361072000000001,,,30.0,0.050689,['Fail'],Fail,0.42000000000000026,-0.30888888888888916,1.0,9.0,0.5
98.0,9.0,wc_9,,0.0,,,,362.0,,,,Fail,,,,,
98.0,9.0,wc_9,,0.0,,,69.0,,,,,Fail,,,,,
98.0,9.0,wc_9,,0.0,,,,0.0,,,,Fail,,,,,
98.0,9.0,wc_9,wc_9,0.0,"[('wc_9', 0.15000000000000002)]",0.15000000000000002,,,22.0,0.002127,['Fail'],Fail,0.15000000000000002,0.09999999999999998,1.0,4.0,0.1
98.0,9.0,wc_9,,0.0,,,,141.0,,,,Fail,,,,,
98.0,9.0,wc_9,wc_14,0.0,"[('wc_14', 0.5000000000000003), ('wc_9', 0.15000000000000002)]",0.5750000000000003,,,29.0,0.004062,['Fail'],Fail,0.5000000000000003,0.49999999999999967,1.0,1.0,0.5
98.0,9.0,wc_9,,0.0,,,,82.0,,,,Fail,,,,,
98.0,9.0,wc_9,wc_12,0.0,"[('wc_12', 0.5600000000000004), ('wc_9', 0.15000000000000002), ('wc_14', 0.5000000000000003)]",0.8130000000000003,,,26.0,0.011245,['Fail'],Fail,0.5600000000000004,-0.13142857142857184,3.0,7.0,1.0
98.0,9.0,wc_9,,0.0,,,,0.0,,,,Fail,,,,,
98.0,9.0,wc_9,wc_13,0.0,"[('wc_9', 0.15000000000000002), ('wc_14', 0.5000000000000003), ('wc_12', 0.5600000000000004)]",0.8130000000000003,,,35.0,0.008178,['Fail'],Fail,0.22000000000000008,-0.22000000000000008,0.0,3.0,0.1
98.0,9.0,wc_9,,0.0,,,,381.0,,,,Fail,,,,,
98.0,9.0,wc_9,wc_5,1.0,"[('wc_5', 0.5300000000000004), ('wc_9', 0.15000000000000002), ('wc_14', 0.5000000000000003), ('wc_12', 0.5600000000000004)]",0.9121100000000002,,,31.0,0.042843,['Fail'],Fail,0.5300000000000004,-0.5300000000000004,0.0,0.0,0.8
106.0,9.0,wc_9,,0.0,,,,122.0,,,,Fail,,,,,
106.0,9.0,wc_9,,0.0,,,56.0,,,,,Fail,,,,,
106.0,9.0,wc_9,,0.0,,,,0.0,,,,Fail,,,,,
106.0,9.0,wc_9,wc_9,0.0,"[('wc_9', 0.16000000000000003)]",0.16000000000000003,,,22.0,0.002154,['Pass'],Fail,0.16000000000000003,0.24,2.0,5.0,0.1
106.0,9.0,wc_9,,0.0,,,,243.0,,,,Fail,,,,,
106.0,9.0,wc_9,wc_1,0.0,"[('wc_1', 0.5800000000000004)]",0.5800000000000004,,,39.0,0.003979,['Fail'],Fail,0.5800000000000004,-0.2723076923076927,0.0,0.0,0.7
106.0,9.0,wc_9,,0.0,,,,182.0,,,,Fail,,,,,
106.0,9.0,wc_9,wc_8,0.0,"[('wc_8', 0.30000000000000016), ('wc_1', 0.5800000000000004)]",0.7060000000000004,,,39.0,0.006361,['Fail'],Fail,0.30000000000000016,-0.30000000000000016,0.0,4.0,0.3
106.0,9.0,wc_9,,0.0,,,,162.0,,,,Fail,,,,,
106.0,9.0,wc_9,wc_14,0.0,"[('wc_14', 0.5100000000000003), ('wc_1', 0.5800000000000004), ('wc_8', 0.30000000000000016)]",0.8559400000000003,,,22.0,0.008027,['Fail'],Fail,0.5100000000000003,0.48999999999999966,2.0,2.0,0.5
106.0,9.0,wc_9,,0.0,,,,82.0,,,,Fail,,,,,
106.0,9.0,wc_9,wc_12,1.0,"[('wc_12', 0.5600000000000004), ('wc_1', 0.5800000000000004), ('wc_8', 0.30000000000000016), ('wc_14', 0.5100000000000003)]",0.9366136000000002,,,23.0,0.04729799999999999,['Fail'],Fail,0.5600000000000004,-0.004444444444444806,5.0,9.0,1.0
113.0,9.0,wc_9,,0.0,,,,321.0,,,,Pass,,,,,
113.0,9.0,wc_9,,0.0,,,50.0,,,,,Pass,,,,,
113.0,9.0,wc_9,,0.0,,,,0.0,,,,Pass,,,,,
113.0,9.0,wc_9,wc_9,0.0,"[('wc_9', 0.16000000000000003)]",0.16000000000000003,,,40.0,0.002041,['Fail'],Pass,0.16000000000000003,0.17333333333333328,2.0,6.0,0.1
113.0,9.0,wc_9,,0.0,,,,362.0,,,,Pass,,,,,
113.0,9.0,wc_9,wc_3,0.0,"[('wc_3', 0.17000000000000004)]",0.17000000000000004,,,28.0,0.003841,['Pass'],Pass,0.17000000000000004,-0.0033333333333333826,1.0,6.0,0.1
113.0,9.0,wc_9,,0.0,,,,181.0,,,,Pass,,,,,
113.0,9.0,wc_9,wc_14,0.0,"[('wc_14', 0.5200000000000004), ('wc_3', 0.17000000000000004)]",0.6016000000000004,,,20.0,0.005579,['Pass'],Pass,0.5200000000000004,0.47999999999999965,3.0,3.0,0.5
113.0,9.0,wc_9,,0.0,,,,0.0,,,,Pass,,,,,
113.0,9.0,wc_9,wc_16,0.0,"[('wc_3', 0.17000000000000004), ('wc_14', 0.5200000000000004)]",0.6016000000000004,,,23.0,0.007984999999999999,['Pass'],Pass,0.43000000000000027,-0.09666666666666696,2.0,6.0,0.6
113.0,9.0,wc_9,,0.0,,,,61.0,,,,Pass,,,,,
113.0,9.0,wc_9,wc_13,0.0,"[('wc_13', 0.21000000000000008), ('wc_9', 0.16000000000000003), ('wc_16', 0.43000000000000027)]",0.6217480000000002,,,36.0,0.012458,['Fail'],Pass,0.21000000000000008,-0.21000000000000008,0.0,5.0,0.1
113.0,9.0,wc_9,,0.0,,,,381.0,,,,Pass,,,,,
113.0,9.0,wc_9,wc_5,0.0,"[('wc_5', 0.5300000000000004), ('wc_9', 0.16000000000000003), ('wc_16', 0.43000000000000027), ('wc_13', 0.21000000000000008)]",0.8222215600000002,,,23.0,0.012549,['Fail'],Pass,0.5300000000000004,-0.5300000000000004,0.0,1.0,0.8
113.0,9.0,wc_9,,0.0,,,,101.0,,,,Pass,,,,,
113.0,9.0,wc_9,wc_8,0.0,"[('wc_9', 0.16000000000000003), ('wc_16', 0.43000000000000027), ('wc_13', 0.21000000000000008), ('wc_5', 0.5300000000000004)]",0.8222215600000002,,,23.0,0.019249,['Fail'],Pass,0.30000000000000016,-0.10000000000000014,1.0,5.0,0.3
113.0,9.0,wc_9,,0.0,,,,182.0,,,,Pass,,,,,
113.0,9.0,wc_9,wc_2,0.0,"[('wc_2', 0.2400000000000001), ('wc_9', 0.16000000000000003), ('wc_16', 0.43000000000000027), ('wc_13', 0.21000000000000008), ('wc_5', 0.5300000000000004)]",0.8648883856000003,,,29.0,0.015104000000000001,['Fail'],Pass,0.2400000000000001,-0.2400000000000001,0.0,3.0,0.1
113.0,9.0,wc_9,,0.0,,,,162.0,,,,Pass,,,,,
113.0,9.0,wc_9,wc_12,0.0,"[('wc_12', 0.5600000000000004), ('wc_3', 0.17000000000000004), ('wc_14', 0.5200000000000004), ('wc_8', 0.30000000000000016)]",0.8772928000000002,,,28.0,0.020649999999999998,['Pass'],Pass,0.5600000000000004,-0.004444444444444806,5.0,9.0,1.0
113.0,9.0,wc_9,,0.0,,,,202.0,,,,Pass,,,,,
113.0,9.0,wc_9,wc_7,1.0,"[('wc_7', 0.5600000000000004), ('wc_3', 0.17000000000000004), ('wc_14', 0.5200000000000004), ('wc_8', 0.30000000000000016), ('wc_12', 0.5600000000000004)]",0.9460088320000002,,,30.0,0.05111,['Pass'],Pass,0.5600000000000004,-0.5600000000000004,0.0,0.0,0.9
122.0,12.0,wc_12,,0.0,,,,142.0,,,,Fail,,,,,
122.0,12.0,wc_12,,0.0,,,78.0,,,,,Fail,,,,,
122.0,12.0,wc_12,,0.0,,,,0.0,,,,Fail,,,,,
122.0,12.0,wc_12,wc_12,0.0,"[('wc_12', 0.5700000000000004)]",0.5700000000000004,,,28.0,0.002286,['Fail'],Fail,0.5700000000000004,-0.5700000000000004,0.0,0.0,1.0
122.0,12.0,wc_12,,0.0,,,,361.0,,,,Fail,,,,,
122.0,12.0,wc_12,wc_11,0.0,"[('wc_11', 0.6200000000000004), ('wc_12', 0.5700000000000004)]",0.8366000000000003,,,27.0,0.0038390000000000004,['Fail'],Fail,0.6200000000000004,-0.37000000000000044,2.0,8.0,1.0
122.0,12.0,wc_12,,0.0,,,,322.0,,,,Fail,,,,,
122.0,12.0,wc_12,wc_3,0.0,"[('wc_12', 0.5700000000000004), ('wc_11', 0.6200000000000004)]",0.8366000000000003,,,27.0,0.006096000000000001,['Fail'],Fail,0.18000000000000005,0.10571428571428565,2.0,7.0,0.1
122.0,12.0,wc_12,,0.0,,,,0.0,,,,Fail,,,,,
122.0,12.0,wc_12,wc_4,1.0,"[('wc_4', 0.41000000000000025), ('wc_12', 0.5700000000000004), ('wc_11', 0.6200000000000004)]",0.9035940000000002,,,40.0,0.043538,['Fail'],Fail,0.41000000000000025,-0.010000000000000231,2.0,5.0,0.7
132.0,12.0,wc_12,,0.0,,,,121.0,,,,Fail,,,,,
132.0,12.0,wc_12,,0.0,,,73.0,,,,,Fail,,,,,
132.0,12.0,wc_12,,0.0,,,,0.0,,,,Fail,,,,,
132.0,12.0,wc_12,wc_12,0.0,"[('wc_12', 0.5800000000000004)]",0.5800000000000004,,,32.0,0.002086,['Fail'],Fail,0.5800000000000004,0.4199999999999996,1.0,1.0,1.0
132.0,12.0,wc_12,,0.0,,,,0.0,,,,Fail,,,,,
132.0,12.0,wc_12,wc_15,0.0,"[('wc_12', 0.5800000000000004)]",0.5800000000000004,,,26.0,0.0049510000000000005,['Fail'],Fail,0.42000000000000026,-0.34307692307692333,0.0,0.0,0.5
132.0,12.0,wc_12,,0.0,,,,422.0,,,,Fail,,,,,
132.0,12.0,wc_12,wc_4,0.0,"[('wc_4', 0.41000000000000025), ('wc_12', 0.5800000000000004)]",0.7522000000000003,,,24.0,0.005719,['Fail'],Fail,0.41000000000000025,-0.010000000000000231,2.0,5.0,0.7
132.0,12.0,wc_12,,0.0,,,,121.0,,,,Fail,,,,,
132.0,12.0,wc_12,wc_8,0.0,"[('wc_12', 0.5800000000000004), ('wc_4', 0.41000000000000025)]",0.7522000000000003,,,22.0,0.008742999999999999,['Fail'],Fail,0.31000000000000016,-0.024285714285714466,2.0,7.0,0.3
132.0,12.0,wc_12,,0.0,,,,142.0,,,,Fail,,,,,
132.0,12.0,wc_12,wc_13,0.0,"[('wc_12', 0.5800000000000004), ('wc_4', 0.41000000000000025)]",0.7522000000000003,,,26.0,0.009176,['Fail'],Fail,0.20000000000000007,-0.20000000000000007,0.0,7.0,0.1
132.0,12.0,wc_12,,0.0,,,,0.0,,,,Fail,,,,,
132.0,12.0,wc_12,wc_17,0.0,"[('wc_17', 0.5000000000000003), ('wc_12', 0.5800000000000004), ('wc_4', 0.41000000000000025)]",0.8761000000000002,,,30.0,0.011431999999999998,['Fail'],Fail,0.5000000000000003,-0.3181818181818185,0.0,0.0,0.6
132.0,12.0,wc_12,,0.0,,,,322.0,,,,Fail,,,,,
132.0,12.0,wc_12,wc_9,0.0,"[('wc_12', 0.5800000000000004), ('wc_4', 0.41000000000000025), ('wc_17', 0.5000000000000003)]",0.8761000000000002,,,35.0,0.013252,['Fail'],Fail,0.16000000000000003,0.08999999999999997,2.0,8.0,0.1
132.0,12.0,wc_12,,0.0,,,,243.0,,,,Fail,,,,,
132.0,12.0,wc_12,wc_1,1.0,"[('wc_1', 0.5900000000000004), ('wc_12', 0.5800000000000004), ('wc_4', 0.41000000000000025), ('wc_17', 0.5000000000000003)]",0.9492010000000002,,,31.0,0.04738500000000001,['Fail'],Fail,0.5900000000000004,-0.09000000000000041,2.0,4.0,0.7
150.0,12.0,wc_12,,0.0,,,,182.0,,,,Fail,,,,,
150.0,12.0,wc_12,,0.0,,,67.0,,,,,Fail,,,,,
150.0,12.0,wc_12,,0.0,,,,0.0,,,,Fail,,,,,
150.0,12.0,wc_12,wc_12,0.0,"[('wc_12', 0.5900000000000004)]",0.5900000000000004,,,31.0,0.002428,['Fail'],Fail,0.5900000000000004,0.4099999999999996,2.0,2.0,1.0
150.0,12.0,wc_12,,0.0,,,,182.0,,,,Fail,,,,,
150.0,12.0,wc_12,wc_6,0.0,"[('wc_6', 0.2600000000000001), ('wc_12', 0.5900000000000004)]",0.6966000000000003,,,20.0,0.00391,['Fail'],Fail,0.2600000000000001,-0.03777777777777791,2.0,9.0,0.2
150.0,12.0,wc_12,,0.0,,,,182.0,,,,Fail,,,,,
150.0,12.0,wc_12,wc_13,0.0,"[('wc_13', 0.19000000000000006), ('wc_12', 0.5900000000000004), ('wc_6', 0.2600000000000001)]",0.7542460000000003,,,39.0,0.006307,['Fail'],Fail,0.19000000000000006,-0.19000000000000006,0.0,8.0,0.1
150.0,12.0,wc_12,,0.0,,,,202.0,,,,Fail,,,,,
150.0,12.0,wc_12,wc_8,0.0,"[('wc_8', 0.30000000000000016), ('wc_12', 0.5900000000000004), ('wc_6', 0.2600000000000001), ('wc_13', 0.19000000000000006)]",0.8279722000000003,,,23.0,0.007987999999999999,['Fail'],Fail,0.30000000000000016,-0.050000000000000155,2.0,8.0,0.3
150.0,12.0,wc_12,,0.0,,,,301.0,,,,Fail,,,,,
150.0,12.0,wc_12,wc_4,1.0,"[('wc_4', 0.42000000000000026), ('wc_12', 0.5900000000000004), ('wc_6', 0.2600000000000001), ('wc_13', 0.19000000000000006), ('wc_8', 0.30000000000000016)]",0.9002238760000002,,,22.0,0.049240000000000006,['Fail'],Fail,0.43000000000000027,0.14142857142857113,4.0,7.0,0.7
179.0,12.0,wc_12,,0.0,,,,121.0,,,,Fail,,,,,
179.0,12.0,wc_12,,0.0,,,63.0,,,,,Fail,,,,,
179.0,12.0,wc_12,,0.0,,,,0.0,,,,Fail,,,,,
179.0,12.0,wc_12,wc_12,0.0,"[('wc_12', 0.6000000000000004)]",0.6000000000000004,,,25.0,0.007187,['Fail'],Fail,0.6000000000000004,0.3999999999999996,3.0,3.0,1.0
179.0,12.0,wc_12,,0.0,,,,361.0,,,,Fail,,,,,
179.0,12.0,wc_12,wc_11,0.0,"[('wc_11', 0.6200000000000004), ('wc_12', 0.6000000000000004)]",0.8480000000000003,,,22.0,0.004092999999999999,['Fail'],Fail,0.6200000000000004,-0.34727272727272773,0.0,0.0,1.0
179.0,12.0,wc_12,,0.0,,,,342.0,,,,Fail,,,,,
179.0,12.0,wc_12,wc_4,1.0,"[('wc_4', 0.43000000000000027), ('wc_12', 0.6000000000000004), ('wc_11', 0.6200000000000004)]",0.9133600000000003,,,26.0,0.041886,['Fail'],Fail,0.4400000000000003,0.18499999999999972,5.0,8.0,0.7
192.0,12.0,wc_12,,0.0,,,,121.0,,,,Fail,,,,,
192.0,12.0,wc_12,,0.0,,,74.0,,,,,Fail,,,,,
192.0,12.0,wc_12,,0.0,,,,0.0,,,,Fail,,,,,
192.0,12.0,wc_12,wc_12,0.0,"[('wc_12', 0.6100000000000004)]",0.6100000000000004,,,37.0,0.004538,['Fail'],Fail,0.6100000000000004,0.38999999999999957,4.0,4.0,1.0
192.0,12.0,wc_12,,0.0,,,,381.0,,,,Fail,,,,,
192.0,12.0,wc_12,wc_4,0.0,"[('wc_4', 0.4400000000000003), ('wc_12', 0.6100000000000004)]",0.7816000000000003,,,21.0,0.00786,['Fail'],Fail,0.4400000000000003,0.18499999999999972,5.0,8.0,0.7
192.0,12.0,wc_12,,0.0,,,,182.0,,,,Fail,,,,,
192.0,12.0,wc_12,wc_15,0.0,"[('wc_15', 0.41000000000000025), ('wc_12', 0.6100000000000004), ('wc_4', 0.4400000000000003)]",0.8711440000000003,,,32.0,0.009375999999999999,['Fail'],Fail,0.41000000000000025,-0.41000000000000025,0.0,3.0,0.5
192.0,12.0,wc_12,,0.0,,,,283.0,,,,Fail,,,,,
192.0,12.0,wc_12,wc_1,1.0,"[('wc_1', 0.5900000000000004), ('wc_12', 0.6100000000000004), ('wc_4', 0.4400000000000003), ('wc_15', 0.41000000000000025)]",0.9471690400000001,,,28.0,0.043406,['Fail'],Fail,0.5900000000000004,-0.16142857142857187,3.0,7.0,0.7
202.0,12.0,wc_12,,0.0,,,,182.0,,,,Fail,,,,,
202.0,12.0,wc_12,,0.0,,,74.0,,,,,Fail,,,,,
202.0,12.0,wc_12,,0.0,,,,0.0,,,,Fail,,,,,
202.0,12.0,wc_12,wc_12,0.0,"[('wc_12', 0.6200000000000004)]",0.6200000000000004,,,22.0,0.003121,['Pass'],Fail,0.6200000000000004,0.37999999999999956,5.0,5.0,1.0
202.0,12.0,wc_12,,0.0,,,,0.0,,,,Fail,,,,,
202.0,12.0,wc_12,wc_13,0.0,"[('wc_12', 0.6200000000000004)]",0.6200000000000004,,,32.0,0.00414,['Pass'],Fail,0.19000000000000006,-0.09909090909090915,0.0,0.0,0.1
202.0,12.0,wc_12,,0.0,,,,361.0,,,,Fail,,,,,
202.0,12.0,wc_12,wc_4,0.0,"[('wc_12', 0.6200000000000004)]",0.6200000000000004,,,20.0,0.011279,['Pass'],Fail,0.4500000000000003,0.21666666666666634,6.0,9.0,0.7
202.0,12.0,wc_12,,0.0,,,,61.0,,,,Fail,,,,,
202.0,12.0,wc_12,wc_1,0.0,"[('wc_1', 0.5900000000000004), ('wc_13', 0.19000000000000006), ('wc_4', 0.4500000000000003)]",0.8173450000000003,,,33.0,0.007667,['Fail'],Fail,0.5900000000000004,-0.16142857142857187,3.0,7.0,0.7
202.0,12.0,wc_12,,0.0,,,,243.0,,,,Fail,,,,,
202.0,12.0,wc_12,wc_11,1.0,"[('wc_11', 0.6300000000000004), ('wc_13', 0.19000000000000006), ('wc_4', 0.4500000000000003), ('wc_1', 0.5900000000000004)]",0.9324176500000002,,,35.0,0.046707,['Fail'],Fail,0.6400000000000005,0.026666666666666172,2.0,3.0,1.0
216.0,12.0,wc_12,,0.0,,,,61.0,,,,Fail,,,,,
216.0,12.0,wc_12,,0.0,,,66.0,,,,,Fail,,,,,
216.0,12.0,wc_12,,0.0,,,,0.0,,,,Fail,,,,,
216.0,12.0,wc_12,wc_12,0.0,"[('wc_12', 0.6200000000000004)]",0.6200000000000004,,,30.0,0.002099,['Fail'],Fail,0.6200000000000004,0.21333333333333293,5.0,6.0,1.0
216.0,12.0,wc_12,,0.0,,,,381.0,,,,Fail,,,,,
216.0,12.0,wc_12,wc_4,0.0,"[('wc_12', 0.6200000000000004)]",0.6200000000000004,,,33.0,0.008375,['Fail'],Fail,0.4600000000000003,-0.4600000000000003,0.0,0.0,0.7
216.0,12.0,wc_12,,0.0,,,,61.0,,,,Fail,,,,,
216.0,12.0,wc_12,wc_1,0.0,"[('wc_1', 0.5900000000000004), ('wc_12', 0.6200000000000004)]",0.8442000000000003,,,40.0,0.006605999999999999,['Fail'],Fail,0.5900000000000004,-0.09000000000000041,4.0,8.0,0.7
216.0,12.0,wc_12,,0.0,,,,263.0,,,,Fail,,,,,
216.0,12.0,wc_12,wc_16,1.0,"[('wc_16', 0.42000000000000026), ('wc_12', 0.6200000000000004), ('wc_1', 0.5900000000000004)]",0.9096360000000002,,,34.0,0.045728,['Fail'],Fail,0.42000000000000026,-0.42000000000000026,0.0,0.0,0.6
238.0,12.0,wc_12,,0.0,,,,41.0,,,,Fail,,,,,
238.0,12.0,wc_12,,0.0,,,64.0,,,,,Fail,,,,,
238.0,12.0,wc_12,,0.0,,,,0.0,,,,Fail,,,,,
238.0,12.0,wc_12,wc_12,0.0,"[('wc_12', 0.6300000000000004)]",0.6300000000000004,,,33.0,0.002008,['Fail'],Fail,0.6300000000000004,0.22714285714285665,6.0,7.0,1.0
238.0,12.0,wc_12,,0.0,,,,0.0,,,,Fail,,,,,
238.0,12.0,wc_12,wc_13,0.0,"[('wc_13', 0.20000000000000007), ('wc_12', 0.6300000000000004)]",0.7040000000000004,,,34.0,0.004158,['Fail'],Fail,0.20000000000000007,0.29999999999999993,1.0,2.0,0.1
238.0,12.0,wc_12,,0.0,,,,182.0,,,,Fail,,,,,
238.0,12.0,wc_12,wc_7,0.0,"[('wc_7', 0.5600000000000004), ('wc_12', 0.6300000000000004), ('wc_13', 0.20000000000000007)]",0.8697600000000003,,,28.0,0.005727,['Fail'],Fail,0.5600000000000004,-0.5600000000000004,0.0,7.0,0.9
238.0,12.0,wc_12,,0.0,,,,203.0,,,,Fail,,,,,
238.0,12.0,wc_12,wc_15,1.0,"[('wc_15', 0.41000000000000025), ('wc_12', 0.6300000000000004), ('wc_13', 0.20000000000000007), ('wc_7', 0.5600000000000004)]",0.9231584000000002,,,23.0,0.043304,['Fail'],Fail,0.41000000000000025,-0.12428571428571455,2.0,7.0,0.5
261.0,12.0,wc_12,,0.0,,,,61.0,,,,Fail,,,,,
261.0,12.0,wc_12,,0.0,,,65.0,,,,,Fail,,,,,
261.0,12.0,wc_12,,0.0,,,,0.0,,,,Fail,,,,,
261.0,12.0,wc_12,wc_12,0.0,"[('wc_12', 0.6400000000000005)]",0.6400000000000005,,,37.0,0.001974,['Pass'],Fail,0.6400000000000005,0.23499999999999954,7.0,8.0,1.0
261.0,12.0,wc_12,,0.0,,,,202.0,,,,Fail,,,,,
261.0,12.0,wc_12,wc_7,0.0,"[('wc_12', 0.6400000000000005)]",0.6400000000000005,,,29.0,0.004327,['Pass'],Fail,0.5600000000000004,-0.4350000000000004,1.0,8.0,0.9
261.0,12.0,wc_12,,0.0,,,,182.0,,,,Fail,,,,,
261.0,12.0,wc_12,wc_1,0.0,"[('wc_1', 0.5900000000000004), ('wc_7', 0.5600000000000004)]",0.8196000000000003,,,24.0,0.012563,['Fail'],Fail,0.5900000000000004,-0.09000000000000041,0.0,0.0,0.7
261.0,12.0,wc_12,,0.0,,,,202.0,,,,Fail,,,,,
261.0,12.0,wc_12,wc_13,0.0,"[('wc_7', 0.5600000000000004), ('wc_1', 0.5900000000000004)]",0.8196000000000003,,,26.0,0.008104,['Fail'],Fail,0.21000000000000008,0.45666666666666655,2.0,3.0,0.1
261.0,12.0,wc_12,,0.0,,,,242.0,,,,Fail,,,,,
261.0,12.0,wc_12,wc_2,0.0,"[('wc_7', 0.5600000000000004), ('wc_1', 0.5900000000000004)]",0.8196000000000003,,,21.0,0.010886999999999999,['Fail'],Fail,0.2300000000000001,-0.2300000000000001,0.0,0.0,0.1
261.0,12.0,wc_12,,0.0,,,,223.0,,,,Fail,,,,,
261.0,12.0,wc_12,wc_15,0.0,"[('wc_15', 0.41000000000000025), ('wc_7', 0.5600000000000004), ('wc_1', 0.5900000000000004)]",0.8935640000000002,,,37.0,0.012073,['Fail'],Fail,0.41000000000000025,-0.12428571428571455,2.0,7.0,0.5
261.0,12.0,wc_12,,0.0,,,,362.0,,,,Fail,,,,,
261.0,12.0,wc_12,wc_9,1.0,"[('wc_9', 0.16000000000000003), ('wc_7', 0.5600000000000004), ('wc_1', 0.5900000000000004), ('wc_15', 0.41000000000000025)]",0.9105937600000003,,,34.0,0.049911,['Fail'],Fail,0.17000000000000004,-0.17000000000000004,0.0,0.0,0.1
319.0,12.0,wc_12,,0.0,,,,101.0,,,,Fail,,,,,
319.0,12.0,wc_12,,0.0,,,64.0,,,,,Fail,,,,,
319.0,12.0,wc_12,,0.0,,,,0.0,,,,Fail,,,,,
319.0,12.0,wc_12,wc_12,0.0,"[('wc_12', 0.6400000000000005)]",0.6400000000000005,,,32.0,0.00219,['Fail'],Fail,0.6400000000000005,0.13777777777777733,7.0,9.0,1.0
319.0,12.0,wc_12,,0.0,,,,361.0,,,,Fail,,,,,
319.0,12.0,wc_12,wc_11,0.0,"[('wc_11', 0.6400000000000005), ('wc_12', 0.6400000000000005)]",0.8704000000000003,,,31.0,0.004278,['Fail'],Fail,0.6400000000000005,-0.30666666666666714,2.0,6.0,1.0
319.0,12.0,wc_12,,0.0,,,,83.0,,,,Fail,,,,,
319.0,12.0,wc_12,wc_9,0.0,"[('wc_12', 0.6400000000000005), ('wc_11', 0.6400000000000005)]",0.8704000000000003,,,23.0,0.005855,['Fail'],Fail,0.17000000000000004,-0.17000000000000004,0.0,0.0,0.1
319.0,12.0,wc_12,,0.0,,,,162.0,,,,Fail,,,,,
319.0,12.0,wc_12,wc_15,1.0,"[('wc_15', 0.41000000000000025), ('wc_12', 0.6400000000000005), ('wc_11', 0.6400000000000005)]",0.9235360000000002,,,40.0,0.04846999999999999,['Fail'],Fail,0.42000000000000026,0.024444444444444158,4.0,9.0,0.5
367.0,12.0,wc_12,,0.0,,,,61.0,,,,Pass,,,,,
367.0,12.0,wc_12,,0.0,,,58.0,,,,,Pass,,,,,
367.0,12.0,wc_12,,0.0,,,,0.0,,,,Pass,,,,,
367.0,12.0,wc_12,wc_12,0.0,"[('wc_12', 0.6500000000000005)]",0.6500000000000005,,,39.0,0.002514,['Pass'],Pass,0.6500000000000005,-0.6500000000000005,0.0,0.0,1.0
367.0,12.0,wc_12,,0.0,,,,0.0,,,,Pass,,,,,
367.0,12.0,wc_12,wc_17,0.0,"[('wc_17', 0.5100000000000003), ('wc_12', 0.6500000000000005)]",0.8285000000000003,,,36.0,0.004035,['Pass'],Pass,0.5100000000000003,-0.39888888888888924,1.0,9.0,0.6
367.0,12.0,wc_12,,0.0,,,,83.0,,,,Pass,,,,,
367.0,12.0,wc_12,wc_15,1.0,"[('wc_15', 0.42000000000000026), ('wc_12', 0.6500000000000005), ('wc_17', 0.5100000000000003)]",0.9005300000000003,,,40.0,0.044228,['Pass'],Pass,0.43000000000000027,-0.43000000000000027,0.0,0.0,0.5
389.0,13.0,wc_13,,0.0,,,,81.0,,,,Fail,,,,,
389.0,13.0,wc_13,,0.0,,,77.0,,,,,Fail,,,,,
389.0,13.0,wc_13,,0.0,,,,0.0,,,,Fail,,,,,
389.0,13.0,wc_13,wc_13,0.0,"[('wc_13', 0.21000000000000008)]",0.21000000000000008,,,32.0,0.002366,['Pass'],Fail,0.21000000000000008,0.12333333333333324,2.0,6.0,0.1
389.0,13.0,wc_13,,0.0,,,,0.0,,,,Fail,,,,,
389.0,13.0,wc_13,wc_15,0.0,"[('wc_15', 0.43000000000000027), ('wc_13', 0.21000000000000008)]",0.5497000000000003,,,26.0,0.004855,['Pass'],Fail,0.43000000000000027,-0.43000000000000027,0.0,0.0,0.5
389.0,13.0,wc_13,,0.0,,,,303.0,,,,Fail,,,,,
389.0,13.0,wc_13,wc_2,0.0,"[('wc_13', 0.21000000000000008), ('wc_15', 0.43000000000000027)]",0.5497000000000003,,,21.0,0.00609,['Pass'],Fail,0.22000000000000008,-0.22000000000000008,0.0,3.0,0.1
389.0,13.0,wc_13,,0.0,,,,203.0,,,,Fail,,,,,
389.0,13.0,wc_13,wc_10,0.0,"[('wc_10', 0.6500000000000005), ('wc_2', 0.22000000000000008)]",0.7270000000000003,,,25.0,0.00771,['Fail'],Fail,0.6500000000000005,-0.5833333333333338,0.0,0.0,0.8
389.0,13.0,wc_13,,0.0,,,,223.0,,,,Fail,,,,,
389.0,13.0,wc_13,wc_1,0.0,"[('wc_1', 0.6000000000000004), ('wc_2', 0.22000000000000008), ('wc_10', 0.6500000000000005)]",0.8908000000000003,,,23.0,0.009361000000000001,['Fail'],Fail,0.6000000000000004,-0.2666666666666671,1.0,3.0,0.7
389.0,13.0,wc_13,,0.0,,,,243.0,,,,Fail,,,,,
389.0,13.0,wc_13,wc_11,1.0,"[('wc_11', 0.6400000000000005), ('wc_2', 0.22000000000000008), ('wc_10', 0.6500000000000005), ('wc_1', 0.6000000000000004)]",0.9606880000000002,,,22.0,0.046484,['Fail'],Fail,0.6400000000000005,-0.19555555555555604,4.0,9.0,1.0
405.0,13.0,wc_13,,0.0,,,,81.0,,,,Pass,,,,,
405.0,13.0,wc_13,,0.0,,,54.0,,,,,Pass,,,,,
405.0,13.0,wc_13,,0.0,,,,0.0,,,,Pass,,,,,
405.0,13.0,wc_13,wc_13,0.0,"[('wc_13', 0.21000000000000008)]",0.21000000000000008,,,22.0,0.002939,['Pass'],Pass,0.21000000000000008,0.07571428571428562,2.0,7.0,0.1
405.0,13.0,wc_13,,0.0,,,,0.0,,,,Pass,,,,,
405.0,13.0,wc_13,wc_17,0.0,"[('wc_17', 0.5100000000000003), ('wc_13', 0.21000000000000008)]",0.6129000000000003,,,28.0,0.0040750000000000005,['Pass'],Pass,0.5100000000000003,-0.5100000000000003,0.0,1.0,0.6
405.0,13.0,wc_13,,0.0,,,,362.0,,,,Pass,,,,,
405.0,13.0,wc_13,wc_11,0.0,"[('wc_11', 0.6400000000000005), ('wc_13', 0.21000000000000008), ('wc_17', 0.5100000000000003)]",0.8606440000000003,,,33.0,0.005795,['Pass'],Pass,0.6400000000000005,-0.19555555555555604,4.0,9.0,1.0
405.0,13.0,wc_13,,0.0,,,,203.0,,,,Pass,,,,,
405.0,13.0,wc_13,wc_1,1.0,"[('wc_1', 0.6000000000000004), ('wc_13', 0.21000000000000008), ('wc_17', 0.5100000000000003), ('wc_11', 0.6400000000000005)]",0.9442576000000001,,,27.0,0.047163,['Pass'],Pass,0.6000000000000004,-4.440892098500626e-16,3.0,5.0,0.7
416.0,16.0,wc_16,,0.0,,,,263.0,,,,Fail,,,,,
416.0,16.0,wc_16,,0.0,,,60.0,,,,,Fail,,,,,
416.0,16.0,wc_16,,0.0,,,,0.0,,,,Fail,,,,,
416.0,16.0,wc_16,wc_16,0.0,"[('wc_16', 0.42000000000000026)]",0.42000000000000026,,,22.0,0.002083,['Pass'],Fail,0.42000000000000026,-0.42000000000000026,0.0,6.0,0.6
416.0,16.0,wc_16,,0.0,,,,0.0,,,,Fail,,,,,
416.0,16.0,wc_16,wc_17,0.0,"[('wc_17', 0.5100000000000003), ('wc_16', 0.42000000000000026)]",0.7158000000000003,,,39.0,0.004196,['Pass'],Fail,0.5100000000000003,-0.010000000000000342,1.0,2.0,0.6
416.0,16.0,wc_16,,0.0,,,,362.0,,,,Fail,,,,,
416.0,16.0,wc_16,wc_3,0.0,"[('wc_3', 0.18000000000000005), ('wc_16', 0.42000000000000026), ('wc_17', 0.5100000000000003)]",0.7669560000000003,,,27.0,0.006056,['Pass'],Fail,0.18000000000000005,-0.08000000000000004,0.0,0.0,0.1
416.0,16.0,wc_16,,0.0,,,,101.0,,,,Fail,,,,,
416.0,16.0,wc_16,wc_6,0.0,"[('wc_16', 0.42000000000000026), ('wc_17', 0.5100000000000003), ('wc_3', 0.18000000000000005)]",0.7669560000000003,,,40.0,0.008134,['Pass'],Fail,0.27000000000000013,-0.27000000000000013,0.0,0.0,0.2
416.0,16.0,wc_16,,0.0,,,,0.0,,,,Fail,,,,,
416.0,16.0,wc_16,wc_8,0.0,"[('wc_8', 0.31000000000000016), ('wc_16', 0.42000000000000026), ('wc_17', 0.5100000000000003), ('wc_3', 0.18000000000000005)]",0.8391996400000002,,,24.0,0.010317999999999999,['Pass'],Fail,0.31000000000000016,-0.1521052631578949,0.0,0.0,0.3
416.0,16.0,wc_16,,0.0,,,,102.0,,,,Fail,,,,,
416.0,16.0,wc_16,wc_7,0.0,"[('wc_16', 0.42000000000000026), ('wc_17', 0.5100000000000003), ('wc_3', 0.18000000000000005), ('wc_8', 0.31000000000000016)]",0.8391996400000002,,,28.0,0.012416,['Pass'],Fail,0.5600000000000004,-0.40615384615384653,0.0,0.0,0.9
416.0,16.0,wc_16,,0.0,,,,0.0,,,,Fail,,,,,
416.0,16.0,wc_16,wc_11,0.0,"[('wc_11', 0.6400000000000005), ('wc_6', 0.27000000000000013), ('wc_7', 0.5600000000000004)]",0.8843680000000003,,,40.0,0.016336,['Fail'],Fail,0.6400000000000005,-0.6400000000000005,0.0,0.0,1.0
416.0,16.0,wc_16,,0.0,,,,81.0,,,,Fail,,,,,
416.0,16.0,wc_16,wc_13,0.0,"[('wc_6', 0.27000000000000013), ('wc_7', 0.5600000000000004), ('wc_11', 0.6400000000000005)]",0.8843680000000003,,,32.0,0.014969999999999997,['Fail'],Fail,0.22000000000000008,0.15499999999999992,3.0,8.0,0.1
416.0,16.0,wc_16,,0.0,,,,102.0,,,,Fail,,,,,
416.0,16.0,wc_16,wc_12,1.0,"[('wc_12', 0.6600000000000005), ('wc_6', 0.27000000000000013), ('wc_7', 0.5600000000000004), ('wc_11', 0.6400000000000005)]",0.9606851200000002,,,27.0,0.055123,['Fail'],Fail,0.6600000000000005,-0.16000000000000048,2.0,4.0,1.0
430.0,16.0,wc_16,,0.0,,,,0.0,,,,Fail,,,,,
430.0,16.0,wc_16,,0.0,,,71.0,,,,,Fail,,,,,
430.0,16.0,wc_16,,0.0,,,,0.0,,,,Fail,,,,,
430.0,16.0,wc_16,wc_16,0.0,"[('wc_16', 0.41000000000000025)]",0.41000000000000025,,,29.0,0.00621,['Fail'],Fail,0.41000000000000025,-0.41000000000000025,0.0,7.0,0.6
430.0,16.0,wc_16,,0.0,,,,402.0,,,,Fail,,,,,
430.0,16.0,wc_16,wc_4,0.0,"[('wc_4', 0.4500000000000003), ('wc_16', 0.41000000000000025)]",0.6755000000000003,,,21.0,0.004161,['Fail'],Fail,0.4500000000000003,-0.4500000000000003,0.0,8.0,0.7
430.0,16.0,wc_16,,0.0,,,,222.0,,,,Fail,,,,,
430.0,16.0,wc_16,wc_17,0.0,"[('wc_17', 0.5000000000000003), ('wc_16', 0.41000000000000025), ('wc_4', 0.4500000000000003)]",0.8377500000000002,,,27.0,0.005943,['Fail'],Fail,0.5000000000000003,-0.16666666666666702,1.0,3.0,0.6
430.0,16.0,wc_16,,0.0,,,,263.0,,,,Fail,,,,,
430.0,16.0,wc_16,wc_2,0.0,"[('wc_2', 0.2300000000000001), ('wc_16', 0.41000000000000025), ('wc_4', 0.4500000000000003), ('wc_17', 0.5000000000000003)]",0.8750675000000002,,,31.0,0.007846,['Fail'],Fail,0.2300000000000001,-0.06333333333333344,1.0,6.0,0.1
430.0,16.0,wc_16,,0.0,,,,162.0,,,,Fail,,,,,
430.0,16.0,wc_16,wc_8,1.0,"[('wc_8', 0.30000000000000016), ('wc_16', 0.41000000000000025), ('wc_4', 0.4500000000000003), ('wc_17', 0.5000000000000003), ('wc_2', 0.2300000000000001)]",0.9125472500000001,,,24.0,0.047302,['Fail'],Fail,0.31000000000000016,0.18999999999999984,1.0,2.0,0.3
441.0,16.0,wc_16,,0.0,,,,203.0,,,,Fail,,,,,
441.0,16.0,wc_16,,0.0,,,60.0,,,,,Fail,,,,,
441.0,16.0,wc_16,,0.0,,,,0.0,,,,Fail,,,,,
441.0,16.0,wc_16,wc_16,0.0,"[('wc_16', 0.41000000000000025)]",0.41000000000000025,,,31.0,0.002642,['Fail'],Fail,0.41000000000000025,-0.28500000000000025,1.0,8.0,0.6
441.0,16.0,wc_16,,0.0,,,,243.0,,,,Fail,,,,,
441.0,16.0,wc_16,wc_8,0.0,"[('wc_16', 0.41000000000000025)]",0.41000000000000025,,,37.0,0.003978,['Fail'],Fail,0.31000000000000016,0.18999999999999984,1.0,2.0,0.3
441.0,16.0,wc_16,,0.0,,,,82.0,,,,Fail,,,,,
441.0,16.0,wc_16,wc_6,0.0,"[('wc_6', 0.28000000000000014), ('wc_8', 0.31000000000000016)]",0.5032000000000002,,,24.0,0.00608,['Pass'],Fail,0.28000000000000014,0.21999999999999986,1.0,2.0,0.2
441.0,16.0,wc_16,,0.0,,,,361.0,,,,Fail,,,,,
441.0,16.0,wc_16,wc_5,0.0,"[('wc_5', 0.5200000000000004), ('wc_16', 0.41000000000000025)]",0.7168000000000003,,,35.0,0.008199,['Fail'],Fail,0.5200000000000004,-0.5200000000000004,0.0,0.0,0.8
441.0,16.0,wc_16,,0.0,,,,162.0,,,,Fail,,,,,
441.0,16.0,wc_16,wc_11,1.0,"[('wc_11', 0.6500000000000005), ('wc_16', 0.41000000000000025), ('wc_5', 0.5200000000000004)]",0.9008800000000002,,,29.0,0.04723699999999999,['Fail'],Fail,0.6600000000000005,0.0066666666666661545,2.0,3.0,1.0
453.0,14.0,wc_14,,0.0,,,,101.0,,,,Pass,,,,,
453.0,14.0,wc_14,,0.0,,,80.0,,,,,Pass,,,,,
453.0,14.0,wc_14,,0.0,,,,0.0,,,,Pass,,,,,
453.0,14.0,wc_14,wc_14,0.0,"[('wc_14', 0.5300000000000004)]",0.5300000000000004,,,27.0,0.002204,['Pass'],Pass,0.5300000000000004,-0.33000000000000035,0.0,0.0,0.5
453.0,14.0,wc_14,,0.0,,,,162.0,,,,Pass,,,,,
453.0,14.0,wc_14,wc_7,0.0,"[('wc_7', 0.5700000000000004), ('wc_14', 0.5300000000000004)]",0.7979000000000003,,,29.0,0.0040750000000000005,['Pass'],Pass,0.5700000000000004,-0.23666666666666708,1.0,3.0,0.9
453.0,14.0,wc_14,,0.0,,,,102.0,,,,Pass,,,,,
453.0,14.0,wc_14,wc_6,0.0,"[('wc_14', 0.5300000000000004), ('wc_7', 0.5700000000000004)]",0.7979000000000003,,,39.0,0.006395,['Pass'],Pass,0.28000000000000014,0.05333333333333318,1.0,3.0,0.2
453.0,14.0,wc_14,,0.0,,,,243.0,,,,Pass,,,,,
453.0,14.0,wc_14,wc_16,0.0,"[('wc_16', 0.41000000000000025), ('wc_14', 0.5300000000000004), ('wc_7', 0.5700000000000004)]",0.8807610000000002,,,37.0,0.007998,['Pass'],Pass,0.41000000000000025,-0.18777777777777804,2.0,9.0,0.6
453.0,14.0,wc_14,,0.0,,,,382.0,,,,Pass,,,,,
453.0,14.0,wc_14,wc_11,1.0,"[('wc_11', 0.6600000000000005), ('wc_14', 0.5300000000000004), ('wc_7', 0.5700000000000004), ('wc_16', 0.41000000000000025)]",0.9594587400000001,,,25.0,0.052434,['Pass'],Pass,0.6700000000000005,0.07999999999999952,3.0,4.0,1.0
472.0,15.0,wc_15,,0.0,,,,122.0,,,,Pass,,,,,
472.0,15.0,wc_15,,0.0,,,56.0,,,,,Pass,,,,,
472.0,15.0,wc_15,,0.0,,,,0.0,,,,Pass,,,,,
472.0,15.0,wc_15,wc_15,0.0,"[('wc_15', 0.42000000000000026)]",0.42000000000000026,,,34.0,0.002252,['Pass'],Pass,0.42000000000000026,-0.42000000000000026,0.0,6.0,0.5
472.0,15.0,wc_15,,0.0,,,,61.0,,,,Pass,,,,,
472.0,15.0,wc_15,wc_12,0.0,"[('wc_12', 0.6600000000000005), ('wc_15', 0.42000000000000026)]",0.8028000000000004,,,35.0,0.004033,['Pass'],Pass,0.6600000000000005,-0.3742857142857148,2.0,7.0,1.0
472.0,15.0,wc_15,,0.0,,,,361.0,,,,Pass,,,,,
472.0,15.0,wc_15,wc_11,1.0,"[('wc_11', 0.6700000000000005), ('wc_15', 0.42000000000000026), ('wc_12', 0.6600000000000005)]",0.9349240000000002,,,24.0,0.043953,['Pass'],Pass,0.6800000000000005,0.11999999999999955,4.0,5.0,1.0
486.0,16.0,wc_16,,0.0,,,,142.0,,,,Pass,,,,,
486.0,16.0,wc_16,,0.0,,,79.0,,,,,Pass,,,,,
486.0,16.0,wc_16,,0.0,,,,0.0,,,,Pass,,,,,
486.0,16.0,wc_16,wc_16,0.0,"[('wc_16', 0.41000000000000025)]",0.41000000000000025,,,24.0,0.002312,['Fail'],Pass,0.41000000000000025,-0.41000000000000025,0.0,1.0,0.6
486.0,16.0,wc_16,,0.0,,,,263.0,,,,Pass,,,,,
486.0,16.0,wc_16,wc_1,0.0,"[('wc_1', 0.6000000000000004)]",0.6000000000000004,,,40.0,0.0041069999999999995,['Pass'],Pass,0.6000000000000004,-0.30000000000000043,0.0,0.0,0.7
486.0,16.0,wc_16,,0.0,,,,243.0,,,,Pass,,,,,
486.0,16.0,wc_16,wc_11,0.0,"[('wc_11', 0.6800000000000005), ('wc_1', 0.6000000000000004)]",0.8720000000000003,,,31.0,0.005691,['Pass'],Pass,0.6800000000000005,0.11999999999999955,4.0,5.0,1.0
486.0,16.0,wc_16,,0.0,,,,83.0,,,,Pass,,,,,
486.0,16.0,wc_16,wc_9,0.0,"[('wc_1', 0.6000000000000004), ('wc_11', 0.6800000000000005)]",0.8720000000000003,,,25.0,0.007346,['Pass'],Pass,0.16000000000000003,-0.16000000000000003,0.0,9.0,0.1
486.0,16.0,wc_16,,0.0,,,,202.0,,,,Pass,,,,,
486.0,16.0,wc_16,wc_17,1.0,"[('wc_17', 0.5000000000000003), ('wc_1', 0.6000000000000004), ('wc_11', 0.6800000000000005)]",0.9360000000000002,,,21.0,0.049148,['Pass'],Pass,0.5000000000000003,-0.12500000000000033,3.0,8.0,0.6
498.0,17.0,wc_17,,0.0,,,,0.0,,,,Pass,,,,,
498.0,17.0,wc_17,,0.0,,,75.0,,,,,Pass,,,,,
498.0,17.0,wc_17,,0.0,,,,0.0,,,,Pass,,,,,
498.0,17.0,wc_17,wc_17,0.0,"[('wc_17', 0.5000000000000003)]",0.5000000000000003,,,39.0,0.002201,['Pass'],Pass,0.5000000000000003,-0.12500000000000033,3.0,8.0,0.6
498.0,17.0,wc_17,,0.0,,,,21.0,,,,Pass,,,,,
498.0,17.0,wc_17,wc_12,0.0,"[('wc_12', 0.6600000000000005), ('wc_17', 0.5000000000000003)]",0.8300000000000003,,,38.0,0.003904,['Pass'],Pass,0.6600000000000005,-0.32666666666666716,3.0,9.0,1.0
498.0,17.0,wc_17,,0.0,,,,0.0,,,,Pass,,,,,
498.0,17.0,wc_17,wc_16,0.0,"[('wc_16', 0.40000000000000024), ('wc_17', 0.5000000000000003), ('wc_12', 0.6600000000000005)]",0.8980000000000002,,,27.0,0.0058059999999999995,['Pass'],Pass,0.40000000000000024,-0.40000000000000024,0.0,2.0,0.6
498.0,17.0,wc_17,,0.0,,,,382.0,,,,Pass,,,,,
498.0,17.0,wc_17,wc_3,1.0,"[('wc_3', 0.17000000000000004), ('wc_17', 0.5000000000000003), ('wc_12', 0.6600000000000005), ('wc_16', 0.40000000000000024)]",0.9153400000000003,,,25.0,0.052156999999999995,['Pass'],Pass,0.17000000000000004,-0.02714285714285719,1.0,7.0,0.1
