mpecck/BCQC/bcqc_with_qdt/results/raw/input_18/independent_qc/training/20_workpiece/20200429_095234/wp_5_qc_majority_0.9.csv
production_index,step_idx,production_workcell,qc,consent,winner_qc_list,score,production_time,transport_time,inspection_time,network_time,qc_results,actual_quality,qc_score,score_error,in_winner_counter,in_qc_counter,qc_capability
5.0,1.0,wc_1,,0.0,,,73.0,,,,,Fail,,,,,
5.0,1.0,wc_1,,0.0,,,,0.0,,,,Fail,,,,,
5.0,1.0,wc_1,wc_1,0.0,"[('wc_1', 0.6100000000000004)]",0.6100000000000004,,,36.0,0.002182,['Fail'],Fail,0.6100000000000004,-0.11000000000000043,1.0,2.0,0.7
5.0,1.0,wc_1,,0.0,,,,283.0,,,,Fail,,,,,
5.0,1.0,wc_1,wc_17,0.0,"[('wc_17', 0.5000000000000003), ('wc_1', 0.6100000000000004)]",0.8050000000000004,,,38.0,0.0045260000000000005,['Fail'],Fail,0.5000000000000003,-0.05555555555555591,4.0,9.0,0.6
5.0,1.0,wc_1,,0.0,,,,203.0,,,,Fail,,,,,
5.0,1.0,wc_1,wc_7,1.0,"[('wc_7', 0.5700000000000004), ('wc_1', 0.6100000000000004), ('wc_17', 0.5000000000000003)]",0.9161500000000002,,,40.0,0.042359999999999995,['Fail'],Fail,0.5700000000000004,-0.1950000000000004,3.0,8.0,0.9
105.0,1.0,wc_1,,0.0,,,,182.0,,,,Pass,,,,,
105.0,1.0,wc_1,,0.0,,,62.0,,,,,Pass,,,,,
105.0,1.0,wc_1,,0.0,,,,0.0,,,,Pass,,,,,
105.0,1.0,wc_1,wc_1,0.0,"[('wc_1', 0.6200000000000004)]",0.6200000000000004,,,22.0,0.002476,['Pass'],Pass,0.6200000000000004,0.04666666666666619,2.0,3.0,0.7
105.0,1.0,wc_1,,0.0,,,,182.0,,,,Pass,,,,,
105.0,1.0,wc_1,wc_8,0.0,"[('wc_8', 0.31000000000000016), ('wc_1', 0.6200000000000004)]",0.7378000000000003,,,30.0,0.004495,['Pass'],Pass,0.31000000000000016,-0.18500000000000016,1.0,8.0,0.3
105.0,1.0,wc_1,,0.0,,,,203.0,,,,Pass,,,,,
105.0,1.0,wc_1,wc_16,0.0,"[('wc_16', 0.40000000000000024), ('wc_1', 0.6200000000000004), ('wc_8', 0.31000000000000016)]",0.8426800000000003,,,29.0,0.005943,['Pass'],Pass,0.40000000000000024,-0.15000000000000024,1.0,4.0,0.6
105.0,1.0,wc_1,,0.0,,,,0.0,,,,Pass,,,,,
105.0,1.0,wc_1,wc_17,1.0,"[('wc_17', 0.5000000000000003), ('wc_1', 0.6200000000000004), ('wc_8', 0.31000000000000016), ('wc_16', 0.40000000000000024)]",0.9213400000000002,,,26.0,0.039199,['Pass'],Pass,0.5100000000000003,0.48999999999999966,1.0,1.0,0.6
118.0,2.0,wc_2,,0.0,,,,263.0,,,,Pass,,,,,
118.0,2.0,wc_2,,0.0,,,62.0,,,,,Pass,,,,,
118.0,2.0,wc_2,,0.0,,,,0.0,,,,Pass,,,,,
118.0,2.0,wc_2,wc_2,0.0,"[('wc_2', 0.2400000000000001)]",0.2400000000000001,,,22.0,0.002099,['Pass'],Pass,0.2400000000000001,-0.09714285714285725,0.0,0.0,0.1
118.0,2.0,wc_2,,0.0,,,,0.0,,,,Pass,,,,,
118.0,2.0,wc_2,wc_3,0.0,"[('wc_3', 0.17000000000000004), ('wc_2', 0.2400000000000001)]",0.3692000000000001,,,23.0,0.004058,['Pass'],Pass,0.17000000000000004,-0.058888888888888935,1.0,9.0,0.1
118.0,2.0,wc_2,,0.0,,,,101.0,,,,Pass,,,,,
118.0,2.0,wc_2,wc_6,0.0,"[('wc_6', 0.27000000000000013), ('wc_2', 0.2400000000000001), ('wc_3', 0.17000000000000004)]",0.5395160000000001,,,28.0,0.009192,['Pass'],Pass,0.27000000000000013,-0.15888888888888902,1.0,9.0,0.2
118.0,2.0,wc_2,,0.0,,,,202.0,,,,Pass,,,,,
118.0,2.0,wc_2,wc_14,0.0,"[('wc_14', 0.5400000000000004), ('wc_2', 0.2400000000000001), ('wc_3', 0.17000000000000004), ('wc_6', 0.27000000000000013)]",0.7881773600000003,,,24.0,0.009297,['Pass'],Pass,0.5400000000000004,-0.37333333333333374,1.0,6.0,0.5
118.0,2.0,wc_2,,0.0,,,,301.0,,,,Pass,,,,,
118.0,2.0,wc_2,wc_10,1.0,"[('wc_10', 0.6600000000000005), ('wc_2', 0.2400000000000001), ('wc_3', 0.17000000000000004), ('wc_6', 0.27000000000000013), ('wc_14', 0.5400000000000004)]",0.9279803024000002,,,31.0,0.042466000000000004,['Pass'],Pass,0.6600000000000005,-0.6600000000000005,0.0,0.0,0.8
139.0,3.0,wc_3,,0.0,,,,342.0,,,,Fail,,,,,
139.0,3.0,wc_3,,0.0,,,70.0,,,,,Fail,,,,,
139.0,3.0,wc_3,,0.0,,,,0.0,,,,Fail,,,,,
139.0,3.0,wc_3,wc_3,0.0,"[('wc_3', 0.18000000000000005)]",0.18000000000000005,,,37.0,0.002154,['Fail'],Fail,0.18000000000000005,-0.18000000000000005,0.0,0.0,0.1
139.0,3.0,wc_3,,0.0,,,,202.0,,,,Fail,,,,,
139.0,3.0,wc_3,wc_15,0.0,"[('wc_15', 0.42000000000000026), ('wc_3', 0.18000000000000005)]",0.5244000000000002,,,20.0,0.005207,['Fail'],Fail,0.42000000000000026,-0.33666666666666695,0.0,0.0,0.5
139.0,3.0,wc_3,,0.0,,,,0.0,,,,Fail,,,,,
139.0,3.0,wc_3,wc_16,0.0,"[('wc_16', 0.40000000000000024), ('wc_3', 0.18000000000000005), ('wc_15', 0.42000000000000026)]",0.7146400000000003,,,23.0,0.005858,['Fail'],Fail,0.40000000000000024,-0.06666666666666693,2.0,6.0,0.6
139.0,3.0,wc_3,,0.0,,,,362.0,,,,Fail,,,,,
139.0,3.0,wc_3,wc_10,1.0,"[('wc_10', 0.6600000000000005), ('wc_3', 0.18000000000000005), ('wc_15', 0.42000000000000026), ('wc_16', 0.40000000000000024)]",0.9029776000000003,,,37.0,0.042866,['Fail'],Fail,0.6700000000000005,0.3299999999999995,1.0,1.0,0.8
161.0,4.0,wc_4,,0.0,,,,362.0,,,,Fail,,,,,
161.0,4.0,wc_4,,0.0,,,67.0,,,,,Fail,,,,,
161.0,4.0,wc_4,,0.0,,,,0.0,,,,Fail,,,,,
161.0,4.0,wc_4,wc_4,0.0,"[('wc_4', 0.4500000000000003)]",0.4500000000000003,,,38.0,0.002348,['Fail'],Fail,0.4500000000000003,-0.3944444444444447,0.0,0.0,0.7
161.0,4.0,wc_4,,0.0,,,,182.0,,,,Fail,,,,,
161.0,4.0,wc_4,wc_15,0.0,"[('wc_15', 0.43000000000000027), ('wc_4', 0.4500000000000003)]",0.6865000000000003,,,27.0,0.004019,['Fail'],Fail,0.43000000000000027,0.5699999999999997,1.0,1.0,0.5
161.0,4.0,wc_4,,0.0,,,,243.0,,,,Fail,,,,,
161.0,4.0,wc_4,wc_7,0.0,"[('wc_7', 0.5700000000000004), ('wc_4', 0.4500000000000003), ('wc_15', 0.43000000000000027)]",0.8651950000000003,,,34.0,0.00591,['Fail'],Fail,0.5700000000000004,-0.2972727272727277,0.0,0.0,0.9
161.0,4.0,wc_4,,0.0,,,,202.0,,,,Fail,,,,,
161.0,4.0,wc_4,wc_2,0.0,"[('wc_4', 0.4500000000000003), ('wc_15', 0.43000000000000027), ('wc_7', 0.5700000000000004)]",0.8651950000000003,,,20.0,0.007294,['Fail'],Fail,0.2500000000000001,0.2499999999999999,1.0,2.0,0.1
161.0,4.0,wc_4,,0.0,,,,202.0,,,,Fail,,,,,
161.0,4.0,wc_4,wc_14,0.0,"[('wc_4', 0.4500000000000003), ('wc_15', 0.43000000000000027), ('wc_7', 0.5700000000000004)]",0.8651950000000003,,,35.0,0.009798000000000001,['Fail'],Fail,0.5400000000000004,-0.29000000000000037,2.0,8.0,0.5
161.0,4.0,wc_4,,0.0,,,,142.0,,,,Fail,,,,,
161.0,4.0,wc_4,wc_6,0.0,"[('wc_4', 0.4500000000000003), ('wc_15', 0.43000000000000027), ('wc_7', 0.5700000000000004)]",0.8651950000000003,,,37.0,0.012365000000000001,['Fail'],Fail,0.27000000000000013,-0.27000000000000013,0.0,1.0,0.2
161.0,4.0,wc_4,,0.0,,,,0.0,,,,Fail,,,,,
161.0,4.0,wc_4,wc_11,1.0,"[('wc_11', 0.6900000000000005), ('wc_2', 0.2500000000000001), ('wc_14', 0.5400000000000004), ('wc_6', 0.27000000000000013)]",0.9219265000000002,,,27.0,0.049374,['Pass'],Fail,0.6900000000000005,-0.6900000000000005,0.0,0.0,1.0
221.0,4.0,wc_4,,0.0,,,,342.0,,,,Fail,,,,,
221.0,4.0,wc_4,,0.0,,,75.0,,,,,Fail,,,,,
221.0,4.0,wc_4,,0.0,,,,0.0,,,,Fail,,,,,
221.0,4.0,wc_4,wc_4,0.0,"[('wc_4', 0.4400000000000003)]",0.4400000000000003,,,35.0,0.002086,['Fail'],Fail,0.4400000000000003,-0.4400000000000003,0.0,1.0,0.7
221.0,4.0,wc_4,,0.0,,,,81.0,,,,Fail,,,,,
221.0,4.0,wc_4,wc_6,0.0,"[('wc_4', 0.4400000000000003)]",0.4400000000000003,,,32.0,0.004196,['Fail'],Fail,0.28000000000000014,0.21999999999999986,1.0,2.0,0.2
221.0,4.0,wc_4,,0.0,,,,202.0,,,,Fail,,,,,
221.0,4.0,wc_4,wc_1,0.0,"[('wc_1', 0.6300000000000004), ('wc_4', 0.4400000000000003)]",0.7928000000000004,,,23.0,0.00783,['Fail'],Fail,0.6300000000000004,-0.2014285714285719,3.0,7.0,0.7
221.0,4.0,wc_4,,0.0,,,,162.0,,,,Fail,,,,,
221.0,4.0,wc_4,wc_7,1.0,"[('wc_7', 0.5600000000000004), ('wc_4', 0.4400000000000003), ('wc_1', 0.6300000000000004)]",0.9088320000000002,,,25.0,0.042515000000000004,['Fail'],Fail,0.5600000000000004,-0.060000000000000386,1.0,2.0,0.9
249.0,3.0,wc_3,,0.0,,,,301.0,,,,Fail,,,,,
249.0,3.0,wc_3,,0.0,,,58.0,,,,,Fail,,,,,
249.0,3.0,wc_3,,0.0,,,,0.0,,,,Fail,,,,,
249.0,3.0,wc_3,wc_3,0.0,"[('wc_3', 0.19000000000000006)]",0.19000000000000006,,,22.0,0.0022,['Fail'],Fail,0.19000000000000006,0.14333333333333326,1.0,3.0,0.1
249.0,3.0,wc_3,,0.0,,,,222.0,,,,Fail,,,,,
249.0,3.0,wc_3,wc_16,0.0,"[('wc_16', 0.41000000000000025), ('wc_3', 0.19000000000000006)]",0.5221000000000002,,,29.0,0.00418,['Fail'],Fail,0.41000000000000025,-0.07666666666666694,3.0,9.0,0.6
249.0,3.0,wc_3,,0.0,,,,402.0,,,,Fail,,,,,
249.0,3.0,wc_3,wc_4,0.0,"[('wc_4', 0.4500000000000003), ('wc_3', 0.19000000000000006), ('wc_16', 0.41000000000000025)]",0.7371550000000002,,,24.0,0.007005,['Fail'],Fail,0.4500000000000003,0.04999999999999971,1.0,2.0,0.7
249.0,3.0,wc_3,,0.0,,,,0.0,,,,Fail,,,,,
249.0,3.0,wc_3,wc_5,0.0,"[('wc_3', 0.19000000000000006), ('wc_16', 0.41000000000000025), ('wc_4', 0.4500000000000003)]",0.7371550000000002,,,37.0,0.011393,['Fail'],Fail,0.5300000000000004,-0.4390909090909094,0.0,0.0,0.8
249.0,3.0,wc_3,,0.0,,,,61.0,,,,Fail,,,,,
249.0,3.0,wc_3,wc_2,0.0,"[('wc_3', 0.19000000000000006), ('wc_16', 0.41000000000000025), ('wc_4', 0.4500000000000003)]",0.7371550000000002,,,36.0,0.011836,['Fail'],Fail,0.2600000000000001,0.23999999999999988,2.0,4.0,0.1
249.0,3.0,wc_3,,0.0,,,,263.0,,,,Fail,,,,,
249.0,3.0,wc_3,wc_17,0.0,"[('wc_17', 0.5100000000000003), ('wc_3', 0.19000000000000006), ('wc_16', 0.41000000000000025), ('wc_4', 0.4500000000000003)]",0.8712059500000002,,,32.0,0.01353,['Fail'],Fail,0.5100000000000003,-0.31000000000000033,1.0,5.0,0.6
249.0,3.0,wc_3,,0.0,,,,223.0,,,,Fail,,,,,
249.0,3.0,wc_3,wc_8,0.0,"[('wc_3', 0.19000000000000006), ('wc_16', 0.41000000000000025), ('wc_4', 0.4500000000000003), ('wc_17', 0.5100000000000003)]",0.8712059500000002,,,26.0,0.016471,['Fail'],Fail,0.31000000000000016,-0.1561538461538463,0.0,0.0,0.3
249.0,3.0,wc_3,,0.0,,,,183.0,,,,Fail,,,,,
249.0,3.0,wc_3,wc_15,0.0,"[('wc_3', 0.19000000000000006), ('wc_16', 0.41000000000000025), ('wc_4', 0.4500000000000003), ('wc_17', 0.5100000000000003)]",0.8712059500000002,,,32.0,0.015611,['Fail'],Fail,0.43000000000000027,-0.09666666666666696,1.0,3.0,0.5
249.0,3.0,wc_3,,0.0,,,,382.0,,,,Fail,,,,,
249.0,3.0,wc_3,wc_10,1.0,"[('wc_10', 0.6700000000000005), ('wc_3', 0.19000000000000006), ('wc_16', 0.41000000000000025), ('wc_4', 0.4500000000000003), ('wc_17', 0.5100000000000003)]",0.9574979635000002,,,34.0,0.056142,['Fail'],Fail,0.6700000000000005,-0.17000000000000048,2.0,4.0,0.8
278.0,4.0,wc_4,,0.0,,,,362.0,,,,Fail,,,,,
278.0,4.0,wc_4,,0.0,,,55.0,,,,,Fail,,,,,
278.0,4.0,wc_4,,0.0,,,,0.0,,,,Fail,,,,,
278.0,4.0,wc_4,wc_4,0.0,"[('wc_4', 0.4600000000000003)]",0.4600000000000003,,,21.0,0.002381,['Pass'],Fail,0.4600000000000003,0.20666666666666633,2.0,3.0,0.7
278.0,4.0,wc_4,,0.0,,,,142.0,,,,Fail,,,,,
278.0,4.0,wc_4,wc_9,0.0,"[('wc_9', 0.15000000000000002), ('wc_4', 0.4600000000000003)]",0.5410000000000003,,,40.0,0.004259,['Pass'],Fail,0.15000000000000002,-0.15000000000000002,0.0,8.0,0.1
278.0,4.0,wc_4,,0.0,,,,141.0,,,,Fail,,,,,
278.0,4.0,wc_4,wc_14,0.0,"[('wc_4', 0.4600000000000003), ('wc_9', 0.15000000000000002)]",0.5410000000000003,,,31.0,0.006354,['Pass'],Fail,0.5400000000000004,-0.26727272727272766,0.0,0.0,0.5
278.0,4.0,wc_4,,0.0,,,,162.0,,,,Fail,,,,,
278.0,4.0,wc_4,wc_7,0.0,"[('wc_7', 0.5600000000000004), ('wc_14', 0.5400000000000004)]",0.7976000000000003,,,39.0,0.008795,['Fail'],Fail,0.5600000000000004,-0.22666666666666707,1.0,3.0,0.9
278.0,4.0,wc_4,,0.0,,,,301.0,,,,Fail,,,,,
278.0,4.0,wc_4,wc_3,0.0,"[('wc_3', 0.20000000000000007), ('wc_14', 0.5400000000000004), ('wc_7', 0.5600000000000004)]",0.8380800000000003,,,25.0,0.011542,['Fail'],Fail,0.20000000000000007,0.29999999999999993,2.0,4.0,0.1
278.0,4.0,wc_4,,0.0,,,,0.0,,,,Fail,,,,,
278.0,4.0,wc_4,wc_5,1.0,"[('wc_5', 0.5200000000000004), ('wc_14', 0.5400000000000004), ('wc_7', 0.5600000000000004), ('wc_3', 0.20000000000000007)]",0.9222784000000002,,,34.0,0.05571599999999999,['Fail'],Fail,0.5200000000000004,-0.02000000000000035,1.0,2.0,0.8
299.0,4.0,wc_4,,0.0,,,,103.0,,,,Fail,,,,,
299.0,4.0,wc_4,,0.0,,,54.0,,,,,Fail,,,,,
299.0,4.0,wc_4,,0.0,,,,0.0,,,,Fail,,,,,
299.0,4.0,wc_4,wc_4,0.0,"[('wc_4', 0.4600000000000003)]",0.4600000000000003,,,20.0,0.002062,['Fail'],Fail,0.4600000000000003,0.0399999999999997,2.0,4.0,0.7
299.0,4.0,wc_4,,0.0,,,,81.0,,,,Fail,,,,,
299.0,4.0,wc_4,wc_6,0.0,"[('wc_4', 0.4600000000000003)]",0.4600000000000003,,,39.0,0.004504,['Fail'],Fail,0.28000000000000014,-0.08000000000000013,1.0,5.0,0.2
299.0,4.0,wc_4,,0.0,,,,321.0,,,,Fail,,,,,
299.0,4.0,wc_4,wc_3,0.0,"[('wc_4', 0.4600000000000003)]",0.4600000000000003,,,29.0,0.0076890000000000005,['Fail'],Fail,0.21000000000000008,0.3899999999999999,3.0,5.0,0.1
299.0,4.0,wc_4,,0.0,,,,141.0,,,,Fail,,,,,
299.0,4.0,wc_4,wc_8,0.0,"[('wc_8', 0.30000000000000016), ('wc_6', 0.28000000000000014), ('wc_3', 0.21000000000000008)]",0.6018400000000002,,,25.0,0.008465,['Pass'],Fail,0.30000000000000016,-0.30000000000000016,0.0,2.0,0.3
299.0,4.0,wc_4,,0.0,,,,102.0,,,,Fail,,,,,
299.0,4.0,wc_4,wc_7,0.0,"[('wc_7', 0.5600000000000004), ('wc_4', 0.4600000000000003)]",0.7624000000000003,,,40.0,0.012653000000000001,['Fail'],Fail,0.5600000000000004,-0.060000000000000386,2.0,4.0,0.9
299.0,4.0,wc_4,,0.0,,,,0.0,,,,Fail,,,,,
299.0,4.0,wc_4,wc_9,0.0,"[('wc_4', 0.4600000000000003), ('wc_7', 0.5600000000000004)]",0.7624000000000003,,,33.0,0.012010999999999999,['Fail'],Fail,0.14,-0.14,0.0,9.0,0.1
299.0,4.0,wc_4,,0.0,,,,101.0,,,,Fail,,,,,
299.0,4.0,wc_4,wc_12,0.0,"[('wc_12', 0.6600000000000005), ('wc_6', 0.28000000000000014), ('wc_3', 0.21000000000000008), ('wc_8', 0.30000000000000016), ('wc_9', 0.14)]",0.8835780160000002,,,24.0,0.01319,['Pass'],Fail,0.6600000000000005,-0.6600000000000005,0.0,8.0,1.0
299.0,4.0,wc_4,,0.0,,,,262.0,,,,Fail,,,,,
299.0,4.0,wc_4,wc_2,1.0,"[('wc_2', 0.2600000000000001), ('wc_6', 0.28000000000000014), ('wc_3', 0.21000000000000008), ('wc_8', 0.30000000000000016), ('wc_9', 0.14), ('wc_12', 0.6600000000000005)]",0.9138477318400002,,,36.0,0.054965,['Pass'],Fail,0.27000000000000013,0.15857142857142842,3.0,7.0,0.1
314.0,4.0,wc_4,,0.0,,,,0.0,,,,Fail,,,,,
314.0,4.0,wc_4,,0.0,,,73.0,,,,,Fail,,,,,
314.0,4.0,wc_4,,0.0,,,,0.0,,,,Fail,,,,,
314.0,4.0,wc_4,wc_4,0.0,"[('wc_4', 0.4500000000000003)]",0.4500000000000003,,,27.0,0.002441,['Pass'],Fail,0.4500000000000003,-0.050000000000000266,2.0,5.0,0.7
314.0,4.0,wc_4,,0.0,,,,182.0,,,,Fail,,,,,
314.0,4.0,wc_4,wc_11,0.0,"[('wc_11', 0.6900000000000005)]",0.6900000000000005,,,34.0,0.0066029999999999995,['Fail'],Fail,0.6900000000000005,-0.6900000000000005,0.0,4.0,1.0
314.0,4.0,wc_4,,0.0,,,,83.0,,,,Fail,,,,,
314.0,4.0,wc_4,wc_9,0.0,"[('wc_9', 0.14), ('wc_11', 0.6900000000000005)]",0.7334000000000005,,,22.0,0.006203,['Fail'],Fail,0.14,-0.14,0.0,0.0,0.1
314.0,4.0,wc_4,,0.0,,,,81.0,,,,Fail,,,,,
314.0,4.0,wc_4,wc_7,0.0,"[('wc_7', 0.5500000000000004), ('wc_11', 0.6900000000000005), ('wc_9', 0.14)]",0.8800300000000003,,,25.0,0.009261,['Fail'],Fail,0.5500000000000004,-0.15000000000000036,2.0,5.0,0.9
314.0,4.0,wc_4,,0.0,,,,202.0,,,,Fail,,,,,
314.0,4.0,wc_4,wc_2,0.0,"[('wc_11', 0.6900000000000005), ('wc_9', 0.14), ('wc_7', 0.5500000000000004)]",0.8800300000000003,,,35.0,0.01112,['Fail'],Fail,0.27000000000000013,0.15857142857142842,3.0,7.0,0.1
314.0,4.0,wc_4,,0.0,,,,243.0,,,,Fail,,,,,
314.0,4.0,wc_4,wc_16,1.0,"[('wc_16', 0.41000000000000025), ('wc_11', 0.6900000000000005), ('wc_9', 0.14), ('wc_7', 0.5500000000000004)]",0.9292177000000003,,,28.0,0.05302700000000001,['Fail'],Fail,0.41000000000000025,-0.07666666666666694,1.0,3.0,0.6
326.0,4.0,wc_4,,0.0,,,,402.0,,,,Fail,,,,,
326.0,4.0,wc_4,,0.0,,,66.0,,,,,Fail,,,,,
326.0,4.0,wc_4,,0.0,,,,0.0,,,,Fail,,,,,
326.0,4.0,wc_4,wc_4,0.0,"[('wc_4', 0.4400000000000003)]",0.4400000000000003,,,30.0,0.00258,['Fail'],Fail,0.4400000000000003,-0.10666666666666696,2.0,6.0,0.7
326.0,4.0,wc_4,,0.0,,,,101.0,,,,Fail,,,,,
326.0,4.0,wc_4,wc_7,0.0,"[('wc_7', 0.5500000000000004), ('wc_4', 0.4400000000000003)]",0.7480000000000003,,,32.0,0.005197,['Fail'],Fail,0.5500000000000004,-0.05000000000000038,3.0,6.0,0.9
326.0,4.0,wc_4,,0.0,,,,162.0,,,,Fail,,,,,
326.0,4.0,wc_4,wc_13,0.0,"[('wc_13', 0.22000000000000008), ('wc_4', 0.4400000000000003), ('wc_7', 0.5500000000000004)]",0.8034400000000003,,,22.0,0.006503,['Fail'],Fail,0.22000000000000008,-0.10000000000000009,0.0,0.0,0.1
326.0,4.0,wc_4,,0.0,,,,0.0,,,,Fail,,,,,
326.0,4.0,wc_4,wc_14,1.0,"[('wc_14', 0.5500000000000004), ('wc_4', 0.4400000000000003), ('wc_7', 0.5500000000000004), ('wc_13', 0.22000000000000008)]",0.9115480000000002,,,20.0,0.04708199999999999,['Fail'],Fail,0.5500000000000004,-0.05000000000000038,2.0,4.0,0.5
335.0,4.0,wc_4,,0.0,,,,341.0,,,,Pass,,,,,
335.0,4.0,wc_4,,0.0,,,54.0,,,,,Pass,,,,,
335.0,4.0,wc_4,,0.0,,,,0.0,,,,Pass,,,,,
335.0,4.0,wc_4,wc_4,0.0,"[('wc_4', 0.4400000000000003)]",0.4400000000000003,,,40.0,0.002133,['Pass'],Pass,0.4400000000000003,-0.011428571428571732,3.0,7.0,0.7
335.0,4.0,wc_4,,0.0,,,,182.0,,,,Pass,,,,,
335.0,4.0,wc_4,wc_11,0.0,"[('wc_11', 0.6900000000000005), ('wc_4', 0.4400000000000003)]",0.8264000000000004,,,20.0,0.004083,['Pass'],Pass,0.6900000000000005,-0.5233333333333339,1.0,6.0,1.0
335.0,4.0,wc_4,,0.0,,,,203.0,,,,Pass,,,,,
335.0,4.0,wc_4,wc_1,1.0,"[('wc_1', 0.6300000000000004), ('wc_4', 0.4400000000000003), ('wc_11', 0.6900000000000005)]",0.9357680000000002,,,38.0,0.03812599999999999,['Pass'],Pass,0.6300000000000004,-0.6300000000000004,0.0,0.0,0.7
347.0,3.0,wc_3,,0.0,,,,0.0,,,,Pass,,,,,
347.0,3.0,wc_3,,0.0,,,52.0,,,,,Pass,,,,,
347.0,3.0,wc_3,,0.0,,,,0.0,,,,Pass,,,,,
347.0,3.0,wc_3,wc_3,0.0,"[('wc_3', 0.22000000000000008)]",0.22000000000000008,,,36.0,0.002087,['Fail'],Pass,0.22000000000000008,0.22444444444444434,4.0,9.0,0.1
347.0,3.0,wc_3,,0.0,,,,81.0,,,,Pass,,,,,
347.0,3.0,wc_3,wc_1,0.0,"[('wc_1', 0.6300000000000004)]",0.6300000000000004,,,29.0,0.005287999999999999,['Pass'],Pass,0.6300000000000004,-0.6300000000000004,0.0,0.0,0.7
347.0,3.0,wc_3,,0.0,,,,0.0,,,,Pass,,,,,
347.0,3.0,wc_3,wc_2,0.0,"[('wc_1', 0.6300000000000004)]",0.6300000000000004,,,29.0,0.006547,['Pass'],Pass,0.27000000000000013,0.02999999999999986,0.0,0.0,0.1
347.0,3.0,wc_3,,0.0,,,,243.0,,,,Pass,,,,,
347.0,3.0,wc_3,wc_16,0.0,"[('wc_16', 0.41000000000000025), ('wc_3', 0.22000000000000008), ('wc_2', 0.27000000000000013)]",0.6640540000000001,,,39.0,0.007879,['Fail'],Pass,0.41000000000000025,-0.21000000000000024,1.0,5.0,0.6
347.0,3.0,wc_3,,0.0,,,,402.0,,,,Pass,,,,,
347.0,3.0,wc_3,wc_4,0.0,"[('wc_4', 0.4500000000000003), ('wc_3', 0.22000000000000008), ('wc_2', 0.27000000000000013), ('wc_16', 0.41000000000000025)]",0.8152297000000003,,,37.0,0.011386,['Fail'],Pass,0.4500000000000003,0.04999999999999971,4.0,8.0,0.7
347.0,3.0,wc_3,,0.0,,,,101.0,,,,Pass,,,,,
347.0,3.0,wc_3,wc_7,0.0,"[('wc_7', 0.5600000000000004), ('wc_1', 0.6300000000000004)]",0.8372000000000004,,,40.0,0.011345,['Pass'],Pass,0.5600000000000004,-0.060000000000000386,4.0,8.0,0.9
347.0,3.0,wc_3,,0.0,,,,102.0,,,,Pass,,,,,
347.0,3.0,wc_3,wc_6,0.0,"[('wc_6', 0.29000000000000015), ('wc_3', 0.22000000000000008), ('wc_2', 0.27000000000000013), ('wc_16', 0.41000000000000025), ('wc_4', 0.4500000000000003)]",0.8688130870000002,,,36.0,0.014230999999999999,['Fail'],Pass,0.29000000000000015,-0.06777777777777794,2.0,9.0,0.2
347.0,3.0,wc_3,,0.0,,,,223.0,,,,Pass,,,,,
347.0,3.0,wc_3,wc_15,1.0,"[('wc_15', 0.42000000000000026), ('wc_3', 0.22000000000000008), ('wc_2', 0.27000000000000013), ('wc_16', 0.41000000000000025), ('wc_4', 0.4500000000000003), ('wc_6', 0.29000000000000015)]",0.9239115904600002,,,33.0,0.051115999999999995,['Fail'],Pass,0.42000000000000026,-0.42000000000000026,0.0,0.0,0.5
384.0,5.0,wc_5,,0.0,,,,442.0,,,,Fail,,,,,
384.0,5.0,wc_5,,0.0,,,78.0,,,,,Fail,,,,,
384.0,5.0,wc_5,,0.0,,,,0.0,,,,Fail,,,,,
384.0,5.0,wc_5,wc_5,0.0,"[('wc_5', 0.5200000000000004)]",0.5200000000000004,,,25.0,0.00206,['Pass'],Fail,0.5200000000000004,-0.3771428571428575,1.0,7.0,0.8
384.0,5.0,wc_5,,0.0,,,,141.0,,,,Fail,,,,,
384.0,5.0,wc_5,wc_14,0.0,"[('wc_14', 0.5500000000000004)]",0.5500000000000004,,,34.0,0.004266,['Fail'],Fail,0.5500000000000004,-0.21666666666666706,2.0,6.0,0.5
384.0,5.0,wc_5,,0.0,,,,162.0,,,,Fail,,,,,
384.0,5.0,wc_5,wc_7,0.0,"[('wc_7', 0.5500000000000004), ('wc_14', 0.5500000000000004)]",0.7975000000000003,,,21.0,0.006064,['Fail'],Fail,0.5500000000000004,-0.10555555555555596,4.0,9.0,0.9
384.0,5.0,wc_5,,0.0,,,,203.0,,,,Fail,,,,,
384.0,5.0,wc_5,wc_15,0.0,"[('wc_14', 0.5500000000000004), ('wc_7', 0.5500000000000004)]",0.7975000000000003,,,24.0,0.007523,['Fail'],Fail,0.42000000000000026,-0.42000000000000026,0.0,0.0,0.5
384.0,5.0,wc_5,,0.0,,,,61.0,,,,Fail,,,,,
384.0,5.0,wc_5,wc_12,1.0,"[('wc_12', 0.6600000000000005), ('wc_14', 0.5500000000000004), ('wc_7', 0.5500000000000004)]",0.9311500000000003,,,32.0,0.047907000000000005,['Fail'],Fail,0.6600000000000005,-0.6600000000000005,0.0,0.0,1.0
431.0,5.0,wc_5,,0.0,,,,401.0,,,,Pass,,,,,
431.0,5.0,wc_5,,0.0,,,74.0,,,,,Pass,,,,,
431.0,5.0,wc_5,,0.0,,,,0.0,,,,Pass,,,,,
431.0,5.0,wc_5,wc_5,0.0,"[('wc_5', 0.5100000000000003)]",0.5100000000000003,,,23.0,0.003038,['Pass'],Pass,0.5100000000000003,-0.38500000000000034,1.0,8.0,0.8
431.0,5.0,wc_5,,0.0,,,,103.0,,,,Pass,,,,,
431.0,5.0,wc_5,wc_4,0.0,"[('wc_4', 0.4600000000000003), ('wc_5', 0.5100000000000003)]",0.7354000000000003,,,30.0,0.0044340000000000004,['Pass'],Pass,0.4600000000000003,0.0399999999999997,0.0,0.0,0.7
431.0,5.0,wc_5,,0.0,,,,101.0,,,,Pass,,,,,
431.0,5.0,wc_5,wc_7,0.0,"[('wc_7', 0.5500000000000004), ('wc_5', 0.5100000000000003), ('wc_4', 0.4600000000000003)]",0.8809300000000002,,,38.0,0.007429,['Pass'],Pass,0.5500000000000004,-0.5500000000000004,0.0,0.0,0.9
431.0,5.0,wc_5,,0.0,,,,301.0,,,,Pass,,,,,
431.0,5.0,wc_5,wc_3,0.0,"[('wc_5', 0.5100000000000003), ('wc_4', 0.4600000000000003), ('wc_7', 0.5500000000000004)]",0.8809300000000002,,,40.0,0.008054,['Pass'],Pass,0.2300000000000001,-0.2300000000000001,0.0,1.0,0.1
431.0,5.0,wc_5,,0.0,,,,161.0,,,,Pass,,,,,
431.0,5.0,wc_5,wc_13,1.0,"[('wc_13', 0.2300000000000001), ('wc_5', 0.5100000000000003), ('wc_4', 0.4600000000000003), ('wc_7', 0.5500000000000004)]",0.9083161000000002,,,24.0,0.045882,['Pass'],Pass,0.2400000000000001,0.15999999999999992,2.0,5.0,0.1
438.0,6.0,wc_6,,0.0,,,,162.0,,,,Pass,,,,,
438.0,6.0,wc_6,,0.0,,,52.0,,,,,Pass,,,,,
438.0,6.0,wc_6,,0.0,,,,0.0,,,,Pass,,,,,
438.0,6.0,wc_6,wc_6,0.0,"[('wc_6', 0.29000000000000015)]",0.29000000000000015,,,33.0,0.002067,['Pass'],Pass,0.29000000000000015,-0.29000000000000015,0.0,2.0,0.2
438.0,6.0,wc_6,,0.0,,,,222.0,,,,Pass,,,,,
438.0,6.0,wc_6,wc_2,0.0,"[('wc_2', 0.28000000000000014), ('wc_6', 0.29000000000000015)]",0.48880000000000023,,,36.0,0.0052840000000000005,['Pass'],Pass,0.28000000000000014,0.05333333333333318,1.0,3.0,0.1
438.0,6.0,wc_6,,0.0,,,,243.0,,,,Pass,,,,,
438.0,6.0,wc_6,wc_16,0.0,"[('wc_16', 0.41000000000000025), ('wc_6', 0.29000000000000015), ('wc_2', 0.28000000000000014)]",0.6983920000000002,,,23.0,0.006112,['Pass'],Pass,0.41000000000000025,-0.16000000000000025,2.0,8.0,0.6
438.0,6.0,wc_6,,0.0,,,,382.0,,,,Pass,,,,,
438.0,6.0,wc_6,wc_11,1.0,"[('wc_11', 0.6900000000000005), ('wc_6', 0.29000000000000015), ('wc_2', 0.28000000000000014), ('wc_16', 0.41000000000000025)]",0.9065015200000002,,,37.0,0.05222000000000001,['Pass'],Pass,0.6900000000000005,-0.6900000000000005,0.0,0.0,1.0
451.0,10.0,wc_10,,0.0,,,,103.0,,,,Fail,,,,,
451.0,10.0,wc_10,,0.0,,,80.0,,,,,Fail,,,,,
451.0,10.0,wc_10,,0.0,,,,0.0,,,,Fail,,,,,
451.0,10.0,wc_10,wc_10,0.0,"[('wc_10', 0.6700000000000005)]",0.6700000000000005,,,20.0,0.002306,['Pass'],Fail,0.6700000000000005,-0.5161538461538466,0.0,0.0,0.8
451.0,10.0,wc_10,,0.0,,,,81.0,,,,Fail,,,,,
451.0,10.0,wc_10,wc_12,0.0,"[('wc_10', 0.6700000000000005)]",0.6700000000000005,,,40.0,0.005406,['Pass'],Fail,0.6600000000000005,-0.6600000000000005,0.0,2.0,1.0
451.0,10.0,wc_10,,0.0,,,,222.0,,,,Fail,,,,,
451.0,10.0,wc_10,wc_8,0.0,"[('wc_8', 0.31000000000000016), ('wc_10', 0.6700000000000005)]",0.7723000000000004,,,34.0,0.00652,['Pass'],Fail,0.31000000000000016,-0.21000000000000016,0.0,0.0,0.3
451.0,10.0,wc_10,,0.0,,,,321.0,,,,Fail,,,,,
451.0,10.0,wc_10,wc_5,0.0,"[('wc_5', 0.5100000000000003), ('wc_12', 0.6600000000000005)]",0.8334000000000004,,,24.0,0.008174,['Fail'],Fail,0.5100000000000003,-0.31000000000000033,0.0,0.0,0.8
451.0,10.0,wc_10,,0.0,,,,41.0,,,,Fail,,,,,
451.0,10.0,wc_10,wc_1,1.0,"[('wc_1', 0.6200000000000004), ('wc_12', 0.6600000000000005), ('wc_5', 0.5100000000000003)]",0.9366920000000002,,,39.0,0.04926699999999999,['Fail'],Fail,0.6200000000000004,-0.42000000000000043,1.0,5.0,0.7
465.0,7.0,wc_7,,0.0,,,,162.0,,,,Pass,,,,,
465.0,7.0,wc_7,,0.0,,,58.0,,,,,Pass,,,,,
465.0,7.0,wc_7,,0.0,,,,0.0,,,,Pass,,,,,
465.0,7.0,wc_7,wc_7,0.0,"[('wc_7', 0.5600000000000004)]",0.5600000000000004,,,33.0,0.002271,['Pass'],Pass,0.5600000000000004,-0.22666666666666707,1.0,3.0,0.9
465.0,7.0,wc_7,,0.0,,,,203.0,,,,Pass,,,,,
465.0,7.0,wc_7,wc_15,0.0,"[('wc_15', 0.41000000000000025), ('wc_7', 0.5600000000000004)]",0.7404000000000004,,,28.0,0.004104,['Pass'],Pass,0.41000000000000025,-0.41000000000000025,0.0,4.0,0.5
465.0,7.0,wc_7,,0.0,,,,61.0,,,,Pass,,,,,
465.0,7.0,wc_7,wc_12,1.0,"[('wc_12', 0.6600000000000005), ('wc_7', 0.5600000000000004), ('wc_15', 0.41000000000000025)]",0.9117360000000002,,,24.0,0.04151200000000001,['Pass'],Pass,0.6600000000000005,-0.16000000000000048,2.0,4.0,1.0
480.0,8.0,wc_8,,0.0,,,,222.0,,,,Fail,,,,,
480.0,8.0,wc_8,,0.0,,,69.0,,,,,Fail,,,,,
480.0,8.0,wc_8,,0.0,,,,0.0,,,,Fail,,,,,
480.0,8.0,wc_8,wc_8,0.0,"[('wc_8', 0.30000000000000016)]",0.30000000000000016,,,39.0,0.001981,['Pass'],Fail,0.30000000000000016,-0.30000000000000016,0.0,2.0,0.3
480.0,8.0,wc_8,,0.0,,,,0.0,,,,Fail,,,,,
480.0,8.0,wc_8,wc_9,0.0,"[('wc_9', 0.15000000000000002), ('wc_8', 0.30000000000000016)]",0.40500000000000014,,,34.0,0.0047290000000000006,['Pass'],Fail,0.15000000000000002,-0.03888888888888892,1.0,9.0,0.1
480.0,8.0,wc_8,,0.0,,,,243.0,,,,Fail,,,,,
480.0,8.0,wc_8,wc_1,0.0,"[('wc_1', 0.6200000000000004)]",0.6200000000000004,,,35.0,0.005942,['Fail'],Fail,0.6200000000000004,-0.4533333333333338,1.0,6.0,0.7
480.0,8.0,wc_8,,0.0,,,,243.0,,,,Fail,,,,,
480.0,8.0,wc_8,wc_11,0.0,"[('wc_11', 0.6900000000000005), ('wc_1', 0.6200000000000004)]",0.8822000000000003,,,20.0,0.007313,['Fail'],Fail,0.6900000000000005,-0.6900000000000005,0.0,2.0,1.0
480.0,8.0,wc_8,,0.0,,,,162.0,,,,Fail,,,,,
480.0,8.0,wc_8,wc_17,1.0,"[('wc_17', 0.5100000000000003), ('wc_1', 0.6200000000000004), ('wc_11', 0.6900000000000005)]",0.9422780000000002,,,39.0,0.05646000000000001,['Fail'],Fail,0.5100000000000003,-0.5100000000000003,0.0,0.0,0.6
492.0,10.0,wc_10,,0.0,,,,342.0,,,,Pass,,,,,
492.0,10.0,wc_10,,0.0,,,73.0,,,,,Pass,,,,,
492.0,10.0,wc_10,,0.0,,,,0.0,,,,Pass,,,,,
492.0,10.0,wc_10,wc_10,0.0,"[('wc_10', 0.6600000000000005)]",0.6600000000000005,,,33.0,0.002145,['Pass'],Pass,0.6600000000000005,-0.6600000000000005,0.0,3.0,0.8
492.0,10.0,wc_10,,0.0,,,,0.0,,,,Pass,,,,,
492.0,10.0,wc_10,wc_11,0.0,"[('wc_11', 0.6900000000000005)]",0.6900000000000005,,,31.0,0.00421,['Fail'],Pass,0.6900000000000005,-0.3566666666666672,1.0,3.0,1.0
492.0,10.0,wc_10,,0.0,,,,61.0,,,,Pass,,,,,
492.0,10.0,wc_10,wc_8,0.0,"[('wc_8', 0.29000000000000015), ('wc_11', 0.6900000000000005)]",0.7799000000000004,,,38.0,0.006053,['Fail'],Pass,0.29000000000000015,-0.29000000000000015,0.0,3.0,0.3
492.0,10.0,wc_10,,0.0,,,,321.0,,,,Pass,,,,,
492.0,10.0,wc_10,wc_5,0.0,"[('wc_5', 0.5200000000000004), ('wc_10', 0.6600000000000005)]",0.8368000000000003,,,33.0,0.007947000000000001,['Pass'],Pass,0.5200000000000004,-0.18666666666666704,1.0,3.0,0.8
492.0,10.0,wc_10,,0.0,,,,81.0,,,,Pass,,,,,
492.0,10.0,wc_10,wc_7,1.0,"[('wc_7', 0.5600000000000004), ('wc_10', 0.6600000000000005), ('wc_5', 0.5200000000000004)]",0.9281920000000002,,,37.0,0.044115,['Pass'],Pass,0.5600000000000004,-0.060000000000000386,3.0,6.0,0.9
499.0,8.0,wc_8,,0.0,,,,0.0,,,,Pass,,,,,
499.0,8.0,wc_8,,0.0,,,67.0,,,,,Pass,,,,,
499.0,8.0,wc_8,,0.0,,,,0.0,,,,Pass,,,,,
499.0,8.0,wc_8,wc_8,0.0,"[('wc_8', 0.28000000000000014)]",0.28000000000000014,,,38.0,0.002468,['Pass'],Pass,0.28000000000000014,-0.28000000000000014,0.0,4.0,0.3
499.0,8.0,wc_8,,0.0,,,,182.0,,,,Pass,,,,,
499.0,8.0,wc_8,wc_2,0.0,"[('wc_2', 0.29000000000000015)]",0.29000000000000015,,,27.0,0.003741,['Fail'],Pass,0.29000000000000015,-0.04000000000000015,2.0,8.0,0.1
499.0,8.0,wc_8,,0.0,,,,223.0,,,,Pass,,,,,
499.0,8.0,wc_8,wc_11,0.0,"[('wc_11', 0.6800000000000005), ('wc_8', 0.28000000000000014)]",0.7696000000000004,,,24.0,0.008035,['Pass'],Pass,0.6800000000000005,-0.4300000000000005,1.0,4.0,1.0
499.0,8.0,wc_8,,0.0,,,,41.0,,,,Pass,,,,,
499.0,8.0,wc_8,wc_7,0.0,"[('wc_7', 0.5600000000000004), ('wc_8', 0.28000000000000014), ('wc_11', 0.6800000000000005)]",0.8986240000000003,,,28.0,0.008074,['Pass'],Pass,0.5600000000000004,-0.060000000000000386,3.0,6.0,0.9
499.0,8.0,wc_8,,0.0,,,,223.0,,,,Pass,,,,,
499.0,8.0,wc_8,wc_16,1.0,"[('wc_16', 0.41000000000000025), ('wc_8', 0.28000000000000014), ('wc_11', 0.6800000000000005), ('wc_7', 0.5600000000000004)]",0.9401881600000002,,,32.0,0.065664,['Pass'],Pass,0.41000000000000025,-0.41000000000000025,0.0,0.0,0.6
509.0,11.0,wc_11,,0.0,,,,382.0,,,,Pass,,,,,
509.0,11.0,wc_11,,0.0,,,75.0,,,,,Pass,,,,,
509.0,11.0,wc_11,,0.0,,,,0.0,,,,Pass,,,,,
509.0,11.0,wc_11,wc_11,0.0,"[('wc_11', 0.6800000000000005)]",0.6800000000000005,,,26.0,0.002225,['Fail'],Pass,0.6800000000000005,-0.28000000000000047,2.0,5.0,1.0
509.0,11.0,wc_11,,0.0,,,,342.0,,,,Pass,,,,,
509.0,11.0,wc_11,wc_4,0.0,"[('wc_11', 0.6800000000000005)]",0.6800000000000005,,,34.0,0.004004,['Fail'],Pass,0.4700000000000003,-0.32714285714285746,1.0,7.0,0.7
509.0,11.0,wc_11,,0.0,,,,161.0,,,,Pass,,,,,
509.0,11.0,wc_11,wc_14,0.0,"[('wc_14', 0.5500000000000004), ('wc_4', 0.4700000000000003)]",0.7615000000000003,,,23.0,0.006606,['Pass'],Pass,0.5500000000000004,-0.3357142857142861,0.0,0.0,0.5
509.0,11.0,wc_11,,0.0,,,,82.0,,,,Pass,,,,,
509.0,11.0,wc_11,wc_12,1.0,"[('wc_12', 0.6600000000000005), ('wc_4', 0.4700000000000003), ('wc_14', 0.5500000000000004)]",0.9189100000000002,,,22.0,0.047406000000000004,['Pass'],Pass,0.6600000000000005,-0.2850000000000005,3.0,8.0,1.0
515.0,9.0,wc_9,,0.0,,,,321.0,,,,Pass,,,,,
515.0,9.0,wc_9,,0.0,,,74.0,,,,,Pass,,,,,
515.0,9.0,wc_9,,0.0,,,,0.0,,,,Pass,,,,,
515.0,9.0,wc_9,wc_9,0.0,"[('wc_9', 0.14)]",0.14,,,33.0,0.002478,['Fail'],Pass,0.14,-0.14,0.0,3.0,0.1
515.0,9.0,wc_9,,0.0,,,,243.0,,,,Pass,,,,,
515.0,9.0,wc_9,wc_1,0.0,"[('wc_1', 0.6200000000000004)]",0.6200000000000004,,,23.0,0.004286,['Pass'],Pass,0.6200000000000004,-0.42000000000000043,0.0,0.0,0.7
515.0,9.0,wc_9,,0.0,,,,202.0,,,,Pass,,,,,
515.0,9.0,wc_9,wc_13,0.0,"[('wc_13', 0.2400000000000001), ('wc_1', 0.6200000000000004)]",0.7112000000000004,,,22.0,0.0070279999999999995,['Pass'],Pass,0.2400000000000001,-0.07333333333333344,0.0,0.0,0.1
515.0,9.0,wc_9,,0.0,,,,182.0,,,,Pass,,,,,
515.0,9.0,wc_9,wc_7,0.0,"[('wc_7', 0.5700000000000004), ('wc_1', 0.6200000000000004), ('wc_13', 0.2400000000000001)]",0.8758160000000003,,,31.0,0.008436,['Pass'],Pass,0.5700000000000004,-0.0700000000000004,4.0,8.0,0.9
515.0,9.0,wc_9,,0.0,,,,0.0,,,,Pass,,,,,
515.0,9.0,wc_9,wc_8,1.0,"[('wc_8', 0.28000000000000014), ('wc_1', 0.6200000000000004), ('wc_13', 0.2400000000000001), ('wc_7', 0.5700000000000004)]",0.9105875200000002,,,33.0,0.052529000000000006,['Pass'],Pass,0.28000000000000014,0.005714285714285561,2.0,7.0,0.3
521.0,12.0,wc_12,,0.0,,,,122.0,,,,Fail,,,,,
521.0,12.0,wc_12,,0.0,,,50.0,,,,,Fail,,,,,
521.0,12.0,wc_12,,0.0,,,,0.0,,,,Fail,,,,,
521.0,12.0,wc_12,wc_12,0.0,"[('wc_12', 0.6600000000000005)]",0.6600000000000005,,,23.0,0.002368,['Fail'],Fail,0.6600000000000005,-0.32666666666666716,3.0,9.0,1.0
521.0,12.0,wc_12,,0.0,,,,341.0,,,,Fail,,,,,
521.0,12.0,wc_12,wc_10,0.0,"[('wc_10', 0.6600000000000005), ('wc_12', 0.6600000000000005)]",0.8844000000000003,,,40.0,0.004125,['Fail'],Fail,0.6600000000000005,-0.5171428571428576,1.0,7.0,0.8
521.0,12.0,wc_12,,0.0,,,,0.0,,,,Fail,,,,,
521.0,12.0,wc_12,wc_11,1.0,"[('wc_11', 0.6700000000000005), ('wc_12', 0.6600000000000005), ('wc_10', 0.6600000000000005)]",0.9618520000000002,,,34.0,0.053131000000000005,['Fail'],Fail,0.6700000000000005,-0.2950000000000005,3.0,8.0,1.0
535.0,12.0,wc_12,,0.0,,,,61.0,,,,Pass,,,,,
535.0,12.0,wc_12,,0.0,,,56.0,,,,,Pass,,,,,
535.0,12.0,wc_12,,0.0,,,,0.0,,,,Pass,,,,,
535.0,12.0,wc_12,wc_12,0.0,"[('wc_12', 0.6600000000000005)]",0.6600000000000005,,,39.0,0.002185,['Pass'],Pass,0.6600000000000005,-0.6600000000000005,0.0,0.0,1.0
535.0,12.0,wc_12,,0.0,,,,361.0,,,,Pass,,,,,
535.0,12.0,wc_12,wc_3,0.0,"[('wc_3', 0.22000000000000008), ('wc_12', 0.6600000000000005)]",0.7348000000000003,,,34.0,0.004615,['Pass'],Pass,0.22000000000000008,-0.22000000000000008,0.0,0.0,0.1
535.0,12.0,wc_12,,0.0,,,,182.0,,,,Pass,,,,,
535.0,12.0,wc_12,wc_10,1.0,"[('wc_10', 0.6600000000000005), ('wc_12', 0.6600000000000005), ('wc_3', 0.22000000000000008)]",0.9098320000000003,,,33.0,0.049566,['Pass'],Pass,0.6600000000000005,-0.32666666666666716,3.0,9.0,0.8
550.0,13.0,wc_13,,0.0,,,,101.0,,,,Fail,,,,,
550.0,13.0,wc_13,,0.0,,,79.0,,,,,Fail,,,,,
550.0,13.0,wc_13,,0.0,,,,0.0,,,,Fail,,,,,
550.0,13.0,wc_13,wc_13,0.0,"[('wc_13', 0.2500000000000001)]",0.2500000000000001,,,39.0,0.002729,['Pass'],Fail,0.2500000000000001,0.0833333333333332,1.0,3.0,0.1
550.0,13.0,wc_13,,0.0,,,,222.0,,,,Fail,,,,,
550.0,13.0,wc_13,wc_1,0.0,"[('wc_1', 0.6300000000000004)]",0.6300000000000004,,,22.0,0.004708,['Fail'],Fail,0.6300000000000004,-0.29666666666666713,1.0,3.0,0.7
550.0,13.0,wc_13,,0.0,,,,243.0,,,,Fail,,,,,
550.0,13.0,wc_13,wc_11,0.0,"[('wc_11', 0.6700000000000005), ('wc_1', 0.6300000000000004)]",0.8779000000000003,,,29.0,0.005868,['Fail'],Fail,0.6700000000000005,-0.33666666666666717,3.0,9.0,1.0
550.0,13.0,wc_13,,0.0,,,,21.0,,,,Fail,,,,,
550.0,13.0,wc_13,wc_6,0.0,"[('wc_1', 0.6300000000000004), ('wc_11', 0.6700000000000005)]",0.8779000000000003,,,20.0,0.007618,['Fail'],Fail,0.30000000000000016,-0.21666666666666684,0.0,0.0,0.2
550.0,13.0,wc_13,,0.0,,,,361.0,,,,Fail,,,,,
550.0,13.0,wc_13,wc_5,1.0,"[('wc_5', 0.5200000000000004), ('wc_1', 0.6300000000000004), ('wc_11', 0.6700000000000005)]",0.9413920000000002,,,39.0,0.043771000000000004,['Fail'],Fail,0.5200000000000004,-0.5200000000000004,0.0,0.0,0.8
558.0,13.0,wc_13,,0.0,,,,121.0,,,,Pass,,,,,
558.0,13.0,wc_13,,0.0,,,68.0,,,,,Pass,,,,,
558.0,13.0,wc_13,,0.0,,,,0.0,,,,Pass,,,,,
558.0,13.0,wc_13,wc_13,0.0,"[('wc_13', 0.2500000000000001)]",0.2500000000000001,,,35.0,0.002547,['Fail'],Pass,0.2500000000000001,-1.1102230246251565e-16,1.0,4.0,0.1
558.0,13.0,wc_13,,0.0,,,,321.0,,,,Pass,,,,,
558.0,13.0,wc_13,wc_10,0.0,"[('wc_10', 0.6600000000000005)]",0.6600000000000005,,,30.0,0.004064,['Pass'],Pass,0.6600000000000005,-0.3600000000000005,0.0,0.0,0.8
558.0,13.0,wc_13,,0.0,,,,0.0,,,,Pass,,,,,
558.0,13.0,wc_13,wc_11,0.0,"[('wc_11', 0.6700000000000005), ('wc_10', 0.6600000000000005)]",0.8878000000000004,,,21.0,0.007592000000000001,['Pass'],Pass,0.6700000000000005,-0.6700000000000005,0.0,0.0,1.0
558.0,13.0,wc_13,,0.0,,,,122.0,,,,Pass,,,,,
558.0,13.0,wc_13,wc_15,0.0,"[('wc_10', 0.6600000000000005), ('wc_11', 0.6700000000000005)]",0.8878000000000004,,,39.0,0.007498,['Pass'],Pass,0.41000000000000025,-0.3330769230769233,0.0,0.0,0.5
558.0,13.0,wc_13,,0.0,,,,223.0,,,,Pass,,,,,
558.0,13.0,wc_13,wc_6,0.0,"[('wc_10', 0.6600000000000005), ('wc_11', 0.6700000000000005)]",0.8878000000000004,,,28.0,0.009154,['Pass'],Pass,0.29000000000000015,-0.29000000000000015,0.0,1.0,0.2
558.0,13.0,wc_13,,0.0,,,,0.0,,,,Pass,,,,,
558.0,13.0,wc_13,wc_9,0.0,"[('wc_10', 0.6600000000000005), ('wc_11', 0.6700000000000005)]",0.8878000000000004,,,37.0,0.011351,['Pass'],Pass,0.13,-0.13,0.0,7.0,0.1
558.0,13.0,wc_13,,0.0,,,,362.0,,,,Pass,,,,,
558.0,13.0,wc_13,wc_3,0.0,"[('wc_10', 0.6600000000000005), ('wc_11', 0.6700000000000005)]",0.8878000000000004,,,21.0,0.013415000000000002,['Pass'],Pass,0.2300000000000001,0.2699999999999999,1.0,2.0,0.1
558.0,13.0,wc_13,,0.0,,,,101.0,,,,Pass,,,,,
558.0,13.0,wc_13,wc_2,1.0,"[('wc_2', 0.28000000000000014), ('wc_10', 0.6600000000000005), ('wc_11', 0.6700000000000005)]",0.9192160000000003,,,25.0,0.05744599999999999,['Pass'],Pass,0.28000000000000014,-0.28000000000000014,0.0,0.0,0.1
568.0,15.0,wc_15,,0.0,,,,223.0,,,,Fail,,,,,
568.0,15.0,wc_15,,0.0,,,71.0,,,,,Fail,,,,,
568.0,15.0,wc_15,,0.0,,,,0.0,,,,Fail,,,,,
568.0,15.0,wc_15,wc_15,0.0,"[('wc_15', 0.40000000000000024)]",0.40000000000000024,,,31.0,0.002247,['Fail'],Fail,0.40000000000000024,-0.40000000000000024,0.0,1.0,0.5
568.0,15.0,wc_15,,0.0,,,,101.0,,,,Fail,,,,,
568.0,15.0,wc_15,wc_14,0.0,"[('wc_14', 0.5600000000000004), ('wc_15', 0.40000000000000024)]",0.7360000000000003,,,34.0,0.004803,['Fail'],Fail,0.5600000000000004,-0.39333333333333376,1.0,6.0,0.5
568.0,15.0,wc_15,,0.0,,,,182.0,,,,Fail,,,,,
568.0,15.0,wc_15,wc_8,0.0,"[('wc_8', 0.28000000000000014), ('wc_15', 0.40000000000000024), ('wc_14', 0.5600000000000004)]",0.8099200000000003,,,25.0,0.005546000000000001,['Fail'],Fail,0.28000000000000014,-0.09818181818181831,0.0,0.0,0.3
568.0,15.0,wc_15,,0.0,,,,223.0,,,,Fail,,,,,
568.0,15.0,wc_15,wc_17,1.0,"[('wc_17', 0.5100000000000003), ('wc_15', 0.40000000000000024), ('wc_14', 0.5600000000000004), ('wc_8', 0.28000000000000014)]",0.9068608000000002,,,31.0,0.04344,['Fail'],Fail,0.5100000000000003,-0.39888888888888924,1.0,9.0,0.6
574.0,15.0,wc_15,,0.0,,,,83.0,,,,Fail,,,,,
574.0,15.0,wc_15,,0.0,,,64.0,,,,,Fail,,,,,
574.0,15.0,wc_15,,0.0,,,,0.0,,,,Fail,,,,,
574.0,15.0,wc_15,wc_15,0.0,"[('wc_15', 0.41000000000000025)]",0.41000000000000025,,,37.0,0.002354,['Fail'],Fail,0.41000000000000025,0.08999999999999975,1.0,2.0,0.5
574.0,15.0,wc_15,,0.0,,,,0.0,,,,Fail,,,,,
574.0,15.0,wc_15,wc_17,0.0,"[('wc_17', 0.5100000000000003)]",0.5100000000000003,,,26.0,0.005502,['Pass'],Fail,0.5100000000000003,-0.39888888888888924,1.0,9.0,0.6
574.0,15.0,wc_15,,0.0,,,,382.0,,,,Fail,,,,,
574.0,15.0,wc_15,wc_4,0.0,"[('wc_4', 0.4700000000000003), ('wc_15', 0.41000000000000025)]",0.6873000000000002,,,20.0,0.00639,['Fail'],Fail,0.4700000000000003,-0.32714285714285746,0.0,0.0,0.7
574.0,15.0,wc_15,,0.0,,,,121.0,,,,Fail,,,,,
574.0,15.0,wc_15,wc_12,0.0,"[('wc_12', 0.6700000000000005), ('wc_15', 0.41000000000000025), ('wc_4', 0.4700000000000003)]",0.8968090000000003,,,21.0,0.0074140000000000005,['Fail'],Fail,0.6700000000000005,-0.4200000000000005,1.0,4.0,1.0
574.0,15.0,wc_15,,0.0,,,,202.0,,,,Fail,,,,,
574.0,15.0,wc_15,wc_7,1.0,"[('wc_7', 0.5700000000000004), ('wc_15', 0.41000000000000025), ('wc_4', 0.4700000000000003), ('wc_12', 0.6700000000000005)]",0.9556278700000002,,,30.0,0.049756,['Fail'],Fail,0.5700000000000004,-0.5700000000000004,0.0,0.0,0.9
581.0,15.0,wc_15,,0.0,,,,203.0,,,,Pass,,,,,
581.0,15.0,wc_15,,0.0,,,52.0,,,,,Pass,,,,,
581.0,15.0,wc_15,,0.0,,,,0.0,,,,Pass,,,,,
581.0,15.0,wc_15,wc_15,0.0,"[('wc_15', 0.42000000000000026)]",0.42000000000000026,,,40.0,0.002056,['Pass'],Pass,0.42000000000000026,0.24666666666666637,2.0,3.0,0.5
581.0,15.0,wc_15,,0.0,,,,422.0,,,,Pass,,,,,
581.0,15.0,wc_15,wc_4,0.0,"[('wc_4', 0.4800000000000003), ('wc_15', 0.42000000000000026)]",0.6984000000000004,,,38.0,0.00406,['Pass'],Pass,0.4800000000000003,0.5199999999999997,1.0,1.0,0.7
581.0,15.0,wc_15,,0.0,,,,141.0,,,,Pass,,,,,
581.0,15.0,wc_15,wc_13,0.0,"[('wc_15', 0.42000000000000026), ('wc_4', 0.4800000000000003)]",0.6984000000000004,,,39.0,0.006146,['Pass'],Pass,0.2400000000000001,-0.09714285714285725,1.0,7.0,0.1
581.0,15.0,wc_15,,0.0,,,,341.0,,,,Pass,,,,,
581.0,15.0,wc_15,wc_11,1.0,"[('wc_11', 0.6800000000000005), ('wc_15', 0.42000000000000026), ('wc_4', 0.4800000000000003)]",0.9034880000000003,,,35.0,0.046735,['Pass'],Pass,0.6800000000000005,-0.1800000000000005,2.0,4.0,1.0
588.0,14.0,wc_14,,0.0,,,,101.0,,,,Fail,,,,,
588.0,14.0,wc_14,,0.0,,,53.0,,,,,Fail,,,,,
588.0,14.0,wc_14,,0.0,,,,0.0,,,,Fail,,,,,
588.0,14.0,wc_14,wc_14,0.0,"[('wc_14', 0.5600000000000004)]",0.5600000000000004,,,33.0,0.002014,['Pass'],Fail,0.5600000000000004,-0.3377777777777782,2.0,9.0,0.5
588.0,14.0,wc_14,,0.0,,,,202.0,,,,Fail,,,,,
588.0,14.0,wc_14,wc_1,0.0,"[('wc_1', 0.6300000000000004)]",0.6300000000000004,,,26.0,0.004737,['Fail'],Fail,0.6300000000000004,-0.38000000000000045,2.0,8.0,0.7
588.0,14.0,wc_14,,0.0,,,,162.0,,,,Fail,,,,,
588.0,14.0,wc_14,wc_7,0.0,"[('wc_7', 0.5700000000000004), ('wc_1', 0.6300000000000004)]",0.8409000000000003,,,25.0,0.006045999999999999,['Fail'],Fail,0.5700000000000004,-0.5700000000000004,0.0,1.0,0.9
588.0,14.0,wc_14,,0.0,,,,0.0,,,,Fail,,,,,
588.0,14.0,wc_14,wc_11,1.0,"[('wc_11', 0.6800000000000005), ('wc_1', 0.6300000000000004), ('wc_7', 0.5700000000000004)]",0.9490880000000002,,,23.0,0.04699699999999999,['Fail'],Fail,0.6800000000000005,-0.08000000000000052,3.0,5.0,1.0
595.0,14.0,wc_14,,0.0,,,,101.0,,,,Fail,,,,,
595.0,14.0,wc_14,,0.0,,,80.0,,,,,Fail,,,,,
595.0,14.0,wc_14,,0.0,,,,0.0,,,,Fail,,,,,
595.0,14.0,wc_14,wc_14,0.0,"[('wc_14', 0.5500000000000004)]",0.5500000000000004,,,38.0,0.002434,['Fail'],Fail,0.5500000000000004,-0.5500000000000004,0.0,0.0,0.5
595.0,14.0,wc_14,,0.0,,,,321.0,,,,Fail,,,,,
595.0,14.0,wc_14,wc_11,0.0,"[('wc_11', 0.6800000000000005), ('wc_14', 0.5500000000000004)]",0.8560000000000003,,,34.0,0.004385,['Fail'],Fail,0.6800000000000005,-0.08000000000000052,3.0,5.0,1.0
595.0,14.0,wc_14,,0.0,,,,203.0,,,,Fail,,,,,
595.0,14.0,wc_14,wc_1,1.0,"[('wc_1', 0.6300000000000004), ('wc_14', 0.5500000000000004), ('wc_11', 0.6800000000000005)]",0.9467200000000002,,,23.0,0.043608,['Fail'],Fail,0.6300000000000004,-0.6300000000000004,0.0,0.0,0.7
599.0,16.0,wc_16,,0.0,,,,263.0,,,,Pass,,,,,
599.0,16.0,wc_16,,0.0,,,55.0,,,,,Pass,,,,,
599.0,16.0,wc_16,,0.0,,,,0.0,,,,Pass,,,,,
599.0,16.0,wc_16,wc_16,0.0,"[('wc_16', 0.41000000000000025)]",0.41000000000000025,,,37.0,0.002172,['Pass'],Pass,0.41000000000000025,-0.41000000000000025,0.0,0.0,0.6
599.0,16.0,wc_16,,0.0,,,,81.0,,,,Pass,,,,,
599.0,16.0,wc_16,wc_14,0.0,"[('wc_14', 0.5600000000000004), ('wc_16', 0.41000000000000025)]",0.7404000000000004,,,30.0,0.004273000000000001,['Pass'],Pass,0.5600000000000004,0.4399999999999996,1.0,1.0,0.5
599.0,16.0,wc_16,,0.0,,,,222.0,,,,Pass,,,,,
599.0,16.0,wc_16,wc_2,0.0,"[('wc_16', 0.41000000000000025), ('wc_14', 0.5600000000000004)]",0.7404000000000004,,,33.0,0.005793,['Pass'],Pass,0.28000000000000014,-0.28000000000000014,0.0,5.0,0.1
599.0,16.0,wc_16,,0.0,,,,263.0,,,,Pass,,,,,
599.0,16.0,wc_16,wc_17,0.0,"[('wc_17', 0.5000000000000003), ('wc_16', 0.41000000000000025), ('wc_14', 0.5600000000000004)]",0.8702000000000003,,,24.0,0.008115,['Pass'],Pass,0.5000000000000003,-0.5000000000000003,0.0,3.0,0.6
599.0,16.0,wc_16,,0.0,,,,342.0,,,,Pass,,,,,
599.0,16.0,wc_16,wc_10,1.0,"[('wc_10', 0.6700000000000005), ('wc_16', 0.41000000000000025), ('wc_14', 0.5600000000000004), ('wc_17', 0.5000000000000003)]",0.9571660000000002,,,30.0,0.052341,['Pass'],Pass,0.6700000000000005,-0.3842857142857148,2.0,7.0,0.8
607.0,14.0,wc_14,,0.0,,,,121.0,,,,Pass,,,,,
607.0,14.0,wc_14,,0.0,,,69.0,,,,,Pass,,,,,
607.0,14.0,wc_14,,0.0,,,,0.0,,,,Pass,,,,,
607.0,14.0,wc_14,wc_14,0.0,"[('wc_14', 0.5700000000000004)]",0.5700000000000004,,,21.0,0.002223,['Pass'],Pass,0.5700000000000004,0.4299999999999996,2.0,2.0,0.5
607.0,14.0,wc_14,,0.0,,,,0.0,,,,Pass,,,,,
607.0,14.0,wc_14,wc_17,0.0,"[('wc_17', 0.5000000000000003), ('wc_14', 0.5700000000000004)]",0.7850000000000004,,,26.0,0.004273,['Pass'],Pass,0.5000000000000003,-0.25000000000000033,1.0,4.0,0.6
607.0,14.0,wc_14,,0.0,,,,203.0,,,,Pass,,,,,
607.0,14.0,wc_14,wc_7,1.0,"[('wc_7', 0.5700000000000004), ('wc_14', 0.5700000000000004), ('wc_17', 0.5000000000000003)]",0.9075500000000002,,,33.0,0.04513099999999999,['Pass'],Pass,0.5700000000000004,-0.17000000000000037,2.0,5.0,0.9
616.0,17.0,wc_17,,0.0,,,,243.0,,,,Fail,,,,,
616.0,17.0,wc_17,,0.0,,,59.0,,,,,Fail,,,,,
616.0,17.0,wc_17,,0.0,,,,0.0,,,,Fail,,,,,
616.0,17.0,wc_17,wc_17,0.0,"[('wc_17', 0.5000000000000003)]",0.5000000000000003,,,21.0,0.002342,['Fail'],Fail,0.5000000000000003,-0.10000000000000031,2.0,5.0,0.6
616.0,17.0,wc_17,,0.0,,,,41.0,,,,Fail,,,,,
616.0,17.0,wc_17,wc_13,0.0,"[('wc_13', 0.2300000000000001), ('wc_17', 0.5000000000000003)]",0.6150000000000003,,,22.0,0.004365,['Fail'],Fail,0.2300000000000001,-0.14666666666666678,0.0,0.0,0.1
616.0,17.0,wc_17,,0.0,,,,102.0,,,,Fail,,,,,
616.0,17.0,wc_17,wc_12,0.0,"[('wc_12', 0.6700000000000005), ('wc_17', 0.5000000000000003), ('wc_13', 0.2300000000000001)]",0.8729500000000003,,,28.0,0.006676,['Fail'],Fail,0.6700000000000005,-0.4700000000000005,0.0,0.0,1.0
616.0,17.0,wc_17,,0.0,,,,202.0,,,,Fail,,,,,
616.0,17.0,wc_17,wc_7,1.0,"[('wc_7', 0.5700000000000004), ('wc_17', 0.5000000000000003), ('wc_13', 0.2300000000000001), ('wc_12', 0.6700000000000005)]",0.9453685000000002,,,25.0,0.05241299999999999,['Fail'],Fail,0.5700000000000004,-0.0700000000000004,3.0,6.0,0.9
630.0,17.0,wc_17,,0.0,,,,243.0,,,,Fail,,,,,
630.0,17.0,wc_17,,0.0,,,71.0,,,,,Fail,,,,,
630.0,17.0,wc_17,,0.0,,,,0.0,,,,Fail,,,,,
630.0,17.0,wc_17,wc_17,0.0,"[('wc_17', 0.5000000000000003)]",0.5000000000000003,,,23.0,0.002237,['Fail'],Fail,0.5000000000000003,-3.3306690738754696e-16,3.0,6.0,0.6
630.0,17.0,wc_17,,0.0,,,,362.0,,,,Fail,,,,,
630.0,17.0,wc_17,wc_3,0.0,"[('wc_3', 0.2300000000000001), ('wc_17', 0.5000000000000003)]",0.6150000000000003,,,37.0,0.004054,['Fail'],Fail,0.2300000000000001,-0.13909090909090918,0.0,0.0,0.1
630.0,17.0,wc_17,,0.0,,,,0.0,,,,Fail,,,,,
630.0,17.0,wc_17,wc_5,0.0,"[('wc_5', 0.5200000000000004), ('wc_17', 0.5000000000000003), ('wc_3', 0.2300000000000001)]",0.8152000000000003,,,37.0,0.007268,['Fail'],Fail,0.5200000000000004,-0.5200000000000004,0.0,9.0,0.8
630.0,17.0,wc_17,,0.0,,,,122.0,,,,Fail,,,,,
630.0,17.0,wc_17,wc_9,0.0,"[('wc_9', 0.12000000000000001), ('wc_17', 0.5000000000000003), ('wc_3', 0.2300000000000001), ('wc_5', 0.5200000000000004)]",0.8373760000000002,,,29.0,0.009948000000000002,['Fail'],Fail,0.12000000000000001,-0.12000000000000001,0.0,0.0,0.1
630.0,17.0,wc_17,,0.0,,,,121.0,,,,Fail,,,,,
630.0,17.0,wc_17,wc_13,0.0,"[('wc_13', 0.2400000000000001), ('wc_17', 0.5000000000000003), ('wc_3', 0.2300000000000001), ('wc_5', 0.5200000000000004), ('wc_9', 0.12000000000000001)]",0.8764057600000003,,,25.0,0.009434,['Fail'],Fail,0.2400000000000001,0.7599999999999999,1.0,1.0,0.1
630.0,17.0,wc_17,,0.0,,,,321.0,,,,Fail,,,,,
630.0,17.0,wc_17,wc_10,1.0,"[('wc_10', 0.6700000000000005), ('wc_17', 0.5000000000000003), ('wc_3', 0.2300000000000001), ('wc_5', 0.5200000000000004), ('wc_9', 0.12000000000000001), ('wc_13', 0.2400000000000001)]",0.9592139008000001,,,27.0,0.050633,['Fail'],Fail,0.6700000000000005,-0.6700000000000005,0.0,0.0,0.8
638.0,17.0,wc_17,,0.0,,,,182.0,,,,Pass,,,,,
638.0,17.0,wc_17,,0.0,,,79.0,,,,,Pass,,,,,
638.0,17.0,wc_17,,0.0,,,,0.0,,,,Pass,,,,,
638.0,17.0,wc_17,wc_17,0.0,"[('wc_17', 0.5100000000000003)]",0.5100000000000003,,,31.0,0.002323,['Pass'],Pass,0.5100000000000003,0.061428571428571055,4.0,7.0,0.6
638.0,17.0,wc_17,,0.0,,,,322.0,,,,Pass,,,,,
638.0,17.0,wc_17,wc_9,0.0,"[('wc_17', 0.5100000000000003)]",0.5100000000000003,,,21.0,0.004293999999999999,['Pass'],Pass,0.13,0.87,1.0,1.0,0.1
638.0,17.0,wc_17,,0.0,,,,101.0,,,,Pass,,,,,
638.0,17.0,wc_17,wc_8,0.0,"[('wc_8', 0.29000000000000015), ('wc_17', 0.5100000000000003)]",0.6521000000000003,,,23.0,0.0059499999999999996,['Pass'],Pass,0.29000000000000015,-0.17888888888888904,1.0,9.0,0.3
638.0,17.0,wc_17,,0.0,,,,203.0,,,,Pass,,,,,
638.0,17.0,wc_17,wc_16,0.0,"[('wc_16', 0.42000000000000026), ('wc_17', 0.5100000000000003), ('wc_8', 0.29000000000000015)]",0.7982180000000003,,,26.0,0.008145000000000001,['Pass'],Pass,0.42000000000000026,-0.17000000000000026,1.0,4.0,0.6
638.0,17.0,wc_17,,0.0,,,,41.0,,,,Pass,,,,,
638.0,17.0,wc_17,wc_12,1.0,"[('wc_12', 0.6800000000000005), ('wc_17', 0.5100000000000003), ('wc_8', 0.29000000000000015), ('wc_16', 0.42000000000000026)]",0.9354297600000002,,,38.0,0.057794,['Pass'],Pass,0.6800000000000005,-0.013333333333333863,2.0,3.0,1.0
