mpecck/BCQC/bcqc_with_qdt/results/raw/input_18/independent_qc/training/20_workpiece/20200429_095234/wp_6_qc_majority_0.9.csv
production_index,step_idx,production_workcell,qc,consent,winner_qc_list,score,production_time,transport_time,inspection_time,network_time,qc_results,actual_quality,qc_score,score_error,in_winner_counter,in_qc_counter,qc_capability
7.0,1.0,wc_1,,0.0,,,72.0,,,,,Fail,,,,,
7.0,1.0,wc_1,,0.0,,,,0.0,,,,Fail,,,,,
7.0,1.0,wc_1,wc_1,0.0,"[('wc_1', 0.6300000000000004)]",0.6300000000000004,,,30.0,0.002409,['Fail'],Fail,0.6300000000000004,-0.6300000000000004,0.0,5.0,0.7
7.0,1.0,wc_1,,0.0,,,,203.0,,,,Fail,,,,,
7.0,1.0,wc_1,wc_9,0.0,"[('wc_9', 0.13), ('wc_1', 0.6300000000000004)]",0.6781000000000004,,,33.0,0.004534,['Fail'],Fail,0.13,0.37,1.0,2.0,0.1
7.0,1.0,wc_1,,0.0,,,,101.0,,,,Fail,,,,,
7.0,1.0,wc_1,wc_8,0.0,"[('wc_8', 0.29000000000000015), ('wc_1', 0.6300000000000004), ('wc_9', 0.13)]",0.7714510000000003,,,31.0,0.008168,['Fail'],Fail,0.29000000000000015,-0.29000000000000015,0.0,0.0,0.3
7.0,1.0,wc_1,,0.0,,,,182.0,,,,Fail,,,,,
7.0,1.0,wc_1,wc_2,0.0,"[('wc_2', 0.27000000000000013), ('wc_1', 0.6300000000000004), ('wc_9', 0.13), ('wc_8', 0.29000000000000015)]",0.8331592300000003,,,24.0,0.007897999999999999,['Fail'],Fail,0.27000000000000013,-0.27000000000000013,0.0,0.0,0.1
7.0,1.0,wc_1,,0.0,,,,0.0,,,,Fail,,,,,
7.0,1.0,wc_1,wc_3,0.0,"[('wc_1', 0.6300000000000004), ('wc_9', 0.13), ('wc_8', 0.29000000000000015), ('wc_2', 0.27000000000000013)]",0.8331592300000003,,,24.0,0.011078,['Fail'],Fail,0.2400000000000001,0.2599999999999999,1.0,2.0,0.1
7.0,1.0,wc_1,,0.0,,,,101.0,,,,Fail,,,,,
7.0,1.0,wc_1,wc_6,0.0,"[('wc_6', 0.28000000000000014), ('wc_1', 0.6300000000000004), ('wc_9', 0.13), ('wc_8', 0.29000000000000015), ('wc_2', 0.27000000000000013)]",0.8798746456000002,,,38.0,0.011937999999999999,['Fail'],Fail,0.28000000000000014,-0.28000000000000014,0.0,0.0,0.2
7.0,1.0,wc_1,,0.0,,,,223.0,,,,Fail,,,,,
7.0,1.0,wc_1,wc_15,1.0,"[('wc_15', 0.43000000000000027), ('wc_1', 0.6300000000000004), ('wc_9', 0.13), ('wc_8', 0.29000000000000015), ('wc_2', 0.27000000000000013), ('wc_6', 0.28000000000000014)]",0.9315285479920001,,,38.0,0.055853,['Fail'],Fail,0.43000000000000027,-0.43000000000000027,0.0,0.0,0.5
110.0,1.0,wc_1,,0.0,,,,283.0,,,,Pass,,,,,
110.0,1.0,wc_1,,0.0,,,51.0,,,,,Pass,,,,,
110.0,1.0,wc_1,,0.0,,,,0.0,,,,Pass,,,,,
110.0,1.0,wc_1,wc_1,0.0,"[('wc_1', 0.6300000000000004)]",0.6300000000000004,,,29.0,0.002104,['Fail'],Pass,0.6300000000000004,-0.4633333333333338,1.0,6.0,0.7
110.0,1.0,wc_1,,0.0,,,,223.0,,,,Pass,,,,,
110.0,1.0,wc_1,wc_10,0.0,"[('wc_10', 0.6700000000000005), ('wc_1', 0.6300000000000004)]",0.8779000000000003,,,23.0,0.008078,['Fail'],Pass,0.6700000000000005,-0.6700000000000005,0.0,2.0,0.8
110.0,1.0,wc_1,,0.0,,,,61.0,,,,Pass,,,,,
110.0,1.0,wc_1,wc_7,0.0,"[('wc_1', 0.6300000000000004), ('wc_10', 0.6700000000000005)]",0.8779000000000003,,,35.0,0.009202,['Fail'],Pass,0.5700000000000004,-0.23666666666666708,3.0,9.0,0.9
110.0,1.0,wc_1,,0.0,,,,341.0,,,,Pass,,,,,
110.0,1.0,wc_1,wc_5,0.0,"[('wc_1', 0.6300000000000004), ('wc_10', 0.6700000000000005)]",0.8779000000000003,,,39.0,0.009136,['Fail'],Pass,0.5200000000000004,-0.5200000000000004,0.0,2.0,0.8
110.0,1.0,wc_1,,0.0,,,,202.0,,,,Pass,,,,,
110.0,1.0,wc_1,wc_17,1.0,"[('wc_17', 0.5200000000000004), ('wc_7', 0.5700000000000004), ('wc_5', 0.5200000000000004)]",0.9009280000000002,,,34.0,0.039613,['Pass'],Pass,0.5300000000000004,-0.5300000000000004,0.0,0.0,0.6
128.0,2.0,wc_2,,0.0,,,,263.0,,,,Fail,,,,,
128.0,2.0,wc_2,,0.0,,,72.0,,,,,Fail,,,,,
128.0,2.0,wc_2,,0.0,,,,0.0,,,,Fail,,,,,
128.0,2.0,wc_2,wc_2,0.0,"[('wc_2', 0.28000000000000014)]",0.28000000000000014,,,29.0,0.002241,['Pass'],Fail,0.28000000000000014,0.21999999999999986,1.0,2.0,0.1
128.0,2.0,wc_2,,0.0,,,,0.0,,,,Fail,,,,,
128.0,2.0,wc_2,wc_5,0.0,"[('wc_5', 0.5200000000000004)]",0.5200000000000004,,,37.0,0.004208,['Fail'],Fail,0.5200000000000004,-0.18666666666666704,1.0,3.0,0.8
128.0,2.0,wc_2,,0.0,,,,81.0,,,,Fail,,,,,
128.0,2.0,wc_2,wc_7,0.0,"[('wc_7', 0.5700000000000004), ('wc_5', 0.5200000000000004)]",0.7936000000000003,,,29.0,0.008431,['Fail'],Fail,0.5700000000000004,-0.5700000000000004,0.0,0.0,0.9
128.0,2.0,wc_2,,0.0,,,,223.0,,,,Fail,,,,,
128.0,2.0,wc_2,wc_16,0.0,"[('wc_5', 0.5200000000000004), ('wc_7', 0.5700000000000004)]",0.7936000000000003,,,26.0,0.008041,['Fail'],Fail,0.42000000000000026,-0.13428571428571456,2.0,7.0,0.6
128.0,2.0,wc_2,,0.0,,,,81.0,,,,Fail,,,,,
128.0,2.0,wc_2,wc_14,1.0,"[('wc_14', 0.5800000000000004), ('wc_5', 0.5200000000000004), ('wc_7', 0.5700000000000004)]",0.9133120000000002,,,37.0,0.043063000000000004,['Fail'],Fail,0.5800000000000004,-0.13555555555555598,4.0,9.0,0.5
144.0,4.0,wc_4,,0.0,,,,341.0,,,,Pass,,,,,
144.0,4.0,wc_4,,0.0,,,67.0,,,,,Pass,,,,,
144.0,4.0,wc_4,,0.0,,,,0.0,,,,Pass,,,,,
144.0,4.0,wc_4,wc_4,0.0,"[('wc_4', 0.4900000000000003)]",0.4900000000000003,,,25.0,0.00248,['Pass'],Pass,0.4900000000000003,-0.3233333333333337,0.0,0.0,0.7
144.0,4.0,wc_4,,0.0,,,,103.0,,,,Pass,,,,,
144.0,4.0,wc_4,wc_3,0.0,"[('wc_4', 0.4900000000000003)]",0.4900000000000003,,,32.0,0.004317,['Pass'],Pass,0.2400000000000001,-0.04000000000000009,1.0,5.0,0.1
144.0,4.0,wc_4,,0.0,,,,242.0,,,,Pass,,,,,
144.0,4.0,wc_4,wc_17,0.0,"[('wc_17', 0.5300000000000004), ('wc_4', 0.4900000000000003)]",0.7603000000000003,,,20.0,0.0056430000000000004,['Pass'],Pass,0.5300000000000004,-0.5300000000000004,0.0,1.0,0.6
144.0,4.0,wc_4,,0.0,,,,21.0,,,,Pass,,,,,
144.0,4.0,wc_4,wc_12,1.0,"[('wc_12', 0.6800000000000005), ('wc_4', 0.4900000000000003), ('wc_17', 0.5300000000000004)]",0.9232960000000002,,,31.0,0.048154,['Pass'],Pass,0.6800000000000005,-0.25142857142857195,3.0,7.0,1.0
198.0,2.0,wc_2,,0.0,,,,262.0,,,,Pass,,,,,
198.0,2.0,wc_2,,0.0,,,76.0,,,,,Pass,,,,,
198.0,2.0,wc_2,,0.0,,,,0.0,,,,Pass,,,,,
198.0,2.0,wc_2,wc_2,0.0,"[('wc_2', 0.28000000000000014)]",0.28000000000000014,,,37.0,0.002029,['Pass'],Pass,0.28000000000000014,-0.030000000000000138,1.0,4.0,0.1
198.0,2.0,wc_2,,0.0,,,,182.0,,,,Pass,,,,,
198.0,2.0,wc_2,wc_13,0.0,"[('wc_13', 0.2500000000000001), ('wc_2', 0.28000000000000014)]",0.4600000000000002,,,27.0,0.004953,['Pass'],Pass,0.2500000000000001,0.03571428571428559,2.0,7.0,0.1
198.0,2.0,wc_2,,0.0,,,,102.0,,,,Pass,,,,,
198.0,2.0,wc_2,wc_12,0.0,"[('wc_12', 0.6800000000000005), ('wc_2', 0.28000000000000014), ('wc_13', 0.2500000000000001)]",0.8272000000000004,,,39.0,0.0061340000000000006,['Pass'],Pass,0.6800000000000005,-0.25142857142857195,3.0,7.0,1.0
198.0,2.0,wc_2,,0.0,,,,0.0,,,,Pass,,,,,
198.0,2.0,wc_2,wc_14,1.0,"[('wc_14', 0.5800000000000004), ('wc_2', 0.28000000000000014), ('wc_13', 0.2500000000000001), ('wc_12', 0.6800000000000005)]",0.9274240000000002,,,34.0,0.03961399999999999,['Pass'],Pass,0.5800000000000004,-0.5800000000000004,0.0,0.0,0.5
259.0,3.0,wc_3,,0.0,,,,321.0,,,,Pass,,,,,
259.0,3.0,wc_3,,0.0,,,51.0,,,,,Pass,,,,,
259.0,3.0,wc_3,,0.0,,,,0.0,,,,Pass,,,,,
259.0,3.0,wc_3,wc_3,0.0,"[('wc_3', 0.2300000000000001)]",0.2300000000000001,,,24.0,0.002218,['Fail'],Pass,0.2300000000000001,-0.08714285714285724,1.0,7.0,0.1
259.0,3.0,wc_3,,0.0,,,,121.0,,,,Pass,,,,,
259.0,3.0,wc_3,wc_7,0.0,"[('wc_7', 0.5800000000000004)]",0.5800000000000004,,,28.0,0.004023,['Pass'],Pass,0.5800000000000004,-0.2466666666666671,1.0,3.0,0.9
259.0,3.0,wc_3,,0.0,,,,142.0,,,,Pass,,,,,
259.0,3.0,wc_3,wc_12,0.0,"[('wc_12', 0.6800000000000005), ('wc_7', 0.5800000000000004)]",0.8656000000000004,,,32.0,0.00608,['Pass'],Pass,0.6800000000000005,-0.1800000000000005,4.0,8.0,1.0
259.0,3.0,wc_3,,0.0,,,,262.0,,,,Pass,,,,,
259.0,3.0,wc_3,wc_2,0.0,"[('wc_7', 0.5800000000000004), ('wc_12', 0.6800000000000005)]",0.8656000000000004,,,36.0,0.010061,['Pass'],Pass,0.29000000000000015,0.10999999999999988,2.0,5.0,0.1
259.0,3.0,wc_3,,0.0,,,,122.0,,,,Pass,,,,,
259.0,3.0,wc_3,wc_6,0.0,"[('wc_7', 0.5800000000000004), ('wc_12', 0.6800000000000005)]",0.8656000000000004,,,31.0,0.010235,['Pass'],Pass,0.29000000000000015,-0.09000000000000014,1.0,5.0,0.2
259.0,3.0,wc_3,,0.0,,,,182.0,,,,Pass,,,,,
259.0,3.0,wc_3,wc_13,0.0,"[('wc_7', 0.5800000000000004), ('wc_12', 0.6800000000000005)]",0.8656000000000004,,,39.0,0.010967999999999999,['Pass'],Pass,0.2600000000000001,0.11499999999999988,3.0,8.0,0.1
259.0,3.0,wc_3,,0.0,,,,222.0,,,,Pass,,,,,
259.0,3.0,wc_3,wc_1,1.0,"[('wc_1', 0.6200000000000004), ('wc_7', 0.5800000000000004), ('wc_12', 0.6800000000000005)]",0.9489280000000002,,,22.0,0.046333000000000006,['Pass'],Pass,0.6200000000000004,-0.6200000000000004,0.0,0.0,0.7
276.0,5.0,wc_5,,0.0,,,,0.0,,,,Fail,,,,,
276.0,5.0,wc_5,,0.0,,,70.0,,,,,Fail,,,,,
276.0,5.0,wc_5,,0.0,,,,0.0,,,,Fail,,,,,
276.0,5.0,wc_5,wc_5,0.0,"[('wc_5', 0.5200000000000004)]",0.5200000000000004,,,32.0,0.002136,['Fail'],Fail,0.5200000000000004,-0.23428571428571465,2.0,7.0,0.8
276.0,5.0,wc_5,,0.0,,,,121.0,,,,Fail,,,,,
276.0,5.0,wc_5,wc_13,0.0,"[('wc_5', 0.5200000000000004)]",0.5200000000000004,,,23.0,0.004628,['Fail'],Fail,0.2600000000000001,0.0733333333333332,3.0,9.0,0.1
276.0,5.0,wc_5,,0.0,,,,0.0,,,,Fail,,,,,
276.0,5.0,wc_5,wc_17,0.0,"[('wc_17', 0.5300000000000004), ('wc_5', 0.5200000000000004)]",0.7744000000000003,,,28.0,0.008830000000000001,['Fail'],Fail,0.5300000000000004,-0.28000000000000036,1.0,4.0,0.6
276.0,5.0,wc_5,,0.0,,,,243.0,,,,Fail,,,,,
276.0,5.0,wc_5,wc_1,1.0,"[('wc_1', 0.6200000000000004), ('wc_5', 0.5200000000000004), ('wc_17', 0.5300000000000004)]",0.9142720000000002,,,21.0,0.044684,['Fail'],Fail,0.6300000000000004,0.36999999999999955,1.0,1.0,0.7
301.0,5.0,wc_5,,0.0,,,,0.0,,,,Pass,,,,,
301.0,5.0,wc_5,,0.0,,,62.0,,,,,Pass,,,,,
301.0,5.0,wc_5,,0.0,,,,0.0,,,,Pass,,,,,
301.0,5.0,wc_5,wc_5,0.0,"[('wc_5', 0.5200000000000004)]",0.5200000000000004,,,39.0,0.002509,['Pass'],Pass,0.5200000000000004,-0.14500000000000035,3.0,8.0,0.8
301.0,5.0,wc_5,,0.0,,,,61.0,,,,Pass,,,,,
301.0,5.0,wc_5,wc_2,0.0,"[('wc_2', 0.29000000000000015), ('wc_5', 0.5200000000000004)]",0.6592000000000003,,,22.0,0.004285000000000001,['Pass'],Pass,0.29000000000000015,-0.004285714285714448,2.0,7.0,0.1
301.0,5.0,wc_5,,0.0,,,,0.0,,,,Pass,,,,,
301.0,5.0,wc_5,wc_3,0.0,"[('wc_5', 0.5200000000000004), ('wc_2', 0.29000000000000015)]",0.6592000000000003,,,22.0,0.006289,['Pass'],Pass,0.22000000000000008,-0.10888888888888898,1.0,9.0,0.1
301.0,5.0,wc_5,,0.0,,,,202.0,,,,Pass,,,,,
301.0,5.0,wc_5,wc_11,0.0,"[('wc_11', 0.6800000000000005), ('wc_5', 0.5200000000000004), ('wc_2', 0.29000000000000015)]",0.8909440000000003,,,36.0,0.009242,['Pass'],Pass,0.6800000000000005,-0.4577777777777783,0.0,0.0,1.0
301.0,5.0,wc_5,,0.0,,,,83.0,,,,Pass,,,,,
301.0,5.0,wc_5,wc_9,1.0,"[('wc_9', 0.14), ('wc_5', 0.5200000000000004), ('wc_2', 0.29000000000000015), ('wc_11', 0.6800000000000005)]",0.9062118400000002,,,30.0,0.04620799999999999,['Pass'],Pass,0.15000000000000002,-0.15000000000000002,0.0,0.0,0.1
309.0,6.0,wc_6,,0.0,,,,61.0,,,,Pass,,,,,
309.0,6.0,wc_6,,0.0,,,50.0,,,,,Pass,,,,,
309.0,6.0,wc_6,,0.0,,,,0.0,,,,Pass,,,,,
309.0,6.0,wc_6,wc_6,0.0,"[('wc_6', 0.28000000000000014)]",0.28000000000000014,,,26.0,0.002132,['Fail'],Pass,0.28000000000000014,-0.15500000000000014,1.0,8.0,0.2
309.0,6.0,wc_6,,0.0,,,,0.0,,,,Pass,,,,,
309.0,6.0,wc_6,wc_9,0.0,"[('wc_9', 0.15000000000000002), ('wc_6', 0.28000000000000014)]",0.3880000000000001,,,31.0,0.004164,['Fail'],Pass,0.15000000000000002,-0.15000000000000002,0.0,0.0,0.1
309.0,6.0,wc_6,,0.0,,,,162.0,,,,Pass,,,,,
309.0,6.0,wc_6,wc_15,0.0,"[('wc_15', 0.43000000000000027), ('wc_6', 0.28000000000000014), ('wc_9', 0.15000000000000002)]",0.6511600000000002,,,30.0,0.006092,['Fail'],Pass,0.43000000000000027,-0.43000000000000027,0.0,7.0,0.5
309.0,6.0,wc_6,,0.0,,,,263.0,,,,Pass,,,,,
309.0,6.0,wc_6,wc_8,0.0,"[('wc_8', 0.30000000000000016), ('wc_6', 0.28000000000000014), ('wc_9', 0.15000000000000002), ('wc_15', 0.43000000000000027)]",0.7558120000000003,,,40.0,0.008459999999999999,['Fail'],Pass,0.30000000000000016,-0.17500000000000016,1.0,8.0,0.3
309.0,6.0,wc_6,,0.0,,,,281.0,,,,Pass,,,,,
309.0,6.0,wc_6,wc_3,0.0,"[('wc_3', 0.21000000000000008), ('wc_6', 0.28000000000000014), ('wc_9', 0.15000000000000002), ('wc_15', 0.43000000000000027), ('wc_8', 0.30000000000000016)]",0.8070914800000002,,,35.0,0.011209,['Fail'],Pass,0.21000000000000008,-0.21000000000000008,0.0,0.0,0.1
309.0,6.0,wc_6,,0.0,,,,222.0,,,,Pass,,,,,
309.0,6.0,wc_6,wc_16,0.0,"[('wc_6', 0.28000000000000014), ('wc_9', 0.15000000000000002), ('wc_15', 0.43000000000000027), ('wc_8', 0.30000000000000016), ('wc_3', 0.21000000000000008)]",0.8070914800000002,,,27.0,0.013808,['Fail'],Pass,0.41000000000000025,-0.2561538461538464,0.0,0.0,0.6
309.0,6.0,wc_6,,0.0,,,,263.0,,,,Pass,,,,,
309.0,6.0,wc_6,wc_1,1.0,"[('wc_1', 0.6300000000000004), ('wc_6', 0.28000000000000014), ('wc_9', 0.15000000000000002), ('wc_15', 0.43000000000000027), ('wc_8', 0.30000000000000016), ('wc_3', 0.21000000000000008)]",0.9286238476000002,,,34.0,0.052842999999999994,['Fail'],Pass,0.6400000000000005,0.026666666666666172,2.0,3.0,0.7
321.0,10.0,wc_10,,0.0,,,,223.0,,,,Pass,,,,,
321.0,10.0,wc_10,,0.0,,,56.0,,,,,Pass,,,,,
321.0,10.0,wc_10,,0.0,,,,0.0,,,,Pass,,,,,
321.0,10.0,wc_10,wc_10,0.0,"[('wc_10', 0.6600000000000005)]",0.6600000000000005,,,28.0,0.002302,['Pass'],Pass,0.6600000000000005,-0.6600000000000005,0.0,0.0,0.8
321.0,10.0,wc_10,,0.0,,,,81.0,,,,Pass,,,,,
321.0,10.0,wc_10,wc_12,0.0,"[('wc_12', 0.6800000000000005), ('wc_10', 0.6600000000000005)]",0.8912000000000003,,,37.0,0.00456,['Pass'],Pass,0.6800000000000005,-0.2633333333333338,0.0,0.0,1.0
321.0,10.0,wc_10,,0.0,,,,321.0,,,,Pass,,,,,
321.0,10.0,wc_10,wc_9,0.0,"[('wc_10', 0.6600000000000005), ('wc_12', 0.6800000000000005)]",0.8912000000000003,,,27.0,0.006305,['Pass'],Pass,0.16000000000000003,0.84,1.0,1.0,0.1
321.0,10.0,wc_10,,0.0,,,,362.0,,,,Pass,,,,,
321.0,10.0,wc_10,wc_3,1.0,"[('wc_3', 0.22000000000000008), ('wc_10', 0.6600000000000005), ('wc_12', 0.6800000000000005)]",0.9151360000000003,,,40.0,0.04045100000000001,['Pass'],Pass,0.2300000000000001,0.7699999999999999,2.0,2.0,0.1
332.0,11.0,wc_11,,0.0,,,,202.0,,,,Fail,,,,,
332.0,11.0,wc_11,,0.0,,,56.0,,,,,Fail,,,,,
332.0,11.0,wc_11,,0.0,,,,0.0,,,,Fail,,,,,
332.0,11.0,wc_11,wc_11,0.0,"[('wc_11', 0.6900000000000005)]",0.6900000000000005,,,31.0,0.002365,['Fail'],Fail,0.6900000000000005,-0.3566666666666672,1.0,3.0,1.0
332.0,11.0,wc_11,,0.0,,,,362.0,,,,Fail,,,,,
332.0,11.0,wc_11,wc_5,0.0,"[('wc_5', 0.5200000000000004), ('wc_11', 0.6900000000000005)]",0.8512000000000004,,,38.0,0.005777,['Fail'],Fail,0.5200000000000004,-0.1563636363636367,0.0,0.0,0.8
332.0,11.0,wc_11,,0.0,,,,121.0,,,,Fail,,,,,
332.0,11.0,wc_11,wc_13,0.0,"[('wc_13', 0.2600000000000001), ('wc_11', 0.6900000000000005), ('wc_5', 0.5200000000000004)]",0.8898880000000002,,,40.0,0.006583,['Fail'],Fail,0.2600000000000001,-0.2600000000000001,0.0,3.0,0.1
332.0,11.0,wc_11,,0.0,,,,341.0,,,,Fail,,,,,
332.0,11.0,wc_11,wc_3,1.0,"[('wc_3', 0.2300000000000001), ('wc_11', 0.6900000000000005), ('wc_5', 0.5200000000000004), ('wc_13', 0.2600000000000001)]",0.9152137600000002,,,33.0,0.041472999999999996,['Fail'],Fail,0.2400000000000001,0.7599999999999999,3.0,3.0,0.1
345.0,11.0,wc_11,,0.0,,,,202.0,,,,Fail,,,,,
345.0,11.0,wc_11,,0.0,,,63.0,,,,,Fail,,,,,
345.0,11.0,wc_11,,0.0,,,,0.0,,,,Fail,,,,,
345.0,11.0,wc_11,wc_11,0.0,"[('wc_11', 0.6900000000000005)]",0.6900000000000005,,,20.0,0.003775,['Pass'],Fail,0.6900000000000005,-0.1900000000000005,2.0,4.0,1.0
345.0,11.0,wc_11,,0.0,,,,142.0,,,,Fail,,,,,
345.0,11.0,wc_11,wc_16,0.0,"[('wc_11', 0.6900000000000005)]",0.6900000000000005,,,25.0,0.0043890000000000005,['Pass'],Fail,0.40000000000000024,-0.40000000000000024,0.0,3.0,0.6
345.0,11.0,wc_11,,0.0,,,,422.0,,,,Fail,,,,,
345.0,11.0,wc_11,wc_5,0.0,"[('wc_5', 0.5300000000000004), ('wc_16', 0.40000000000000024)]",0.7180000000000003,,,32.0,0.007221,['Fail'],Fail,0.5300000000000004,0.46999999999999964,1.0,1.0,0.8
345.0,11.0,wc_11,,0.0,,,,122.0,,,,Fail,,,,,
345.0,11.0,wc_11,wc_9,0.0,"[('wc_9', 0.16000000000000003), ('wc_11', 0.6900000000000005)]",0.7396000000000005,,,39.0,0.009947999999999999,['Pass'],Fail,0.16000000000000003,0.17333333333333328,1.0,3.0,0.1
345.0,11.0,wc_11,,0.0,,,,101.0,,,,Fail,,,,,
345.0,11.0,wc_11,wc_12,1.0,"[('wc_12', 0.6900000000000005), ('wc_16', 0.40000000000000024), ('wc_5', 0.5300000000000004)]",0.9125800000000003,,,33.0,0.042917000000000004,['Fail'],Fail,0.6900000000000005,-0.023333333333333872,2.0,3.0,1.0
356.0,11.0,wc_11,,0.0,,,,361.0,,,,Pass,,,,,
356.0,11.0,wc_11,,0.0,,,66.0,,,,,Pass,,,,,
356.0,11.0,wc_11,,0.0,,,,0.0,,,,Pass,,,,,
356.0,11.0,wc_11,wc_11,0.0,"[('wc_11', 0.6800000000000005)]",0.6800000000000005,,,24.0,0.002718,['Pass'],Pass,0.6800000000000005,-0.28000000000000047,2.0,5.0,1.0
356.0,11.0,wc_11,,0.0,,,,83.0,,,,Pass,,,,,
356.0,11.0,wc_11,wc_9,0.0,"[('wc_11', 0.6800000000000005)]",0.6800000000000005,,,20.0,0.003946,['Pass'],Pass,0.16000000000000003,0.08999999999999997,1.0,4.0,0.1
356.0,11.0,wc_11,,0.0,,,,61.0,,,,Pass,,,,,
356.0,11.0,wc_11,wc_6,0.0,"[('wc_6', 0.28000000000000014), ('wc_11', 0.6800000000000005)]",0.7696000000000004,,,32.0,0.006099,['Pass'],Pass,0.28000000000000014,-0.11333333333333348,0.0,0.0,0.2
356.0,11.0,wc_11,,0.0,,,,202.0,,,,Pass,,,,,
356.0,11.0,wc_11,wc_1,1.0,"[('wc_1', 0.6400000000000005), ('wc_11', 0.6800000000000005), ('wc_6', 0.28000000000000014)]",0.9170560000000002,,,38.0,0.045275,['Pass'],Pass,0.6400000000000005,-0.2114285714285719,3.0,7.0,0.7
369.0,8.0,wc_8,,0.0,,,,182.0,,,,Fail,,,,,
369.0,8.0,wc_8,,0.0,,,70.0,,,,,Fail,,,,,
369.0,8.0,wc_8,,0.0,,,,0.0,,,,Fail,,,,,
369.0,8.0,wc_8,wc_8,0.0,"[('wc_8', 0.30000000000000016)]",0.30000000000000016,,,27.0,0.008886,['Fail'],Fail,0.30000000000000016,-0.1461538461538463,0.0,0.0,0.3
369.0,8.0,wc_8,,0.0,,,,102.0,,,,Fail,,,,,
369.0,8.0,wc_8,wc_7,0.0,"[('wc_7', 0.5800000000000004), ('wc_8', 0.30000000000000016)]",0.7060000000000004,,,23.0,0.004664,['Fail'],Fail,0.5800000000000004,-0.3981818181818186,0.0,0.0,0.9
369.0,8.0,wc_8,,0.0,,,,0.0,,,,Fail,,,,,
369.0,8.0,wc_8,wc_11,1.0,"[('wc_11', 0.6800000000000005), ('wc_8', 0.30000000000000016), ('wc_7', 0.5800000000000004)]",0.9059200000000003,,,30.0,0.043647,['Fail'],Fail,0.6800000000000005,-0.1085714285714291,4.0,7.0,1.0
378.0,8.0,wc_8,,0.0,,,,61.0,,,,Pass,,,,,
378.0,8.0,wc_8,,0.0,,,52.0,,,,,Pass,,,,,
378.0,8.0,wc_8,,0.0,,,,0.0,,,,Pass,,,,,
378.0,8.0,wc_8,wc_8,0.0,"[('wc_8', 0.31000000000000016)]",0.31000000000000016,,,28.0,0.002356,['Pass'],Pass,0.31000000000000016,0.6899999999999998,1.0,1.0,0.3
378.0,8.0,wc_8,,0.0,,,,183.0,,,,Pass,,,,,
378.0,8.0,wc_8,wc_15,0.0,"[('wc_15', 0.43000000000000027), ('wc_8', 0.31000000000000016)]",0.6067000000000002,,,32.0,0.0039030000000000002,['Pass'],Pass,0.43000000000000027,-0.35307692307692334,0.0,0.0,0.5
378.0,8.0,wc_8,,0.0,,,,442.0,,,,Pass,,,,,
378.0,8.0,wc_8,wc_5,0.0,"[('wc_5', 0.5400000000000004), ('wc_8', 0.31000000000000016), ('wc_15', 0.43000000000000027)]",0.8190820000000003,,,31.0,0.006725,['Pass'],Pass,0.5400000000000004,-0.04000000000000037,2.0,4.0,0.8
378.0,8.0,wc_8,,0.0,,,,83.0,,,,Pass,,,,,
378.0,8.0,wc_8,wc_3,0.0,"[('wc_8', 0.31000000000000016), ('wc_15', 0.43000000000000027), ('wc_5', 0.5400000000000004)]",0.8190820000000003,,,31.0,0.008964,['Pass'],Pass,0.2400000000000001,0.2599999999999999,3.0,6.0,0.1
378.0,8.0,wc_8,,0.0,,,,242.0,,,,Pass,,,,,
378.0,8.0,wc_8,wc_17,0.0,"[('wc_8', 0.31000000000000016), ('wc_15', 0.43000000000000027), ('wc_5', 0.5400000000000004)]",0.8190820000000003,,,37.0,0.012527,['Pass'],Pass,0.5300000000000004,-0.36333333333333373,0.0,0.0,0.6
378.0,8.0,wc_8,,0.0,,,,103.0,,,,Pass,,,,,
378.0,8.0,wc_8,wc_16,0.0,"[('wc_8', 0.31000000000000016), ('wc_15', 0.43000000000000027), ('wc_5', 0.5400000000000004)]",0.8190820000000003,,,22.0,0.011581,['Pass'],Pass,0.40000000000000024,-0.2333333333333336,1.0,6.0,0.6
378.0,8.0,wc_8,,0.0,,,,263.0,,,,Pass,,,,,
378.0,8.0,wc_8,wc_1,1.0,"[('wc_1', 0.6400000000000005), ('wc_8', 0.31000000000000016), ('wc_15', 0.43000000000000027), ('wc_5', 0.5400000000000004)]",0.9348695200000002,,,35.0,0.049556,['Pass'],Pass,0.6400000000000005,-0.19555555555555604,4.0,9.0,0.7
396.0,9.0,wc_9,,0.0,,,,203.0,,,,Pass,,,,,
396.0,9.0,wc_9,,0.0,,,62.0,,,,,Pass,,,,,
396.0,9.0,wc_9,,0.0,,,,0.0,,,,Pass,,,,,
396.0,9.0,wc_9,wc_9,0.0,"[('wc_9', 0.16000000000000003)]",0.16000000000000003,,,39.0,0.004934,['Fail'],Pass,0.16000000000000003,-0.017142857142857182,1.0,7.0,0.1
396.0,9.0,wc_9,,0.0,,,,0.0,,,,Pass,,,,,
396.0,9.0,wc_9,wc_10,0.0,"[('wc_10', 0.6700000000000005), ('wc_9', 0.16000000000000003)]",0.7228000000000004,,,37.0,0.003998,['Fail'],Pass,0.6700000000000005,-0.5033333333333339,1.0,6.0,0.8
396.0,9.0,wc_9,,0.0,,,,61.0,,,,Pass,,,,,
396.0,9.0,wc_9,wc_7,0.0,"[('wc_7', 0.5900000000000004), ('wc_9', 0.16000000000000003), ('wc_10', 0.6700000000000005)]",0.8863480000000002,,,39.0,0.006581,['Fail'],Pass,0.5900000000000004,-0.09000000000000041,1.0,2.0,0.9
396.0,9.0,wc_9,,0.0,,,,162.0,,,,Pass,,,,,
396.0,9.0,wc_9,wc_13,0.0,"[('wc_9', 0.16000000000000003), ('wc_10', 0.6700000000000005), ('wc_7', 0.5900000000000004)]",0.8863480000000004,,,37.0,0.007330000000000001,['Fail'],Pass,0.2600000000000001,-0.13500000000000012,1.0,8.0,0.1
396.0,9.0,wc_9,,0.0,,,,341.0,,,,Pass,,,,,
396.0,9.0,wc_9,wc_11,0.0,"[('wc_9', 0.16000000000000003), ('wc_10', 0.6700000000000005), ('wc_7', 0.5900000000000004)]",0.8863480000000004,,,20.0,0.009006,['Fail'],Pass,0.6800000000000005,-0.1800000000000005,4.0,8.0,1.0
396.0,9.0,wc_9,,0.0,,,,122.0,,,,Pass,,,,,
396.0,9.0,wc_9,wc_15,1.0,"[('wc_15', 0.4400000000000003), ('wc_9', 0.16000000000000003), ('wc_10', 0.6700000000000005), ('wc_7', 0.5900000000000004)]",0.9363548800000002,,,32.0,0.049786,['Fail'],Pass,0.4500000000000003,0.5499999999999997,2.0,2.0,0.5
447.0,7.0,wc_7,,0.0,,,,243.0,,,,Fail,,,,,
447.0,7.0,wc_7,,0.0,,,74.0,,,,,Fail,,,,,
447.0,7.0,wc_7,,0.0,,,,0.0,,,,Fail,,,,,
447.0,7.0,wc_7,wc_7,0.0,"[('wc_7', 0.6000000000000004)]",0.6000000000000004,,,39.0,0.002317,['Pass'],Fail,0.6000000000000004,0.06666666666666621,2.0,3.0,0.9
447.0,7.0,wc_7,,0.0,,,,0.0,,,,Fail,,,,,
447.0,7.0,wc_7,wc_11,0.0,"[('wc_11', 0.6700000000000005)]",0.6700000000000005,,,31.0,0.008278,['Fail'],Fail,0.6700000000000005,-0.22555555555555606,4.0,9.0,1.0
447.0,7.0,wc_7,,0.0,,,,203.0,,,,Fail,,,,,
447.0,7.0,wc_7,wc_1,0.0,"[('wc_1', 0.6400000000000005), ('wc_7', 0.6000000000000004)]",0.8560000000000003,,,28.0,0.006002,['Pass'],Fail,0.6400000000000005,-0.24000000000000044,0.0,0.0,0.7
447.0,7.0,wc_7,,0.0,,,,182.0,,,,Fail,,,,,
447.0,7.0,wc_7,wc_8,1.0,"[('wc_8', 0.3200000000000002), ('wc_7', 0.6000000000000004), ('wc_1', 0.6400000000000005)]",0.9020800000000002,,,21.0,0.06704900000000001,['Pass'],Fail,0.3300000000000002,0.4199999999999998,3.0,4.0,0.3
474.0,7.0,wc_7,,0.0,,,,102.0,,,,Fail,,,,,
474.0,7.0,wc_7,,0.0,,,58.0,,,,,Fail,,,,,
474.0,7.0,wc_7,,0.0,,,,0.0,,,,Fail,,,,,
474.0,7.0,wc_7,wc_7,0.0,"[('wc_7', 0.6100000000000004)]",0.6100000000000004,,,24.0,0.002218,['Pass'],Fail,0.6100000000000004,0.13999999999999957,3.0,4.0,0.9
474.0,7.0,wc_7,,0.0,,,,0.0,,,,Fail,,,,,
474.0,7.0,wc_7,wc_9,0.0,"[('wc_9', 0.17000000000000004), ('wc_7', 0.6100000000000004)]",0.6763000000000003,,,38.0,0.00429,['Pass'],Fail,0.17000000000000004,0.05222222222222217,2.0,9.0,0.1
474.0,7.0,wc_7,,0.0,,,,101.0,,,,Fail,,,,,
474.0,7.0,wc_7,wc_8,0.0,"[('wc_8', 0.3300000000000002), ('wc_7', 0.6100000000000004), ('wc_9', 0.17000000000000004)]",0.7831210000000003,,,33.0,0.006017,['Pass'],Fail,0.3300000000000002,0.4199999999999998,3.0,4.0,0.3
474.0,7.0,wc_7,,0.0,,,,321.0,,,,Fail,,,,,
474.0,7.0,wc_7,wc_5,0.0,"[('wc_7', 0.6100000000000004), ('wc_9', 0.17000000000000004), ('wc_8', 0.3300000000000002)]",0.7831210000000003,,,29.0,0.010128999999999999,['Pass'],Fail,0.5500000000000004,-0.12142857142857183,3.0,7.0,0.8
474.0,7.0,wc_7,,0.0,,,,141.0,,,,Fail,,,,,
474.0,7.0,wc_7,wc_14,0.0,"[('wc_14', 0.5800000000000004), ('wc_5', 0.5500000000000004)]",0.8110000000000004,,,31.0,0.011599,['Fail'],Fail,0.5800000000000004,-0.5800000000000004,0.0,0.0,0.5
474.0,7.0,wc_7,,0.0,,,,301.0,,,,Fail,,,,,
474.0,7.0,wc_7,wc_10,1.0,"[('wc_10', 0.6700000000000005), ('wc_5', 0.5500000000000004), ('wc_14', 0.5800000000000004)]",0.9376300000000002,,,40.0,0.051470999999999996,['Fail'],Fail,0.6700000000000005,-0.33666666666666717,3.0,9.0,0.8
511.0,7.0,wc_7,,0.0,,,,61.0,,,,Fail,,,,,
511.0,7.0,wc_7,,0.0,,,73.0,,,,,Fail,,,,,
511.0,7.0,wc_7,,0.0,,,,0.0,,,,Fail,,,,,
511.0,7.0,wc_7,wc_7,0.0,"[('wc_7', 0.6000000000000004)]",0.6000000000000004,,,21.0,0.002222,['Fail'],Fail,0.6000000000000004,-4.440892098500626e-16,3.0,5.0,0.9
511.0,7.0,wc_7,,0.0,,,,0.0,,,,Fail,,,,,
511.0,7.0,wc_7,wc_8,0.0,"[('wc_7', 0.6000000000000004)]",0.6000000000000004,,,27.0,0.004391,['Fail'],Fail,0.3300000000000002,0.2699999999999998,3.0,5.0,0.3
511.0,7.0,wc_7,,0.0,,,,223.0,,,,Fail,,,,,
511.0,7.0,wc_7,wc_17,0.0,"[('wc_17', 0.5200000000000004), ('wc_7', 0.6000000000000004)]",0.8080000000000003,,,21.0,0.005876999999999999,['Fail'],Fail,0.5200000000000004,-0.5200000000000004,0.0,4.0,0.6
511.0,7.0,wc_7,,0.0,,,,243.0,,,,Fail,,,,,
511.0,7.0,wc_7,wc_1,0.0,"[('wc_7', 0.6000000000000004), ('wc_17', 0.5200000000000004)]",0.8080000000000003,,,31.0,0.008289999999999999,['Fail'],Fail,0.6500000000000005,-0.15000000000000047,1.0,2.0,0.7
511.0,7.0,wc_7,,0.0,,,,202.0,,,,Fail,,,,,
511.0,7.0,wc_7,wc_13,0.0,"[('wc_13', 0.2500000000000001), ('wc_8', 0.3300000000000002), ('wc_1', 0.6500000000000005)]",0.8241250000000003,,,28.0,0.009382,['Pass'],Fail,0.2500000000000001,-0.1590909090909092,0.0,0.0,0.1
511.0,7.0,wc_7,,0.0,,,,321.0,,,,Fail,,,,,
511.0,7.0,wc_7,wc_10,1.0,"[('wc_10', 0.6700000000000005), ('wc_7', 0.6000000000000004), ('wc_17', 0.5200000000000004)]",0.9366400000000003,,,25.0,0.056615,['Fail'],Fail,0.6700000000000005,-0.6700000000000005,0.0,0.0,0.8
536.0,7.0,wc_7,,0.0,,,,61.0,,,,Fail,,,,,
536.0,7.0,wc_7,,0.0,,,78.0,,,,,Fail,,,,,
536.0,7.0,wc_7,,0.0,,,,0.0,,,,Fail,,,,,
536.0,7.0,wc_7,wc_7,0.0,"[('wc_7', 0.6100000000000004)]",0.6100000000000004,,,29.0,0.001986,['Fail'],Fail,0.6100000000000004,0.0566666666666662,4.0,6.0,0.9
536.0,7.0,wc_7,,0.0,,,,0.0,,,,Fail,,,,,
536.0,7.0,wc_7,wc_11,0.0,"[('wc_11', 0.6600000000000005), ('wc_7', 0.6100000000000004)]",0.8674000000000004,,,21.0,0.004791,['Fail'],Fail,0.6600000000000005,-0.6600000000000005,0.0,2.0,1.0
536.0,7.0,wc_7,,0.0,,,,223.0,,,,Fail,,,,,
536.0,7.0,wc_7,wc_2,0.0,"[('wc_7', 0.6100000000000004), ('wc_11', 0.6600000000000005)]",0.8674000000000004,,,35.0,0.005875,['Fail'],Fail,0.30000000000000016,-0.1421052631578949,0.0,0.0,0.1
536.0,7.0,wc_7,,0.0,,,,182.0,,,,Fail,,,,,
536.0,7.0,wc_7,wc_13,0.0,"[('wc_13', 0.2400000000000001), ('wc_7', 0.6100000000000004), ('wc_11', 0.6600000000000005)]",0.8992240000000002,,,32.0,0.007943,['Fail'],Fail,0.2400000000000001,-0.2400000000000001,0.0,1.0,0.1
536.0,7.0,wc_7,,0.0,,,,162.0,,,,Fail,,,,,
536.0,7.0,wc_7,wc_6,0.0,"[('wc_7', 0.6100000000000004), ('wc_11', 0.6600000000000005), ('wc_13', 0.2400000000000001)]",0.8992240000000002,,,29.0,0.01177,['Fail'],Fail,0.29000000000000015,-0.1471428571428573,1.0,7.0,0.2
536.0,7.0,wc_7,,0.0,,,,202.0,,,,Fail,,,,,
536.0,7.0,wc_7,wc_1,1.0,"[('wc_1', 0.6400000000000005), ('wc_7', 0.6100000000000004), ('wc_11', 0.6600000000000005), ('wc_13', 0.2400000000000001)]",0.9637206400000001,,,23.0,0.053288,['Fail'],Fail,0.6400000000000005,-0.14000000000000046,2.0,4.0,0.7
560.0,7.0,wc_7,,0.0,,,,162.0,,,,Pass,,,,,
560.0,7.0,wc_7,,0.0,,,56.0,,,,,Pass,,,,,
560.0,7.0,wc_7,,0.0,,,,0.0,,,,Pass,,,,,
560.0,7.0,wc_7,wc_7,0.0,"[('wc_7', 0.6200000000000004)]",0.6200000000000004,,,30.0,0.002984,['Pass'],Pass,0.6200000000000004,0.09428571428571386,5.0,7.0,0.9
560.0,7.0,wc_7,,0.0,,,,0.0,,,,Pass,,,,,
560.0,7.0,wc_7,wc_11,0.0,"[('wc_11', 0.6600000000000005), ('wc_7', 0.6200000000000004)]",0.8708000000000004,,,38.0,0.004656,['Pass'],Pass,0.6600000000000005,-0.32666666666666716,1.0,3.0,1.0
560.0,7.0,wc_7,,0.0,,,,162.0,,,,Pass,,,,,
560.0,7.0,wc_7,wc_17,1.0,"[('wc_17', 0.5200000000000004), ('wc_7', 0.6200000000000004), ('wc_11', 0.6600000000000005)]",0.9379840000000002,,,23.0,0.04206399999999999,['Pass'],Pass,0.5200000000000004,-0.23428571428571465,2.0,7.0,0.6
573.0,12.0,wc_12,,0.0,,,,21.0,,,,Fail,,,,,
573.0,12.0,wc_12,,0.0,,,67.0,,,,,Fail,,,,,
573.0,12.0,wc_12,,0.0,,,,0.0,,,,Fail,,,,,
573.0,12.0,wc_12,wc_12,0.0,"[('wc_12', 0.6900000000000005)]",0.6900000000000005,,,27.0,0.0022,['Fail'],Fail,0.6900000000000005,-0.5233333333333339,0.0,0.0,1.0
573.0,12.0,wc_12,,0.0,,,,381.0,,,,Fail,,,,,
573.0,12.0,wc_12,wc_4,0.0,"[('wc_4', 0.5000000000000003), ('wc_12', 0.6900000000000005)]",0.8450000000000004,,,29.0,0.005674,['Fail'],Fail,0.5000000000000003,-0.44444444444444475,0.0,0.0,0.7
573.0,12.0,wc_12,,0.0,,,,0.0,,,,Fail,,,,,
573.0,12.0,wc_12,wc_5,1.0,"[('wc_5', 0.5500000000000004), ('wc_12', 0.6900000000000005), ('wc_4', 0.5000000000000003)]",0.9302500000000002,,,29.0,0.045036,['Fail'],Fail,0.5500000000000004,-0.5500000000000004,0.0,0.0,0.8
586.0,12.0,wc_12,,0.0,,,,101.0,,,,Fail,,,,,
586.0,12.0,wc_12,,0.0,,,71.0,,,,,Fail,,,,,
586.0,12.0,wc_12,,0.0,,,,0.0,,,,Fail,,,,,
586.0,12.0,wc_12,wc_12,0.0,"[('wc_12', 0.7000000000000005)]",0.7000000000000005,,,31.0,0.002434,['Fail'],Fail,0.7000000000000005,0.2999999999999995,1.0,1.0,1.0
586.0,12.0,wc_12,,0.0,,,,222.0,,,,Fail,,,,,
586.0,12.0,wc_12,wc_8,0.0,"[('wc_8', 0.3300000000000002), ('wc_12', 0.7000000000000005)]",0.7990000000000004,,,24.0,0.003992,['Fail'],Fail,0.3300000000000002,0.0033333333333331328,3.0,9.0,0.3
586.0,12.0,wc_12,,0.0,,,,102.0,,,,Fail,,,,,
586.0,12.0,wc_12,wc_7,1.0,"[('wc_7', 0.6300000000000004), ('wc_12', 0.7000000000000005), ('wc_8', 0.3300000000000002)]",0.9256300000000002,,,37.0,0.04094500000000001,['Fail'],Fail,0.6400000000000005,-0.6400000000000005,0.0,0.0,0.9
604.0,12.0,wc_12,,0.0,,,,142.0,,,,Pass,,,,,
604.0,12.0,wc_12,,0.0,,,80.0,,,,,Pass,,,,,
604.0,12.0,wc_12,,0.0,,,,0.0,,,,Pass,,,,,
604.0,12.0,wc_12,wc_12,0.0,"[('wc_12', 0.7100000000000005)]",0.7100000000000005,,,38.0,0.002179,['Pass'],Pass,0.7100000000000005,0.2899999999999995,2.0,2.0,1.0
604.0,12.0,wc_12,,0.0,,,,401.0,,,,Pass,,,,,
604.0,12.0,wc_12,wc_5,0.0,"[('wc_12', 0.7100000000000005)]",0.7100000000000005,,,34.0,0.004335,['Pass'],Pass,0.5500000000000004,-0.5500000000000004,0.0,1.0,0.8
604.0,12.0,wc_12,,0.0,,,,162.0,,,,Pass,,,,,
604.0,12.0,wc_12,wc_15,0.0,"[('wc_15', 0.4500000000000003), ('wc_12', 0.7100000000000005)]",0.8405000000000004,,,37.0,0.005957,['Pass'],Pass,0.4500000000000003,-0.22777777777777808,2.0,9.0,0.5
604.0,12.0,wc_12,,0.0,,,,223.0,,,,Pass,,,,,
604.0,12.0,wc_12,wc_6,0.0,"[('wc_12', 0.7100000000000005), ('wc_15', 0.4500000000000003)]",0.8405000000000004,,,27.0,0.015243999999999999,['Pass'],Pass,0.28000000000000014,-0.18909090909090923,0.0,0.0,0.2
604.0,12.0,wc_12,,0.0,,,,0.0,,,,Pass,,,,,
604.0,12.0,wc_12,wc_11,1.0,"[('wc_11', 0.6600000000000005), ('wc_12', 0.7100000000000005), ('wc_15', 0.4500000000000003)]",0.9457700000000002,,,38.0,0.049429999999999995,['Pass'],Pass,0.6600000000000005,-0.23142857142857193,3.0,7.0,1.0
609.0,13.0,wc_13,,0.0,,,,81.0,,,,Fail,,,,,
609.0,13.0,wc_13,,0.0,,,64.0,,,,,Fail,,,,,
609.0,13.0,wc_13,,0.0,,,,0.0,,,,Fail,,,,,
609.0,13.0,wc_13,wc_13,0.0,"[('wc_13', 0.2500000000000001)]",0.2500000000000001,,,23.0,0.00215,['Fail'],Fail,0.2500000000000001,-0.08333333333333345,1.0,6.0,0.1
609.0,13.0,wc_13,,0.0,,,,102.0,,,,Fail,,,,,
609.0,13.0,wc_13,wc_12,0.0,"[('wc_12', 0.7200000000000005), ('wc_13', 0.2500000000000001)]",0.7900000000000005,,,21.0,0.004918,['Fail'],Fail,0.7200000000000005,0.27999999999999947,3.0,3.0,1.0
609.0,13.0,wc_13,,0.0,,,,321.0,,,,Fail,,,,,
609.0,13.0,wc_13,wc_9,0.0,"[('wc_9', 0.17000000000000004), ('wc_13', 0.2500000000000001), ('wc_12', 0.7200000000000005)]",0.8257000000000003,,,21.0,0.005984,['Fail'],Fail,0.17000000000000004,-0.17000000000000004,0.0,6.0,0.1
609.0,13.0,wc_13,,0.0,,,,182.0,,,,Fail,,,,,
609.0,13.0,wc_13,wc_16,0.0,"[('wc_16', 0.39000000000000024), ('wc_13', 0.2500000000000001), ('wc_12', 0.7200000000000005), ('wc_9', 0.17000000000000004)]",0.8936770000000003,,,24.0,0.007940000000000001,['Fail'],Fail,0.39000000000000024,-0.32750000000000024,0.0,0.0,0.6
609.0,13.0,wc_13,,0.0,,,,382.0,,,,Fail,,,,,
609.0,13.0,wc_13,wc_3,0.0,"[('wc_13', 0.2500000000000001), ('wc_12', 0.7200000000000005), ('wc_9', 0.17000000000000004), ('wc_16', 0.39000000000000024)]",0.8936770000000003,,,39.0,0.009278999999999999,['Fail'],Fail,0.2400000000000001,-0.0525000000000001,0.0,0.0,0.1
609.0,13.0,wc_13,,0.0,,,,121.0,,,,Fail,,,,,
609.0,13.0,wc_13,wc_7,1.0,"[('wc_7', 0.6400000000000005), ('wc_13', 0.2500000000000001), ('wc_12', 0.7200000000000005), ('wc_9', 0.17000000000000004), ('wc_16', 0.39000000000000024)]",0.9617237200000002,,,23.0,0.047989,['Fail'],Fail,0.6400000000000005,-0.14000000000000046,1.0,2.0,0.9
617.0,13.0,wc_13,,0.0,,,,162.0,,,,Fail,,,,,
617.0,13.0,wc_13,,0.0,,,63.0,,,,,Fail,,,,,
617.0,13.0,wc_13,,0.0,,,,0.0,,,,Fail,,,,,
617.0,13.0,wc_13,wc_13,0.0,"[('wc_13', 0.2600000000000001)]",0.2600000000000001,,,37.0,0.00225,['Fail'],Fail,0.2600000000000001,0.02571428571428558,2.0,7.0,0.1
617.0,13.0,wc_13,,0.0,,,,242.0,,,,Fail,,,,,
617.0,13.0,wc_13,wc_2,0.0,"[('wc_2', 0.29000000000000015), ('wc_13', 0.2600000000000001)]",0.47460000000000024,,,38.0,0.004087,['Fail'],Fail,0.29000000000000015,-0.29000000000000015,0.0,6.0,0.1
617.0,13.0,wc_13,,0.0,,,,122.0,,,,Fail,,,,,
617.0,13.0,wc_13,wc_6,0.0,"[('wc_13', 0.2600000000000001), ('wc_2', 0.29000000000000015)]",0.47460000000000024,,,35.0,0.007718,['Fail'],Fail,0.27000000000000013,-0.27000000000000013,0.0,2.0,0.2
617.0,13.0,wc_13,,0.0,,,,341.0,,,,Fail,,,,,
617.0,13.0,wc_13,wc_4,0.0,"[('wc_4', 0.5100000000000003), ('wc_13', 0.2600000000000001), ('wc_2', 0.29000000000000015)]",0.7425540000000003,,,37.0,0.009905,['Fail'],Fail,0.5100000000000003,-0.26000000000000034,1.0,4.0,0.7
617.0,13.0,wc_13,,0.0,,,,182.0,,,,Fail,,,,,
617.0,13.0,wc_13,wc_15,0.0,"[('wc_15', 0.4500000000000003), ('wc_13', 0.2600000000000001), ('wc_2', 0.29000000000000015), ('wc_4', 0.5100000000000003)]",0.8584047000000002,,,40.0,0.00967,['Fail'],Fail,0.4500000000000003,-0.4500000000000003,0.0,1.0,0.5
617.0,13.0,wc_13,,0.0,,,,101.0,,,,Fail,,,,,
617.0,13.0,wc_13,wc_14,1.0,"[('wc_14', 0.5900000000000004), ('wc_13', 0.2600000000000001), ('wc_2', 0.29000000000000015), ('wc_4', 0.5100000000000003), ('wc_15', 0.4500000000000003)]",0.9419459270000001,,,26.0,0.051392,['Fail'],Fail,0.5900000000000004,-0.3677777777777782,2.0,9.0,0.5
621.0,13.0,wc_13,,0.0,,,,102.0,,,,Fail,,,,,
621.0,13.0,wc_13,,0.0,,,51.0,,,,,Fail,,,,,
621.0,13.0,wc_13,,0.0,,,,0.0,,,,Fail,,,,,
621.0,13.0,wc_13,wc_13,0.0,"[('wc_13', 0.27000000000000013)]",0.27000000000000013,,,40.0,0.002581,['Fail'],Fail,0.27000000000000013,0.10499999999999987,3.0,8.0,0.1
621.0,13.0,wc_13,,0.0,,,,0.0,,,,Fail,,,,,
621.0,13.0,wc_13,wc_15,0.0,"[('wc_15', 0.4600000000000003), ('wc_13', 0.27000000000000013)]",0.6058000000000003,,,28.0,0.004727,['Fail'],Fail,0.4600000000000003,0.0399999999999997,1.0,2.0,0.5
621.0,13.0,wc_13,,0.0,,,,422.0,,,,Fail,,,,,
621.0,13.0,wc_13,wc_4,0.0,"[('wc_4', 0.5100000000000003), ('wc_13', 0.27000000000000013), ('wc_15', 0.4600000000000003)]",0.8068420000000003,,,34.0,0.006129000000000001,['Fail'],Fail,0.5100000000000003,-0.11000000000000032,2.0,5.0,0.7
621.0,13.0,wc_13,,0.0,,,,81.0,,,,Fail,,,,,
621.0,13.0,wc_13,wc_2,0.0,"[('wc_2', 0.29000000000000015), ('wc_13', 0.27000000000000013), ('wc_15', 0.4600000000000003), ('wc_4', 0.5100000000000003)]",0.8628578200000002,,,28.0,0.008084000000000001,['Fail'],Fail,0.29000000000000015,-0.1471428571428573,1.0,7.0,0.1
621.0,13.0,wc_13,,0.0,,,,142.0,,,,Fail,,,,,
621.0,13.0,wc_13,wc_7,1.0,"[('wc_7', 0.6400000000000005), ('wc_13', 0.27000000000000013), ('wc_15', 0.4600000000000003), ('wc_4', 0.5100000000000003), ('wc_2', 0.29000000000000015)]",0.9506288152000002,,,33.0,0.04860700000000001,['Fail'],Fail,0.6400000000000005,-0.14000000000000046,2.0,4.0,0.9
624.0,13.0,wc_13,,0.0,,,,162.0,,,,Fail,,,,,
624.0,13.0,wc_13,,0.0,,,65.0,,,,,Fail,,,,,
624.0,13.0,wc_13,,0.0,,,,0.0,,,,Fail,,,,,
624.0,13.0,wc_13,wc_13,0.0,"[('wc_13', 0.28000000000000014)]",0.28000000000000014,,,40.0,0.002479,['Pass'],Fail,0.28000000000000014,0.16444444444444428,4.0,9.0,0.1
624.0,13.0,wc_13,,0.0,,,,0.0,,,,Fail,,,,,
624.0,13.0,wc_13,wc_17,0.0,"[('wc_17', 0.5200000000000004)]",0.5200000000000004,,,20.0,0.004298,['Fail'],Fail,0.5200000000000004,-0.3661538461538465,0.0,0.0,0.6
624.0,13.0,wc_13,,0.0,,,,342.0,,,,Fail,,,,,
624.0,13.0,wc_13,wc_10,0.0,"[('wc_10', 0.6700000000000005), ('wc_17', 0.5200000000000004)]",0.8416000000000003,,,21.0,0.006229999999999999,['Fail'],Fail,0.6700000000000005,-0.6700000000000005,0.0,8.0,0.8
624.0,13.0,wc_13,,0.0,,,,41.0,,,,Fail,,,,,
624.0,13.0,wc_13,wc_6,0.0,"[('wc_17', 0.5200000000000004), ('wc_10', 0.6700000000000005)]",0.8416000000000003,,,22.0,0.007705,['Fail'],Fail,0.2600000000000001,-0.2600000000000001,0.0,4.0,0.2
624.0,13.0,wc_13,,0.0,,,,0.0,,,,Fail,,,,,
624.0,13.0,wc_13,wc_9,0.0,"[('wc_9', 0.17000000000000004), ('wc_17', 0.5200000000000004), ('wc_10', 0.6700000000000005)]",0.8685280000000003,,,20.0,0.009552,['Fail'],Fail,0.17000000000000004,-0.058888888888888935,1.0,9.0,0.1
624.0,13.0,wc_13,,0.0,,,,402.0,,,,Fail,,,,,
624.0,13.0,wc_13,wc_5,1.0,"[('wc_5', 0.5400000000000004), ('wc_17', 0.5200000000000004), ('wc_10', 0.6700000000000005), ('wc_9', 0.17000000000000004)]",0.9395228800000002,,,37.0,0.04935099999999999,['Fail'],Fail,0.5400000000000004,-0.37333333333333374,1.0,6.0,0.8
631.0,13.0,wc_13,,0.0,,,,121.0,,,,Fail,,,,,
631.0,13.0,wc_13,,0.0,,,54.0,,,,,Fail,,,,,
631.0,13.0,wc_13,,0.0,,,,0.0,,,,Fail,,,,,
631.0,13.0,wc_13,wc_13,0.0,"[('wc_13', 0.28000000000000014)]",0.28000000000000014,,,39.0,0.002358,['Pass'],Fail,0.28000000000000014,-0.28000000000000014,0.0,0.0,0.1
631.0,13.0,wc_13,,0.0,,,,242.0,,,,Fail,,,,,
631.0,13.0,wc_13,wc_2,0.0,"[('wc_2', 0.29000000000000015), ('wc_13', 0.28000000000000014)]",0.48880000000000023,,,27.0,0.005695,['Pass'],Fail,0.29000000000000015,-0.06777777777777794,2.0,9.0,0.1
631.0,13.0,wc_13,,0.0,,,,0.0,,,,Fail,,,,,
631.0,13.0,wc_13,wc_4,0.0,"[('wc_4', 0.5100000000000003)]",0.5100000000000003,,,27.0,0.006633999999999999,['Fail'],Fail,0.5100000000000003,-0.0814285714285718,3.0,7.0,0.7
631.0,13.0,wc_13,,0.0,,,,0.0,,,,Fail,,,,,
631.0,13.0,wc_13,wc_5,0.0,"[('wc_5', 0.5400000000000004), ('wc_4', 0.5100000000000003)]",0.7746000000000004,,,39.0,0.009158,['Fail'],Fail,0.5400000000000004,-0.37333333333333374,1.0,6.0,0.8
631.0,13.0,wc_13,,0.0,,,,81.0,,,,Fail,,,,,
631.0,13.0,wc_13,wc_7,1.0,"[('wc_7', 0.6400000000000005), ('wc_4', 0.5100000000000003), ('wc_5', 0.5400000000000004)]",0.9188560000000002,,,27.0,0.050525,['Fail'],Fail,0.6400000000000005,-0.14000000000000046,3.0,6.0,0.9
637.0,13.0,wc_13,,0.0,,,,162.0,,,,Fail,,,,,
637.0,13.0,wc_13,,0.0,,,63.0,,,,,Fail,,,,,
637.0,13.0,wc_13,,0.0,,,,0.0,,,,Fail,,,,,
637.0,13.0,wc_13,wc_13,0.0,"[('wc_13', 0.27000000000000013)]",0.27000000000000013,,,24.0,0.002182,['Fail'],Fail,0.27000000000000013,-0.27000000000000013,0.0,1.0,0.1
637.0,13.0,wc_13,,0.0,,,,361.0,,,,Fail,,,,,
637.0,13.0,wc_13,wc_4,0.0,"[('wc_4', 0.5100000000000003), ('wc_13', 0.27000000000000013)]",0.6423000000000003,,,20.0,0.01269,['Fail'],Fail,0.5100000000000003,-0.010000000000000342,4.0,8.0,0.7
637.0,13.0,wc_13,,0.0,,,,182.0,,,,Fail,,,,,
637.0,13.0,wc_13,wc_15,0.0,"[('wc_13', 0.27000000000000013), ('wc_4', 0.5100000000000003)]",0.6423000000000003,,,24.0,0.0056029999999999995,['Fail'],Fail,0.4700000000000003,-0.07000000000000028,2.0,5.0,0.5
637.0,13.0,wc_13,,0.0,,,,61.0,,,,Fail,,,,,
637.0,13.0,wc_13,wc_12,1.0,"[('wc_12', 0.7300000000000005), ('wc_13', 0.27000000000000013), ('wc_4', 0.5100000000000003)]",0.9034210000000003,,,28.0,0.04891199999999999,['Fail'],Fail,0.7300000000000005,-0.17444444444444496,5.0,9.0,1.0
643.0,13.0,wc_13,,0.0,,,,0.0,,,,Fail,,,,,
643.0,13.0,wc_13,,0.0,,,65.0,,,,,Fail,,,,,
643.0,13.0,wc_13,,0.0,,,,0.0,,,,Fail,,,,,
643.0,13.0,wc_13,wc_13,0.0,"[('wc_13', 0.28000000000000014)]",0.28000000000000014,,,39.0,0.002135,['Pass'],Fail,0.28000000000000014,0.21999999999999986,1.0,2.0,0.1
643.0,13.0,wc_13,,0.0,,,,321.0,,,,Fail,,,,,
643.0,13.0,wc_13,wc_10,0.0,"[('wc_10', 0.6700000000000005)]",0.6700000000000005,,,33.0,0.004869999999999999,['Fail'],Fail,0.6700000000000005,-0.5790909090909095,0.0,0.0,0.8
643.0,13.0,wc_13,,0.0,,,,0.0,,,,Fail,,,,,
643.0,13.0,wc_13,wc_11,0.0,"[('wc_11', 0.6600000000000005), ('wc_10', 0.6700000000000005)]",0.8878000000000004,,,21.0,0.006473,['Fail'],Fail,0.6600000000000005,-0.4292307692307697,0.0,0.0,1.0
643.0,13.0,wc_13,,0.0,,,,322.0,,,,Fail,,,,,
643.0,13.0,wc_13,wc_3,0.0,"[('wc_10', 0.6700000000000005), ('wc_11', 0.6600000000000005)]",0.8878000000000004,,,39.0,0.008832,['Fail'],Fail,0.2300000000000001,-0.2300000000000001,0.0,6.0,0.1
643.0,13.0,wc_13,,0.0,,,,162.0,,,,Fail,,,,,
643.0,13.0,wc_13,wc_9,1.0,"[('wc_9', 0.18000000000000005), ('wc_10', 0.6700000000000005), ('wc_11', 0.6600000000000005)]",0.9079960000000002,,,29.0,0.057814,['Fail'],Fail,0.19000000000000006,0.14333333333333326,1.0,3.0,0.1
646.0,13.0,wc_13,,0.0,,,,121.0,,,,Pass,,,,,
646.0,13.0,wc_13,,0.0,,,58.0,,,,,Pass,,,,,
646.0,13.0,wc_13,,0.0,,,,0.0,,,,Pass,,,,,
646.0,13.0,wc_13,wc_13,0.0,"[('wc_13', 0.28000000000000014)]",0.28000000000000014,,,30.0,0.002006,['Pass'],Pass,0.28000000000000014,0.05333333333333318,1.0,3.0,0.1
646.0,13.0,wc_13,,0.0,,,,102.0,,,,Pass,,,,,
646.0,13.0,wc_13,wc_12,0.0,"[('wc_12', 0.7300000000000005), ('wc_13', 0.28000000000000014)]",0.8056000000000004,,,38.0,0.005254,['Pass'],Pass,0.7300000000000005,-0.23000000000000054,0.0,0.0,1.0
646.0,13.0,wc_13,,0.0,,,,381.0,,,,Pass,,,,,
646.0,13.0,wc_13,wc_4,0.0,"[('wc_13', 0.28000000000000014), ('wc_12', 0.7300000000000005)]",0.8056000000000004,,,21.0,0.0071010000000000005,['Pass'],Pass,0.5200000000000004,-0.02000000000000035,0.0,0.0,0.7
646.0,13.0,wc_13,,0.0,,,,101.0,,,,Pass,,,,,
646.0,13.0,wc_13,wc_7,1.0,"[('wc_7', 0.6400000000000005), ('wc_13', 0.28000000000000014), ('wc_12', 0.7300000000000005)]",0.9300160000000003,,,20.0,0.04984299999999999,['Pass'],Pass,0.6400000000000005,-0.19555555555555604,4.0,9.0,0.9
648.0,15.0,wc_15,,0.0,,,,203.0,,,,Pass,,,,,
648.0,15.0,wc_15,,0.0,,,57.0,,,,,Pass,,,,,
648.0,15.0,wc_15,,0.0,,,,0.0,,,,Pass,,,,,
648.0,15.0,wc_15,wc_15,0.0,"[('wc_15', 0.4600000000000003)]",0.4600000000000003,,,25.0,0.002163,['Pass'],Pass,0.4600000000000003,-0.2100000000000003,2.0,8.0,0.5
648.0,15.0,wc_15,,0.0,,,,442.0,,,,Pass,,,,,
648.0,15.0,wc_15,wc_5,0.0,"[('wc_5', 0.5400000000000004), ('wc_15', 0.4600000000000003)]",0.7516000000000003,,,32.0,0.0040230000000000005,['Pass'],Pass,0.5400000000000004,-0.34000000000000036,0.0,0.0,0.8
648.0,15.0,wc_15,,0.0,,,,81.0,,,,Pass,,,,,
648.0,15.0,wc_15,wc_7,1.0,"[('wc_7', 0.6400000000000005), ('wc_15', 0.4600000000000003), ('wc_5', 0.5400000000000004)]",0.9105760000000003,,,24.0,0.043898,['Pass'],Pass,0.6400000000000005,-0.6400000000000005,0.0,0.0,0.9
652.0,14.0,wc_14,,0.0,,,,182.0,,,,Fail,,,,,
652.0,14.0,wc_14,,0.0,,,79.0,,,,,Fail,,,,,
652.0,14.0,wc_14,,0.0,,,,0.0,,,,Fail,,,,,
652.0,14.0,wc_14,wc_14,0.0,"[('wc_14', 0.5900000000000004)]",0.5900000000000004,,,40.0,0.002973,['Fail'],Fail,0.5900000000000004,-0.4650000000000004,0.0,0.0,0.5
652.0,14.0,wc_14,,0.0,,,,82.0,,,,Fail,,,,,
652.0,14.0,wc_14,wc_12,0.0,"[('wc_12', 0.7400000000000005), ('wc_14', 0.5900000000000004)]",0.8934000000000003,,,35.0,0.003973,['Fail'],Fail,0.7400000000000005,-0.24000000000000055,1.0,2.0,1.0
652.0,14.0,wc_14,,0.0,,,,381.0,,,,Fail,,,,,
652.0,14.0,wc_14,wc_4,1.0,"[('wc_4', 0.5100000000000003), ('wc_14', 0.5900000000000004), ('wc_12', 0.7400000000000005)]",0.9477660000000002,,,23.0,0.045887000000000004,['Fail'],Fail,0.5100000000000003,-0.17666666666666703,1.0,3.0,0.7
655.0,14.0,wc_14,,0.0,,,,161.0,,,,Fail,,,,,
655.0,14.0,wc_14,,0.0,,,77.0,,,,,Fail,,,,,
655.0,14.0,wc_14,,0.0,,,,0.0,,,,Fail,,,,,
655.0,14.0,wc_14,wc_14,0.0,"[('wc_14', 0.6000000000000004)]",0.6000000000000004,,,30.0,0.002091,['Pass'],Fail,0.6000000000000004,0.3999999999999996,1.0,1.0,0.5
655.0,14.0,wc_14,,0.0,,,,102.0,,,,Fail,,,,,
655.0,14.0,wc_14,wc_13,0.0,"[('wc_13', 0.29000000000000015), ('wc_14', 0.6000000000000004)]",0.7160000000000004,,,38.0,0.0052049999999999996,['Pass'],Fail,0.29000000000000015,0.04333333333333317,2.0,6.0,0.1
655.0,14.0,wc_14,,0.0,,,,0.0,,,,Fail,,,,,
655.0,14.0,wc_14,wc_16,0.0,"[('wc_16', 0.40000000000000024), ('wc_14', 0.6000000000000004), ('wc_13', 0.29000000000000015)]",0.8296000000000003,,,35.0,0.010522,['Pass'],Fail,0.40000000000000024,-0.30000000000000027,0.0,0.0,0.6
655.0,14.0,wc_14,,0.0,,,,382.0,,,,Fail,,,,,
655.0,14.0,wc_14,wc_3,0.0,"[('wc_14', 0.6000000000000004), ('wc_13', 0.29000000000000015), ('wc_16', 0.40000000000000024)]",0.8296000000000003,,,27.0,0.007508000000000001,['Pass'],Fail,0.22000000000000008,-0.22000000000000008,0.0,0.0,0.1
655.0,14.0,wc_14,,0.0,,,,0.0,,,,Fail,,,,,
655.0,14.0,wc_14,wc_4,0.0,"[('wc_14', 0.6000000000000004), ('wc_13', 0.29000000000000015), ('wc_16', 0.40000000000000024)]",0.8296000000000003,,,23.0,0.011719,['Pass'],Fail,0.5100000000000003,-0.17666666666666703,1.0,3.0,0.7
655.0,14.0,wc_14,,0.0,,,,162.0,,,,Fail,,,,,
655.0,14.0,wc_14,wc_10,0.0,"[('wc_10', 0.6800000000000005), ('wc_3', 0.22000000000000008), ('wc_4', 0.5100000000000003)]",0.8776960000000003,,,29.0,0.010953,['Fail'],Fail,0.6800000000000005,-0.4300000000000005,1.0,4.0,0.8
655.0,14.0,wc_14,,0.0,,,,41.0,,,,Fail,,,,,
655.0,14.0,wc_14,wc_6,1.0,"[('wc_6', 0.2500000000000001), ('wc_3', 0.22000000000000008), ('wc_4', 0.5100000000000003), ('wc_10', 0.6800000000000005)]",0.9082720000000002,,,34.0,0.070886,['Fail'],Fail,0.2500000000000001,-0.2500000000000001,0.0,0.0,0.2
658.0,14.0,wc_14,,0.0,,,,202.0,,,,Pass,,,,,
658.0,14.0,wc_14,,0.0,,,79.0,,,,,Pass,,,,,
658.0,14.0,wc_14,,0.0,,,,0.0,,,,Pass,,,,,
658.0,14.0,wc_14,wc_14,0.0,"[('wc_14', 0.5900000000000004)]",0.5900000000000004,,,26.0,0.002251,['Pass'],Pass,0.5900000000000004,-0.09000000000000041,1.0,2.0,0.5
658.0,14.0,wc_14,,0.0,,,,202.0,,,,Pass,,,,,
658.0,14.0,wc_14,wc_1,0.0,"[('wc_1', 0.6400000000000005), ('wc_14', 0.5900000000000004)]",0.8524000000000003,,,38.0,0.0044670000000000005,['Pass'],Pass,0.6400000000000005,-0.5347368421052636,0.0,0.0,0.7
658.0,14.0,wc_14,,0.0,,,,0.0,,,,Pass,,,,,
658.0,14.0,wc_14,wc_5,1.0,"[('wc_5', 0.5500000000000004), ('wc_14', 0.5900000000000004), ('wc_1', 0.6400000000000005)]",0.9335800000000002,,,27.0,0.04679,['Pass'],Pass,0.5500000000000004,-0.05000000000000038,2.0,4.0,0.8
661.0,16.0,wc_16,,0.0,,,,182.0,,,,Fail,,,,,
661.0,16.0,wc_16,,0.0,,,67.0,,,,,Fail,,,,,
661.0,16.0,wc_16,,0.0,,,,0.0,,,,Fail,,,,,
661.0,16.0,wc_16,wc_16,0.0,"[('wc_16', 0.39000000000000024)]",0.39000000000000024,,,20.0,0.002192,['Fail'],Fail,0.39000000000000024,-0.39000000000000024,0.0,2.0,0.6
661.0,16.0,wc_16,,0.0,,,,283.0,,,,Fail,,,,,
661.0,16.0,wc_16,wc_2,0.0,"[('wc_2', 0.28000000000000014), ('wc_16', 0.39000000000000024)]",0.5608000000000002,,,22.0,0.004157,['Fail'],Fail,0.28000000000000014,-0.28000000000000014,0.0,7.0,0.1
661.0,16.0,wc_16,,0.0,,,,162.0,,,,Fail,,,,,
661.0,16.0,wc_16,wc_8,0.0,"[('wc_16', 0.39000000000000024), ('wc_2', 0.28000000000000014)]",0.5608000000000002,,,28.0,0.0062050000000000004,['Fail'],Fail,0.3400000000000002,-0.3400000000000002,0.0,0.0,0.3
661.0,16.0,wc_16,,0.0,,,,183.0,,,,Fail,,,,,
661.0,16.0,wc_16,wc_15,0.0,"[('wc_15', 0.4600000000000003), ('wc_16', 0.39000000000000024), ('wc_2', 0.28000000000000014)]",0.7628320000000003,,,39.0,0.009172000000000001,['Fail'],Fail,0.4600000000000003,-0.2100000000000003,0.0,0.0,0.5
661.0,16.0,wc_16,,0.0,,,,283.0,,,,Fail,,,,,
661.0,16.0,wc_16,wc_1,1.0,"[('wc_1', 0.6500000000000005), ('wc_16', 0.39000000000000024), ('wc_2', 0.28000000000000014), ('wc_15', 0.4600000000000003)]",0.9169912000000002,,,40.0,0.050752000000000005,['Fail'],Fail,0.6600000000000005,0.3399999999999995,2.0,2.0,0.7
663.0,16.0,wc_16,,0.0,,,,263.0,,,,Fail,,,,,
663.0,16.0,wc_16,,0.0,,,55.0,,,,,Fail,,,,,
663.0,16.0,wc_16,,0.0,,,,0.0,,,,Fail,,,,,
663.0,16.0,wc_16,wc_16,0.0,"[('wc_16', 0.39000000000000024)]",0.39000000000000024,,,32.0,0.00319,['Fail'],Fail,0.39000000000000024,-0.05666666666666692,1.0,3.0,0.6
663.0,16.0,wc_16,,0.0,,,,103.0,,,,Fail,,,,,
663.0,16.0,wc_16,wc_15,0.0,"[('wc_15', 0.4700000000000003), ('wc_16', 0.39000000000000024)]",0.6767000000000003,,,21.0,0.004336,['Fail'],Fail,0.4700000000000003,0.5299999999999997,1.0,1.0,0.5
663.0,16.0,wc_16,,0.0,,,,61.0,,,,Fail,,,,,
663.0,16.0,wc_16,wc_12,1.0,"[('wc_12', 0.7400000000000005), ('wc_16', 0.39000000000000024), ('wc_15', 0.4700000000000003)]",0.9159420000000003,,,35.0,0.056970999999999994,['Fail'],Fail,0.7400000000000005,-0.311428571428572,3.0,7.0,1.0
665.0,16.0,wc_16,,0.0,,,,0.0,,,,Pass,,,,,
665.0,16.0,wc_16,,0.0,,,56.0,,,,,Pass,,,,,
665.0,16.0,wc_16,,0.0,,,,0.0,,,,Pass,,,,,
665.0,16.0,wc_16,wc_16,0.0,"[('wc_16', 0.40000000000000024)]",0.40000000000000024,,,23.0,0.002219,['Fail'],Pass,0.40000000000000024,0.09999999999999976,2.0,4.0,0.6
665.0,16.0,wc_16,,0.0,,,,422.0,,,,Pass,,,,,
665.0,16.0,wc_16,wc_5,0.0,"[('wc_5', 0.5500000000000004)]",0.5500000000000004,,,22.0,0.004399,['Pass'],Pass,0.5500000000000004,-0.21666666666666706,2.0,6.0,0.8
665.0,16.0,wc_16,,0.0,,,,122.0,,,,Pass,,,,,
665.0,16.0,wc_16,wc_9,0.0,"[('wc_5', 0.5500000000000004)]",0.5500000000000004,,,39.0,0.006072999999999999,['Pass'],Pass,0.19000000000000006,-0.09000000000000005,0.0,0.0,0.1
665.0,16.0,wc_16,,0.0,,,,101.0,,,,Pass,,,,,
665.0,16.0,wc_16,wc_8,0.0,"[('wc_8', 0.3300000000000002), ('wc_5', 0.5500000000000004)]",0.6985000000000003,,,26.0,0.008825000000000001,['Pass'],Pass,0.3300000000000002,-0.3300000000000002,0.0,2.0,0.3
665.0,16.0,wc_16,,0.0,,,,223.0,,,,Pass,,,,,
665.0,16.0,wc_16,wc_17,0.0,"[('wc_17', 0.5300000000000004), ('wc_5', 0.5500000000000004), ('wc_8', 0.3300000000000002)]",0.8582950000000003,,,36.0,0.013955,['Pass'],Pass,0.5300000000000004,-0.4390909090909094,0.0,0.0,0.6
665.0,16.0,wc_16,,0.0,,,,362.0,,,,Pass,,,,,
665.0,16.0,wc_16,wc_3,0.0,"[('wc_5', 0.5500000000000004), ('wc_8', 0.3300000000000002), ('wc_17', 0.5300000000000004)]",0.8582950000000003,,,32.0,0.011796000000000003,['Pass'],Pass,0.2300000000000001,0.019999999999999907,1.0,4.0,0.1
665.0,16.0,wc_16,,0.0,,,,161.0,,,,Pass,,,,,
665.0,16.0,wc_16,wc_13,0.0,"[('wc_5', 0.5500000000000004), ('wc_8', 0.3300000000000002), ('wc_17', 0.5300000000000004)]",0.8582950000000003,,,22.0,0.015868999999999998,['Pass'],Pass,0.29000000000000015,-0.09000000000000014,0.0,0.0,0.1
665.0,16.0,wc_16,,0.0,,,,102.0,,,,Pass,,,,,
665.0,16.0,wc_16,wc_12,1.0,"[('wc_12', 0.7400000000000005), ('wc_5', 0.5500000000000004), ('wc_8', 0.3300000000000002), ('wc_17', 0.5300000000000004)]",0.9631567000000001,,,37.0,0.055616000000000006,['Pass'],Pass,0.7400000000000005,-0.24000000000000055,4.0,8.0,1.0
666.0,17.0,wc_17,,0.0,,,,0.0,,,,Fail,,,,,
666.0,17.0,wc_17,,0.0,,,58.0,,,,,Fail,,,,,
666.0,17.0,wc_17,,0.0,,,,0.0,,,,Fail,,,,,
666.0,17.0,wc_17,wc_17,0.0,"[('wc_17', 0.5400000000000004)]",0.5400000000000004,,,36.0,0.002456,['Pass'],Fail,0.5400000000000004,0.45999999999999963,1.0,1.0,0.6
666.0,17.0,wc_17,,0.0,,,,322.0,,,,Fail,,,,,
666.0,17.0,wc_17,wc_9,0.0,"[('wc_17', 0.5400000000000004)]",0.5400000000000004,,,26.0,0.003984,['Pass'],Fail,0.18000000000000005,-0.18000000000000005,0.0,1.0,0.1
666.0,17.0,wc_17,,0.0,,,,263.0,,,,Fail,,,,,
666.0,17.0,wc_17,wc_2,0.0,"[('wc_2', 0.28000000000000014), ('wc_17', 0.5400000000000004)]",0.6688000000000003,,,36.0,0.006187,['Pass'],Fail,0.28000000000000014,-0.18000000000000013,0.0,0.0,0.1
666.0,17.0,wc_17,,0.0,,,,243.0,,,,Fail,,,,,
666.0,17.0,wc_17,wc_16,0.0,"[('wc_17', 0.5400000000000004), ('wc_2', 0.28000000000000014)]",0.6688000000000003,,,34.0,0.007733,['Pass'],Fail,0.40000000000000024,-2.220446049250313e-16,2.0,5.0,0.6
666.0,17.0,wc_17,,0.0,,,,41.0,,,,Fail,,,,,
666.0,17.0,wc_17,wc_12,1.0,"[('wc_12', 0.7400000000000005), ('wc_17', 0.5400000000000004), ('wc_2', 0.28000000000000014)]",0.9138880000000003,,,34.0,0.046538,['Pass'],Fail,0.7400000000000005,-0.18444444444444497,5.0,9.0,1.0
668.0,17.0,wc_17,,0.0,,,,0.0,,,,Fail,,,,,
668.0,17.0,wc_17,,0.0,,,59.0,,,,,Fail,,,,,
668.0,17.0,wc_17,,0.0,,,,0.0,,,,Fail,,,,,
668.0,17.0,wc_17,wc_17,0.0,"[('wc_17', 0.5500000000000004)]",0.5500000000000004,,,32.0,0.002342,['Fail'],Fail,0.5500000000000004,0.4499999999999996,2.0,2.0,0.6
668.0,17.0,wc_17,,0.0,,,,223.0,,,,Fail,,,,,
668.0,17.0,wc_17,wc_8,0.0,"[('wc_8', 0.3300000000000002), ('wc_17', 0.5500000000000004)]",0.6985000000000003,,,22.0,0.004672,['Fail'],Fail,0.3300000000000002,-0.08000000000000018,1.0,4.0,0.3
668.0,17.0,wc_17,,0.0,,,,0.0,,,,Fail,,,,,
668.0,17.0,wc_17,wc_10,1.0,"[('wc_10', 0.6800000000000005), ('wc_17', 0.5500000000000004), ('wc_8', 0.3300000000000002)]",0.9035200000000002,,,23.0,0.045247,['Fail'],Fail,0.6800000000000005,-0.6800000000000005,0.0,0.0,0.8
670.0,17.0,wc_17,,0.0,,,,182.0,,,,Pass,,,,,
670.0,17.0,wc_17,,0.0,,,51.0,,,,,Pass,,,,,
670.0,17.0,wc_17,,0.0,,,,0.0,,,,Pass,,,,,
670.0,17.0,wc_17,wc_17,0.0,"[('wc_17', 0.5600000000000004)]",0.5600000000000004,,,38.0,0.002034,['Pass'],Pass,0.5600000000000004,0.4399999999999996,3.0,3.0,0.6
670.0,17.0,wc_17,,0.0,,,,223.0,,,,Pass,,,,,
670.0,17.0,wc_17,wc_8,0.0,"[('wc_8', 0.3400000000000002), ('wc_17', 0.5600000000000004)]",0.7096000000000003,,,36.0,0.004038,['Pass'],Pass,0.3400000000000002,0.05999999999999983,2.0,5.0,0.3
670.0,17.0,wc_17,,0.0,,,,281.0,,,,Pass,,,,,
670.0,17.0,wc_17,wc_3,0.0,"[('wc_17', 0.5600000000000004), ('wc_8', 0.3400000000000002)]",0.7096000000000003,,,33.0,0.0056619999999999995,['Pass'],Pass,0.22000000000000008,-0.07714285714285724,1.0,7.0,0.1
670.0,17.0,wc_17,,0.0,,,,202.0,,,,Pass,,,,,
670.0,17.0,wc_17,wc_15,0.0,"[('wc_15', 0.4800000000000003), ('wc_17', 0.5600000000000004), ('wc_8', 0.3400000000000002)]",0.8489920000000003,,,32.0,0.0075840000000000005,['Pass'],Pass,0.4800000000000003,-0.0800000000000003,2.0,5.0,0.5
670.0,17.0,wc_17,,0.0,,,,61.0,,,,Pass,,,,,
670.0,17.0,wc_17,wc_12,1.0,"[('wc_12', 0.7400000000000005), ('wc_17', 0.5600000000000004), ('wc_8', 0.3400000000000002), ('wc_15', 0.4800000000000003)]",0.9607379200000001,,,34.0,0.049192,['Pass'],Pass,0.7400000000000005,-0.7400000000000005,0.0,0.0,1.0
