mpecck/BCQC/bcqc_with_qdt/results/raw/input_15/independent_qc/training/20_workpiece/20200429_095210/wp_15_qc_majority_0.9.csv
production_index,step_idx,production_workcell,qc,consent,winner_qc_list,score,production_time,transport_time,inspection_time,network_time,qc_results,actual_quality,qc_score,score_error,in_winner_counter,in_qc_counter,qc_capability
62.0,1.0,wc_1,,0.0,,,57.0,,,,,Fail,,,,,
62.0,1.0,wc_1,,0.0,,,,0.0,,,,Fail,,,,,
62.0,1.0,wc_1,wc_1,0.0,"[('wc_1', 0.8600000000000007)]",0.8600000000000007,,,38.0,0.002238,['Fail'],Fail,0.8600000000000007,-0.36000000000000065,2.0,4.0,1.0
62.0,1.0,wc_1,,0.0,,,,162.0,,,,Fail,,,,,
62.0,1.0,wc_1,wc_7,0.0,"[('wc_1', 0.8600000000000007)]",0.8600000000000007,,,30.0,0.0052309999999999995,['Fail'],Fail,0.08000000000000003,-0.08000000000000003,0.0,1.0,0.1
62.0,1.0,wc_1,,0.0,,,,202.0,,,,Fail,,,,,
62.0,1.0,wc_1,wc_2,0.0,"[('wc_2', 0.8000000000000006), ('wc_1', 0.8600000000000007)]",0.9720000000000002,,,40.0,0.007036000000000001,['Fail'],Fail,0.8000000000000006,-0.7473684210526321,0.0,0.0,0.8
62.0,1.0,wc_1,,0.0,,,,202.0,,,,Fail,,,,,
62.0,1.0,wc_1,wc_14,1.0,"[('wc_14', 0.29000000000000015), ('wc_1', 0.8600000000000007), ('wc_2', 0.8000000000000006)]",0.9801200000000001,,,29.0,0.039523,['Fail'],Fail,0.30000000000000016,0.03333333333333316,3.0,9.0,0.2
156.0,1.0,wc_1,,0.0,,,,202.0,,,,Fail,,,,,
156.0,1.0,wc_1,,0.0,,,78.0,,,,,Fail,,,,,
156.0,1.0,wc_1,,0.0,,,,0.0,,,,Fail,,,,,
156.0,1.0,wc_1,wc_1,0.0,"[('wc_1', 0.8600000000000007)]",0.8600000000000007,,,29.0,0.002734,['Fail'],Fail,0.8600000000000007,-0.2600000000000007,3.0,5.0,1.0
156.0,1.0,wc_1,,0.0,,,,0.0,,,,Fail,,,,,
156.0,1.0,wc_1,wc_4,0.0,"[('wc_1', 0.8600000000000007)]",0.8600000000000007,,,30.0,0.004993,['Fail'],Fail,0.30000000000000016,-0.050000000000000155,2.0,8.0,0.2
156.0,1.0,wc_1,,0.0,,,,182.0,,,,Fail,,,,,
156.0,1.0,wc_1,wc_15,0.0,"[('wc_15', 0.7300000000000005), ('wc_1', 0.8600000000000007)]",0.9622000000000003,,,26.0,0.008288,['Fail'],Fail,0.7300000000000005,-0.49923076923076976,0.0,0.0,1.0
156.0,1.0,wc_1,,0.0,,,,303.0,,,,Fail,,,,,
156.0,1.0,wc_1,wc_2,1.0,"[('wc_2', 0.8100000000000006), ('wc_1', 0.8600000000000007), ('wc_15', 0.7300000000000005)]",0.9928180000000001,,,30.0,0.039694999999999994,['Fail'],Fail,0.8200000000000006,0.17999999999999938,2.0,2.0,0.8
200.0,1.0,wc_1,,0.0,,,,102.0,,,,Fail,,,,,
200.0,1.0,wc_1,,0.0,,,62.0,,,,,Fail,,,,,
200.0,1.0,wc_1,,0.0,,,,0.0,,,,Fail,,,,,
200.0,1.0,wc_1,wc_1,0.0,"[('wc_1', 0.8600000000000007)]",0.8600000000000007,,,37.0,0.002385,['Fail'],Fail,0.8600000000000007,-0.19333333333333402,4.0,6.0,1.0
200.0,1.0,wc_1,,0.0,,,,0.0,,,,Fail,,,,,
200.0,1.0,wc_1,wc_5,0.0,"[('wc_5', 0.6400000000000005), ('wc_1', 0.8600000000000007)]",0.9496000000000003,,,33.0,0.004325000000000001,['Fail'],Fail,0.6400000000000005,-0.5288888888888894,1.0,9.0,0.6
200.0,1.0,wc_1,,0.0,,,,162.0,,,,Fail,,,,,
200.0,1.0,wc_1,wc_11,1.0,"[('wc_11', 0.7300000000000005), ('wc_1', 0.8600000000000007), ('wc_5', 0.6400000000000005)]",0.9863920000000002,,,33.0,0.04003299999999999,['Fail'],Fail,0.7300000000000005,-0.301428571428572,3.0,7.0,0.8
210.0,1.0,wc_1,,0.0,,,,203.0,,,,Pass,,,,,
210.0,1.0,wc_1,,0.0,,,62.0,,,,,Pass,,,,,
210.0,1.0,wc_1,,0.0,,,,0.0,,,,Pass,,,,,
210.0,1.0,wc_1,wc_1,0.0,"[('wc_1', 0.8600000000000007)]",0.8600000000000007,,,36.0,0.002266,['Pass'],Pass,0.8600000000000007,-0.14571428571428635,5.0,7.0,1.0
210.0,1.0,wc_1,,0.0,,,,0.0,,,,Pass,,,,,
210.0,1.0,wc_1,wc_3,0.0,"[('wc_3', 0.5700000000000004), ('wc_1', 0.8600000000000007)]",0.9398000000000003,,,25.0,0.005666,['Pass'],Pass,0.5700000000000004,-0.5700000000000004,0.0,4.0,0.5
210.0,1.0,wc_1,,0.0,,,,202.0,,,,Pass,,,,,
210.0,1.0,wc_1,wc_11,1.0,"[('wc_11', 0.7300000000000005), ('wc_1', 0.8600000000000007), ('wc_3', 0.5700000000000004)]",0.9837460000000001,,,20.0,0.046467999999999995,['Pass'],Pass,0.7300000000000005,-0.23000000000000054,4.0,8.0,0.8
231.0,3.0,wc_3,,0.0,,,,322.0,,,,Pass,,,,,
231.0,3.0,wc_3,,0.0,,,75.0,,,,,Pass,,,,,
231.0,3.0,wc_3,,0.0,,,,0.0,,,,Pass,,,,,
231.0,3.0,wc_3,wc_3,0.0,"[('wc_3', 0.5700000000000004)]",0.5700000000000004,,,40.0,0.002283,['Pass'],Pass,0.5700000000000004,-0.3700000000000004,1.0,5.0,0.5
231.0,3.0,wc_3,,0.0,,,,141.0,,,,Pass,,,,,
231.0,3.0,wc_3,wc_8,0.0,"[('wc_3', 0.5700000000000004)]",0.5700000000000004,,,37.0,0.003975,['Pass'],Pass,0.5100000000000003,-0.31000000000000033,1.0,5.0,0.6
231.0,3.0,wc_3,,0.0,,,,183.0,,,,Pass,,,,,
231.0,3.0,wc_3,wc_15,0.0,"[('wc_15', 0.7400000000000005), ('wc_3', 0.5700000000000004)]",0.8882000000000003,,,36.0,0.0063019999999999994,['Pass'],Pass,0.7400000000000005,-0.40666666666666723,1.0,3.0,1.0
231.0,3.0,wc_3,,0.0,,,,243.0,,,,Pass,,,,,
231.0,3.0,wc_3,wc_7,0.0,"[('wc_3', 0.5700000000000004), ('wc_15', 0.7400000000000005)]",0.8882000000000003,,,32.0,0.009675,['Pass'],Pass,0.07000000000000003,-0.07000000000000003,0.0,5.0,0.1
231.0,3.0,wc_3,,0.0,,,,182.0,,,,Pass,,,,,
231.0,3.0,wc_3,wc_1,1.0,"[('wc_1', 0.8600000000000007), ('wc_3', 0.5700000000000004), ('wc_15', 0.7400000000000005)]",0.9843480000000001,,,35.0,0.039787,['Pass'],Pass,0.8600000000000007,-0.08222222222222286,7.0,9.0,1.0
258.0,2.0,wc_2,,0.0,,,,0.0,,,,Pass,,,,,
258.0,2.0,wc_2,,0.0,,,55.0,,,,,Pass,,,,,
258.0,2.0,wc_2,,0.0,,,,0.0,,,,Pass,,,,,
258.0,2.0,wc_2,wc_2,0.0,"[('wc_2', 0.8200000000000006)]",0.8200000000000006,,,21.0,0.002193,['Pass'],Pass,0.8200000000000006,-0.4200000000000006,2.0,5.0,0.8
258.0,2.0,wc_2,,0.0,,,,223.0,,,,Pass,,,,,
258.0,2.0,wc_2,wc_11,0.0,"[('wc_11', 0.7300000000000005), ('wc_2', 0.8200000000000006)]",0.9514000000000002,,,27.0,0.004072,['Pass'],Pass,0.7300000000000005,-0.2855555555555561,4.0,9.0,0.8
258.0,2.0,wc_2,,0.0,,,,322.0,,,,Pass,,,,,
258.0,2.0,wc_2,wc_3,0.0,"[('wc_2', 0.8200000000000006), ('wc_11', 0.7300000000000005)]",0.9514000000000002,,,32.0,0.006402,['Pass'],Pass,0.5700000000000004,-0.23666666666666708,2.0,6.0,0.5
258.0,2.0,wc_2,,0.0,,,,81.0,,,,Pass,,,,,
258.0,2.0,wc_2,wc_1,1.0,"[('wc_1', 0.8600000000000007), ('wc_2', 0.8200000000000006), ('wc_11', 0.7300000000000005)]",0.9931960000000001,,,27.0,0.043247,['Pass'],Pass,0.8600000000000007,-0.8600000000000007,0.0,0.0,1.0
296.0,4.0,wc_4,,0.0,,,,0.0,,,,Fail,,,,,
296.0,4.0,wc_4,,0.0,,,57.0,,,,,Fail,,,,,
296.0,4.0,wc_4,,0.0,,,,0.0,,,,Fail,,,,,
296.0,4.0,wc_4,wc_4,0.0,"[('wc_4', 0.29000000000000015)]",0.29000000000000015,,,37.0,0.003035,['Pass'],Fail,0.29000000000000015,-0.1361538461538463,0.0,0.0,0.2
296.0,4.0,wc_4,,0.0,,,,202.0,,,,Fail,,,,,
296.0,4.0,wc_4,wc_16,0.0,"[('wc_16', 0.7300000000000005)]",0.7300000000000005,,,26.0,0.004046,['Fail'],Fail,0.7300000000000005,-0.7300000000000005,0.0,6.0,0.8
296.0,4.0,wc_4,,0.0,,,,103.0,,,,Fail,,,,,
296.0,4.0,wc_4,wc_15,0.0,"[('wc_15', 0.7400000000000005), ('wc_16', 0.7300000000000005)]",0.9298000000000003,,,27.0,0.008136,['Fail'],Fail,0.7400000000000005,-0.3400000000000005,2.0,5.0,1.0
296.0,4.0,wc_4,,0.0,,,,303.0,,,,Fail,,,,,
296.0,4.0,wc_4,wc_2,0.0,"[('wc_16', 0.7300000000000005), ('wc_15', 0.7400000000000005)]",0.9298000000000003,,,39.0,0.007645,['Fail'],Fail,0.8200000000000006,-0.3200000000000006,3.0,6.0,0.8
296.0,4.0,wc_4,,0.0,,,,102.0,,,,Fail,,,,,
296.0,4.0,wc_4,wc_1,1.0,"[('wc_1', 0.8600000000000007), ('wc_16', 0.7300000000000005), ('wc_15', 0.7400000000000005)]",0.990172,,,24.0,0.045337,['Fail'],Fail,0.8700000000000007,0.12999999999999934,1.0,1.0,1.0
340.0,4.0,wc_4,,0.0,,,,0.0,,,,Pass,,,,,
340.0,4.0,wc_4,,0.0,,,77.0,,,,,Pass,,,,,
340.0,4.0,wc_4,,0.0,,,,0.0,,,,Pass,,,,,
340.0,4.0,wc_4,wc_4,0.0,"[('wc_4', 0.28000000000000014)]",0.28000000000000014,,,32.0,0.005927,['Fail'],Pass,0.28000000000000014,-0.28000000000000014,0.0,1.0,0.2
340.0,4.0,wc_4,,0.0,,,,182.0,,,,Pass,,,,,
340.0,4.0,wc_4,wc_11,0.0,"[('wc_11', 0.7300000000000005)]",0.7300000000000005,,,31.0,0.004200000000000001,['Pass'],Pass,0.7300000000000005,-0.7300000000000005,0.0,1.0,0.8
340.0,4.0,wc_4,,0.0,,,,142.0,,,,Pass,,,,,
340.0,4.0,wc_4,wc_16,0.0,"[('wc_16', 0.7300000000000005), ('wc_11', 0.7300000000000005)]",0.9271000000000003,,,27.0,0.006013,['Pass'],Pass,0.7300000000000005,-0.5871428571428576,1.0,7.0,0.8
340.0,4.0,wc_4,,0.0,,,,0.0,,,,Pass,,,,,
340.0,4.0,wc_4,wc_17,0.0,"[('wc_11', 0.7300000000000005), ('wc_16', 0.7300000000000005)]",0.9271000000000003,,,37.0,0.007794,['Pass'],Pass,0.5700000000000004,-0.3700000000000004,0.0,0.0,0.5
340.0,4.0,wc_4,,0.0,,,,223.0,,,,Pass,,,,,
340.0,4.0,wc_4,wc_8,1.0,"[('wc_8', 0.5000000000000003), ('wc_11', 0.7300000000000005), ('wc_16', 0.7300000000000005)]",0.9635500000000001,,,24.0,0.04311000000000001,['Pass'],Pass,0.5000000000000003,-0.2777777777777781,2.0,9.0,0.6
383.0,5.0,wc_5,,0.0,,,,321.0,,,,Fail,,,,,
383.0,5.0,wc_5,,0.0,,,66.0,,,,,Fail,,,,,
383.0,5.0,wc_5,,0.0,,,,0.0,,,,Fail,,,,,
383.0,5.0,wc_5,wc_5,0.0,"[('wc_5', 0.6400000000000005)]",0.6400000000000005,,,25.0,0.002454,['Fail'],Fail,0.6400000000000005,-0.6400000000000005,0.0,5.0,0.6
383.0,5.0,wc_5,,0.0,,,,121.0,,,,Fail,,,,,
383.0,5.0,wc_5,wc_13,0.0,"[('wc_5', 0.6400000000000005)]",0.6400000000000005,,,38.0,0.007918,['Fail'],Fail,0.4400000000000003,-0.34909090909090934,0.0,0.0,0.3
383.0,5.0,wc_5,,0.0,,,,341.0,,,,Fail,,,,,
383.0,5.0,wc_5,wc_11,0.0,"[('wc_11', 0.7300000000000005), ('wc_13', 0.4400000000000003)]",0.8488000000000004,,,26.0,0.006537,['Pass'],Fail,0.7300000000000005,-0.23000000000000054,1.0,2.0,0.8
383.0,5.0,wc_5,,0.0,,,,61.0,,,,Fail,,,,,
383.0,5.0,wc_5,wc_8,1.0,"[('wc_8', 0.5000000000000003), ('wc_13', 0.4400000000000003), ('wc_11', 0.7300000000000005)]",0.9244000000000002,,,39.0,0.040077,['Pass'],Fail,0.5000000000000003,-0.5000000000000003,0.0,0.0,0.6
434.0,5.0,wc_5,,0.0,,,,321.0,,,,Pass,,,,,
434.0,5.0,wc_5,,0.0,,,61.0,,,,,Pass,,,,,
434.0,5.0,wc_5,,0.0,,,,0.0,,,,Pass,,,,,
434.0,5.0,wc_5,wc_5,0.0,"[('wc_5', 0.6300000000000004)]",0.6300000000000004,,,29.0,0.002402,['Pass'],Pass,0.6300000000000004,-0.6300000000000004,0.0,6.0,0.6
434.0,5.0,wc_5,,0.0,,,,121.0,,,,Pass,,,,,
434.0,5.0,wc_5,wc_13,0.0,"[('wc_13', 0.4500000000000003), ('wc_5', 0.6300000000000004)]",0.7965000000000003,,,40.0,0.004928,['Pass'],Pass,0.4500000000000003,0.5499999999999997,1.0,1.0,0.3
434.0,5.0,wc_5,,0.0,,,,0.0,,,,Pass,,,,,
434.0,5.0,wc_5,wc_16,1.0,"[('wc_16', 0.7300000000000005), ('wc_5', 0.6300000000000004), ('wc_13', 0.4500000000000003)]",0.9450550000000002,,,34.0,0.038992,['Pass'],Pass,0.7300000000000005,-0.7300000000000005,0.0,0.0,0.8
443.0,6.0,wc_6,,0.0,,,,203.0,,,,Fail,,,,,
443.0,6.0,wc_6,,0.0,,,75.0,,,,,Fail,,,,,
443.0,6.0,wc_6,,0.0,,,,0.0,,,,Fail,,,,,
443.0,6.0,wc_6,wc_6,0.0,"[('wc_6', 0.8900000000000007)]",0.8900000000000007,,,24.0,0.002198,['Fail'],Fail,0.8900000000000007,-0.7321052631578955,0.0,0.0,1.0
443.0,6.0,wc_6,,0.0,,,,0.0,,,,Fail,,,,,
443.0,6.0,wc_6,wc_8,0.0,"[('wc_8', 0.5000000000000003), ('wc_6', 0.8900000000000007)]",0.9450000000000004,,,26.0,0.008288,['Fail'],Fail,0.5000000000000003,-0.5000000000000003,0.0,1.0,0.6
443.0,6.0,wc_6,,0.0,,,,182.0,,,,Fail,,,,,
443.0,6.0,wc_6,wc_2,1.0,"[('wc_2', 0.8100000000000006), ('wc_6', 0.8900000000000007), ('wc_8', 0.5000000000000003)]",0.9895500000000002,,,30.0,0.038991000000000005,['Fail'],Fail,0.8100000000000006,-0.8100000000000006,0.0,0.0,0.8
452.0,6.0,wc_6,,0.0,,,,122.0,,,,Fail,,,,,
452.0,6.0,wc_6,,0.0,,,67.0,,,,,Fail,,,,,
452.0,6.0,wc_6,,0.0,,,,0.0,,,,Fail,,,,,
452.0,6.0,wc_6,wc_6,0.0,"[('wc_6', 0.9000000000000007)]",0.9000000000000007,,,39.0,0.002292,['Fail'],Fail,0.9000000000000007,0.09999999999999931,1.0,1.0,1.0
452.0,6.0,wc_6,,0.0,,,,0.0,,,,Fail,,,,,
452.0,6.0,wc_6,wc_8,0.0,"[('wc_8', 0.5000000000000003), ('wc_6', 0.9000000000000007)]",0.9500000000000004,,,22.0,0.004618000000000001,['Fail'],Fail,0.5000000000000003,-3.3306690738754696e-16,1.0,2.0,0.6
452.0,6.0,wc_6,,0.0,,,,0.0,,,,Fail,,,,,
452.0,6.0,wc_6,wc_11,1.0,"[('wc_11', 0.7300000000000005), ('wc_6', 0.9000000000000007), ('wc_8', 0.5000000000000003)]",0.9865000000000002,,,33.0,0.039566000000000004,['Fail'],Fail,0.7300000000000005,-0.23000000000000054,3.0,6.0,0.8
470.0,6.0,wc_6,,0.0,,,,21.0,,,,Fail,,,,,
470.0,6.0,wc_6,,0.0,,,62.0,,,,,Fail,,,,,
470.0,6.0,wc_6,,0.0,,,,0.0,,,,Fail,,,,,
470.0,6.0,wc_6,wc_6,0.0,"[('wc_6', 0.9100000000000007)]",0.9100000000000007,,,22.0,0.00696,['Fail'],Fail,0.9100000000000007,0.0899999999999993,2.0,2.0,1.0
470.0,6.0,wc_6,,0.0,,,,222.0,,,,Fail,,,,,
470.0,6.0,wc_6,wc_2,0.0,"[('wc_2', 0.8100000000000006), ('wc_6', 0.9100000000000007)]",0.9829000000000002,,,20.0,0.004647999999999999,['Fail'],Fail,0.8100000000000006,-0.8100000000000006,0.0,1.0,0.8
470.0,6.0,wc_6,,0.0,,,,162.0,,,,Fail,,,,,
470.0,6.0,wc_6,wc_12,1.0,"[('wc_12', 0.6200000000000004), ('wc_6', 0.9100000000000007), ('wc_2', 0.8100000000000006)]",0.9935020000000001,,,35.0,0.039125,['Fail'],Fail,0.6200000000000004,-0.6200000000000004,0.0,0.0,0.5
496.0,6.0,wc_6,,0.0,,,,182.0,,,,Pass,,,,,
496.0,6.0,wc_6,,0.0,,,74.0,,,,,Pass,,,,,
496.0,6.0,wc_6,,0.0,,,,0.0,,,,Pass,,,,,
496.0,6.0,wc_6,wc_6,0.0,"[('wc_6', 0.9200000000000007)]",0.9200000000000007,,,31.0,0.001971,['Pass'],Pass,0.9200000000000007,0.0799999999999993,3.0,3.0,1.0
496.0,6.0,wc_6,,0.0,,,,263.0,,,,Pass,,,,,
496.0,6.0,wc_6,wc_17,0.0,"[('wc_17', 0.5600000000000004), ('wc_6', 0.9200000000000007)]",0.9648000000000003,,,29.0,0.004149,['Pass'],Pass,0.5600000000000004,-0.5600000000000004,0.0,6.0,0.5
496.0,6.0,wc_6,,0.0,,,,41.0,,,,Pass,,,,,
496.0,6.0,wc_6,wc_13,1.0,"[('wc_13', 0.4600000000000003), ('wc_6', 0.9200000000000007), ('wc_17', 0.5600000000000004)]",0.9809920000000002,,,20.0,0.041370000000000004,['Pass'],Pass,0.4700000000000003,0.029999999999999694,3.0,6.0,0.3
506.0,7.0,wc_7,,0.0,,,,182.0,,,,Fail,,,,,
506.0,7.0,wc_7,,0.0,,,77.0,,,,,Fail,,,,,
506.0,7.0,wc_7,,0.0,,,,0.0,,,,Fail,,,,,
506.0,7.0,wc_7,wc_7,0.0,"[('wc_7', 0.06000000000000003)]",0.06000000000000005,,,28.0,0.002168,['Fail'],Fail,0.06000000000000003,-0.06000000000000003,0.0,0.0,0.1
506.0,7.0,wc_7,,0.0,,,,0.0,,,,Fail,,,,,
506.0,7.0,wc_7,wc_8,0.0,"[('wc_8', 0.5100000000000003)]",0.5100000000000003,,,23.0,0.003999,['Pass'],Fail,0.5100000000000003,-0.11000000000000032,2.0,5.0,0.6
506.0,7.0,wc_7,,0.0,,,,162.0,,,,Fail,,,,,
506.0,7.0,wc_7,wc_14,0.0,"[('wc_14', 0.30000000000000016), ('wc_8', 0.5100000000000003)]",0.6570000000000003,,,28.0,0.005967,['Pass'],Fail,0.30000000000000016,-0.1636363636363638,0.0,0.0,0.2
506.0,7.0,wc_7,,0.0,,,,321.0,,,,Fail,,,,,
506.0,7.0,wc_7,wc_3,0.0,"[('wc_8', 0.5100000000000003), ('wc_14', 0.30000000000000016)]",0.6570000000000003,,,28.0,0.008029,['Pass'],Fail,0.5600000000000004,-0.4266666666666671,0.0,0.0,0.5
506.0,7.0,wc_7,,0.0,,,,101.0,,,,Fail,,,,,
506.0,7.0,wc_7,wc_6,1.0,"[('wc_6', 0.9300000000000007), ('wc_7', 0.06000000000000003), ('wc_3', 0.5600000000000004)]",0.9710480000000004,,,24.0,0.05646999999999999,['Fail'],Fail,0.9400000000000007,0.059999999999999276,5.0,5.0,1.0
514.0,7.0,wc_7,,0.0,,,,0.0,,,,Pass,,,,,
514.0,7.0,wc_7,,0.0,,,62.0,,,,,Pass,,,,,
514.0,7.0,wc_7,,0.0,,,,0.0,,,,Pass,,,,,
514.0,7.0,wc_7,wc_7,0.0,"[('wc_7', 0.07000000000000003)]",0.07000000000000006,,,40.0,0.001889,['Pass'],Pass,0.07000000000000003,0.9299999999999999,1.0,1.0,0.1
514.0,7.0,wc_7,,0.0,,,,223.0,,,,Pass,,,,,
514.0,7.0,wc_7,wc_16,0.0,"[('wc_16', 0.7300000000000005), ('wc_7', 0.07000000000000003)]",0.7489000000000006,,,34.0,0.003946,['Pass'],Pass,0.7300000000000005,-0.7300000000000005,0.0,5.0,0.8
514.0,7.0,wc_7,,0.0,,,,203.0,,,,Pass,,,,,
514.0,7.0,wc_7,wc_6,1.0,"[('wc_6', 0.9400000000000007), ('wc_7', 0.07000000000000003), ('wc_16', 0.7300000000000005)]",0.9849340000000002,,,39.0,0.04270199999999999,['Pass'],Pass,0.9500000000000007,0.04999999999999927,6.0,6.0,1.0
522.0,9.0,wc_9,,0.0,,,,0.0,,,,Fail,,,,,
522.0,9.0,wc_9,,0.0,,,59.0,,,,,Fail,,,,,
522.0,9.0,wc_9,,0.0,,,,0.0,,,,Fail,,,,,
522.0,9.0,wc_9,wc_9,0.0,"[('wc_9', 0.3200000000000002)]",0.3200000000000002,,,23.0,0.002143,['Fail'],Fail,0.3200000000000002,-0.3200000000000002,0.0,0.0,0.2
522.0,9.0,wc_9,,0.0,,,,101.0,,,,Fail,,,,,
522.0,9.0,wc_9,wc_12,0.0,"[('wc_12', 0.6200000000000004), ('wc_9', 0.3200000000000002)]",0.7416000000000004,,,29.0,0.004262,['Fail'],Fail,0.6200000000000004,-0.6200000000000004,0.0,3.0,0.5
522.0,9.0,wc_9,,0.0,,,,0.0,,,,Fail,,,,,
522.0,9.0,wc_9,wc_16,1.0,"[('wc_16', 0.7300000000000005), ('wc_9', 0.3200000000000002), ('wc_12', 0.6200000000000004)]",0.9302320000000003,,,21.0,0.041266,['Fail'],Fail,0.7300000000000005,-0.44428571428571484,2.0,7.0,0.8
527.0,10.0,wc_10,,0.0,,,,362.0,,,,Fail,,,,,
527.0,10.0,wc_10,,0.0,,,52.0,,,,,Fail,,,,,
527.0,10.0,wc_10,,0.0,,,,0.0,,,,Fail,,,,,
527.0,10.0,wc_10,wc_10,0.0,"[('wc_10', 0.7900000000000006)]",0.7900000000000006,,,34.0,0.0023,['Fail'],Fail,0.7900000000000006,-0.7596969696969703,0.0,0.0,1.0
527.0,10.0,wc_10,,0.0,,,,0.0,,,,Fail,,,,,
527.0,10.0,wc_10,wc_11,0.0,"[('wc_11', 0.7300000000000005), ('wc_10', 0.7900000000000006)]",0.9433000000000002,,,35.0,0.004045,['Fail'],Fail,0.7300000000000005,-0.45727272727272783,0.0,0.0,0.8
527.0,10.0,wc_10,,0.0,,,,41.0,,,,Fail,,,,,
527.0,10.0,wc_10,wc_7,0.0,"[('wc_10', 0.7900000000000006), ('wc_11', 0.7300000000000005)]",0.9433000000000002,,,27.0,0.006265,['Fail'],Fail,0.08000000000000003,0.5866666666666666,2.0,3.0,0.1
527.0,10.0,wc_10,,0.0,,,,0.0,,,,Fail,,,,,
527.0,10.0,wc_10,wc_9,0.0,"[('wc_10', 0.7900000000000006), ('wc_11', 0.7300000000000005)]",0.9433000000000002,,,35.0,0.009087999999999999,['Fail'],Fail,0.3300000000000002,0.6699999999999998,1.0,1.0,0.2
527.0,10.0,wc_10,,0.0,,,,182.0,,,,Fail,,,,,
527.0,10.0,wc_10,wc_16,1.0,"[('wc_16', 0.7300000000000005), ('wc_10', 0.7900000000000006), ('wc_11', 0.7300000000000005)]",0.9846910000000001,,,32.0,0.052877999999999994,['Fail'],Fail,0.7300000000000005,-0.35500000000000054,3.0,8.0,0.8
535.0,10.0,wc_10,,0.0,,,,362.0,,,,Pass,,,,,
535.0,10.0,wc_10,,0.0,,,57.0,,,,,Pass,,,,,
535.0,10.0,wc_10,,0.0,,,,0.0,,,,Pass,,,,,
535.0,10.0,wc_10,wc_10,0.0,"[('wc_10', 0.8000000000000006)]",0.8000000000000006,,,24.0,0.002108,['Fail'],Pass,0.8000000000000006,0.1999999999999994,1.0,1.0,1.0
535.0,10.0,wc_10,,0.0,,,,142.0,,,,Pass,,,,,
535.0,10.0,wc_10,wc_15,0.0,"[('wc_10', 0.8000000000000006)]",0.8000000000000006,,,31.0,0.004157,['Fail'],Pass,0.7400000000000005,-0.5635294117647064,0.0,0.0,1.0
535.0,10.0,wc_10,,0.0,,,,81.0,,,,Pass,,,,,
535.0,10.0,wc_10,wc_13,0.0,"[('wc_13', 0.4700000000000003), ('wc_15', 0.7400000000000005)]",0.8622000000000004,,,37.0,0.005553,['Pass'],Pass,0.4700000000000003,-0.17000000000000032,0.0,0.0,0.3
535.0,10.0,wc_10,,0.0,,,,0.0,,,,Pass,,,,,
535.0,10.0,wc_10,wc_17,1.0,"[('wc_17', 0.5600000000000004), ('wc_15', 0.7400000000000005), ('wc_13', 0.4700000000000003)]",0.9393680000000002,,,29.0,0.047043,['Pass'],Pass,0.5600000000000004,-0.5600000000000004,0.0,0.0,0.5
543.0,11.0,wc_11,,0.0,,,,362.0,,,,Pass,,,,,
543.0,11.0,wc_11,,0.0,,,80.0,,,,,Pass,,,,,
543.0,11.0,wc_11,,0.0,,,,0.0,,,,Pass,,,,,
543.0,11.0,wc_11,wc_11,0.0,"[('wc_11', 0.7400000000000005)]",0.7400000000000005,,,31.0,0.002027,['Pass'],Pass,0.7400000000000005,-0.24000000000000055,1.0,2.0,0.8
543.0,11.0,wc_11,,0.0,,,,342.0,,,,Pass,,,,,
543.0,11.0,wc_11,wc_4,0.0,"[('wc_11', 0.7400000000000005)]",0.7400000000000005,,,38.0,0.005726,['Pass'],Pass,0.27000000000000013,-0.27000000000000013,0.0,0.0,0.2
543.0,11.0,wc_11,,0.0,,,,61.0,,,,Pass,,,,,
543.0,11.0,wc_11,wc_1,0.0,"[('wc_1', 0.8700000000000007), ('wc_11', 0.7400000000000005)]",0.9662000000000003,,,27.0,0.009043,['Pass'],Pass,0.8700000000000007,-0.7930769230769237,0.0,0.0,1.0
543.0,11.0,wc_11,,0.0,,,,162.0,,,,Pass,,,,,
543.0,11.0,wc_11,wc_7,0.0,"[('wc_11', 0.7400000000000005), ('wc_1', 0.8700000000000007)]",0.9662000000000003,,,33.0,0.009355,['Pass'],Pass,0.08000000000000003,0.32,2.0,5.0,0.1
543.0,11.0,wc_11,,0.0,,,,0.0,,,,Pass,,,,,
543.0,11.0,wc_11,wc_8,1.0,"[('wc_8', 0.5000000000000003), ('wc_11', 0.7400000000000005), ('wc_1', 0.8700000000000007)]",0.9831000000000001,,,23.0,0.05125199999999999,['Pass'],Pass,0.5000000000000003,-0.5000000000000003,0.0,0.0,0.6
551.0,9.0,wc_9,,0.0,,,,0.0,,,,Pass,,,,,
551.0,9.0,wc_9,,0.0,,,58.0,,,,,Pass,,,,,
551.0,9.0,wc_9,,0.0,,,,0.0,,,,Pass,,,,,
551.0,9.0,wc_9,wc_9,0.0,"[('wc_9', 0.3300000000000002)]",0.3300000000000002,,,32.0,0.002293,['Fail'],Pass,0.3300000000000002,-0.08000000000000018,1.0,4.0,0.2
551.0,9.0,wc_9,,0.0,,,,81.0,,,,Pass,,,,,
551.0,9.0,wc_9,wc_7,0.0,"[('wc_9', 0.3300000000000002)]",0.3300000000000002,,,35.0,0.004093,['Fail'],Pass,0.08000000000000003,0.2533333333333333,2.0,6.0,0.1
551.0,9.0,wc_9,,0.0,,,,223.0,,,,Pass,,,,,
551.0,9.0,wc_9,wc_16,0.0,"[('wc_16', 0.7300000000000005), ('wc_9', 0.3300000000000002)]",0.8191000000000004,,,28.0,0.006444999999999999,['Fail'],Pass,0.7300000000000005,-0.43000000000000055,0.0,0.0,0.8
551.0,9.0,wc_9,,0.0,,,,41.0,,,,Pass,,,,,
551.0,9.0,wc_9,wc_12,0.0,"[('wc_9', 0.3300000000000002), ('wc_16', 0.7300000000000005)]",0.8191000000000004,,,33.0,0.008549999999999999,['Fail'],Pass,0.6200000000000004,-0.4771428571428576,1.0,7.0,0.5
551.0,9.0,wc_9,,0.0,,,,0.0,,,,Pass,,,,,
551.0,9.0,wc_9,wc_13,1.0,"[('wc_13', 0.4800000000000003), ('wc_9', 0.3300000000000002), ('wc_16', 0.7300000000000005)]",0.9059320000000003,,,37.0,0.04651100000000001,['Fail'],Pass,0.4900000000000003,0.1766666666666663,2.0,3.0,0.3
560.0,8.0,wc_8,,0.0,,,,202.0,,,,Pass,,,,,
560.0,8.0,wc_8,,0.0,,,68.0,,,,,Pass,,,,,
560.0,8.0,wc_8,,0.0,,,,0.0,,,,Pass,,,,,
560.0,8.0,wc_8,wc_8,0.0,"[('wc_8', 0.5000000000000003)]",0.5000000000000003,,,36.0,0.002234,['Pass'],Pass,0.5000000000000003,-0.5000000000000003,0.0,1.0,0.6
560.0,8.0,wc_8,,0.0,,,,183.0,,,,Pass,,,,,
560.0,8.0,wc_8,wc_15,0.0,"[('wc_15', 0.7500000000000006), ('wc_8', 0.5000000000000003)]",0.8750000000000003,,,39.0,0.0041069999999999995,['Pass'],Pass,0.7500000000000006,-0.41666666666666724,1.0,3.0,1.0
560.0,8.0,wc_8,,0.0,,,,101.0,,,,Pass,,,,,
560.0,8.0,wc_8,wc_14,1.0,"[('wc_14', 0.29000000000000015), ('wc_8', 0.5000000000000003), ('wc_15', 0.7500000000000006)]",0.9112500000000002,,,34.0,0.04264300000000001,['Pass'],Pass,0.29000000000000015,-0.16500000000000015,1.0,8.0,0.2
570.0,12.0,wc_12,,0.0,,,,82.0,,,,Fail,,,,,
570.0,12.0,wc_12,,0.0,,,71.0,,,,,Fail,,,,,
570.0,12.0,wc_12,,0.0,,,,0.0,,,,Fail,,,,,
570.0,12.0,wc_12,wc_12,0.0,"[('wc_12', 0.6100000000000004)]",0.6100000000000004,,,35.0,0.002204,['Fail'],Fail,0.6100000000000004,-0.4988888888888893,1.0,9.0,0.5
570.0,12.0,wc_12,,0.0,,,,0.0,,,,Fail,,,,,
570.0,12.0,wc_12,wc_13,0.0,"[('wc_13', 0.4900000000000003), ('wc_12', 0.6100000000000004)]",0.8011000000000004,,,34.0,0.003991,['Fail'],Fail,0.4900000000000003,0.009999999999999676,2.0,4.0,0.3
570.0,12.0,wc_12,,0.0,,,,0.0,,,,Fail,,,,,
570.0,12.0,wc_12,wc_16,0.0,"[('wc_12', 0.6100000000000004), ('wc_13', 0.4900000000000003)]",0.8011000000000004,,,26.0,0.006638,['Fail'],Fail,0.7400000000000005,-0.24000000000000055,1.0,2.0,0.8
570.0,12.0,wc_12,,0.0,,,,382.0,,,,Fail,,,,,
570.0,12.0,wc_12,wc_3,1.0,"[('wc_3', 0.5700000000000004), ('wc_12', 0.6100000000000004), ('wc_13', 0.4900000000000003)]",0.9144730000000002,,,35.0,0.043259,['Fail'],Fail,0.5700000000000004,-0.3477777777777782,2.0,9.0,0.5
584.0,12.0,wc_12,,0.0,,,,141.0,,,,Fail,,,,,
584.0,12.0,wc_12,,0.0,,,50.0,,,,,Fail,,,,,
584.0,12.0,wc_12,,0.0,,,,0.0,,,,Fail,,,,,
584.0,12.0,wc_12,wc_12,0.0,"[('wc_12', 0.6100000000000004)]",0.6100000000000004,,,34.0,0.002014,['Pass'],Fail,0.6100000000000004,-0.6100000000000004,0.0,0.0,0.5
584.0,12.0,wc_12,,0.0,,,,361.0,,,,Fail,,,,,
584.0,12.0,wc_12,wc_11,0.0,"[('wc_11', 0.7400000000000005)]",0.7400000000000005,,,28.0,0.005064,['Fail'],Fail,0.7400000000000005,-0.40666666666666723,2.0,6.0,0.8
584.0,12.0,wc_12,,0.0,,,,362.0,,,,Fail,,,,,
584.0,12.0,wc_12,wc_5,0.0,"[('wc_5', 0.6300000000000004), ('wc_11', 0.7400000000000005)]",0.9038000000000004,,,25.0,0.006287,['Fail'],Fail,0.6300000000000004,-0.5800000000000004,0.0,0.0,0.6
584.0,12.0,wc_12,,0.0,,,,162.0,,,,Fail,,,,,
584.0,12.0,wc_12,wc_15,1.0,"[('wc_15', 0.7500000000000006), ('wc_11', 0.7400000000000005), ('wc_5', 0.6300000000000004)]",0.9759500000000001,,,23.0,0.051489,['Fail'],Fail,0.7500000000000006,-0.25000000000000056,3.0,6.0,1.0
598.0,12.0,wc_12,,0.0,,,,61.0,,,,Pass,,,,,
598.0,12.0,wc_12,,0.0,,,72.0,,,,,Pass,,,,,
598.0,12.0,wc_12,,0.0,,,,0.0,,,,Pass,,,,,
598.0,12.0,wc_12,wc_12,0.0,"[('wc_12', 0.6000000000000004)]",0.6000000000000004,,,28.0,0.0021,['Pass'],Pass,0.6000000000000004,-0.6000000000000004,0.0,1.0,0.5
598.0,12.0,wc_12,,0.0,,,,202.0,,,,Pass,,,,,
598.0,12.0,wc_12,wc_7,0.0,"[('wc_12', 0.6000000000000004)]",0.6000000000000004,,,27.0,0.003999,['Pass'],Pass,0.08000000000000003,0.11999999999999998,0.0,0.0,0.1
598.0,12.0,wc_12,,0.0,,,,223.0,,,,Pass,,,,,
598.0,12.0,wc_12,wc_16,0.0,"[('wc_16', 0.7300000000000005), ('wc_12', 0.6000000000000004)]",0.8920000000000003,,,26.0,0.006053,['Pass'],Pass,0.7300000000000005,-0.48000000000000054,1.0,4.0,0.8
598.0,12.0,wc_12,,0.0,,,,81.0,,,,Pass,,,,,
598.0,12.0,wc_12,wc_14,1.0,"[('wc_14', 0.29000000000000015), ('wc_12', 0.6000000000000004), ('wc_16', 0.7300000000000005)]",0.9233200000000003,,,34.0,0.048946,['Pass'],Pass,0.29000000000000015,-0.29000000000000015,0.0,0.0,0.2
601.0,13.0,wc_13,,0.0,,,,102.0,,,,Pass,,,,,
601.0,13.0,wc_13,,0.0,,,76.0,,,,,Pass,,,,,
601.0,13.0,wc_13,,0.0,,,,0.0,,,,Pass,,,,,
601.0,13.0,wc_13,wc_13,0.0,"[('wc_13', 0.5000000000000003)]",0.5000000000000003,,,33.0,0.002101,['Pass'],Pass,0.5000000000000003,-0.07142857142857179,3.0,7.0,0.3
601.0,13.0,wc_13,,0.0,,,,242.0,,,,Pass,,,,,
601.0,13.0,wc_13,wc_2,0.0,"[('wc_2', 0.8100000000000006), ('wc_13', 0.5000000000000003)]",0.9050000000000004,,,35.0,0.0042450000000000005,['Pass'],Pass,0.8100000000000006,-0.7385714285714292,0.0,0.0,0.8
601.0,13.0,wc_13,,0.0,,,,202.0,,,,Pass,,,,,
601.0,13.0,wc_13,wc_14,1.0,"[('wc_14', 0.29000000000000015), ('wc_13', 0.5000000000000003), ('wc_2', 0.8100000000000006)]",0.9325500000000002,,,39.0,0.049844000000000006,['Pass'],Pass,0.30000000000000016,0.6999999999999998,1.0,1.0,0.2
604.0,14.0,wc_14,,0.0,,,,0.0,,,,Fail,,,,,
604.0,14.0,wc_14,,0.0,,,79.0,,,,,Fail,,,,,
604.0,14.0,wc_14,,0.0,,,,0.0,,,,Fail,,,,,
604.0,14.0,wc_14,wc_14,0.0,"[('wc_14', 0.30000000000000016)]",0.30000000000000016,,,30.0,0.002133,['Pass'],Fail,0.30000000000000016,0.6999999999999998,1.0,1.0,0.2
604.0,14.0,wc_14,,0.0,,,,202.0,,,,Fail,,,,,
604.0,14.0,wc_14,wc_1,0.0,"[('wc_1', 0.8800000000000007)]",0.8800000000000007,,,35.0,0.0045190000000000004,['Fail'],Fail,0.8800000000000007,-0.7371428571428578,1.0,7.0,1.0
604.0,14.0,wc_14,,0.0,,,,203.0,,,,Fail,,,,,
604.0,14.0,wc_14,wc_9,0.0,"[('wc_1', 0.8800000000000007)]",0.8800000000000007,,,34.0,0.005788,['Fail'],Fail,0.3400000000000002,-0.14000000000000018,0.0,0.0,0.2
604.0,14.0,wc_14,,0.0,,,,0.0,,,,Fail,,,,,
604.0,14.0,wc_14,wc_10,0.0,"[('wc_10', 0.7900000000000006), ('wc_1', 0.8800000000000007)]",0.9748000000000002,,,39.0,0.007407,['Fail'],Fail,0.7900000000000006,-0.6788888888888895,1.0,9.0,1.0
604.0,14.0,wc_14,,0.0,,,,243.0,,,,Fail,,,,,
604.0,14.0,wc_14,wc_2,1.0,"[('wc_2', 0.8200000000000006), ('wc_1', 0.8800000000000007), ('wc_10', 0.7900000000000006)]",0.995464,,,24.0,0.045987,['Fail'],Fail,0.8300000000000006,0.16999999999999937,2.0,2.0,0.8
607.0,16.0,wc_16,,0.0,,,,243.0,,,,Pass,,,,,
607.0,16.0,wc_16,,0.0,,,53.0,,,,,Pass,,,,,
607.0,16.0,wc_16,,0.0,,,,0.0,,,,Pass,,,,,
607.0,16.0,wc_16,wc_16,0.0,"[('wc_16', 0.7300000000000005)]",0.7300000000000005,,,38.0,0.002264,['Pass'],Pass,0.7300000000000005,-0.44428571428571484,2.0,7.0,0.8
607.0,16.0,wc_16,,0.0,,,,382.0,,,,Pass,,,,,
607.0,16.0,wc_16,wc_3,0.0,"[('wc_3', 0.5700000000000004), ('wc_16', 0.7300000000000005)]",0.8839000000000004,,,40.0,0.004059999999999999,['Pass'],Pass,0.5700000000000004,-0.41615384615384654,0.0,0.0,0.5
607.0,16.0,wc_16,,0.0,,,,101.0,,,,Pass,,,,,
607.0,16.0,wc_16,wc_2,1.0,"[('wc_2', 0.8300000000000006), ('wc_16', 0.7300000000000005), ('wc_3', 0.5700000000000004)]",0.9802630000000001,,,24.0,0.043401999999999996,['Pass'],Pass,0.8400000000000006,0.15999999999999936,3.0,3.0,0.8
610.0,14.0,wc_14,,0.0,,,,202.0,,,,Pass,,,,,
610.0,14.0,wc_14,,0.0,,,79.0,,,,,Pass,,,,,
610.0,14.0,wc_14,,0.0,,,,0.0,,,,Pass,,,,,
610.0,14.0,wc_14,wc_14,0.0,"[('wc_14', 0.30000000000000016)]",0.30000000000000016,,,29.0,0.002061,['Fail'],Pass,0.30000000000000016,0.03333333333333316,1.0,3.0,0.2
610.0,14.0,wc_14,,0.0,,,,0.0,,,,Pass,,,,,
610.0,14.0,wc_14,wc_15,0.0,"[('wc_15', 0.7500000000000006)]",0.7500000000000006,,,23.0,0.004061,['Pass'],Pass,0.7500000000000006,-0.45000000000000057,0.0,0.0,1.0
610.0,14.0,wc_14,,0.0,,,,402.0,,,,Pass,,,,,
610.0,14.0,wc_14,wc_11,0.0,"[('wc_11', 0.7400000000000005), ('wc_15', 0.7500000000000006)]",0.9350000000000003,,,38.0,0.0054529999999999995,['Pass'],Pass,0.7400000000000005,-0.46727272727272784,0.0,0.0,0.8
610.0,14.0,wc_14,,0.0,,,,61.0,,,,Pass,,,,,
610.0,14.0,wc_14,wc_12,1.0,"[('wc_12', 0.6000000000000004), ('wc_15', 0.7500000000000006), ('wc_11', 0.7400000000000005)]",0.9740000000000001,,,36.0,0.046763,['Pass'],Pass,0.6000000000000004,-0.2666666666666671,2.0,6.0,0.5
614.0,15.0,wc_15,,0.0,,,,0.0,,,,Pass,,,,,
614.0,15.0,wc_15,,0.0,,,63.0,,,,,Pass,,,,,
614.0,15.0,wc_15,,0.0,,,,0.0,,,,Pass,,,,,
614.0,15.0,wc_15,wc_15,0.0,"[('wc_15', 0.7600000000000006)]",0.7600000000000006,,,24.0,0.002174,['Pass'],Pass,0.7600000000000006,0.23999999999999944,1.0,1.0,1.0
614.0,15.0,wc_15,,0.0,,,,422.0,,,,Pass,,,,,
614.0,15.0,wc_15,wc_4,0.0,"[('wc_4', 0.2600000000000001), ('wc_15', 0.7600000000000006)]",0.8224000000000005,,,22.0,0.004449,['Pass'],Pass,0.2600000000000001,-0.2600000000000001,0.0,0.0,0.2
614.0,15.0,wc_15,,0.0,,,,222.0,,,,Pass,,,,,
614.0,15.0,wc_15,wc_17,1.0,"[('wc_17', 0.5600000000000004), ('wc_15', 0.7600000000000006), ('wc_4', 0.2600000000000001)]",0.9218560000000002,,,38.0,0.04325,['Pass'],Pass,0.5600000000000004,-0.5600000000000004,0.0,0.0,0.5
617.0,17.0,wc_17,,0.0,,,,0.0,,,,Pass,,,,,
617.0,17.0,wc_17,,0.0,,,71.0,,,,,Pass,,,,,
617.0,17.0,wc_17,,0.0,,,,0.0,,,,Pass,,,,,
617.0,17.0,wc_17,wc_17,0.0,"[('wc_17', 0.5600000000000004)]",0.5600000000000004,,,20.0,0.002217,['Pass'],Pass,0.5600000000000004,-0.5600000000000004,0.0,0.0,0.5
617.0,17.0,wc_17,,0.0,,,,322.0,,,,Pass,,,,,
617.0,17.0,wc_17,wc_9,0.0,"[('wc_9', 0.3300000000000002), ('wc_17', 0.5600000000000004)]",0.7052000000000003,,,28.0,0.004037,['Pass'],Pass,0.3300000000000002,-0.3300000000000002,0.0,4.0,0.2
617.0,17.0,wc_17,,0.0,,,,121.0,,,,Pass,,,,,
617.0,17.0,wc_17,wc_13,0.0,"[('wc_13', 0.5000000000000003), ('wc_17', 0.5600000000000004), ('wc_9', 0.3300000000000002)]",0.8526000000000002,,,23.0,0.005822,['Pass'],Pass,0.5000000000000003,-0.16666666666666702,0.0,0.0,0.3
617.0,17.0,wc_17,,0.0,,,,202.0,,,,Pass,,,,,
617.0,17.0,wc_17,wc_8,1.0,"[('wc_8', 0.5000000000000003), ('wc_17', 0.5600000000000004), ('wc_9', 0.3300000000000002), ('wc_13', 0.5000000000000003)]",0.9263000000000002,,,31.0,0.045281999999999996,['Pass'],Pass,0.5000000000000003,-0.5000000000000003,0.0,0.0,0.6
