mpecck/BCQC/bcqc_with_qdt/results/raw/input_15/independent_qc/training/20_workpiece/20200429_095210/wp_12_qc_majority_0.9.csv
production_index,step_idx,production_workcell,qc,consent,winner_qc_list,score,production_time,transport_time,inspection_time,network_time,qc_results,actual_quality,qc_score,score_error,in_winner_counter,in_qc_counter,qc_capability
44.0,1.0,wc_1,,0.0,,,80.0,,,,,Pass,,,,,
44.0,1.0,wc_1,,0.0,,,,0.0,,,,Pass,,,,,
44.0,1.0,wc_1,wc_1,0.0,"[('wc_1', 0.8300000000000006)]",0.8300000000000006,,,37.0,0.003168,['Fail'],Pass,0.8300000000000006,-0.5800000000000006,1.0,4.0,1.0
44.0,1.0,wc_1,,0.0,,,,223.0,,,,Pass,,,,,
44.0,1.0,wc_1,wc_10,0.0,"[('wc_1', 0.8300000000000006)]",0.8300000000000006,,,23.0,0.004275,['Fail'],Pass,0.7600000000000006,-0.5100000000000006,2.0,8.0,1.0
44.0,1.0,wc_1,,0.0,,,,81.0,,,,Pass,,,,,
44.0,1.0,wc_1,wc_8,0.0,"[('wc_8', 0.5100000000000003), ('wc_1', 0.8300000000000006)]",0.9167000000000004,,,31.0,0.007375999999999999,['Fail'],Pass,0.5100000000000003,-0.5100000000000003,0.0,5.0,0.6
44.0,1.0,wc_1,,0.0,,,,0.0,,,,Pass,,,,,
44.0,1.0,wc_1,wc_11,0.0,"[('wc_1', 0.8300000000000006), ('wc_8', 0.5100000000000003)]",0.9167000000000004,,,27.0,0.0073089999999999995,['Fail'],Pass,0.6300000000000004,-0.5188888888888894,1.0,9.0,0.8
44.0,1.0,wc_1,,0.0,,,,162.0,,,,Pass,,,,,
44.0,1.0,wc_1,wc_17,1.0,"[('wc_17', 0.6000000000000004), ('wc_10', 0.7600000000000006), ('wc_11', 0.6300000000000004)]",0.9644800000000001,,,21.0,0.046068000000000005,['Pass'],Pass,0.6000000000000004,-0.3500000000000004,2.0,8.0,0.5
53.0,3.0,wc_3,,0.0,,,,362.0,,,,Fail,,,,,
53.0,3.0,wc_3,,0.0,,,55.0,,,,,Fail,,,,,
53.0,3.0,wc_3,,0.0,,,,0.0,,,,Fail,,,,,
53.0,3.0,wc_3,wc_3,0.0,"[('wc_3', 0.5100000000000003)]",0.5100000000000003,,,28.0,0.002634,['Fail'],Fail,0.5100000000000003,-0.4715384615384619,0.0,0.0,0.5
53.0,3.0,wc_3,,0.0,,,,121.0,,,,Fail,,,,,
53.0,3.0,wc_3,wc_7,0.0,"[('wc_7', 0.15000000000000002), ('wc_3', 0.5100000000000003)]",0.5835000000000004,,,20.0,0.00493,['Fail'],Fail,0.15000000000000002,-0.03888888888888892,1.0,9.0,0.1
53.0,3.0,wc_3,,0.0,,,,182.0,,,,Fail,,,,,
53.0,3.0,wc_3,wc_1,1.0,"[('wc_1', 0.8200000000000006), ('wc_3', 0.5100000000000003), ('wc_7', 0.15000000000000002)]",0.9250300000000004,,,25.0,0.03623199999999999,['Fail'],Fail,0.8200000000000006,-0.4866666666666673,2.0,6.0,1.0
67.0,2.0,wc_2,,0.0,,,,0.0,,,,Pass,,,,,
67.0,2.0,wc_2,,0.0,,,67.0,,,,,Pass,,,,,
67.0,2.0,wc_2,,0.0,,,,0.0,,,,Pass,,,,,
67.0,2.0,wc_2,wc_2,0.0,"[('wc_2', 0.7400000000000005)]",0.7400000000000005,,,33.0,0.00373,['Pass'],Pass,0.7400000000000005,-0.14000000000000057,0.0,0.0,0.8
67.0,2.0,wc_2,,0.0,,,,0.0,,,,Pass,,,,,
67.0,2.0,wc_2,wc_4,0.0,"[('wc_2', 0.7400000000000005)]",0.7400000000000005,,,36.0,0.007575,['Pass'],Pass,0.3400000000000002,-0.3400000000000002,0.0,4.0,0.2
67.0,2.0,wc_2,,0.0,,,,81.0,,,,Pass,,,,,
67.0,2.0,wc_2,wc_6,0.0,"[('wc_6', 0.8000000000000006), ('wc_2', 0.7400000000000005)]",0.9480000000000003,,,21.0,0.008794,['Pass'],Pass,0.8000000000000006,-0.7166666666666672,0.0,0.0,1.0
67.0,2.0,wc_2,,0.0,,,,263.0,,,,Pass,,,,,
67.0,2.0,wc_2,wc_17,1.0,"[('wc_17', 0.6000000000000004), ('wc_2', 0.7400000000000005), ('wc_6', 0.8000000000000006)]",0.9792000000000001,,,21.0,0.043873999999999996,['Pass'],Pass,0.6000000000000004,-0.6000000000000004,0.0,0.0,0.5
91.0,3.0,wc_3,,0.0,,,,362.0,,,,Pass,,,,,
91.0,3.0,wc_3,,0.0,,,66.0,,,,,Pass,,,,,
91.0,3.0,wc_3,,0.0,,,,0.0,,,,Pass,,,,,
91.0,3.0,wc_3,wc_3,0.0,"[('wc_3', 0.5200000000000004)]",0.5200000000000004,,,26.0,0.002304,['Fail'],Pass,0.5200000000000004,-0.02000000000000035,1.0,2.0,0.5
91.0,3.0,wc_3,,0.0,,,,202.0,,,,Pass,,,,,
91.0,3.0,wc_3,wc_11,0.0,"[('wc_11', 0.6300000000000004)]",0.6300000000000004,,,30.0,0.003704,['Pass'],Pass,0.6300000000000004,-0.6300000000000004,0.0,2.0,0.8
91.0,3.0,wc_3,,0.0,,,,21.0,,,,Pass,,,,,
91.0,3.0,wc_3,wc_6,0.0,"[('wc_6', 0.8100000000000006), ('wc_11', 0.6300000000000004)]",0.9297000000000003,,,31.0,0.006157,['Pass'],Pass,0.8100000000000006,0.1899999999999994,1.0,1.0,1.0
91.0,3.0,wc_3,,0.0,,,,222.0,,,,Pass,,,,,
91.0,3.0,wc_3,wc_2,1.0,"[('wc_2', 0.7500000000000006), ('wc_11', 0.6300000000000004), ('wc_6', 0.8100000000000006)]",0.9824250000000001,,,23.0,0.03721499999999999,['Pass'],Pass,0.7600000000000006,0.23999999999999944,2.0,2.0,0.8
102.0,4.0,wc_4,,0.0,,,,0.0,,,,Fail,,,,,
102.0,4.0,wc_4,,0.0,,,69.0,,,,,Fail,,,,,
102.0,4.0,wc_4,,0.0,,,,0.0,,,,Fail,,,,,
102.0,4.0,wc_4,wc_4,0.0,"[('wc_4', 0.3300000000000002)]",0.3300000000000002,,,33.0,0.002318,['Fail'],Fail,0.3300000000000002,-0.3300000000000002,0.0,6.0,0.2
102.0,4.0,wc_4,,0.0,,,,101.0,,,,Fail,,,,,
102.0,4.0,wc_4,wc_7,0.0,"[('wc_7', 0.16000000000000003), ('wc_4', 0.3300000000000002)]",0.43720000000000014,,,27.0,0.0065190000000000005,['Fail'],Fail,0.16000000000000003,-0.16000000000000003,0.0,2.0,0.1
102.0,4.0,wc_4,,0.0,,,,0.0,,,,Fail,,,,,
102.0,4.0,wc_4,wc_10,0.0,"[('wc_10', 0.7600000000000006), ('wc_4', 0.3300000000000002), ('wc_7', 0.16000000000000003)]",0.8649280000000004,,,34.0,0.01122,['Fail'],Fail,0.7600000000000006,-0.5100000000000006,0.0,0.0,1.0
102.0,4.0,wc_4,,0.0,,,,223.0,,,,Fail,,,,,
102.0,4.0,wc_4,wc_1,1.0,"[('wc_1', 0.8200000000000006), ('wc_4', 0.3300000000000002), ('wc_7', 0.16000000000000003), ('wc_10', 0.7600000000000006)]",0.9756870400000002,,,24.0,0.048513,['Fail'],Fail,0.8200000000000006,-0.4866666666666673,3.0,9.0,1.0
133.0,4.0,wc_4,,0.0,,,,0.0,,,,Fail,,,,,
133.0,4.0,wc_4,,0.0,,,78.0,,,,,Fail,,,,,
133.0,4.0,wc_4,,0.0,,,,0.0,,,,Fail,,,,,
133.0,4.0,wc_4,wc_4,0.0,"[('wc_4', 0.3300000000000002)]",0.3300000000000002,,,35.0,0.002219,['Fail'],Fail,0.3300000000000002,-0.18714285714285733,1.0,7.0,0.2
133.0,4.0,wc_4,,0.0,,,,162.0,,,,Fail,,,,,
133.0,4.0,wc_4,wc_10,0.0,"[('wc_10', 0.7700000000000006), ('wc_4', 0.3300000000000002)]",0.8459000000000004,,,39.0,0.004228,['Fail'],Fail,0.7700000000000006,0.22999999999999943,1.0,1.0,1.0
133.0,4.0,wc_4,,0.0,,,,0.0,,,,Fail,,,,,
133.0,4.0,wc_4,wc_11,1.0,"[('wc_11', 0.6300000000000004), ('wc_4', 0.3300000000000002), ('wc_10', 0.7700000000000006)]",0.9429830000000002,,,23.0,0.051972,['Fail'],Fail,0.6300000000000004,-0.23000000000000043,2.0,5.0,0.8
155.0,4.0,wc_4,,0.0,,,,342.0,,,,Fail,,,,,
155.0,4.0,wc_4,,0.0,,,78.0,,,,,Fail,,,,,
155.0,4.0,wc_4,,0.0,,,,0.0,,,,Fail,,,,,
155.0,4.0,wc_4,wc_4,0.0,"[('wc_4', 0.3300000000000002)]",0.3300000000000002,,,25.0,0.002466,['Fail'],Fail,0.3300000000000002,-0.08000000000000018,2.0,8.0,0.2
155.0,4.0,wc_4,,0.0,,,,222.0,,,,Fail,,,,,
155.0,4.0,wc_4,wc_17,0.0,"[('wc_17', 0.6000000000000004), ('wc_4', 0.3300000000000002)]",0.7320000000000004,,,24.0,0.00404,['Fail'],Fail,0.6000000000000004,-0.6000000000000004,0.0,3.0,0.5
155.0,4.0,wc_4,,0.0,,,,61.0,,,,Fail,,,,,
155.0,4.0,wc_4,wc_14,0.0,"[('wc_4', 0.3300000000000002), ('wc_17', 0.6000000000000004)]",0.7320000000000004,,,21.0,0.005716,['Fail'],Fail,0.2300000000000001,-0.2300000000000001,0.0,6.0,0.2
155.0,4.0,wc_4,,0.0,,,,321.0,,,,Fail,,,,,
155.0,4.0,wc_4,wc_3,0.0,"[('wc_3', 0.5100000000000003), ('wc_4', 0.3300000000000002), ('wc_17', 0.6000000000000004)]",0.8686800000000002,,,33.0,0.007683,['Fail'],Fail,0.5100000000000003,-0.31000000000000033,1.0,5.0,0.5
155.0,4.0,wc_4,,0.0,,,,141.0,,,,Fail,,,,,
155.0,4.0,wc_4,wc_12,0.0,"[('wc_4', 0.3300000000000002), ('wc_17', 0.6000000000000004), ('wc_3', 0.5100000000000003)]",0.8686800000000003,,,32.0,0.00969,['Fail'],Fail,0.5900000000000004,-0.5344444444444448,0.0,0.0,0.5
155.0,4.0,wc_4,,0.0,,,,0.0,,,,Fail,,,,,
155.0,4.0,wc_4,wc_16,1.0,"[('wc_16', 0.7400000000000005), ('wc_4', 0.3300000000000002), ('wc_17', 0.6000000000000004), ('wc_3', 0.5100000000000003)]",0.9658568000000002,,,21.0,0.049509000000000004,['Fail'],Fail,0.7400000000000005,-0.7400000000000005,0.0,0.0,0.8
209.0,4.0,wc_4,,0.0,,,,402.0,,,,Fail,,,,,
209.0,4.0,wc_4,,0.0,,,73.0,,,,,Fail,,,,,
209.0,4.0,wc_4,,0.0,,,,0.0,,,,Fail,,,,,
209.0,4.0,wc_4,wc_4,0.0,"[('wc_4', 0.3300000000000002)]",0.3300000000000002,,,35.0,0.002478,['Fail'],Fail,0.3300000000000002,0.0033333333333331328,3.0,9.0,0.2
209.0,4.0,wc_4,,0.0,,,,182.0,,,,Fail,,,,,
209.0,4.0,wc_4,wc_15,0.0,"[('wc_15', 0.6700000000000005), ('wc_4', 0.3300000000000002)]",0.7789000000000004,,,28.0,0.004295,['Fail'],Fail,0.6700000000000005,-0.4700000000000005,0.0,0.0,1.0
209.0,4.0,wc_4,,0.0,,,,61.0,,,,Fail,,,,,
209.0,4.0,wc_4,wc_12,1.0,"[('wc_12', 0.5800000000000004), ('wc_4', 0.3300000000000002), ('wc_15', 0.6700000000000005)]",0.9071380000000002,,,21.0,0.042205,['Fail'],Fail,0.5800000000000004,-0.0800000000000004,1.0,2.0,0.5
280.0,4.0,wc_4,,0.0,,,,381.0,,,,Pass,,,,,
280.0,4.0,wc_4,,0.0,,,80.0,,,,,Pass,,,,,
280.0,4.0,wc_4,,0.0,,,,0.0,,,,Pass,,,,,
280.0,4.0,wc_4,wc_4,0.0,"[('wc_4', 0.3400000000000002)]",0.3400000000000002,,,39.0,0.002203,['Pass'],Pass,0.3400000000000002,-0.3400000000000002,0.0,0.0,0.2
280.0,4.0,wc_4,,0.0,,,,182.0,,,,Pass,,,,,
280.0,4.0,wc_4,wc_11,0.0,"[('wc_11', 0.6300000000000004), ('wc_4', 0.3400000000000002)]",0.7558000000000004,,,33.0,0.003893,['Pass'],Pass,0.6300000000000004,-0.34428571428571475,2.0,7.0,0.8
280.0,4.0,wc_4,,0.0,,,,81.0,,,,Pass,,,,,
280.0,4.0,wc_4,wc_13,0.0,"[('wc_4', 0.3400000000000002), ('wc_11', 0.6300000000000004)]",0.7558000000000004,,,30.0,0.007885,['Pass'],Pass,0.39000000000000024,-0.39000000000000024,0.0,0.0,0.3
280.0,4.0,wc_4,,0.0,,,,381.0,,,,Pass,,,,,
280.0,4.0,wc_4,wc_5,0.0,"[('wc_5', 0.5600000000000004), ('wc_4', 0.3400000000000002), ('wc_11', 0.6300000000000004)]",0.8925520000000002,,,37.0,0.0074600000000000005,['Pass'],Pass,0.5600000000000004,-0.5600000000000004,0.0,0.0,0.6
280.0,4.0,wc_4,,0.0,,,,141.0,,,,Pass,,,,,
280.0,4.0,wc_4,wc_14,0.0,"[('wc_4', 0.3400000000000002), ('wc_11', 0.6300000000000004), ('wc_5', 0.5600000000000004)]",0.8925520000000002,,,40.0,0.013631,['Pass'],Pass,0.22000000000000008,-0.22000000000000008,0.0,8.0,0.2
280.0,4.0,wc_4,,0.0,,,,182.0,,,,Pass,,,,,
280.0,4.0,wc_4,wc_8,1.0,"[('wc_8', 0.5000000000000003), ('wc_4', 0.3400000000000002), ('wc_11', 0.6300000000000004), ('wc_5', 0.5600000000000004)]",0.9462760000000001,,,35.0,0.050690000000000006,['Pass'],Pass,0.5000000000000003,-0.5000000000000003,0.0,0.0,0.6
311.0,5.0,wc_5,,0.0,,,,321.0,,,,Fail,,,,,
311.0,5.0,wc_5,,0.0,,,78.0,,,,,Fail,,,,,
311.0,5.0,wc_5,,0.0,,,,0.0,,,,Fail,,,,,
311.0,5.0,wc_5,wc_5,0.0,"[('wc_5', 0.5700000000000004)]",0.5700000000000004,,,28.0,0.002174,['Pass'],Fail,0.5700000000000004,0.4299999999999996,1.0,1.0,0.6
311.0,5.0,wc_5,,0.0,,,,162.0,,,,Fail,,,,,
311.0,5.0,wc_5,wc_15,0.0,"[('wc_15', 0.6800000000000005)]",0.6800000000000005,,,31.0,0.004211,['Fail'],Fail,0.6800000000000005,-0.1800000000000005,1.0,2.0,1.0
311.0,5.0,wc_5,,0.0,,,,101.0,,,,Fail,,,,,
311.0,5.0,wc_5,wc_14,0.0,"[('wc_14', 0.21000000000000008), ('wc_15', 0.6800000000000005)]",0.7472000000000004,,,27.0,0.005725,['Fail'],Fail,0.21000000000000008,-0.21000000000000008,0.0,9.0,0.2
311.0,5.0,wc_5,,0.0,,,,82.0,,,,Fail,,,,,
311.0,5.0,wc_5,wc_12,0.0,"[('wc_12', 0.5800000000000004), ('wc_15', 0.6800000000000005), ('wc_14', 0.21000000000000008)]",0.8938240000000003,,,27.0,0.008094,['Fail'],Fail,0.5800000000000004,-0.2466666666666671,1.0,3.0,0.5
311.0,5.0,wc_5,,0.0,,,,341.0,,,,Fail,,,,,
311.0,5.0,wc_5,wc_10,1.0,"[('wc_10', 0.7800000000000006), ('wc_15', 0.6800000000000005), ('wc_14', 0.21000000000000008), ('wc_12', 0.5800000000000004)]",0.9766412800000002,,,40.0,0.047770999999999994,['Fail'],Fail,0.7800000000000006,-0.2800000000000006,3.0,6.0,1.0
372.0,5.0,wc_5,,0.0,,,,382.0,,,,Fail,,,,,
372.0,5.0,wc_5,,0.0,,,70.0,,,,,Fail,,,,,
372.0,5.0,wc_5,,0.0,,,,0.0,,,,Fail,,,,,
372.0,5.0,wc_5,wc_5,0.0,"[('wc_5', 0.5600000000000004)]",0.5600000000000004,,,32.0,0.002732,['Fail'],Fail,0.5600000000000004,-0.060000000000000386,1.0,2.0,0.6
372.0,5.0,wc_5,,0.0,,,,162.0,,,,Fail,,,,,
372.0,5.0,wc_5,wc_15,0.0,"[('wc_15', 0.6800000000000005), ('wc_5', 0.5600000000000004)]",0.8592000000000004,,,20.0,0.005154,['Fail'],Fail,0.6800000000000005,-0.013333333333333863,2.0,3.0,1.0
372.0,5.0,wc_5,,0.0,,,,402.0,,,,Fail,,,,,
372.0,5.0,wc_5,wc_3,1.0,"[('wc_3', 0.5100000000000003), ('wc_5', 0.5600000000000004), ('wc_15', 0.6800000000000005)]",0.9310080000000002,,,31.0,0.04154599999999999,['Fail'],Fail,0.5100000000000003,-0.5100000000000003,0.0,0.0,0.5
426.0,5.0,wc_5,,0.0,,,,0.0,,,,Fail,,,,,
426.0,5.0,wc_5,,0.0,,,73.0,,,,,Fail,,,,,
426.0,5.0,wc_5,,0.0,,,,0.0,,,,Fail,,,,,
426.0,5.0,wc_5,wc_5,0.0,"[('wc_5', 0.5700000000000004)]",0.5700000000000004,,,21.0,0.002093,['Fail'],Fail,0.5700000000000004,0.09666666666666623,2.0,3.0,0.6
426.0,5.0,wc_5,,0.0,,,,162.0,,,,Fail,,,,,
426.0,5.0,wc_5,wc_15,0.0,"[('wc_15', 0.6900000000000005), ('wc_5', 0.5700000000000004)]",0.8667000000000004,,,32.0,0.004396000000000001,['Fail'],Fail,0.6900000000000005,0.0599999999999995,3.0,4.0,1.0
426.0,5.0,wc_5,,0.0,,,,362.0,,,,Fail,,,,,
426.0,5.0,wc_5,wc_9,1.0,"[('wc_9', 0.3700000000000002), ('wc_5', 0.5700000000000004), ('wc_15', 0.6900000000000005)]",0.9160210000000002,,,28.0,0.042955000000000014,['Fail'],Fail,0.3700000000000002,-0.3700000000000002,0.0,0.0,0.2
450.0,5.0,wc_5,,0.0,,,,402.0,,,,Pass,,,,,
450.0,5.0,wc_5,,0.0,,,53.0,,,,,Pass,,,,,
450.0,5.0,wc_5,,0.0,,,,0.0,,,,Pass,,,,,
450.0,5.0,wc_5,wc_5,0.0,"[('wc_5', 0.5800000000000004)]",0.5800000000000004,,,30.0,0.002024,['Pass'],Pass,0.5800000000000004,0.1699999999999996,3.0,4.0,0.6
450.0,5.0,wc_5,,0.0,,,,162.0,,,,Pass,,,,,
450.0,5.0,wc_5,wc_11,0.0,"[('wc_11', 0.6300000000000004), ('wc_5', 0.5800000000000004)]",0.8446000000000004,,,33.0,0.004324,['Pass'],Pass,0.6300000000000004,-0.35727272727272774,0.0,0.0,0.8
450.0,5.0,wc_5,,0.0,,,,142.0,,,,Pass,,,,,
450.0,5.0,wc_5,wc_16,1.0,"[('wc_16', 0.7400000000000005), ('wc_5', 0.5800000000000004), ('wc_11', 0.6300000000000004)]",0.9595960000000001,,,37.0,0.042650999999999994,['Pass'],Pass,0.7400000000000005,-0.5733333333333339,1.0,6.0,0.8
463.0,6.0,wc_6,,0.0,,,,203.0,,,,Fail,,,,,
463.0,6.0,wc_6,,0.0,,,65.0,,,,,Fail,,,,,
463.0,6.0,wc_6,,0.0,,,,0.0,,,,Fail,,,,,
463.0,6.0,wc_6,wc_6,0.0,"[('wc_6', 0.8200000000000006)]",0.8200000000000006,,,28.0,0.002084,['Fail'],Fail,0.8200000000000006,-0.6381818181818188,0.0,0.0,1.0
463.0,6.0,wc_6,,0.0,,,,0.0,,,,Fail,,,,,
463.0,6.0,wc_6,wc_7,0.0,"[('wc_7', 0.17000000000000004), ('wc_6', 0.8200000000000006)]",0.8506000000000005,,,31.0,0.004418,['Fail'],Fail,0.17000000000000004,-0.07909090909090913,0.0,0.0,0.1
463.0,6.0,wc_6,,0.0,,,,0.0,,,,Fail,,,,,
463.0,6.0,wc_6,wc_8,1.0,"[('wc_8', 0.5000000000000003), ('wc_6', 0.8200000000000006), ('wc_7', 0.17000000000000004)]",0.9253000000000003,,,24.0,0.04279500000000001,['Fail'],Fail,0.5000000000000003,-0.3000000000000003,1.0,5.0,0.6
486.0,6.0,wc_6,,0.0,,,,82.0,,,,Pass,,,,,
486.0,6.0,wc_6,,0.0,,,52.0,,,,,Pass,,,,,
486.0,6.0,wc_6,,0.0,,,,0.0,,,,Pass,,,,,
486.0,6.0,wc_6,wc_6,0.0,"[('wc_6', 0.8300000000000006)]",0.8300000000000006,,,33.0,0.002211,['Pass'],Pass,0.8300000000000006,0.16999999999999937,1.0,1.0,1.0
486.0,6.0,wc_6,,0.0,,,,361.0,,,,Pass,,,,,
486.0,6.0,wc_6,wc_5,0.0,"[('wc_6', 0.8300000000000006)]",0.8300000000000006,,,40.0,0.004293,['Pass'],Pass,0.5900000000000004,0.07666666666666622,4.0,6.0,0.6
486.0,6.0,wc_6,,0.0,,,,61.0,,,,Pass,,,,,
486.0,6.0,wc_6,wc_2,0.0,"[('wc_2', 0.7600000000000006), ('wc_6', 0.8300000000000006)]",0.9592000000000003,,,30.0,0.00774,['Pass'],Pass,0.7600000000000006,-0.5933333333333339,0.0,0.0,0.8
486.0,6.0,wc_6,,0.0,,,,223.0,,,,Pass,,,,,
486.0,6.0,wc_6,wc_11,1.0,"[('wc_11', 0.6400000000000005), ('wc_6', 0.8300000000000006), ('wc_2', 0.7600000000000006)]",0.9853120000000001,,,28.0,0.04676400000000001,['Pass'],Pass,0.6500000000000005,0.016666666666666163,2.0,3.0,0.8
495.0,7.0,wc_7,,0.0,,,,41.0,,,,Fail,,,,,
495.0,7.0,wc_7,,0.0,,,70.0,,,,,Fail,,,,,
495.0,7.0,wc_7,,0.0,,,,0.0,,,,Fail,,,,,
495.0,7.0,wc_7,wc_7,0.0,"[('wc_7', 0.18000000000000005)]",0.18000000000000005,,,39.0,0.002047,['Pass'],Fail,0.18000000000000005,0.31999999999999995,1.0,2.0,0.1
495.0,7.0,wc_7,,0.0,,,,102.0,,,,Fail,,,,,
495.0,7.0,wc_7,wc_6,0.0,"[('wc_6', 0.8400000000000006)]",0.8400000000000006,,,32.0,0.004122,['Fail'],Fail,0.8400000000000006,0.15999999999999936,2.0,2.0,1.0
495.0,7.0,wc_7,,0.0,,,,0.0,,,,Fail,,,,,
495.0,7.0,wc_7,wc_10,0.0,"[('wc_10', 0.7800000000000006), ('wc_6', 0.8400000000000006)]",0.9648000000000002,,,35.0,0.005961999999999999,['Fail'],Fail,0.7800000000000006,-0.5072727272727279,0.0,0.0,1.0
495.0,7.0,wc_7,,0.0,,,,103.0,,,,Fail,,,,,
495.0,7.0,wc_7,wc_9,1.0,"[('wc_9', 0.3700000000000002), ('wc_6', 0.8400000000000006), ('wc_10', 0.7800000000000006)]",0.9778240000000001,,,27.0,0.04399700000000001,['Fail'],Fail,0.3700000000000002,-0.12000000000000022,1.0,4.0,0.2
502.0,11.0,wc_11,,0.0,,,,0.0,,,,Fail,,,,,
502.0,11.0,wc_11,,0.0,,,61.0,,,,,Fail,,,,,
502.0,11.0,wc_11,,0.0,,,,0.0,,,,Fail,,,,,
502.0,11.0,wc_11,wc_11,0.0,"[('wc_11', 0.6500000000000005)]",0.6500000000000005,,,27.0,0.00323,['Fail'],Fail,0.6500000000000005,-0.15000000000000047,2.0,4.0,0.8
502.0,11.0,wc_11,,0.0,,,,142.0,,,,Fail,,,,,
502.0,11.0,wc_11,wc_16,0.0,"[('wc_16', 0.7400000000000005), ('wc_11', 0.6500000000000005)]",0.9090000000000003,,,36.0,0.005601,['Fail'],Fail,0.7400000000000005,-0.6288888888888895,1.0,9.0,0.8
502.0,11.0,wc_11,,0.0,,,,402.0,,,,Fail,,,,,
502.0,11.0,wc_11,wc_4,0.0,"[('wc_11', 0.6500000000000005), ('wc_16', 0.7400000000000005)]",0.9090000000000003,,,30.0,0.006072,['Fail'],Fail,0.3500000000000002,-0.2250000000000002,1.0,8.0,0.2
502.0,11.0,wc_11,,0.0,,,,103.0,,,,Fail,,,,,
502.0,11.0,wc_11,wc_3,1.0,"[('wc_3', 0.5100000000000003), ('wc_11', 0.6500000000000005), ('wc_16', 0.7400000000000005)]",0.9554100000000002,,,24.0,0.04382,['Fail'],Fail,0.5100000000000003,-0.3433333333333337,1.0,6.0,0.5
513.0,9.0,wc_9,,0.0,,,,162.0,,,,Pass,,,,,
513.0,9.0,wc_9,,0.0,,,74.0,,,,,Pass,,,,,
513.0,9.0,wc_9,,0.0,,,,0.0,,,,Pass,,,,,
513.0,9.0,wc_9,wc_9,0.0,"[('wc_9', 0.3700000000000002)]",0.3700000000000002,,,37.0,0.002625,['Pass'],Pass,0.3700000000000002,-0.1700000000000002,1.0,5.0,0.2
513.0,9.0,wc_9,,0.0,,,,182.0,,,,Pass,,,,,
513.0,9.0,wc_9,wc_16,0.0,"[('wc_16', 0.7400000000000005), ('wc_9', 0.3700000000000002)]",0.8362000000000004,,,40.0,0.005242,['Pass'],Pass,0.7400000000000005,-0.7400000000000005,0.0,0.0,0.8
513.0,9.0,wc_9,,0.0,,,,382.0,,,,Pass,,,,,
513.0,9.0,wc_9,wc_3,1.0,"[('wc_3', 0.5100000000000003), ('wc_9', 0.3700000000000002), ('wc_16', 0.7400000000000005)]",0.9197380000000003,,,33.0,0.04613199999999999,['Pass'],Pass,0.5100000000000003,-0.22428571428571464,2.0,7.0,0.5
520.0,11.0,wc_11,,0.0,,,,202.0,,,,Pass,,,,,
520.0,11.0,wc_11,,0.0,,,64.0,,,,,Pass,,,,,
520.0,11.0,wc_11,,0.0,,,,0.0,,,,Pass,,,,,
520.0,11.0,wc_11,wc_11,0.0,"[('wc_11', 0.6500000000000005)]",0.6500000000000005,,,25.0,0.002454,['Pass'],Pass,0.6500000000000005,-0.15000000000000047,3.0,6.0,0.8
520.0,11.0,wc_11,,0.0,,,,223.0,,,,Pass,,,,,
520.0,11.0,wc_11,wc_2,0.0,"[('wc_2', 0.7700000000000006), ('wc_11', 0.6500000000000005)]",0.9195000000000003,,,29.0,0.004424,['Pass'],Pass,0.7700000000000006,-0.5200000000000006,1.0,4.0,0.8
520.0,11.0,wc_11,,0.0,,,,162.0,,,,Pass,,,,,
520.0,11.0,wc_11,wc_8,0.0,"[('wc_11', 0.6500000000000005), ('wc_2', 0.7700000000000006)]",0.9195000000000003,,,35.0,0.007913,['Pass'],Pass,0.5000000000000003,-0.38888888888888923,1.0,9.0,0.6
520.0,11.0,wc_11,,0.0,,,,183.0,,,,Pass,,,,,
520.0,11.0,wc_11,wc_15,1.0,"[('wc_15', 0.7000000000000005), ('wc_11', 0.6500000000000005), ('wc_2', 0.7700000000000006)]",0.9758500000000001,,,21.0,0.044559999999999995,['Pass'],Pass,0.7000000000000005,-0.7000000000000005,0.0,0.0,1.0
531.0,7.0,wc_7,,0.0,,,,243.0,,,,Pass,,,,,
531.0,7.0,wc_7,,0.0,,,68.0,,,,,Pass,,,,,
531.0,7.0,wc_7,,0.0,,,,0.0,,,,Pass,,,,,
531.0,7.0,wc_7,wc_7,0.0,"[('wc_7', 0.18000000000000005)]",0.18000000000000005,,,33.0,0.002144,['Fail'],Pass,0.18000000000000005,-0.013333333333333391,1.0,6.0,0.1
531.0,7.0,wc_7,,0.0,,,,0.0,,,,Pass,,,,,
531.0,7.0,wc_7,wc_10,0.0,"[('wc_10', 0.7900000000000006)]",0.7900000000000006,,,40.0,0.004267,['Pass'],Pass,0.7900000000000006,-0.5400000000000006,1.0,4.0,1.0
531.0,7.0,wc_7,,0.0,,,,223.0,,,,Pass,,,,,
531.0,7.0,wc_7,wc_1,0.0,"[('wc_1', 0.8200000000000006), ('wc_10', 0.7900000000000006)]",0.9622000000000003,,,23.0,0.00583,['Pass'],Pass,0.8200000000000006,-0.6895652173913049,0.0,0.0,1.0
531.0,7.0,wc_7,,0.0,,,,0.0,,,,Pass,,,,,
531.0,7.0,wc_7,wc_5,1.0,"[('wc_5', 0.5800000000000004), ('wc_10', 0.7900000000000006), ('wc_1', 0.8200000000000006)]",0.9841240000000001,,,20.0,0.041872,['Pass'],Pass,0.5800000000000004,-0.5800000000000004,0.0,0.0,0.6
536.0,8.0,wc_8,,0.0,,,,101.0,,,,Fail,,,,,
536.0,8.0,wc_8,,0.0,,,57.0,,,,,Fail,,,,,
536.0,8.0,wc_8,,0.0,,,,0.0,,,,Fail,,,,,
536.0,8.0,wc_8,wc_8,0.0,"[('wc_8', 0.4900000000000003)]",0.4900000000000003,,,38.0,0.002072,['Fail'],Fail,0.4900000000000003,-0.4900000000000003,0.0,1.0,0.6
536.0,8.0,wc_8,,0.0,,,,182.0,,,,Fail,,,,,
536.0,8.0,wc_8,wc_2,0.0,"[('wc_2', 0.7700000000000006), ('wc_8', 0.4900000000000003)]",0.8827000000000004,,,27.0,0.004171,['Fail'],Fail,0.7700000000000006,-0.43666666666666726,2.0,6.0,0.8
536.0,8.0,wc_8,,0.0,,,,223.0,,,,Fail,,,,,
536.0,8.0,wc_8,wc_11,1.0,"[('wc_11', 0.6500000000000005), ('wc_8', 0.4900000000000003), ('wc_2', 0.7700000000000006)]",0.9589450000000002,,,40.0,0.051095,['Fail'],Fail,0.6500000000000005,-0.09444444444444489,5.0,9.0,0.8
545.0,8.0,wc_8,,0.0,,,,61.0,,,,Pass,,,,,
545.0,8.0,wc_8,,0.0,,,68.0,,,,,Pass,,,,,
545.0,8.0,wc_8,,0.0,,,,0.0,,,,Pass,,,,,
545.0,8.0,wc_8,wc_8,0.0,"[('wc_8', 0.4900000000000003)]",0.4900000000000003,,,39.0,0.002631,['Pass'],Pass,0.4900000000000003,0.009999999999999676,1.0,2.0,0.6
545.0,8.0,wc_8,,0.0,,,,0.0,,,,Pass,,,,,
545.0,8.0,wc_8,wc_9,0.0,"[('wc_8', 0.4900000000000003)]",0.4900000000000003,,,25.0,0.004318000000000001,['Pass'],Pass,0.3700000000000002,-0.147777777777778,2.0,9.0,0.2
545.0,8.0,wc_8,,0.0,,,,182.0,,,,Pass,,,,,
545.0,8.0,wc_8,wc_16,0.0,"[('wc_16', 0.7500000000000006), ('wc_8', 0.4900000000000003)]",0.8725000000000004,,,31.0,0.006459999999999999,['Pass'],Pass,0.7500000000000006,-0.5000000000000006,1.0,4.0,0.8
545.0,8.0,wc_8,,0.0,,,,223.0,,,,Pass,,,,,
545.0,8.0,wc_8,wc_7,0.0,"[('wc_7', 0.17000000000000004), ('wc_8', 0.4900000000000003), ('wc_16', 0.7500000000000006)]",0.8941750000000003,,,24.0,0.008069999999999999,['Pass'],Pass,0.17000000000000004,-0.04500000000000004,1.0,8.0,0.1
545.0,8.0,wc_8,,0.0,,,,182.0,,,,Pass,,,,,
545.0,8.0,wc_8,wc_1,1.0,"[('wc_1', 0.8300000000000006), ('wc_8', 0.4900000000000003), ('wc_16', 0.7500000000000006), ('wc_7', 0.17000000000000004)]",0.9820097500000001,,,31.0,0.05082199999999999,['Pass'],Pass,0.8300000000000006,-0.163333333333334,2.0,3.0,1.0
553.0,10.0,wc_10,,0.0,,,,223.0,,,,Fail,,,,,
553.0,10.0,wc_10,,0.0,,,57.0,,,,,Fail,,,,,
553.0,10.0,wc_10,,0.0,,,,0.0,,,,Fail,,,,,
553.0,10.0,wc_10,wc_10,0.0,"[('wc_10', 0.7900000000000006)]",0.7900000000000006,,,24.0,0.002179,['Fail'],Fail,0.7900000000000006,-0.5042857142857149,2.0,7.0,1.0
553.0,10.0,wc_10,,0.0,,,,182.0,,,,Fail,,,,,
553.0,10.0,wc_10,wc_17,0.0,"[('wc_10', 0.7900000000000006)]",0.7900000000000006,,,39.0,0.00415,['Fail'],Fail,0.6000000000000004,-0.547368421052632,0.0,0.0,0.5
553.0,10.0,wc_10,,0.0,,,,223.0,,,,Fail,,,,,
553.0,10.0,wc_10,wc_8,0.0,"[('wc_8', 0.5000000000000003), ('wc_10', 0.7900000000000006)]",0.8950000000000004,,,22.0,0.006557,['Fail'],Fail,0.5000000000000003,0.1666666666666663,2.0,3.0,0.6
553.0,10.0,wc_10,,0.0,,,,301.0,,,,Fail,,,,,
553.0,10.0,wc_10,wc_4,0.0,"[('wc_10', 0.7900000000000006), ('wc_8', 0.5000000000000003)]",0.8950000000000004,,,35.0,0.007758999999999999,['Fail'],Fail,0.3400000000000002,-0.2685714285714288,0.0,0.0,0.2
553.0,10.0,wc_10,,0.0,,,,161.0,,,,Fail,,,,,
553.0,10.0,wc_10,wc_14,1.0,"[('wc_14', 0.21000000000000008), ('wc_10', 0.7900000000000006), ('wc_8', 0.5000000000000003)]",0.9170500000000003,,,28.0,0.049409999999999996,['Fail'],Fail,0.21000000000000008,-0.21000000000000008,0.0,0.0,0.2
559.0,10.0,wc_10,,0.0,,,,301.0,,,,Fail,,,,,
559.0,10.0,wc_10,,0.0,,,56.0,,,,,Fail,,,,,
559.0,10.0,wc_10,,0.0,,,,0.0,,,,Fail,,,,,
559.0,10.0,wc_10,wc_10,0.0,"[('wc_10', 0.7900000000000006)]",0.7900000000000006,,,25.0,0.002592,['Fail'],Fail,0.7900000000000006,-0.4150000000000006,3.0,8.0,1.0
559.0,10.0,wc_10,,0.0,,,,103.0,,,,Fail,,,,,
559.0,10.0,wc_10,wc_9,0.0,"[('wc_10', 0.7900000000000006)]",0.7900000000000006,,,28.0,0.004184,['Fail'],Fail,0.3600000000000002,-0.3600000000000002,0.0,1.0,0.2
559.0,10.0,wc_10,,0.0,,,,382.0,,,,Fail,,,,,
559.0,10.0,wc_10,wc_4,0.0,"[('wc_4', 0.3300000000000002), ('wc_10', 0.7900000000000006)]",0.8593000000000004,,,38.0,0.0067150000000000005,['Fail'],Fail,0.3300000000000002,-0.3300000000000002,0.0,1.0,0.2
559.0,10.0,wc_10,,0.0,,,,202.0,,,,Fail,,,,,
559.0,10.0,wc_10,wc_16,1.0,"[('wc_16', 0.7500000000000006), ('wc_10', 0.7900000000000006), ('wc_4', 0.3300000000000002)]",0.9648250000000002,,,24.0,0.043453,['Fail'],Fail,0.7500000000000006,-0.321428571428572,3.0,7.0,0.8
566.0,10.0,wc_10,,0.0,,,,362.0,,,,Pass,,,,,
566.0,10.0,wc_10,,0.0,,,50.0,,,,,Pass,,,,,
566.0,10.0,wc_10,,0.0,,,,0.0,,,,Pass,,,,,
566.0,10.0,wc_10,wc_10,0.0,"[('wc_10', 0.7900000000000006)]",0.7900000000000006,,,36.0,0.00242,['Pass'],Pass,0.7900000000000006,-0.34555555555555617,4.0,9.0,1.0
566.0,10.0,wc_10,,0.0,,,,61.0,,,,Pass,,,,,
566.0,10.0,wc_10,wc_7,0.0,"[('wc_10', 0.7900000000000006)]",0.7900000000000006,,,21.0,0.004658000000000001,['Pass'],Pass,0.18000000000000005,0.0018181818181817744,0.0,0.0,0.1
566.0,10.0,wc_10,,0.0,,,,142.0,,,,Pass,,,,,
566.0,10.0,wc_10,wc_12,0.0,"[('wc_10', 0.7900000000000006)]",0.7900000000000006,,,31.0,0.006269,['Pass'],Pass,0.5800000000000004,-0.4688888888888893,0.0,0.0,0.5
566.0,10.0,wc_10,,0.0,,,,321.0,,,,Pass,,,,,
566.0,10.0,wc_10,wc_9,0.0,"[('wc_10', 0.7900000000000006)]",0.7900000000000006,,,37.0,0.007693,['Pass'],Pass,0.3500000000000002,-0.3500000000000002,0.0,2.0,0.2
566.0,10.0,wc_10,,0.0,,,,202.0,,,,Pass,,,,,
566.0,10.0,wc_10,wc_17,0.0,"[('wc_17', 0.5900000000000004), ('wc_10', 0.7900000000000006)]",0.9139000000000004,,,26.0,0.010301,['Pass'],Pass,0.5900000000000004,-0.5900000000000004,0.0,2.0,0.5
566.0,10.0,wc_10,,0.0,,,,362.0,,,,Pass,,,,,
566.0,10.0,wc_10,wc_11,1.0,"[('wc_11', 0.6500000000000005), ('wc_7', 0.18000000000000005), ('wc_12', 0.5800000000000004), ('wc_9', 0.3500000000000002)]",0.9216490000000002,,,31.0,0.047121,['Fail'],Pass,0.6500000000000005,-0.6500000000000005,0.0,0.0,0.8
581.0,12.0,wc_12,,0.0,,,,61.0,,,,Fail,,,,,
581.0,12.0,wc_12,,0.0,,,72.0,,,,,Fail,,,,,
581.0,12.0,wc_12,,0.0,,,,0.0,,,,Fail,,,,,
581.0,12.0,wc_12,wc_12,0.0,"[('wc_12', 0.5900000000000004)]",0.5900000000000004,,,36.0,0.002045,['Fail'],Fail,0.5900000000000004,0.4099999999999996,1.0,1.0,0.5
581.0,12.0,wc_12,,0.0,,,,262.0,,,,Fail,,,,,
581.0,12.0,wc_12,wc_2,0.0,"[('wc_2', 0.7700000000000006)]",0.7700000000000006,,,24.0,0.003983,['Pass'],Fail,0.7700000000000006,-0.49727272727272787,0.0,0.0,0.8
581.0,12.0,wc_12,,0.0,,,,223.0,,,,Fail,,,,,
581.0,12.0,wc_12,wc_11,0.0,"[('wc_11', 0.6500000000000005), ('wc_12', 0.5900000000000004)]",0.8565000000000004,,,36.0,0.006938,['Fail'],Fail,0.6500000000000005,-0.6500000000000005,0.0,0.0,0.8
581.0,12.0,wc_12,,0.0,,,,83.0,,,,Fail,,,,,
581.0,12.0,wc_12,wc_9,0.0,"[('wc_12', 0.5900000000000004), ('wc_11', 0.6500000000000005)]",0.8565000000000004,,,31.0,0.0073349999999999995,['Fail'],Fail,0.3500000000000002,-0.016666666666666885,1.0,3.0,0.2
581.0,12.0,wc_12,,0.0,,,,182.0,,,,Fail,,,,,
581.0,12.0,wc_12,wc_16,1.0,"[('wc_16', 0.7500000000000006), ('wc_12', 0.5900000000000004), ('wc_11', 0.6500000000000005)]",0.9641250000000001,,,30.0,0.046643000000000004,['Fail'],Fail,0.7500000000000006,-0.30555555555555614,4.0,9.0,0.8
596.0,12.0,wc_12,,0.0,,,,41.0,,,,Pass,,,,,
596.0,12.0,wc_12,,0.0,,,73.0,,,,,Pass,,,,,
596.0,12.0,wc_12,,0.0,,,,0.0,,,,Pass,,,,,
596.0,12.0,wc_12,wc_12,0.0,"[('wc_12', 0.6000000000000004)]",0.6000000000000004,,,28.0,0.002159,['Pass'],Pass,0.6000000000000004,0.3999999999999996,2.0,2.0,0.5
596.0,12.0,wc_12,,0.0,,,,401.0,,,,Pass,,,,,
596.0,12.0,wc_12,wc_5,0.0,"[('wc_5', 0.5800000000000004), ('wc_12', 0.6000000000000004)]",0.8320000000000003,,,21.0,0.0039310000000000005,['Pass'],Pass,0.5800000000000004,-0.5800000000000004,0.0,6.0,0.6
596.0,12.0,wc_12,,0.0,,,,121.0,,,,Pass,,,,,
596.0,12.0,wc_12,wc_13,0.0,"[('wc_13', 0.3800000000000002), ('wc_12', 0.6000000000000004), ('wc_5', 0.5800000000000004)]",0.8958400000000002,,,22.0,0.00651,['Pass'],Pass,0.3800000000000002,-0.3800000000000002,0.0,0.0,0.3
596.0,12.0,wc_12,,0.0,,,,202.0,,,,Pass,,,,,
596.0,12.0,wc_12,wc_8,1.0,"[('wc_8', 0.5100000000000003), ('wc_12', 0.6000000000000004), ('wc_5', 0.5800000000000004), ('wc_13', 0.3800000000000002)]",0.9489616000000002,,,32.0,0.042866,['Pass'],Pass,0.5100000000000003,-0.010000000000000342,4.0,8.0,0.6
599.0,13.0,wc_13,,0.0,,,,142.0,,,,Fail,,,,,
599.0,13.0,wc_13,,0.0,,,52.0,,,,,Fail,,,,,
599.0,13.0,wc_13,,0.0,,,,0.0,,,,Fail,,,,,
599.0,13.0,wc_13,wc_13,0.0,"[('wc_13', 0.39000000000000024)]",0.39000000000000024,,,31.0,0.002305,['Fail'],Fail,0.39000000000000024,0.6099999999999998,1.0,1.0,0.3
599.0,13.0,wc_13,,0.0,,,,0.0,,,,Fail,,,,,
599.0,13.0,wc_13,wc_17,0.0,"[('wc_17', 0.5800000000000004), ('wc_13', 0.39000000000000024)]",0.7438000000000003,,,34.0,0.004307,['Fail'],Fail,0.5800000000000004,-0.5800000000000004,0.0,5.0,0.5
599.0,13.0,wc_13,,0.0,,,,362.0,,,,Fail,,,,,
599.0,13.0,wc_13,wc_3,0.0,"[('wc_3', 0.5100000000000003), ('wc_13', 0.39000000000000024), ('wc_17', 0.5800000000000004)]",0.8744620000000003,,,21.0,0.005965000000000001,['Fail'],Fail,0.5100000000000003,-0.38500000000000034,0.0,0.0,0.5
599.0,13.0,wc_13,,0.0,,,,0.0,,,,Fail,,,,,
599.0,13.0,wc_13,wc_5,1.0,"[('wc_5', 0.5800000000000004), ('wc_13', 0.39000000000000024), ('wc_17', 0.5800000000000004), ('wc_3', 0.5100000000000003)]",0.9472740400000002,,,20.0,0.044832,['Fail'],Fail,0.5800000000000004,-0.3300000000000004,2.0,8.0,0.6
609.0,13.0,wc_13,,0.0,,,,121.0,,,,Fail,,,,,
609.0,13.0,wc_13,,0.0,,,72.0,,,,,Fail,,,,,
609.0,13.0,wc_13,,0.0,,,,0.0,,,,Fail,,,,,
609.0,13.0,wc_13,wc_13,0.0,"[('wc_13', 0.40000000000000024)]",0.40000000000000024,,,23.0,0.002197,['Pass'],Fail,0.40000000000000024,0.5999999999999998,2.0,2.0,0.3
609.0,13.0,wc_13,,0.0,,,,0.0,,,,Fail,,,,,
609.0,13.0,wc_13,wc_15,0.0,"[('wc_15', 0.7000000000000005)]",0.7000000000000005,,,39.0,0.004195,['Fail'],Fail,0.7000000000000005,-0.7000000000000005,0.0,9.0,1.0
609.0,13.0,wc_13,,0.0,,,,402.0,,,,Fail,,,,,
609.0,13.0,wc_13,wc_11,0.0,"[('wc_11', 0.6600000000000005), ('wc_15', 0.7000000000000005)]",0.8980000000000004,,,22.0,0.00554,['Fail'],Fail,0.6600000000000005,-0.32666666666666716,1.0,3.0,0.8
609.0,13.0,wc_13,,0.0,,,,21.0,,,,Fail,,,,,
609.0,13.0,wc_13,wc_6,1.0,"[('wc_6', 0.8500000000000006), ('wc_15', 0.7000000000000005), ('wc_11', 0.6600000000000005)]",0.9847000000000001,,,25.0,0.042782,['Fail'],Fail,0.8500000000000006,-0.8500000000000006,0.0,0.0,1.0
622.0,13.0,wc_13,,0.0,,,,182.0,,,,Fail,,,,,
622.0,13.0,wc_13,,0.0,,,69.0,,,,,Fail,,,,,
622.0,13.0,wc_13,,0.0,,,,0.0,,,,Fail,,,,,
622.0,13.0,wc_13,wc_13,0.0,"[('wc_13', 0.40000000000000024)]",0.40000000000000024,,,38.0,0.002281,['Fail'],Fail,0.40000000000000024,0.2666666666666664,2.0,3.0,0.3
622.0,13.0,wc_13,,0.0,,,,242.0,,,,Fail,,,,,
622.0,13.0,wc_13,wc_2,0.0,"[('wc_2', 0.7600000000000006), ('wc_13', 0.40000000000000024)]",0.8560000000000004,,,26.0,0.004985,['Fail'],Fail,0.7600000000000006,-0.7600000000000006,0.0,4.0,0.8
622.0,13.0,wc_13,,0.0,,,,0.0,,,,Fail,,,,,
622.0,13.0,wc_13,wc_4,1.0,"[('wc_4', 0.3400000000000002), ('wc_13', 0.40000000000000024), ('wc_2', 0.7600000000000006)]",0.9049600000000003,,,29.0,0.069518,['Fail'],Fail,0.3400000000000002,-0.09000000000000019,2.0,8.0,0.2
626.0,13.0,wc_13,,0.0,,,,141.0,,,,Fail,,,,,
626.0,13.0,wc_13,,0.0,,,72.0,,,,,Fail,,,,,
626.0,13.0,wc_13,,0.0,,,,0.0,,,,Fail,,,,,
626.0,13.0,wc_13,wc_13,0.0,"[('wc_13', 0.41000000000000025)]",0.41000000000000025,,,37.0,0.002305,['Fail'],Fail,0.41000000000000025,0.33999999999999975,3.0,4.0,0.3
626.0,13.0,wc_13,,0.0,,,,361.0,,,,Fail,,,,,
626.0,13.0,wc_13,wc_4,0.0,"[('wc_13', 0.41000000000000025)]",0.41000000000000025,,,36.0,0.004396,['Fail'],Fail,0.3400000000000002,-0.09000000000000019,2.0,8.0,0.2
626.0,13.0,wc_13,,0.0,,,,182.0,,,,Fail,,,,,
626.0,13.0,wc_13,wc_15,0.0,"[('wc_15', 0.7000000000000005), ('wc_13', 0.41000000000000025)]",0.8230000000000004,,,38.0,0.005769,['Fail'],Fail,0.7000000000000005,-0.7000000000000005,0.0,1.0,1.0
626.0,13.0,wc_13,,0.0,,,,0.0,,,,Fail,,,,,
626.0,13.0,wc_13,wc_17,1.0,"[('wc_17', 0.5800000000000004), ('wc_13', 0.41000000000000025), ('wc_15', 0.7000000000000005)]",0.9256600000000003,,,24.0,0.04326900000000001,['Fail'],Fail,0.5800000000000004,-0.3577777777777782,2.0,9.0,0.5
631.0,13.0,wc_13,,0.0,,,,41.0,,,,Fail,,,,,
631.0,13.0,wc_13,,0.0,,,71.0,,,,,Fail,,,,,
631.0,13.0,wc_13,,0.0,,,,0.0,,,,Fail,,,,,
631.0,13.0,wc_13,wc_13,0.0,"[('wc_13', 0.42000000000000026)]",0.42000000000000026,,,36.0,0.002317,['Pass'],Fail,0.42000000000000026,0.3799999999999998,4.0,5.0,0.3
631.0,13.0,wc_13,,0.0,,,,162.0,,,,Fail,,,,,
631.0,13.0,wc_13,wc_6,0.0,"[('wc_6', 0.8500000000000006)]",0.8500000000000006,,,22.0,0.004487,['Fail'],Fail,0.8500000000000006,-0.8500000000000006,0.0,2.0,1.0
631.0,13.0,wc_13,,0.0,,,,341.0,,,,Fail,,,,,
631.0,13.0,wc_13,wc_4,0.0,"[('wc_6', 0.8500000000000006)]",0.8500000000000006,,,31.0,0.006796,['Fail'],Fail,0.3300000000000002,-0.10777777777777797,2.0,9.0,0.2
631.0,13.0,wc_13,,0.0,,,,101.0,,,,Fail,,,,,
631.0,13.0,wc_13,wc_7,0.0,"[('wc_6', 0.8500000000000006)]",0.8500000000000006,,,26.0,0.007833000000000001,['Fail'],Fail,0.19000000000000006,-0.04714285714285721,1.0,7.0,0.1
631.0,13.0,wc_13,,0.0,,,,243.0,,,,Fail,,,,,
631.0,13.0,wc_13,wc_17,0.0,"[('wc_17', 0.5800000000000004), ('wc_13', 0.42000000000000026), ('wc_4', 0.3300000000000002), ('wc_7', 0.19000000000000006)]",0.8677982800000003,,,33.0,0.009153,['Pass'],Fail,0.5800000000000004,-0.3577777777777782,2.0,9.0,0.5
631.0,13.0,wc_13,,0.0,,,,61.0,,,,Fail,,,,,
631.0,13.0,wc_13,wc_14,0.0,"[('wc_14', 0.21000000000000008), ('wc_13', 0.42000000000000026), ('wc_4', 0.3300000000000002), ('wc_7', 0.19000000000000006), ('wc_17', 0.5800000000000004)]",0.8955606412000002,,,20.0,0.011437,['Pass'],Fail,0.21000000000000008,-0.21000000000000008,0.0,8.0,0.2
631.0,13.0,wc_13,,0.0,,,,0.0,,,,Fail,,,,,
631.0,13.0,wc_13,wc_16,0.0,"[('wc_16', 0.7500000000000006), ('wc_6', 0.8500000000000006)]",0.9625000000000002,,,37.0,0.012386,['Fail'],Fail,0.7500000000000006,-0.46428571428571486,0.0,0.0,0.8
631.0,13.0,wc_13,,0.0,,,,41.0,,,,Fail,,,,,
631.0,13.0,wc_13,wc_12,1.0,"[('wc_12', 0.6100000000000004), ('wc_6', 0.8500000000000006), ('wc_16', 0.7500000000000006)]",0.9853750000000001,,,27.0,0.049047,['Fail'],Fail,0.6100000000000004,-0.11000000000000043,4.0,8.0,0.5
635.0,13.0,wc_13,,0.0,,,,0.0,,,,Fail,,,,,
635.0,13.0,wc_13,,0.0,,,78.0,,,,,Fail,,,,,
635.0,13.0,wc_13,,0.0,,,,0.0,,,,Fail,,,,,
635.0,13.0,wc_13,wc_13,0.0,"[('wc_13', 0.42000000000000026)]",0.42000000000000026,,,34.0,0.002786,['Pass'],Fail,0.42000000000000026,0.24666666666666637,4.0,6.0,0.3
635.0,13.0,wc_13,,0.0,,,,381.0,,,,Fail,,,,,
635.0,13.0,wc_13,wc_5,0.0,"[('wc_5', 0.5800000000000004)]",0.5800000000000004,,,40.0,0.005243,['Fail'],Fail,0.5800000000000004,-0.4133333333333338,0.0,0.0,0.6
635.0,13.0,wc_13,,0.0,,,,61.0,,,,Fail,,,,,
635.0,13.0,wc_13,wc_6,0.0,"[('wc_6', 0.8500000000000006), ('wc_5', 0.5800000000000004)]",0.9370000000000003,,,20.0,0.006679,['Fail'],Fail,0.8500000000000006,-0.5166666666666673,1.0,3.0,1.0
635.0,13.0,wc_13,,0.0,,,,223.0,,,,Fail,,,,,
635.0,13.0,wc_13,wc_15,1.0,"[('wc_15', 0.7000000000000005), ('wc_5', 0.5800000000000004), ('wc_6', 0.8500000000000006)]",0.9811000000000001,,,21.0,0.045115999999999996,['Fail'],Fail,0.7000000000000005,-0.2000000000000005,2.0,4.0,1.0
639.0,13.0,wc_13,,0.0,,,,81.0,,,,Pass,,,,,
639.0,13.0,wc_13,,0.0,,,72.0,,,,,Pass,,,,,
639.0,13.0,wc_13,,0.0,,,,0.0,,,,Pass,,,,,
639.0,13.0,wc_13,wc_13,0.0,"[('wc_13', 0.42000000000000026)]",0.42000000000000026,,,26.0,0.002327,['Pass'],Pass,0.42000000000000026,0.15142857142857113,4.0,7.0,0.3
639.0,13.0,wc_13,,0.0,,,,242.0,,,,Pass,,,,,
639.0,13.0,wc_13,wc_2,0.0,"[('wc_2', 0.7600000000000006), ('wc_13', 0.42000000000000026)]",0.8608000000000005,,,33.0,0.005690000000000001,['Pass'],Pass,0.7600000000000006,-0.6350000000000006,1.0,8.0,0.8
639.0,13.0,wc_13,,0.0,,,,142.0,,,,Pass,,,,,
639.0,13.0,wc_13,wc_7,0.0,"[('wc_13', 0.42000000000000026), ('wc_2', 0.7600000000000006)]",0.8608000000000005,,,39.0,0.006019,['Pass'],Pass,0.18000000000000005,-0.06888888888888894,1.0,9.0,0.1
639.0,13.0,wc_13,,0.0,,,,301.0,,,,Pass,,,,,
639.0,13.0,wc_13,wc_3,1.0,"[('wc_3', 0.5200000000000004), ('wc_13', 0.42000000000000026), ('wc_2', 0.7600000000000006)]",0.9331840000000002,,,22.0,0.045807,['Pass'],Pass,0.5200000000000004,-0.23428571428571465,2.0,7.0,0.5
642.0,14.0,wc_14,,0.0,,,,181.0,,,,Pass,,,,,
642.0,14.0,wc_14,,0.0,,,72.0,,,,,Pass,,,,,
642.0,14.0,wc_14,,0.0,,,,0.0,,,,Pass,,,,,
642.0,14.0,wc_14,wc_14,0.0,"[('wc_14', 0.20000000000000007)]",0.20000000000000007,,,28.0,0.002543,['Pass'],Pass,0.20000000000000007,-0.20000000000000007,0.0,0.0,0.2
642.0,14.0,wc_14,,0.0,,,,0.0,,,,Pass,,,,,
642.0,14.0,wc_14,wc_17,0.0,"[('wc_17', 0.5700000000000004), ('wc_14', 0.20000000000000007)]",0.6560000000000004,,,21.0,0.003995,['Pass'],Pass,0.5700000000000004,-0.5700000000000004,0.0,2.0,0.5
642.0,14.0,wc_14,,0.0,,,,183.0,,,,Pass,,,,,
642.0,14.0,wc_14,wc_6,1.0,"[('wc_6', 0.8500000000000006), ('wc_14', 0.20000000000000007), ('wc_17', 0.5700000000000004)]",0.9484000000000002,,,22.0,0.04413399999999999,['Pass'],Pass,0.8500000000000006,-0.35000000000000064,3.0,6.0,1.0
644.0,16.0,wc_16,,0.0,,,,243.0,,,,Fail,,,,,
644.0,16.0,wc_16,,0.0,,,52.0,,,,,Fail,,,,,
644.0,16.0,wc_16,,0.0,,,,0.0,,,,Fail,,,,,
644.0,16.0,wc_16,wc_16,0.0,"[('wc_16', 0.7600000000000006)]",0.7600000000000006,,,39.0,0.002299,['Fail'],Fail,0.7600000000000006,-0.5100000000000006,1.0,4.0,0.8
644.0,16.0,wc_16,,0.0,,,,382.0,,,,Fail,,,,,
644.0,16.0,wc_16,wc_11,0.0,"[('wc_11', 0.6600000000000005), ('wc_16', 0.7600000000000006)]",0.9184000000000003,,,28.0,0.004428,['Fail'],Fail,0.6600000000000005,-0.46000000000000046,0.0,0.0,0.8
644.0,16.0,wc_16,,0.0,,,,41.0,,,,Fail,,,,,
644.0,16.0,wc_16,wc_7,0.0,"[('wc_16', 0.7600000000000006), ('wc_11', 0.6600000000000005)]",0.9184000000000003,,,38.0,0.005783,['Fail'],Fail,0.17000000000000004,-0.17000000000000004,0.0,1.0,0.1
644.0,16.0,wc_16,,0.0,,,,203.0,,,,Fail,,,,,
644.0,16.0,wc_16,wc_15,1.0,"[('wc_15', 0.7000000000000005), ('wc_16', 0.7600000000000006), ('wc_11', 0.6600000000000005)]",0.9755200000000002,,,23.0,0.04316299999999999,['Fail'],Fail,0.7000000000000005,-0.27142857142857196,3.0,7.0,1.0
646.0,16.0,wc_16,,0.0,,,,0.0,,,,Fail,,,,,
646.0,16.0,wc_16,,0.0,,,73.0,,,,,Fail,,,,,
646.0,16.0,wc_16,,0.0,,,,0.0,,,,Fail,,,,,
646.0,16.0,wc_16,wc_16,0.0,"[('wc_16', 0.7600000000000006)]",0.7600000000000006,,,35.0,0.00321,['Fail'],Fail,0.7600000000000006,-0.36000000000000054,2.0,5.0,0.8
646.0,16.0,wc_16,,0.0,,,,61.0,,,,Fail,,,,,
646.0,16.0,wc_16,wc_13,0.0,"[('wc_13', 0.43000000000000027), ('wc_16', 0.7600000000000006)]",0.8632000000000004,,,32.0,0.005011,['Fail'],Fail,0.43000000000000027,0.06999999999999973,0.0,0.0,0.3
646.0,16.0,wc_16,,0.0,,,,0.0,,,,Fail,,,,,
646.0,16.0,wc_16,wc_15,1.0,"[('wc_15', 0.7000000000000005), ('wc_16', 0.7600000000000006), ('wc_13', 0.43000000000000027)]",0.9589600000000001,,,35.0,0.042037,['Fail'],Fail,0.7000000000000005,-0.2000000000000005,4.0,8.0,1.0
647.0,16.0,wc_16,,0.0,,,,0.0,,,,Fail,,,,,
647.0,16.0,wc_16,,0.0,,,54.0,,,,,Fail,,,,,
647.0,16.0,wc_16,,0.0,,,,0.0,,,,Fail,,,,,
647.0,16.0,wc_16,wc_16,0.0,"[('wc_16', 0.7600000000000006)]",0.7600000000000006,,,20.0,0.002605,['Fail'],Fail,0.7600000000000006,-0.26000000000000056,3.0,6.0,0.8
647.0,16.0,wc_16,,0.0,,,,382.0,,,,Fail,,,,,
647.0,16.0,wc_16,wc_11,0.0,"[('wc_11', 0.6700000000000005), ('wc_16', 0.7600000000000006)]",0.9208000000000003,,,24.0,0.005667999999999999,['Fail'],Fail,0.6700000000000005,-0.17000000000000048,1.0,2.0,0.8
647.0,16.0,wc_16,,0.0,,,,162.0,,,,Fail,,,,,
647.0,16.0,wc_16,wc_17,1.0,"[('wc_17', 0.5700000000000004), ('wc_16', 0.7600000000000006), ('wc_11', 0.6700000000000005)]",0.9659440000000001,,,32.0,0.041179,['Fail'],Fail,0.5700000000000004,-0.23666666666666708,2.0,6.0,0.5
650.0,16.0,wc_16,,0.0,,,,103.0,,,,Fail,,,,,
650.0,16.0,wc_16,,0.0,,,72.0,,,,,Fail,,,,,
650.0,16.0,wc_16,,0.0,,,,0.0,,,,Fail,,,,,
650.0,16.0,wc_16,wc_16,0.0,"[('wc_16', 0.7600000000000006)]",0.7600000000000006,,,22.0,0.003821,['Fail'],Fail,0.7600000000000006,-0.18857142857142917,4.0,7.0,0.8
650.0,16.0,wc_16,,0.0,,,,263.0,,,,Fail,,,,,
650.0,16.0,wc_16,wc_1,0.0,"[('wc_1', 0.8300000000000006), ('wc_16', 0.7600000000000006)]",0.9592000000000003,,,28.0,0.004365,['Fail'],Fail,0.8300000000000006,-0.7247368421052638,0.0,0.0,1.0
650.0,16.0,wc_16,,0.0,,,,0.0,,,,Fail,,,,,
650.0,16.0,wc_16,wc_4,0.0,"[('wc_16', 0.7600000000000006), ('wc_1', 0.8300000000000006)]",0.9592000000000003,,,28.0,0.005828,['Fail'],Fail,0.3200000000000002,-0.3200000000000002,0.0,6.0,0.2
650.0,16.0,wc_16,,0.0,,,,141.0,,,,Fail,,,,,
650.0,16.0,wc_16,wc_13,0.0,"[('wc_16', 0.7600000000000006), ('wc_1', 0.8300000000000006)]",0.9592000000000003,,,27.0,0.008012,['Fail'],Fail,0.4400000000000003,0.05999999999999972,1.0,2.0,0.3
650.0,16.0,wc_16,,0.0,,,,321.0,,,,Fail,,,,,
650.0,16.0,wc_16,wc_10,1.0,"[('wc_10', 0.7800000000000006), ('wc_16', 0.7600000000000006), ('wc_1', 0.8300000000000006)]",0.9910240000000001,,,20.0,0.047487,['Fail'],Fail,0.7800000000000006,-0.7800000000000006,0.0,0.0,1.0
652.0,15.0,wc_15,,0.0,,,,142.0,,,,Pass,,,,,
652.0,15.0,wc_15,,0.0,,,71.0,,,,,Pass,,,,,
652.0,15.0,wc_15,,0.0,,,,0.0,,,,Pass,,,,,
652.0,15.0,wc_15,wc_15,0.0,"[('wc_15', 0.7000000000000005)]",0.7000000000000005,,,38.0,0.002347,['Fail'],Pass,0.7000000000000005,-0.3000000000000005,0.0,0.0,1.0
652.0,15.0,wc_15,,0.0,,,,0.0,,,,Pass,,,,,
652.0,15.0,wc_15,wc_16,0.0,"[('wc_16', 0.7600000000000006)]",0.7600000000000006,,,29.0,0.0044729999999999995,['Pass'],Pass,0.7600000000000006,-0.13500000000000056,5.0,8.0,0.8
652.0,15.0,wc_15,,0.0,,,,342.0,,,,Pass,,,,,
652.0,15.0,wc_15,wc_9,0.0,"[('wc_9', 0.3400000000000002), ('wc_16', 0.7600000000000006)]",0.8416000000000005,,,27.0,0.0062629999999999995,['Pass'],Pass,0.3400000000000002,-0.28117647058823547,0.0,0.0,0.2
652.0,15.0,wc_15,,0.0,,,,101.0,,,,Pass,,,,,
652.0,15.0,wc_15,wc_12,0.0,"[('wc_12', 0.6100000000000004), ('wc_15', 0.7000000000000005)]",0.8830000000000003,,,37.0,0.0072180000000000005,['Fail'],Pass,0.6100000000000004,-0.34333333333333377,0.0,0.0,0.5
652.0,15.0,wc_15,,0.0,,,,401.0,,,,Pass,,,,,
652.0,15.0,wc_15,wc_5,1.0,"[('wc_5', 0.5900000000000004), ('wc_15', 0.7000000000000005), ('wc_12', 0.6100000000000004)]",0.9520300000000002,,,25.0,0.04702300000000001,['Fail'],Pass,0.5900000000000004,-0.3400000000000004,2.0,8.0,0.6
653.0,16.0,wc_16,,0.0,,,,182.0,,,,Pass,,,,,
653.0,16.0,wc_16,,0.0,,,61.0,,,,,Pass,,,,,
653.0,16.0,wc_16,,0.0,,,,0.0,,,,Pass,,,,,
653.0,16.0,wc_16,wc_16,0.0,"[('wc_16', 0.7500000000000006)]",0.7500000000000006,,,32.0,0.002606,['Fail'],Pass,0.7500000000000006,-0.19444444444444497,5.0,9.0,0.8
653.0,16.0,wc_16,,0.0,,,,402.0,,,,Pass,,,,,
653.0,16.0,wc_16,wc_4,0.0,"[('wc_16', 0.7500000000000006)]",0.7500000000000006,,,34.0,0.004869,['Fail'],Pass,0.31000000000000016,-0.31000000000000016,0.0,8.0,0.2
653.0,16.0,wc_16,,0.0,,,,81.0,,,,Pass,,,,,
653.0,16.0,wc_16,wc_2,0.0,"[('wc_2', 0.7600000000000006), ('wc_16', 0.7500000000000006)]",0.9400000000000003,,,27.0,0.0075439999999999995,['Fail'],Pass,0.7600000000000006,-0.6266666666666673,0.0,0.0,0.8
653.0,16.0,wc_16,,0.0,,,,203.0,,,,Pass,,,,,
653.0,16.0,wc_16,wc_10,0.0,"[('wc_16', 0.7500000000000006), ('wc_2', 0.7600000000000006)]",0.9400000000000003,,,22.0,0.007705999999999999,['Fail'],Pass,0.7800000000000006,-0.7800000000000006,0.0,1.0,1.0
653.0,16.0,wc_16,,0.0,,,,142.0,,,,Pass,,,,,
653.0,16.0,wc_16,wc_15,1.0,"[('wc_15', 0.7100000000000005), ('wc_16', 0.7500000000000006), ('wc_2', 0.7600000000000006)]",0.9826000000000001,,,25.0,0.050578000000000005,['Fail'],Pass,0.7200000000000005,0.27999999999999947,2.0,2.0,1.0
654.0,17.0,wc_17,,0.0,,,,0.0,,,,Pass,,,,,
654.0,17.0,wc_17,,0.0,,,66.0,,,,,Pass,,,,,
654.0,17.0,wc_17,,0.0,,,,0.0,,,,Pass,,,,,
654.0,17.0,wc_17,wc_17,0.0,"[('wc_17', 0.5700000000000004)]",0.5700000000000004,,,38.0,0.002778,['Pass'],Pass,0.5700000000000004,-0.3477777777777782,2.0,9.0,0.5
654.0,17.0,wc_17,,0.0,,,,263.0,,,,Pass,,,,,
654.0,17.0,wc_17,wc_2,0.0,"[('wc_2', 0.7700000000000006), ('wc_17', 0.5700000000000004)]",0.9011000000000003,,,23.0,0.006376,['Pass'],Pass,0.7700000000000006,0.22999999999999943,1.0,1.0,0.8
654.0,17.0,wc_17,,0.0,,,,0.0,,,,Pass,,,,,
654.0,17.0,wc_17,wc_3,1.0,"[('wc_3', 0.5200000000000004), ('wc_17', 0.5700000000000004), ('wc_2', 0.7700000000000006)]",0.9525280000000002,,,31.0,0.04841900000000001,['Pass'],Pass,0.5200000000000004,-0.5200000000000004,0.0,0.0,0.5
