mpecck/BCQC/bcqc_with_qdt/results/raw/input_15/independent_qc/training/20_workpiece/20200429_095210/wp_7_qc_majority_0.9.csv
production_index,step_idx,production_workcell,qc,consent,winner_qc_list,score,production_time,transport_time,inspection_time,network_time,qc_results,actual_quality,qc_score,score_error,in_winner_counter,in_qc_counter,qc_capability
15.0,1.0,wc_1,,0.0,,,68.0,,,,,Pass,,,,,
15.0,1.0,wc_1,,0.0,,,,0.0,,,,Pass,,,,,
15.0,1.0,wc_1,wc_1,0.0,"[('wc_1', 0.7200000000000005)]",0.7200000000000005,,,32.0,0.002291,['Pass'],Pass,0.7200000000000005,-0.5200000000000005,0.0,0.0,1.0
15.0,1.0,wc_1,,0.0,,,,243.0,,,,Pass,,,,,
15.0,1.0,wc_1,wc_15,0.0,"[('wc_15', 0.5800000000000004), ('wc_1', 0.7200000000000005)]",0.8824000000000003,,,33.0,0.003836,['Pass'],Pass,0.5800000000000004,0.019999999999999574,3.0,5.0,1.0
15.0,1.0,wc_1,,0.0,,,,81.0,,,,Pass,,,,,
15.0,1.0,wc_1,wc_13,0.0,"[('wc_1', 0.7200000000000005), ('wc_15', 0.5800000000000004)]",0.8824000000000003,,,37.0,0.006888,['Pass'],Pass,0.3600000000000002,0.6399999999999998,1.0,1.0,0.3
15.0,1.0,wc_1,,0.0,,,,102.0,,,,Pass,,,,,
15.0,1.0,wc_1,wc_12,0.0,"[('wc_1', 0.7200000000000005), ('wc_15', 0.5800000000000004)]",0.8824000000000003,,,23.0,0.008751,['Pass'],Pass,0.5300000000000004,-0.33000000000000035,1.0,5.0,0.5
15.0,1.0,wc_1,,0.0,,,,202.0,,,,Pass,,,,,
15.0,1.0,wc_1,wc_7,1.0,"[('wc_7', 0.18000000000000005), ('wc_1', 0.7200000000000005), ('wc_15', 0.5800000000000004)]",0.9035680000000003,,,28.0,0.044050000000000006,['Pass'],Pass,0.19000000000000006,0.20999999999999996,2.0,5.0,0.1
21.0,3.0,wc_3,,0.0,,,,301.0,,,,Fail,,,,,
21.0,3.0,wc_3,,0.0,,,60.0,,,,,Fail,,,,,
21.0,3.0,wc_3,,0.0,,,,0.0,,,,Fail,,,,,
21.0,3.0,wc_3,wc_3,0.0,"[('wc_3', 0.43000000000000027)]",0.43000000000000027,,,28.0,0.002581,['Fail'],Fail,0.43000000000000027,-0.23000000000000026,1.0,5.0,0.5
21.0,3.0,wc_3,,0.0,,,,101.0,,,,Fail,,,,,
21.0,3.0,wc_3,wc_6,0.0,"[('wc_6', 0.7400000000000005), ('wc_3', 0.43000000000000027)]",0.8518000000000003,,,32.0,0.0039369999999999995,['Fail'],Fail,0.7400000000000005,-0.36500000000000055,3.0,8.0,1.0
21.0,3.0,wc_3,,0.0,,,,263.0,,,,Fail,,,,,
21.0,3.0,wc_3,wc_17,1.0,"[('wc_17', 0.43000000000000027), ('wc_3', 0.43000000000000027), ('wc_6', 0.7400000000000005)]",0.9155260000000003,,,32.0,0.038765999999999995,['Fail'],Fail,0.4400000000000003,0.1599999999999997,3.0,5.0,0.5
27.0,2.0,wc_2,,0.0,,,,263.0,,,,Fail,,,,,
27.0,2.0,wc_2,,0.0,,,55.0,,,,,Fail,,,,,
27.0,2.0,wc_2,,0.0,,,,0.0,,,,Fail,,,,,
27.0,2.0,wc_2,wc_2,0.0,"[('wc_2', 0.6800000000000005)]",0.6800000000000005,,,30.0,0.003285,['Pass'],Fail,0.6800000000000005,-0.6800000000000005,0.0,7.0,0.8
27.0,2.0,wc_2,,0.0,,,,0.0,,,,Fail,,,,,
27.0,2.0,wc_2,wc_3,0.0,"[('wc_3', 0.43000000000000027), ('wc_2', 0.6800000000000005)]",0.8176000000000003,,,37.0,0.004093,['Pass'],Fail,0.43000000000000027,-0.09666666666666696,2.0,6.0,0.5
27.0,2.0,wc_2,,0.0,,,,202.0,,,,Fail,,,,,
27.0,2.0,wc_2,wc_11,0.0,"[('wc_2', 0.6800000000000005), ('wc_3', 0.43000000000000027)]",0.8176000000000003,,,39.0,0.006135,['Pass'],Fail,0.5200000000000004,-0.4200000000000004,0.0,0.0,0.8
27.0,2.0,wc_2,,0.0,,,,61.0,,,,Fail,,,,,
27.0,2.0,wc_2,wc_12,0.0,"[('wc_2', 0.6800000000000005), ('wc_3', 0.43000000000000027)]",0.8176000000000003,,,37.0,0.007774,['Pass'],Fail,0.5200000000000004,-0.3771428571428575,1.0,7.0,0.5
27.0,2.0,wc_2,,0.0,,,,0.0,,,,Fail,,,,,
27.0,2.0,wc_2,wc_16,1.0,"[('wc_16', 0.6600000000000005), ('wc_2', 0.6800000000000005), ('wc_3', 0.43000000000000027)]",0.9379840000000003,,,35.0,0.039470000000000005,['Pass'],Fail,0.6600000000000005,-0.6600000000000005,0.0,0.0,0.8
35.0,3.0,wc_3,,0.0,,,,382.0,,,,Fail,,,,,
35.0,3.0,wc_3,,0.0,,,70.0,,,,,Fail,,,,,
35.0,3.0,wc_3,,0.0,,,,0.0,,,,Fail,,,,,
35.0,3.0,wc_3,wc_3,0.0,"[('wc_3', 0.43000000000000027)]",0.43000000000000027,,,20.0,0.002448,['Pass'],Fail,0.43000000000000027,-0.0014285714285717233,3.0,7.0,0.5
35.0,3.0,wc_3,,0.0,,,,0.0,,,,Fail,,,,,
35.0,3.0,wc_3,wc_4,0.0,"[('wc_4', 0.2600000000000001), ('wc_3', 0.43000000000000027)]",0.5782000000000003,,,27.0,0.004241,['Pass'],Fail,0.2600000000000001,-0.14888888888888901,1.0,9.0,0.2
35.0,3.0,wc_3,,0.0,,,,222.0,,,,Fail,,,,,
35.0,3.0,wc_3,wc_17,0.0,"[('wc_3', 0.43000000000000027), ('wc_4', 0.2600000000000001)]",0.5782000000000003,,,39.0,0.007089,['Pass'],Fail,0.4400000000000003,0.05999999999999972,3.0,6.0,0.5
35.0,3.0,wc_3,,0.0,,,,263.0,,,,Fail,,,,,
35.0,3.0,wc_3,wc_2,0.0,"[('wc_2', 0.6800000000000005), ('wc_17', 0.4400000000000003)]",0.8208000000000004,,,29.0,0.008062,['Fail'],Fail,0.6800000000000005,-0.5550000000000005,1.0,8.0,0.8
35.0,3.0,wc_3,,0.0,,,,202.0,,,,Fail,,,,,
35.0,3.0,wc_3,wc_14,0.0,"[('wc_17', 0.4400000000000003), ('wc_2', 0.6800000000000005)]",0.8208000000000004,,,23.0,0.009996000000000001,['Fail'],Fail,0.22000000000000008,-0.020000000000000073,1.0,5.0,0.2
35.0,3.0,wc_3,,0.0,,,,321.0,,,,Fail,,,,,
35.0,3.0,wc_3,wc_11,1.0,"[('wc_11', 0.5100000000000003), ('wc_17', 0.4400000000000003), ('wc_2', 0.6800000000000005)]",0.9121920000000002,,,32.0,0.044781,['Fail'],Fail,0.5100000000000003,-0.010000000000000342,1.0,2.0,0.8
41.0,3.0,wc_3,,0.0,,,,322.0,,,,Fail,,,,,
41.0,3.0,wc_3,,0.0,,,67.0,,,,,Fail,,,,,
41.0,3.0,wc_3,,0.0,,,,0.0,,,,Fail,,,,,
41.0,3.0,wc_3,wc_3,0.0,"[('wc_3', 0.42000000000000026)]",0.42000000000000026,,,24.0,0.002025,['Fail'],Fail,0.42000000000000026,-0.04500000000000026,3.0,8.0,0.5
41.0,3.0,wc_3,,0.0,,,,101.0,,,,Fail,,,,,
41.0,3.0,wc_3,wc_6,0.0,"[('wc_6', 0.7400000000000005), ('wc_3', 0.42000000000000026)]",0.8492000000000004,,,34.0,0.004528,['Fail'],Fail,0.7400000000000005,-0.3763636363636369,0.0,0.0,1.0
41.0,3.0,wc_3,,0.0,,,,0.0,,,,Fail,,,,,
41.0,3.0,wc_3,wc_9,1.0,"[('wc_9', 0.3400000000000002), ('wc_3', 0.42000000000000026), ('wc_6', 0.7400000000000005)]",0.9004720000000003,,,27.0,0.043299,['Fail'],Fail,0.3400000000000002,-0.3400000000000002,0.0,0.0,0.2
46.0,2.0,wc_2,,0.0,,,,263.0,,,,Fail,,,,,
46.0,2.0,wc_2,,0.0,,,64.0,,,,,Fail,,,,,
46.0,2.0,wc_2,,0.0,,,,0.0,,,,Fail,,,,,
46.0,2.0,wc_2,wc_2,0.0,"[('wc_2', 0.6800000000000005)]",0.6800000000000005,,,29.0,0.002464,['Fail'],Fail,0.6800000000000005,-0.4800000000000005,0.0,0.0,0.8
46.0,2.0,wc_2,,0.0,,,,0.0,,,,Fail,,,,,
46.0,2.0,wc_2,wc_3,0.0,"[('wc_3', 0.43000000000000027), ('wc_2', 0.6800000000000005)]",0.8176000000000003,,,28.0,0.0038929999999999998,['Fail'],Fail,0.43000000000000027,0.014444444444444149,4.0,9.0,0.5
46.0,2.0,wc_2,,0.0,,,,121.0,,,,Fail,,,,,
46.0,2.0,wc_2,wc_7,0.0,"[('wc_2', 0.6800000000000005), ('wc_3', 0.43000000000000027)]",0.8176000000000003,,,21.0,0.006248,['Fail'],Fail,0.19000000000000006,0.03222222222222215,2.0,9.0,0.1
46.0,2.0,wc_2,,0.0,,,,0.0,,,,Fail,,,,,
46.0,2.0,wc_2,wc_9,0.0,"[('wc_2', 0.6800000000000005), ('wc_3', 0.43000000000000027)]",0.8176000000000003,,,33.0,0.007357000000000001,['Fail'],Fail,0.3400000000000002,-0.3400000000000002,0.0,0.0,0.2
46.0,2.0,wc_2,,0.0,,,,101.0,,,,Fail,,,,,
46.0,2.0,wc_2,wc_12,1.0,"[('wc_12', 0.5100000000000003), ('wc_2', 0.6800000000000005), ('wc_3', 0.43000000000000027)]",0.9106240000000002,,,37.0,0.046602000000000005,['Fail'],Fail,0.5100000000000003,-0.5100000000000003,0.0,0.0,0.5
55.0,4.0,wc_4,,0.0,,,,381.0,,,,Fail,,,,,
55.0,4.0,wc_4,,0.0,,,73.0,,,,,Fail,,,,,
55.0,4.0,wc_4,,0.0,,,,0.0,,,,Fail,,,,,
55.0,4.0,wc_4,wc_4,0.0,"[('wc_4', 0.2500000000000001)]",0.2500000000000001,,,28.0,0.002275,['Fail'],Fail,0.2500000000000001,-0.2500000000000001,0.0,2.0,0.2
55.0,4.0,wc_4,,0.0,,,,222.0,,,,Fail,,,,,
55.0,4.0,wc_4,wc_17,0.0,"[('wc_17', 0.4500000000000003), ('wc_4', 0.2500000000000001)]",0.5875000000000004,,,33.0,0.004039,['Fail'],Fail,0.4500000000000003,-0.005555555555555869,4.0,9.0,0.5
55.0,4.0,wc_4,,0.0,,,,362.0,,,,Fail,,,,,
55.0,4.0,wc_4,wc_3,0.0,"[('wc_3', 0.4400000000000003), ('wc_4', 0.2500000000000001), ('wc_17', 0.4500000000000003)]",0.7690000000000003,,,20.0,0.008473,['Fail'],Fail,0.4400000000000003,-0.4400000000000003,0.0,0.0,0.5
55.0,4.0,wc_4,,0.0,,,,0.0,,,,Fail,,,,,
55.0,4.0,wc_4,wc_5,0.0,"[('wc_5', 0.5100000000000003), ('wc_4', 0.2500000000000001), ('wc_17', 0.4500000000000003), ('wc_3', 0.4400000000000003)]",0.8868100000000002,,,20.0,0.009174,['Fail'],Fail,0.5100000000000003,-0.4573684210526319,0.0,0.0,0.6
55.0,4.0,wc_4,,0.0,,,,61.0,,,,Fail,,,,,
55.0,4.0,wc_4,wc_2,1.0,"[('wc_2', 0.6900000000000005), ('wc_4', 0.2500000000000001), ('wc_17', 0.4500000000000003), ('wc_3', 0.4400000000000003), ('wc_5', 0.5100000000000003)]",0.9649111000000001,,,37.0,0.045185,['Fail'],Fail,0.7000000000000005,0.2999999999999995,2.0,2.0,0.8
68.0,3.0,wc_3,,0.0,,,,0.0,,,,Fail,,,,,
68.0,3.0,wc_3,,0.0,,,71.0,,,,,Fail,,,,,
68.0,3.0,wc_3,,0.0,,,,0.0,,,,Fail,,,,,
68.0,3.0,wc_3,wc_3,0.0,"[('wc_3', 0.4500000000000003)]",0.4500000000000003,,,28.0,0.002665,['Pass'],Fail,0.4500000000000003,0.5499999999999997,1.0,1.0,0.5
68.0,3.0,wc_3,,0.0,,,,181.0,,,,Fail,,,,,
68.0,3.0,wc_3,wc_14,0.0,"[('wc_14', 0.21000000000000008), ('wc_3', 0.4500000000000003)]",0.5655000000000003,,,24.0,0.00527,['Pass'],Fail,0.21000000000000008,-0.09888888888888897,1.0,9.0,0.2
68.0,3.0,wc_3,,0.0,,,,0.0,,,,Fail,,,,,
68.0,3.0,wc_3,wc_16,0.0,"[('wc_16', 0.6600000000000005)]",0.6600000000000005,,,33.0,0.006734,['Fail'],Fail,0.6600000000000005,-0.6600000000000005,0.0,4.0,0.8
68.0,3.0,wc_3,,0.0,,,,41.0,,,,Fail,,,,,
68.0,3.0,wc_3,wc_12,0.0,"[('wc_12', 0.5100000000000003), ('wc_16', 0.6600000000000005)]",0.8334000000000004,,,22.0,0.008275,['Fail'],Fail,0.5100000000000003,-0.5100000000000003,0.0,1.0,0.5
68.0,3.0,wc_3,,0.0,,,,401.0,,,,Fail,,,,,
68.0,3.0,wc_3,wc_5,1.0,"[('wc_5', 0.5200000000000004), ('wc_16', 0.6600000000000005), ('wc_12', 0.5100000000000003)]",0.9200320000000002,,,26.0,0.03995,['Fail'],Fail,0.5300000000000004,0.46999999999999964,2.0,2.0,0.6
79.0,4.0,wc_4,,0.0,,,,103.0,,,,Pass,,,,,
79.0,4.0,wc_4,,0.0,,,73.0,,,,,Pass,,,,,
79.0,4.0,wc_4,,0.0,,,,0.0,,,,Pass,,,,,
79.0,4.0,wc_4,wc_4,0.0,"[('wc_4', 0.2600000000000001)]",0.2600000000000001,,,32.0,0.00254,['Pass'],Pass,0.2600000000000001,-0.01000000000000012,1.0,4.0,0.2
79.0,4.0,wc_4,,0.0,,,,121.0,,,,Pass,,,,,
79.0,4.0,wc_4,wc_12,0.0,"[('wc_12', 0.5100000000000003), ('wc_4', 0.2600000000000001)]",0.6374000000000003,,,35.0,0.005131,['Pass'],Pass,0.5100000000000003,-0.010000000000000342,1.0,2.0,0.5
79.0,4.0,wc_4,,0.0,,,,321.0,,,,Pass,,,,,
79.0,4.0,wc_4,wc_9,0.0,"[('wc_4', 0.2600000000000001), ('wc_12', 0.5100000000000003)]",0.6374000000000003,,,25.0,0.008292,['Pass'],Pass,0.3300000000000002,-0.3300000000000002,0.0,3.0,0.2
79.0,4.0,wc_4,,0.0,,,,402.0,,,,Pass,,,,,
79.0,4.0,wc_4,wc_5,0.0,"[('wc_5', 0.5300000000000004), ('wc_4', 0.2600000000000001), ('wc_12', 0.5100000000000003)]",0.8295780000000003,,,31.0,0.009631,['Pass'],Pass,0.5300000000000004,0.46999999999999964,2.0,2.0,0.6
79.0,4.0,wc_4,,0.0,,,,101.0,,,,Pass,,,,,
79.0,4.0,wc_4,wc_8,0.0,"[('wc_8', 0.3800000000000002), ('wc_4', 0.2600000000000001), ('wc_12', 0.5100000000000003), ('wc_5', 0.5300000000000004)]",0.8943383600000002,,,20.0,0.010231999999999998,['Pass'],Pass,0.3800000000000002,-0.2890909090909093,0.0,0.0,0.6
79.0,4.0,wc_4,,0.0,,,,82.0,,,,Pass,,,,,
79.0,4.0,wc_4,wc_6,1.0,"[('wc_6', 0.7500000000000006), ('wc_4', 0.2600000000000001), ('wc_12', 0.5100000000000003), ('wc_5', 0.5300000000000004), ('wc_8', 0.3800000000000002)]",0.9735845900000001,,,27.0,0.048796,['Pass'],Pass,0.7500000000000006,-0.35000000000000053,2.0,5.0,1.0
90.0,2.0,wc_2,,0.0,,,,222.0,,,,Pass,,,,,
90.0,2.0,wc_2,,0.0,,,75.0,,,,,Pass,,,,,
90.0,2.0,wc_2,,0.0,,,,0.0,,,,Pass,,,,,
90.0,2.0,wc_2,wc_2,0.0,"[('wc_2', 0.7000000000000005)]",0.7000000000000005,,,35.0,0.004046,['Pass'],Pass,0.7000000000000005,-0.2000000000000005,2.0,4.0,0.8
90.0,2.0,wc_2,,0.0,,,,0.0,,,,Pass,,,,,
90.0,2.0,wc_2,wc_4,0.0,"[('wc_4', 0.27000000000000013), ('wc_2', 0.7000000000000005)]",0.7810000000000004,,,20.0,0.004179,['Pass'],Pass,0.27000000000000013,0.1299999999999999,2.0,5.0,0.2
90.0,2.0,wc_2,,0.0,,,,182.0,,,,Pass,,,,,
90.0,2.0,wc_2,wc_11,0.0,"[('wc_11', 0.5100000000000003), ('wc_2', 0.7000000000000005), ('wc_4', 0.27000000000000013)]",0.8926900000000003,,,29.0,0.006337000000000001,['Pass'],Pass,0.5100000000000003,-0.3671428571428575,1.0,7.0,0.8
90.0,2.0,wc_2,,0.0,,,,21.0,,,,Pass,,,,,
90.0,2.0,wc_2,wc_6,1.0,"[('wc_6', 0.7500000000000006), ('wc_2', 0.7000000000000005), ('wc_4', 0.27000000000000013), ('wc_11', 0.5100000000000003)]",0.9731725000000001,,,40.0,0.052336000000000014,['Pass'],Pass,0.7500000000000006,-0.25000000000000056,3.0,6.0,1.0
99.0,3.0,wc_3,,0.0,,,,321.0,,,,Pass,,,,,
99.0,3.0,wc_3,,0.0,,,63.0,,,,,Pass,,,,,
99.0,3.0,wc_3,,0.0,,,,0.0,,,,Pass,,,,,
99.0,3.0,wc_3,wc_3,0.0,"[('wc_3', 0.4500000000000003)]",0.4500000000000003,,,37.0,0.002148,['Pass'],Pass,0.4500000000000003,-0.2000000000000003,1.0,4.0,0.5
99.0,3.0,wc_3,,0.0,,,,81.0,,,,Pass,,,,,
99.0,3.0,wc_3,wc_1,0.0,"[('wc_1', 0.7300000000000005), ('wc_3', 0.4500000000000003)]",0.8515000000000004,,,35.0,0.0039700000000000004,['Pass'],Pass,0.7300000000000005,-0.6300000000000006,0.0,0.0,1.0
99.0,3.0,wc_3,,0.0,,,,223.0,,,,Pass,,,,,
99.0,3.0,wc_3,wc_10,1.0,"[('wc_10', 0.6900000000000005), ('wc_3', 0.4500000000000003), ('wc_1', 0.7300000000000005)]",0.9539650000000002,,,37.0,0.039043,['Pass'],Pass,0.6900000000000005,-0.6900000000000005,0.0,0.0,1.0
109.0,5.0,wc_5,,0.0,,,,382.0,,,,Fail,,,,,
109.0,5.0,wc_5,,0.0,,,70.0,,,,,Fail,,,,,
109.0,5.0,wc_5,,0.0,,,,0.0,,,,Fail,,,,,
109.0,5.0,wc_5,wc_5,0.0,"[('wc_5', 0.5400000000000004)]",0.5400000000000004,,,28.0,0.002246,['Fail'],Fail,0.5400000000000004,0.05999999999999961,3.0,5.0,0.6
109.0,5.0,wc_5,,0.0,,,,162.0,,,,Fail,,,,,
109.0,5.0,wc_5,wc_11,0.0,"[('wc_11', 0.5100000000000003), ('wc_5', 0.5400000000000004)]",0.7746000000000004,,,31.0,0.004014,['Fail'],Fail,0.5100000000000003,-0.28777777777777813,2.0,9.0,0.8
109.0,5.0,wc_5,,0.0,,,,21.0,,,,Fail,,,,,
109.0,5.0,wc_5,wc_6,1.0,"[('wc_6', 0.7500000000000006), ('wc_5', 0.5400000000000004), ('wc_11', 0.5100000000000003)]",0.9436500000000002,,,30.0,0.040805,['Fail'],Fail,0.7500000000000006,-0.25000000000000056,4.0,8.0,1.0
129.0,5.0,wc_5,,0.0,,,,361.0,,,,Fail,,,,,
129.0,5.0,wc_5,,0.0,,,72.0,,,,,Fail,,,,,
129.0,5.0,wc_5,,0.0,,,,0.0,,,,Fail,,,,,
129.0,5.0,wc_5,wc_5,0.0,"[('wc_5', 0.5500000000000004)]",0.5500000000000004,,,26.0,0.002215,['Fail'],Fail,0.5500000000000004,0.11666666666666625,4.0,6.0,0.6
129.0,5.0,wc_5,,0.0,,,,142.0,,,,Fail,,,,,
129.0,5.0,wc_5,wc_10,0.0,"[('wc_10', 0.6900000000000005), ('wc_5', 0.5500000000000004)]",0.8605000000000004,,,26.0,0.0042769999999999996,['Fail'],Fail,0.6900000000000005,-0.6900000000000005,0.0,1.0,1.0
129.0,5.0,wc_5,,0.0,,,,362.0,,,,Fail,,,,,
129.0,5.0,wc_5,wc_4,0.0,"[('wc_4', 0.28000000000000014), ('wc_5', 0.5500000000000004), ('wc_10', 0.6900000000000005)]",0.8995600000000002,,,20.0,0.00599,['Fail'],Fail,0.28000000000000014,0.09499999999999986,3.0,8.0,0.2
129.0,5.0,wc_5,,0.0,,,,61.0,,,,Fail,,,,,
129.0,5.0,wc_5,wc_1,1.0,"[('wc_1', 0.7400000000000005), ('wc_5', 0.5500000000000004), ('wc_10', 0.6900000000000005), ('wc_4', 0.28000000000000014)]",0.9738856000000001,,,22.0,0.040857,['Fail'],Fail,0.7400000000000005,-0.07333333333333392,2.0,3.0,1.0
150.0,5.0,wc_5,,0.0,,,,0.0,,,,Pass,,,,,
150.0,5.0,wc_5,,0.0,,,80.0,,,,,Pass,,,,,
150.0,5.0,wc_5,,0.0,,,,0.0,,,,Pass,,,,,
150.0,5.0,wc_5,wc_5,0.0,"[('wc_5', 0.5600000000000004)]",0.5600000000000004,,,24.0,0.002389,['Pass'],Pass,0.5600000000000004,0.15428571428571392,5.0,7.0,0.6
150.0,5.0,wc_5,,0.0,,,,103.0,,,,Pass,,,,,
150.0,5.0,wc_5,wc_4,0.0,"[('wc_5', 0.5600000000000004)]",0.5600000000000004,,,27.0,0.004262,['Pass'],Pass,0.29000000000000015,0.15444444444444427,4.0,9.0,0.2
150.0,5.0,wc_5,,0.0,,,,162.0,,,,Pass,,,,,
150.0,5.0,wc_5,wc_10,0.0,"[('wc_10', 0.6900000000000005), ('wc_5', 0.5600000000000004)]",0.8636000000000004,,,22.0,0.005917,['Pass'],Pass,0.6900000000000005,-0.1900000000000005,1.0,2.0,1.0
150.0,5.0,wc_5,,0.0,,,,101.0,,,,Pass,,,,,
150.0,5.0,wc_5,wc_13,0.0,"[('wc_5', 0.5600000000000004), ('wc_10', 0.6900000000000005)]",0.8636000000000004,,,27.0,0.007617,['Pass'],Pass,0.3600000000000002,-0.2885714285714288,0.0,0.0,0.3
150.0,5.0,wc_5,,0.0,,,,242.0,,,,Pass,,,,,
150.0,5.0,wc_5,wc_2,1.0,"[('wc_2', 0.7000000000000005), ('wc_5', 0.5600000000000004), ('wc_10', 0.6900000000000005)]",0.9590800000000002,,,23.0,0.043722000000000004,['Pass'],Pass,0.7000000000000005,-0.2555555555555561,4.0,9.0,0.8
168.0,6.0,wc_6,,0.0,,,,122.0,,,,Fail,,,,,
168.0,6.0,wc_6,,0.0,,,56.0,,,,,Fail,,,,,
168.0,6.0,wc_6,,0.0,,,,0.0,,,,Fail,,,,,
168.0,6.0,wc_6,wc_6,0.0,"[('wc_6', 0.7500000000000006)]",0.7500000000000006,,,33.0,0.002922,['Fail'],Fail,0.7500000000000006,-0.35000000000000053,0.0,0.0,1.0
168.0,6.0,wc_6,,0.0,,,,0.0,,,,Fail,,,,,
168.0,6.0,wc_6,wc_11,0.0,"[('wc_11', 0.5100000000000003), ('wc_6', 0.7500000000000006)]",0.8775000000000004,,,25.0,0.0044399999999999995,['Fail'],Fail,0.5100000000000003,-0.5100000000000003,0.0,2.0,0.8
168.0,6.0,wc_6,,0.0,,,,61.0,,,,Fail,,,,,
168.0,6.0,wc_6,wc_12,1.0,"[('wc_12', 0.5200000000000004), ('wc_6', 0.7500000000000006), ('wc_11', 0.5100000000000003)]",0.9412000000000003,,,35.0,0.043466,['Fail'],Fail,0.5200000000000004,-0.18666666666666704,3.0,9.0,0.5
176.0,6.0,wc_6,,0.0,,,,182.0,,,,Fail,,,,,
176.0,6.0,wc_6,,0.0,,,52.0,,,,,Fail,,,,,
176.0,6.0,wc_6,,0.0,,,,0.0,,,,Fail,,,,,
176.0,6.0,wc_6,wc_6,0.0,"[('wc_6', 0.7600000000000006)]",0.7600000000000006,,,37.0,0.002294,['Fail'],Fail,0.7600000000000006,0.23999999999999944,1.0,1.0,1.0
176.0,6.0,wc_6,,0.0,,,,263.0,,,,Fail,,,,,
176.0,6.0,wc_6,wc_17,0.0,"[('wc_17', 0.4600000000000003), ('wc_6', 0.7600000000000006)]",0.8704000000000004,,,27.0,0.00393,['Fail'],Fail,0.4600000000000003,-0.4600000000000003,0.0,8.0,0.5
176.0,6.0,wc_6,,0.0,,,,362.0,,,,Fail,,,,,
176.0,6.0,wc_6,wc_3,1.0,"[('wc_3', 0.4500000000000003), ('wc_6', 0.7600000000000006), ('wc_17', 0.4600000000000003)]",0.9287200000000002,,,38.0,0.044492000000000004,['Fail'],Fail,0.4500000000000003,-0.4500000000000003,0.0,0.0,0.5
187.0,6.0,wc_6,,0.0,,,,101.0,,,,Pass,,,,,
187.0,6.0,wc_6,,0.0,,,51.0,,,,,Pass,,,,,
187.0,6.0,wc_6,,0.0,,,,0.0,,,,Pass,,,,,
187.0,6.0,wc_6,wc_6,0.0,"[('wc_6', 0.7700000000000006)]",0.7700000000000006,,,25.0,0.002376,['Pass'],Pass,0.7700000000000006,0.22999999999999943,2.0,2.0,1.0
187.0,6.0,wc_6,,0.0,,,,0.0,,,,Pass,,,,,
187.0,6.0,wc_6,wc_8,0.0,"[('wc_6', 0.7700000000000006)]",0.7700000000000006,,,38.0,0.00498,['Pass'],Pass,0.39000000000000024,-0.26500000000000024,1.0,8.0,0.6
187.0,6.0,wc_6,,0.0,,,,281.0,,,,Pass,,,,,
187.0,6.0,wc_6,wc_3,0.0,"[('wc_3', 0.4500000000000003), ('wc_6', 0.7700000000000006)]",0.8735000000000004,,,24.0,0.005771,['Pass'],Pass,0.4500000000000003,-0.4500000000000003,0.0,0.0,0.5
187.0,6.0,wc_6,,0.0,,,,242.0,,,,Pass,,,,,
187.0,6.0,wc_6,wc_17,1.0,"[('wc_17', 0.4600000000000003), ('wc_6', 0.7700000000000006), ('wc_3', 0.4500000000000003)]",0.9316900000000002,,,38.0,0.044833000000000005,['Pass'],Pass,0.4600000000000003,-0.4600000000000003,0.0,0.0,0.5
199.0,11.0,wc_11,,0.0,,,,362.0,,,,Fail,,,,,
199.0,11.0,wc_11,,0.0,,,80.0,,,,,Fail,,,,,
199.0,11.0,wc_11,,0.0,,,,0.0,,,,Fail,,,,,
199.0,11.0,wc_11,wc_11,0.0,"[('wc_11', 0.5100000000000003)]",0.5100000000000003,,,21.0,0.002456,['Fail'],Fail,0.5100000000000003,-0.31000000000000033,1.0,5.0,0.8
199.0,11.0,wc_11,,0.0,,,,223.0,,,,Fail,,,,,
199.0,11.0,wc_11,wc_2,0.0,"[('wc_2', 0.7000000000000005), ('wc_11', 0.5100000000000003)]",0.8530000000000003,,,31.0,0.004972,['Fail'],Fail,0.7000000000000005,-0.3666666666666672,0.0,0.0,0.8
199.0,11.0,wc_11,,0.0,,,,142.0,,,,Fail,,,,,
199.0,11.0,wc_11,wc_7,0.0,"[('wc_11', 0.5100000000000003), ('wc_2', 0.7000000000000005)]",0.8530000000000003,,,35.0,0.006368,['Fail'],Fail,0.19000000000000006,-0.19000000000000006,0.0,0.0,0.1
199.0,11.0,wc_11,,0.0,,,,203.0,,,,Fail,,,,,
199.0,11.0,wc_11,wc_15,1.0,"[('wc_15', 0.5900000000000004), ('wc_11', 0.5100000000000003), ('wc_2', 0.7000000000000005)]",0.9397300000000002,,,20.0,0.045013,['Fail'],Fail,0.5900000000000004,-0.5900000000000004,0.0,0.0,1.0
211.0,8.0,wc_8,,0.0,,,,263.0,,,,Pass,,,,,
211.0,8.0,wc_8,,0.0,,,72.0,,,,,Pass,,,,,
211.0,8.0,wc_8,,0.0,,,,0.0,,,,Pass,,,,,
211.0,8.0,wc_8,wc_8,0.0,"[('wc_8', 0.3800000000000002)]",0.3800000000000002,,,27.0,0.002158,['Pass'],Pass,0.3800000000000002,-0.28000000000000025,0.0,0.0,0.6
211.0,8.0,wc_8,,0.0,,,,281.0,,,,Pass,,,,,
211.0,8.0,wc_8,wc_3,0.0,"[('wc_3', 0.4600000000000003), ('wc_8', 0.3800000000000002)]",0.6652000000000002,,,23.0,0.004287,['Pass'],Pass,0.4600000000000003,0.0399999999999997,1.0,2.0,0.5
211.0,8.0,wc_8,,0.0,,,,202.0,,,,Pass,,,,,
211.0,8.0,wc_8,wc_11,0.0,"[('wc_11', 0.5100000000000003), ('wc_8', 0.3800000000000002), ('wc_3', 0.4600000000000003)]",0.8359480000000002,,,39.0,0.00628,['Pass'],Pass,0.5100000000000003,-0.17666666666666703,2.0,6.0,0.8
211.0,8.0,wc_8,,0.0,,,,101.0,,,,Pass,,,,,
211.0,8.0,wc_8,wc_14,0.0,"[('wc_8', 0.3800000000000002), ('wc_3', 0.4600000000000003), ('wc_11', 0.5100000000000003)]",0.8359480000000002,,,32.0,0.008164,['Pass'],Pass,0.20000000000000007,-0.20000000000000007,0.0,0.0,0.2
211.0,8.0,wc_8,,0.0,,,,0.0,,,,Pass,,,,,
211.0,8.0,wc_8,wc_15,1.0,"[('wc_15', 0.5900000000000004), ('wc_8', 0.3800000000000002), ('wc_3', 0.4600000000000003), ('wc_11', 0.5100000000000003)]",0.9327386800000002,,,24.0,0.048272999999999996,['Pass'],Pass,0.6000000000000004,0.3999999999999996,1.0,1.0,1.0
218.0,11.0,wc_11,,0.0,,,,402.0,,,,Fail,,,,,
218.0,11.0,wc_11,,0.0,,,52.0,,,,,Fail,,,,,
218.0,11.0,wc_11,,0.0,,,,0.0,,,,Fail,,,,,
218.0,11.0,wc_11,wc_11,0.0,"[('wc_11', 0.5100000000000003)]",0.5100000000000003,,,22.0,0.002207,['Fail'],Fail,0.5100000000000003,-0.0814285714285718,3.0,7.0,0.8
218.0,11.0,wc_11,,0.0,,,,362.0,,,,Fail,,,,,
218.0,11.0,wc_11,wc_5,0.0,"[('wc_5', 0.5700000000000004), ('wc_11', 0.5100000000000003)]",0.7893000000000003,,,21.0,0.004639,['Fail'],Fail,0.5700000000000004,-0.10846153846153883,0.0,0.0,0.6
218.0,11.0,wc_11,,0.0,,,,83.0,,,,Fail,,,,,
218.0,11.0,wc_11,wc_3,0.0,"[('wc_3', 0.4700000000000003), ('wc_11', 0.5100000000000003), ('wc_5', 0.5700000000000004)]",0.8883290000000003,,,25.0,0.006628,['Fail'],Fail,0.4700000000000003,0.19666666666666632,2.0,3.0,0.5
218.0,11.0,wc_11,,0.0,,,,141.0,,,,Fail,,,,,
218.0,11.0,wc_11,wc_8,1.0,"[('wc_8', 0.39000000000000024), ('wc_11', 0.5100000000000003), ('wc_5', 0.5700000000000004), ('wc_3', 0.4700000000000003)]",0.9318806900000002,,,38.0,0.041984999999999995,['Fail'],Fail,0.40000000000000024,0.5999999999999998,2.0,2.0,0.6
227.0,11.0,wc_11,,0.0,,,,0.0,,,,Fail,,,,,
227.0,11.0,wc_11,,0.0,,,61.0,,,,,Fail,,,,,
227.0,11.0,wc_11,,0.0,,,,0.0,,,,Fail,,,,,
227.0,11.0,wc_11,wc_11,0.0,"[('wc_11', 0.5100000000000003)]",0.5100000000000003,,,24.0,0.00222,['Fail'],Fail,0.5100000000000003,-0.010000000000000342,4.0,8.0,0.8
227.0,11.0,wc_11,,0.0,,,,162.0,,,,Fail,,,,,
227.0,11.0,wc_11,wc_17,0.0,"[('wc_11', 0.5100000000000003)]",0.5100000000000003,,,35.0,0.004402,['Fail'],Fail,0.4600000000000003,-0.4600000000000003,0.0,3.0,0.5
227.0,11.0,wc_11,,0.0,,,,183.0,,,,Fail,,,,,
227.0,11.0,wc_11,wc_6,0.0,"[('wc_6', 0.7800000000000006), ('wc_11', 0.5100000000000003)]",0.8922000000000003,,,27.0,0.006220000000000001,['Fail'],Fail,0.7800000000000006,-0.2800000000000006,3.0,6.0,1.0
227.0,11.0,wc_11,,0.0,,,,0.0,,,,Fail,,,,,
227.0,11.0,wc_11,wc_9,0.0,"[('wc_11', 0.5100000000000003), ('wc_6', 0.7800000000000006)]",0.8922000000000003,,,38.0,0.008191,['Fail'],Fail,0.3200000000000002,-0.3200000000000002,0.0,0.0,0.2
227.0,11.0,wc_11,,0.0,,,,402.0,,,,Fail,,,,,
227.0,11.0,wc_11,wc_5,1.0,"[('wc_5', 0.5800000000000004), ('wc_11', 0.5100000000000003), ('wc_6', 0.7800000000000006)]",0.9547240000000002,,,37.0,0.049428,['Fail'],Fail,0.5900000000000004,0.4099999999999996,2.0,2.0,0.6
237.0,9.0,wc_9,,0.0,,,,122.0,,,,Pass,,,,,
237.0,9.0,wc_9,,0.0,,,60.0,,,,,Pass,,,,,
237.0,9.0,wc_9,,0.0,,,,0.0,,,,Pass,,,,,
237.0,9.0,wc_9,wc_9,0.0,"[('wc_9', 0.31000000000000016)]",0.31000000000000016,,,25.0,0.002081,['Pass'],Pass,0.31000000000000016,-0.31000000000000016,0.0,1.0,0.2
237.0,9.0,wc_9,,0.0,,,,263.0,,,,Pass,,,,,
237.0,9.0,wc_9,wc_2,0.0,"[('wc_2', 0.7100000000000005), ('wc_9', 0.31000000000000016)]",0.7999000000000004,,,40.0,0.005475,['Pass'],Pass,0.7100000000000005,-0.4600000000000005,1.0,4.0,0.8
237.0,9.0,wc_9,,0.0,,,,202.0,,,,Pass,,,,,
237.0,9.0,wc_9,wc_14,0.0,"[('wc_14', 0.19000000000000006), ('wc_9', 0.31000000000000016), ('wc_2', 0.7100000000000005)]",0.8379190000000003,,,28.0,0.008219,['Pass'],Pass,0.19000000000000006,-0.19000000000000006,0.0,3.0,0.2
237.0,9.0,wc_9,,0.0,,,,142.0,,,,Pass,,,,,
237.0,9.0,wc_9,wc_6,1.0,"[('wc_6', 0.7800000000000006), ('wc_9', 0.31000000000000016), ('wc_2', 0.7100000000000005), ('wc_14', 0.19000000000000006)]",0.9643421800000002,,,30.0,0.042198,['Pass'],Pass,0.7800000000000006,-0.15500000000000058,5.0,8.0,1.0
246.0,10.0,wc_10,,0.0,,,,0.0,,,,Fail,,,,,
246.0,10.0,wc_10,,0.0,,,72.0,,,,,Fail,,,,,
246.0,10.0,wc_10,,0.0,,,,0.0,,,,Fail,,,,,
246.0,10.0,wc_10,wc_10,0.0,"[('wc_10', 0.6900000000000005)]",0.6900000000000005,,,31.0,0.008816,['Fail'],Fail,0.6900000000000005,-0.5081818181818187,0.0,0.0,1.0
246.0,10.0,wc_10,,0.0,,,,342.0,,,,Fail,,,,,
246.0,10.0,wc_10,wc_3,0.0,"[('wc_3', 0.4800000000000003), ('wc_10', 0.6900000000000005)]",0.8388000000000003,,,24.0,0.006156,['Fail'],Fail,0.4800000000000003,0.019999999999999685,3.0,6.0,0.5
246.0,10.0,wc_10,,0.0,,,,141.0,,,,Fail,,,,,
246.0,10.0,wc_10,wc_12,1.0,"[('wc_12', 0.5200000000000004), ('wc_10', 0.6900000000000005), ('wc_3', 0.4800000000000003)]",0.9226240000000002,,,20.0,0.046602,['Fail'],Fail,0.5200000000000004,-0.5200000000000004,0.0,0.0,0.5
255.0,7.0,wc_7,,0.0,,,,202.0,,,,Pass,,,,,
255.0,7.0,wc_7,,0.0,,,64.0,,,,,Pass,,,,,
255.0,7.0,wc_7,,0.0,,,,0.0,,,,Pass,,,,,
255.0,7.0,wc_7,wc_7,0.0,"[('wc_7', 0.18000000000000005)]",0.18000000000000005,,,31.0,0.002011,['Pass'],Pass,0.18000000000000005,-0.18000000000000005,0.0,6.0,0.1
255.0,7.0,wc_7,,0.0,,,,341.0,,,,Pass,,,,,
255.0,7.0,wc_7,wc_5,0.0,"[('wc_5', 0.5900000000000004)]",0.5900000000000004,,,39.0,0.004402,['Fail'],Pass,0.5900000000000004,-0.09000000000000041,2.0,4.0,0.6
255.0,7.0,wc_7,,0.0,,,,162.0,,,,Pass,,,,,
255.0,7.0,wc_7,wc_11,0.0,"[('wc_11', 0.5200000000000004), ('wc_7', 0.18000000000000005)]",0.6064000000000003,,,29.0,0.005868,['Pass'],Pass,0.5200000000000004,-0.06545454545454582,0.0,0.0,0.8
255.0,7.0,wc_7,,0.0,,,,223.0,,,,Pass,,,,,
255.0,7.0,wc_7,wc_2,0.0,"[('wc_2', 0.7100000000000005), ('wc_7', 0.18000000000000005), ('wc_11', 0.5200000000000004)]",0.8858560000000003,,,32.0,0.00887,['Pass'],Pass,0.7100000000000005,-0.3766666666666672,2.0,6.0,0.8
255.0,7.0,wc_7,,0.0,,,,102.0,,,,Pass,,,,,
255.0,7.0,wc_7,wc_1,1.0,"[('wc_1', 0.7400000000000005), ('wc_7', 0.18000000000000005), ('wc_11', 0.5200000000000004), ('wc_2', 0.7100000000000005)]",0.9703225600000002,,,28.0,0.04717400000000001,['Pass'],Pass,0.7400000000000005,-0.7400000000000005,0.0,0.0,1.0
264.0,11.0,wc_11,,0.0,,,,243.0,,,,Pass,,,,,
264.0,11.0,wc_11,,0.0,,,52.0,,,,,Pass,,,,,
264.0,11.0,wc_11,,0.0,,,,0.0,,,,Pass,,,,,
264.0,11.0,wc_11,wc_11,0.0,"[('wc_11', 0.5300000000000004)]",0.5300000000000004,,,34.0,0.002292,['Pass'],Pass,0.5300000000000004,0.46999999999999964,1.0,1.0,0.8
264.0,11.0,wc_11,,0.0,,,,61.0,,,,Pass,,,,,
264.0,11.0,wc_11,wc_8,0.0,"[('wc_8', 0.40000000000000024), ('wc_11', 0.5300000000000004)]",0.7180000000000003,,,24.0,0.0040290000000000005,['Pass'],Pass,0.40000000000000024,-0.06666666666666693,2.0,6.0,0.6
264.0,11.0,wc_11,,0.0,,,,0.0,,,,Pass,,,,,
264.0,11.0,wc_11,wc_9,0.0,"[('wc_9', 0.3200000000000002), ('wc_11', 0.5300000000000004), ('wc_8', 0.40000000000000024)]",0.8082400000000003,,,23.0,0.006084999999999999,['Pass'],Pass,0.3200000000000002,-0.07000000000000017,1.0,4.0,0.2
264.0,11.0,wc_11,,0.0,,,,162.0,,,,Pass,,,,,
264.0,11.0,wc_11,wc_15,1.0,"[('wc_15', 0.6000000000000004), ('wc_11', 0.5300000000000004), ('wc_8', 0.40000000000000024), ('wc_9', 0.3200000000000002)]",0.9232960000000002,,,33.0,0.04108,['Pass'],Pass,0.6000000000000004,-0.3142857142857147,2.0,7.0,1.0
275.0,10.0,wc_10,,0.0,,,,382.0,,,,Fail,,,,,
275.0,10.0,wc_10,,0.0,,,73.0,,,,,Fail,,,,,
275.0,10.0,wc_10,,0.0,,,,0.0,,,,Fail,,,,,
275.0,10.0,wc_10,wc_10,0.0,"[('wc_10', 0.7000000000000005)]",0.7000000000000005,,,39.0,0.002278,['Fail'],Fail,0.7000000000000005,-0.3666666666666672,1.0,3.0,1.0
275.0,10.0,wc_10,,0.0,,,,0.0,,,,Fail,,,,,
275.0,10.0,wc_10,wc_11,0.0,"[('wc_11', 0.5400000000000004), ('wc_10', 0.7000000000000005)]",0.8620000000000003,,,29.0,0.004651000000000001,['Fail'],Fail,0.5400000000000004,0.45999999999999963,2.0,2.0,0.8
275.0,10.0,wc_10,,0.0,,,,322.0,,,,Fail,,,,,
275.0,10.0,wc_10,wc_3,1.0,"[('wc_3', 0.4900000000000003), ('wc_10', 0.7000000000000005), ('wc_11', 0.5400000000000004)]",0.9296200000000002,,,20.0,0.047642,['Fail'],Fail,0.4900000000000003,-0.4900000000000003,0.0,0.0,0.5
286.0,10.0,wc_10,,0.0,,,,182.0,,,,Pass,,,,,
286.0,10.0,wc_10,,0.0,,,78.0,,,,,Pass,,,,,
286.0,10.0,wc_10,,0.0,,,,0.0,,,,Pass,,,,,
286.0,10.0,wc_10,wc_10,0.0,"[('wc_10', 0.7000000000000005)]",0.7000000000000005,,,38.0,0.002573,['Pass'],Pass,0.7000000000000005,-0.2000000000000005,2.0,4.0,1.0
286.0,10.0,wc_10,,0.0,,,,61.0,,,,Pass,,,,,
286.0,10.0,wc_10,wc_7,0.0,"[('wc_7', 0.18000000000000005), ('wc_10', 0.7000000000000005)]",0.7540000000000004,,,23.0,0.0045509999999999995,['Pass'],Pass,0.18000000000000005,-0.06888888888888894,1.0,9.0,0.1
286.0,10.0,wc_10,,0.0,,,,182.0,,,,Pass,,,,,
286.0,10.0,wc_10,wc_1,1.0,"[('wc_1', 0.7400000000000005), ('wc_10', 0.7000000000000005), ('wc_7', 0.18000000000000005)]",0.9360400000000002,,,22.0,0.052732,['Pass'],Pass,0.7400000000000005,-0.40666666666666723,1.0,3.0,1.0
295.0,12.0,wc_12,,0.0,,,,182.0,,,,Pass,,,,,
295.0,12.0,wc_12,,0.0,,,56.0,,,,,Pass,,,,,
295.0,12.0,wc_12,,0.0,,,,0.0,,,,Pass,,,,,
295.0,12.0,wc_12,wc_12,0.0,"[('wc_12', 0.5200000000000004)]",0.5200000000000004,,,33.0,0.002333,['Pass'],Pass,0.5200000000000004,-0.5200000000000004,0.0,4.0,0.5
295.0,12.0,wc_12,,0.0,,,,0.0,,,,Pass,,,,,
295.0,12.0,wc_12,wc_14,0.0,"[('wc_14', 0.20000000000000007), ('wc_12', 0.5200000000000004)]",0.6160000000000003,,,23.0,0.005055,['Pass'],Pass,0.20000000000000007,-0.08888888888888896,1.0,9.0,0.2
295.0,12.0,wc_12,,0.0,,,,0.0,,,,Pass,,,,,
295.0,12.0,wc_12,wc_16,0.0,"[('wc_16', 0.6600000000000005), ('wc_12', 0.5200000000000004), ('wc_14', 0.20000000000000007)]",0.8694400000000003,,,24.0,0.005837,['Pass'],Pass,0.6600000000000005,-0.6183333333333338,0.0,0.0,0.8
295.0,12.0,wc_12,,0.0,,,,382.0,,,,Pass,,,,,
295.0,12.0,wc_12,wc_11,1.0,"[('wc_11', 0.5500000000000004), ('wc_12', 0.5200000000000004), ('wc_14', 0.20000000000000007), ('wc_16', 0.6600000000000005)]",0.9412480000000002,,,27.0,0.05373399999999999,['Pass'],Pass,0.5600000000000004,0.23999999999999966,4.0,5.0,0.8
315.0,13.0,wc_13,,0.0,,,,81.0,,,,Fail,,,,,
315.0,13.0,wc_13,,0.0,,,60.0,,,,,Fail,,,,,
315.0,13.0,wc_13,,0.0,,,,0.0,,,,Fail,,,,,
315.0,13.0,wc_13,wc_13,0.0,"[('wc_13', 0.3500000000000002)]",0.3500000000000002,,,40.0,0.002619,['Fail'],Fail,0.3500000000000002,-0.3500000000000002,0.0,0.0,0.3
315.0,13.0,wc_13,,0.0,,,,361.0,,,,Fail,,,,,
315.0,13.0,wc_13,wc_4,0.0,"[('wc_13', 0.3500000000000002)]",0.3500000000000002,,,40.0,0.00518,['Fail'],Fail,0.29000000000000015,-0.29000000000000015,0.0,0.0,0.2
315.0,13.0,wc_13,,0.0,,,,182.0,,,,Fail,,,,,
315.0,13.0,wc_13,wc_11,0.0,"[('wc_11', 0.5600000000000004), ('wc_13', 0.3500000000000002)]",0.7140000000000004,,,28.0,0.007281,['Fail'],Fail,0.5600000000000004,0.23999999999999966,4.0,5.0,0.8
315.0,13.0,wc_13,,0.0,,,,142.0,,,,Fail,,,,,
315.0,13.0,wc_13,wc_16,1.0,"[('wc_16', 0.6700000000000005), ('wc_13', 0.3500000000000002), ('wc_11', 0.5600000000000004)]",0.9056200000000003,,,24.0,0.052108,['Fail'],Fail,0.6800000000000005,0.3199999999999995,2.0,2.0,0.8
326.0,13.0,wc_13,,0.0,,,,61.0,,,,Pass,,,,,
326.0,13.0,wc_13,,0.0,,,64.0,,,,,Pass,,,,,
326.0,13.0,wc_13,,0.0,,,,0.0,,,,Pass,,,,,
326.0,13.0,wc_13,wc_13,0.0,"[('wc_13', 0.3600000000000002)]",0.3600000000000002,,,20.0,0.002257,['Fail'],Pass,0.3600000000000002,0.6399999999999998,1.0,1.0,0.3
326.0,13.0,wc_13,,0.0,,,,202.0,,,,Pass,,,,,
326.0,13.0,wc_13,wc_8,0.0,"[('wc_8', 0.41000000000000025)]",0.41000000000000025,,,24.0,0.004555,['Pass'],Pass,0.41000000000000025,-0.13727272727272755,0.0,0.0,0.6
326.0,13.0,wc_13,,0.0,,,,162.0,,,,Pass,,,,,
326.0,13.0,wc_13,wc_1,0.0,"[('wc_1', 0.7400000000000005), ('wc_8', 0.41000000000000025)]",0.8466000000000004,,,37.0,0.005892,['Pass'],Pass,0.7400000000000005,-0.5400000000000005,1.0,5.0,1.0
326.0,13.0,wc_13,,0.0,,,,283.0,,,,Pass,,,,,
326.0,13.0,wc_13,wc_17,1.0,"[('wc_17', 0.4500000000000003), ('wc_8', 0.41000000000000025), ('wc_1', 0.7400000000000005)]",0.9156300000000003,,,28.0,0.052402,['Pass'],Pass,0.4500000000000003,-0.4500000000000003,0.0,0.0,0.5
342.0,15.0,wc_15,,0.0,,,,83.0,,,,Fail,,,,,
342.0,15.0,wc_15,,0.0,,,62.0,,,,,Fail,,,,,
342.0,15.0,wc_15,,0.0,,,,0.0,,,,Fail,,,,,
342.0,15.0,wc_15,wc_15,0.0,"[('wc_15', 0.6000000000000004)]",0.6000000000000004,,,28.0,0.002177,['Fail'],Fail,0.6000000000000004,-0.4333333333333338,0.0,0.0,1.0
342.0,15.0,wc_15,,0.0,,,,243.0,,,,Fail,,,,,
342.0,15.0,wc_15,wc_7,0.0,"[('wc_15', 0.6000000000000004)]",0.6000000000000004,,,28.0,0.00404,['Fail'],Fail,0.19000000000000006,-0.19000000000000006,0.0,3.0,0.1
342.0,15.0,wc_15,,0.0,,,,0.0,,,,Fail,,,,,
342.0,15.0,wc_15,wc_8,0.0,"[('wc_8', 0.42000000000000026), ('wc_15', 0.6000000000000004)]",0.7680000000000003,,,33.0,0.007008,['Fail'],Fail,0.42000000000000026,0.5799999999999997,1.0,1.0,0.6
342.0,15.0,wc_15,,0.0,,,,301.0,,,,Fail,,,,,
342.0,15.0,wc_15,wc_4,0.0,"[('wc_4', 0.28000000000000014), ('wc_15', 0.6000000000000004), ('wc_8', 0.42000000000000026)]",0.8329600000000003,,,32.0,0.008164,['Fail'],Fail,0.28000000000000014,-0.28000000000000014,0.0,2.0,0.2
342.0,15.0,wc_15,,0.0,,,,121.0,,,,Fail,,,,,
342.0,15.0,wc_15,wc_12,1.0,"[('wc_12', 0.5200000000000004), ('wc_15', 0.6000000000000004), ('wc_8', 0.42000000000000026), ('wc_4', 0.28000000000000014)]",0.9198208000000002,,,36.0,0.046765,['Fail'],Fail,0.5200000000000004,-0.27000000000000035,2.0,8.0,0.5
361.0,14.0,wc_14,,0.0,,,,0.0,,,,Fail,,,,,
361.0,14.0,wc_14,,0.0,,,58.0,,,,,Fail,,,,,
361.0,14.0,wc_14,,0.0,,,,0.0,,,,Fail,,,,,
361.0,14.0,wc_14,wc_14,0.0,"[('wc_14', 0.20000000000000007)]",0.20000000000000007,,,39.0,0.002343,['Fail'],Fail,0.20000000000000007,-0.20000000000000007,0.0,3.0,0.2
361.0,14.0,wc_14,,0.0,,,,102.0,,,,Fail,,,,,
361.0,14.0,wc_14,wc_13,0.0,"[('wc_13', 0.3600000000000002)]",0.3600000000000002,,,28.0,0.0041340000000000005,['Pass'],Fail,0.3600000000000002,-0.026666666666666894,1.0,3.0,0.3
361.0,14.0,wc_14,,0.0,,,,381.0,,,,Fail,,,,,
361.0,14.0,wc_14,wc_5,0.0,"[('wc_5', 0.5800000000000004), ('wc_14', 0.20000000000000007)]",0.6640000000000004,,,26.0,0.006154999999999999,['Fail'],Fail,0.5800000000000004,-0.4133333333333338,0.0,0.0,0.6
361.0,14.0,wc_14,,0.0,,,,182.0,,,,Fail,,,,,
361.0,14.0,wc_14,wc_16,0.0,"[('wc_16', 0.6800000000000005), ('wc_14', 0.20000000000000007), ('wc_5', 0.5800000000000004)]",0.8924800000000003,,,26.0,0.008078,['Fail'],Fail,0.6800000000000005,-0.1800000000000005,2.0,4.0,0.8
361.0,14.0,wc_14,,0.0,,,,283.0,,,,Fail,,,,,
361.0,14.0,wc_14,wc_2,1.0,"[('wc_2', 0.7100000000000005), ('wc_14', 0.20000000000000007), ('wc_5', 0.5800000000000004), ('wc_16', 0.6800000000000005)]",0.9688192000000001,,,31.0,0.045478,['Fail'],Fail,0.7100000000000005,-0.7100000000000005,0.0,0.0,0.8
377.0,15.0,wc_15,,0.0,,,,223.0,,,,Pass,,,,,
377.0,15.0,wc_15,,0.0,,,76.0,,,,,Pass,,,,,
377.0,15.0,wc_15,,0.0,,,,0.0,,,,Pass,,,,,
377.0,15.0,wc_15,wc_15,0.0,"[('wc_15', 0.6100000000000004)]",0.6100000000000004,,,24.0,0.002046,['Pass'],Pass,0.6100000000000004,-0.11000000000000043,1.0,2.0,1.0
377.0,15.0,wc_15,,0.0,,,,263.0,,,,Pass,,,,,
377.0,15.0,wc_15,wc_8,0.0,"[('wc_8', 0.43000000000000027), ('wc_15', 0.6100000000000004)]",0.7777000000000004,,,20.0,0.004208,['Pass'],Pass,0.43000000000000027,0.23666666666666636,2.0,3.0,0.6
377.0,15.0,wc_15,,0.0,,,,223.0,,,,Pass,,,,,
377.0,15.0,wc_15,wc_17,0.0,"[('wc_17', 0.4500000000000003), ('wc_15', 0.6100000000000004), ('wc_8', 0.43000000000000027)]",0.8777350000000003,,,28.0,0.006317,['Pass'],Pass,0.4500000000000003,-0.4500000000000003,0.0,2.0,0.5
377.0,15.0,wc_15,,0.0,,,,243.0,,,,Pass,,,,,
377.0,15.0,wc_15,wc_1,1.0,"[('wc_1', 0.7400000000000005), ('wc_15', 0.6100000000000004), ('wc_8', 0.43000000000000027), ('wc_17', 0.4500000000000003)]",0.9682111000000001,,,31.0,0.062488999999999996,['Pass'],Pass,0.7400000000000005,-0.40666666666666723,3.0,9.0,1.0
398.0,14.0,wc_14,,0.0,,,,222.0,,,,Pass,,,,,
398.0,14.0,wc_14,,0.0,,,74.0,,,,,Pass,,,,,
398.0,14.0,wc_14,,0.0,,,,0.0,,,,Pass,,,,,
398.0,14.0,wc_14,wc_14,0.0,"[('wc_14', 0.21000000000000008)]",0.21000000000000008,,,38.0,0.002694,['Fail'],Pass,0.21000000000000008,-0.010000000000000064,1.0,5.0,0.2
398.0,14.0,wc_14,,0.0,,,,321.0,,,,Pass,,,,,
398.0,14.0,wc_14,wc_3,0.0,"[('wc_3', 0.4900000000000003)]",0.4900000000000003,,,38.0,0.00442,['Pass'],Pass,0.4900000000000003,-0.4900000000000003,0.0,7.0,0.5
398.0,14.0,wc_14,,0.0,,,,161.0,,,,Pass,,,,,
398.0,14.0,wc_14,wc_13,0.0,"[('wc_3', 0.4900000000000003)]",0.4900000000000003,,,23.0,0.0054930000000000005,['Pass'],Pass,0.3500000000000002,-0.1500000000000002,1.0,5.0,0.3
398.0,14.0,wc_14,,0.0,,,,341.0,,,,Pass,,,,,
398.0,14.0,wc_14,wc_11,0.0,"[('wc_11', 0.5700000000000004), ('wc_3', 0.4900000000000003)]",0.7807000000000004,,,28.0,0.0076089999999999994,['Pass'],Pass,0.5700000000000004,-0.0700000000000004,0.0,0.0,0.8
398.0,14.0,wc_14,,0.0,,,,103.0,,,,Pass,,,,,
398.0,14.0,wc_14,wc_10,1.0,"[('wc_10', 0.7000000000000005), ('wc_3', 0.4900000000000003), ('wc_11', 0.5700000000000004)]",0.9342100000000002,,,25.0,0.046887,['Pass'],Pass,0.7000000000000005,-0.7000000000000005,0.0,0.0,1.0
418.0,16.0,wc_16,,0.0,,,,162.0,,,,Pass,,,,,
418.0,16.0,wc_16,,0.0,,,53.0,,,,,Pass,,,,,
418.0,16.0,wc_16,,0.0,,,,0.0,,,,Pass,,,,,
418.0,16.0,wc_16,wc_16,0.0,"[('wc_16', 0.6800000000000005)]",0.6800000000000005,,,29.0,0.002305,['Pass'],Pass,0.6800000000000005,-0.25142857142857195,3.0,7.0,0.8
418.0,16.0,wc_16,,0.0,,,,223.0,,,,Pass,,,,,
418.0,16.0,wc_16,wc_7,0.0,"[('wc_7', 0.18000000000000005), ('wc_16', 0.6800000000000005)]",0.7376000000000005,,,24.0,0.0059229999999999994,['Pass'],Pass,0.18000000000000005,-0.18000000000000005,0.0,7.0,0.1
418.0,16.0,wc_16,,0.0,,,,142.0,,,,Pass,,,,,
418.0,16.0,wc_16,wc_12,0.0,"[('wc_12', 0.5200000000000004), ('wc_16', 0.6800000000000005), ('wc_7', 0.18000000000000005)]",0.8740480000000003,,,20.0,0.006125,['Pass'],Pass,0.5200000000000004,-0.3381818181818185,0.0,0.0,0.5
418.0,16.0,wc_16,,0.0,,,,401.0,,,,Pass,,,,,
418.0,16.0,wc_16,wc_5,0.0,"[('wc_16', 0.6800000000000005), ('wc_7', 0.18000000000000005), ('wc_12', 0.5200000000000004)]",0.8740480000000003,,,38.0,0.009526,['Pass'],Pass,0.5900000000000004,-0.2566666666666671,1.0,3.0,0.6
418.0,16.0,wc_16,,0.0,,,,202.0,,,,Pass,,,,,
418.0,16.0,wc_16,wc_17,1.0,"[('wc_17', 0.4500000000000003), ('wc_16', 0.6800000000000005), ('wc_7', 0.18000000000000005), ('wc_12', 0.5200000000000004)]",0.9307264000000002,,,26.0,0.054716000000000015,['Pass'],Pass,0.4500000000000003,-0.050000000000000266,2.0,5.0,0.5
429.0,17.0,wc_17,,0.0,,,,0.0,,,,Pass,,,,,
429.0,17.0,wc_17,,0.0,,,60.0,,,,,Pass,,,,,
429.0,17.0,wc_17,,0.0,,,,0.0,,,,Pass,,,,,
429.0,17.0,wc_17,wc_17,0.0,"[('wc_17', 0.4500000000000003)]",0.4500000000000003,,,22.0,0.002249,['Pass'],Pass,0.4500000000000003,-0.050000000000000266,2.0,5.0,0.5
429.0,17.0,wc_17,,0.0,,,,61.0,,,,Pass,,,,,
429.0,17.0,wc_17,wc_14,0.0,"[('wc_14', 0.20000000000000007), ('wc_17', 0.4500000000000003)]",0.5600000000000003,,,26.0,0.0042120000000000005,['Pass'],Pass,0.20000000000000007,-0.05714285714285722,1.0,7.0,0.2
429.0,17.0,wc_17,,0.0,,,,182.0,,,,Pass,,,,,
429.0,17.0,wc_17,wc_8,0.0,"[('wc_8', 0.4400000000000003), ('wc_17', 0.4500000000000003), ('wc_14', 0.20000000000000007)]",0.7536000000000003,,,40.0,0.00611,['Pass'],Pass,0.4400000000000003,0.05999999999999972,3.0,6.0,0.6
429.0,17.0,wc_17,,0.0,,,,301.0,,,,Pass,,,,,
429.0,17.0,wc_17,wc_4,0.0,"[('wc_4', 0.29000000000000015), ('wc_17', 0.4500000000000003), ('wc_14', 0.20000000000000007), ('wc_8', 0.4400000000000003)]",0.8250560000000002,,,27.0,0.010551999999999999,['Pass'],Pass,0.29000000000000015,-0.1471428571428573,1.0,7.0,0.2
429.0,17.0,wc_17,,0.0,,,,103.0,,,,Pass,,,,,
429.0,17.0,wc_17,wc_3,1.0,"[('wc_3', 0.4900000000000003), ('wc_17', 0.4500000000000003), ('wc_14', 0.20000000000000007), ('wc_8', 0.4400000000000003), ('wc_4', 0.29000000000000015)]",0.9107785600000001,,,37.0,0.054262000000000005,['Pass'],Pass,0.4900000000000003,-0.4900000000000003,0.0,0.0,0.5
