mpecck/BCQC/bcqc_with_qdt/results/raw/input_13/independent_qc/training/20_workpiece/20200429_090311/wp_15_qc_majority_0.9.csv
production_index,step_idx,production_workcell,qc,consent,winner_qc_list,score,production_time,transport_time,inspection_time,network_time,qc_results,actual_quality,qc_score,score_error,in_winner_counter,in_qc_counter,qc_capability
65.0,1.0,wc_1,,0.0,,,80.0,,,,,Fail,,,,,
65.0,1.0,wc_1,,0.0,,,,0.0,,,,Fail,,,,,
65.0,1.0,wc_1,wc_1,0.0,"[('wc_1', 0.3800000000000002)]",0.3800000000000002,,,25.0,0.004983,['Pass'],Fail,0.3800000000000002,-0.22615384615384637,0.0,0.0,0.4
65.0,1.0,wc_1,,0.0,,,,0.0,,,,Fail,,,,,
65.0,1.0,wc_1,wc_3,0.0,"[('wc_3', 0.21000000000000008), ('wc_1', 0.3800000000000002)]",0.5102000000000002,,,37.0,0.005254999999999999,['Pass'],Fail,0.21000000000000008,-0.21000000000000008,0.0,0.0,0.2
65.0,1.0,wc_1,,0.0,,,,101.0,,,,Fail,,,,,
65.0,1.0,wc_1,wc_2,0.0,"[('wc_2', 0.8300000000000006)]",0.8300000000000006,,,20.0,0.007025,['Fail'],Fail,0.8300000000000006,-0.699565217391305,0.0,0.0,1.0
65.0,1.0,wc_1,,0.0,,,,182.0,,,,Fail,,,,,
65.0,1.0,wc_1,wc_13,0.0,"[('wc_13', 0.7200000000000005), ('wc_2', 0.8300000000000006)]",0.9524000000000002,,,38.0,0.008536,['Fail'],Fail,0.7200000000000005,-0.16444444444444495,5.0,9.0,0.8
65.0,1.0,wc_1,,0.0,,,,182.0,,,,Fail,,,,,
65.0,1.0,wc_1,wc_7,0.0,"[('wc_2', 0.8300000000000006), ('wc_13', 0.7200000000000005)]",0.9524000000000002,,,28.0,0.011467999999999999,['Fail'],Fail,0.6200000000000004,-0.37000000000000044,0.0,0.0,0.6
65.0,1.0,wc_1,,0.0,,,,142.0,,,,Fail,,,,,
65.0,1.0,wc_1,wc_12,1.0,"[('wc_12', 0.8300000000000006), ('wc_2', 0.8300000000000006), ('wc_13', 0.7200000000000005)]",0.9919080000000001,,,33.0,0.04342700000000001,['Fail'],Fail,0.8300000000000006,-0.8300000000000006,0.0,0.0,0.9
146.0,1.0,wc_1,,0.0,,,,242.0,,,,Pass,,,,,
146.0,1.0,wc_1,,0.0,,,50.0,,,,,Pass,,,,,
146.0,1.0,wc_1,,0.0,,,,0.0,,,,Pass,,,,,
146.0,1.0,wc_1,wc_1,0.0,"[('wc_1', 0.3700000000000002)]",0.3700000000000002,,,36.0,0.002769,['Pass'],Pass,0.3700000000000002,-0.3700000000000002,0.0,1.0,0.4
146.0,1.0,wc_1,,0.0,,,,223.0,,,,Pass,,,,,
146.0,1.0,wc_1,wc_10,0.0,"[('wc_10', 0.7200000000000005), ('wc_1', 0.3700000000000002)]",0.8236000000000003,,,38.0,0.004812,['Pass'],Pass,0.7200000000000005,-0.4123076923076928,0.0,0.0,1.0
146.0,1.0,wc_1,,0.0,,,,81.0,,,,Pass,,,,,
146.0,1.0,wc_1,wc_12,1.0,"[('wc_12', 0.8300000000000006), ('wc_1', 0.3700000000000002), ('wc_10', 0.7200000000000005)]",0.9700120000000002,,,27.0,0.038925999999999995,['Pass'],Pass,0.8400000000000006,0.15999999999999936,1.0,1.0,0.9
182.0,4.0,wc_4,,0.0,,,,381.0,,,,Pass,,,,,
182.0,4.0,wc_4,,0.0,,,76.0,,,,,Pass,,,,,
182.0,4.0,wc_4,,0.0,,,,0.0,,,,Pass,,,,,
182.0,4.0,wc_4,wc_4,0.0,"[('wc_4', 0.40000000000000024)]",0.40000000000000024,,,27.0,0.003572,['Fail'],Pass,0.40000000000000024,-0.20000000000000023,1.0,5.0,0.1
182.0,4.0,wc_4,,0.0,,,,121.0,,,,Pass,,,,,
182.0,4.0,wc_4,wc_8,0.0,"[('wc_8', 0.7300000000000005)]",0.7300000000000005,,,37.0,0.005211,['Pass'],Pass,0.7300000000000005,-0.6050000000000005,1.0,8.0,0.9
182.0,4.0,wc_4,,0.0,,,,0.0,,,,Pass,,,,,
182.0,4.0,wc_4,wc_10,0.0,"[('wc_10', 0.7300000000000005), ('wc_8', 0.7300000000000005)]",0.9271000000000003,,,23.0,0.005686,['Pass'],Pass,0.7300000000000005,0.26999999999999946,1.0,1.0,1.0
182.0,4.0,wc_4,,0.0,,,,182.0,,,,Pass,,,,,
182.0,4.0,wc_4,wc_17,1.0,"[('wc_17', 0.6000000000000004), ('wc_8', 0.7300000000000005), ('wc_10', 0.7300000000000005)]",0.9708400000000001,,,33.0,0.038828999999999995,['Pass'],Pass,0.6100000000000004,0.0566666666666662,4.0,6.0,0.5
210.0,3.0,wc_3,,0.0,,,,362.0,,,,Pass,,,,,
210.0,3.0,wc_3,,0.0,,,62.0,,,,,Pass,,,,,
210.0,3.0,wc_3,,0.0,,,,0.0,,,,Pass,,,,,
210.0,3.0,wc_3,wc_3,0.0,"[('wc_3', 0.20000000000000007)]",0.20000000000000007,,,36.0,0.002697,['Pass'],Pass,0.20000000000000007,-0.20000000000000007,0.0,3.0,0.2
210.0,3.0,wc_3,,0.0,,,,0.0,,,,Pass,,,,,
210.0,3.0,wc_3,wc_5,0.0,"[('wc_5', 0.6900000000000005), ('wc_3', 0.20000000000000007)]",0.7520000000000004,,,31.0,0.005619,['Pass'],Pass,0.6900000000000005,-0.4400000000000005,1.0,4.0,0.5
210.0,3.0,wc_3,,0.0,,,,103.0,,,,Pass,,,,,
210.0,3.0,wc_3,wc_4,0.0,"[('wc_4', 0.39000000000000024), ('wc_3', 0.20000000000000007), ('wc_5', 0.6900000000000005)]",0.8487200000000004,,,32.0,0.007461000000000001,['Pass'],Pass,0.39000000000000024,-0.22333333333333358,1.0,6.0,0.1
210.0,3.0,wc_3,,0.0,,,,61.0,,,,Pass,,,,,
210.0,3.0,wc_3,wc_1,1.0,"[('wc_1', 0.3800000000000002), ('wc_3', 0.20000000000000007), ('wc_5', 0.6900000000000005), ('wc_4', 0.39000000000000024)]",0.9062064000000002,,,39.0,0.039515999999999996,['Pass'],Pass,0.39000000000000024,0.10999999999999976,2.0,4.0,0.4
262.0,2.0,wc_2,,0.0,,,,0.0,,,,Fail,,,,,
262.0,2.0,wc_2,,0.0,,,55.0,,,,,Fail,,,,,
262.0,2.0,wc_2,,0.0,,,,0.0,,,,Fail,,,,,
262.0,2.0,wc_2,wc_2,0.0,"[('wc_2', 0.8400000000000006)]",0.8400000000000006,,,28.0,0.003632,['Fail'],Fail,0.8400000000000006,-0.5900000000000006,1.0,4.0,1.0
262.0,2.0,wc_2,,0.0,,,,202.0,,,,Fail,,,,,
262.0,2.0,wc_2,wc_14,0.0,"[('wc_14', 0.6300000000000004), ('wc_2', 0.8400000000000006)]",0.9408000000000003,,,24.0,0.005576,['Fail'],Fail,0.6300000000000004,-0.558571428571429,0.0,0.0,0.9
262.0,2.0,wc_2,,0.0,,,,341.0,,,,Fail,,,,,
262.0,2.0,wc_2,wc_4,1.0,"[('wc_4', 0.39000000000000024), ('wc_2', 0.8400000000000006), ('wc_14', 0.6300000000000004)]",0.9638880000000002,,,31.0,0.041843000000000005,['Fail'],Fail,0.39000000000000024,-0.015000000000000235,3.0,8.0,0.1
308.0,2.0,wc_2,,0.0,,,,81.0,,,,Pass,,,,,
308.0,2.0,wc_2,,0.0,,,60.0,,,,,Pass,,,,,
308.0,2.0,wc_2,,0.0,,,,0.0,,,,Pass,,,,,
308.0,2.0,wc_2,wc_2,0.0,"[('wc_2', 0.8400000000000006)]",0.8400000000000006,,,35.0,0.002397,['Pass'],Pass,0.8400000000000006,-0.4400000000000006,2.0,5.0,1.0
308.0,2.0,wc_2,,0.0,,,,122.0,,,,Pass,,,,,
308.0,2.0,wc_2,wc_6,0.0,"[('wc_2', 0.8400000000000006)]",0.8400000000000006,,,33.0,0.004709,['Pass'],Pass,0.19000000000000006,-0.11307692307692313,0.0,0.0,0.1
308.0,2.0,wc_2,,0.0,,,,202.0,,,,Pass,,,,,
308.0,2.0,wc_2,wc_1,0.0,"[('wc_2', 0.8400000000000006)]",0.8400000000000006,,,21.0,0.005973,['Pass'],Pass,0.39000000000000024,0.009999999999999787,2.0,5.0,0.4
308.0,2.0,wc_2,,0.0,,,,202.0,,,,Pass,,,,,
308.0,2.0,wc_2,wc_13,0.0,"[('wc_13', 0.7200000000000005), ('wc_6', 0.19000000000000006), ('wc_1', 0.39000000000000024)]",0.8616520000000003,,,29.0,0.008324,['Fail'],Pass,0.7200000000000005,-0.7200000000000005,0.0,4.0,0.8
308.0,2.0,wc_2,,0.0,,,,381.0,,,,Pass,,,,,
308.0,2.0,wc_2,wc_5,0.0,"[('wc_5', 0.6900000000000005), ('wc_2', 0.8400000000000006)]",0.9504000000000002,,,22.0,0.011497,['Pass'],Pass,0.6900000000000005,-0.3566666666666672,2.0,6.0,0.5
308.0,2.0,wc_2,,0.0,,,,142.0,,,,Pass,,,,,
308.0,2.0,wc_2,wc_10,1.0,"[('wc_10', 0.7400000000000005), ('wc_2', 0.8400000000000006), ('wc_5', 0.6900000000000005)]",0.9871040000000001,,,30.0,0.044637,['Pass'],Pass,0.7400000000000005,-0.14000000000000057,3.0,5.0,1.0
333.0,5.0,wc_5,,0.0,,,,382.0,,,,Fail,,,,,
333.0,5.0,wc_5,,0.0,,,53.0,,,,,Fail,,,,,
333.0,5.0,wc_5,,0.0,,,,0.0,,,,Fail,,,,,
333.0,5.0,wc_5,wc_5,0.0,"[('wc_5', 0.6900000000000005)]",0.6900000000000005,,,37.0,0.002398,['Fail'],Fail,0.6900000000000005,-0.26142857142857195,3.0,7.0,0.5
333.0,5.0,wc_5,,0.0,,,,61.0,,,,Fail,,,,,
333.0,5.0,wc_5,wc_6,0.0,"[('wc_6', 0.18000000000000005), ('wc_5', 0.6900000000000005)]",0.7458000000000005,,,25.0,0.004704,['Fail'],Fail,0.18000000000000005,-0.18000000000000005,0.0,1.0,0.1
333.0,5.0,wc_5,,0.0,,,,0.0,,,,Fail,,,,,
333.0,5.0,wc_5,wc_10,1.0,"[('wc_10', 0.7400000000000005), ('wc_5', 0.6900000000000005), ('wc_6', 0.18000000000000005)]",0.9339080000000003,,,36.0,0.049299,['Fail'],Fail,0.7400000000000005,-0.07333333333333392,4.0,6.0,1.0
369.0,5.0,wc_5,,0.0,,,,382.0,,,,Pass,,,,,
369.0,5.0,wc_5,,0.0,,,63.0,,,,,Pass,,,,,
369.0,5.0,wc_5,,0.0,,,,0.0,,,,Pass,,,,,
369.0,5.0,wc_5,wc_5,0.0,"[('wc_5', 0.6900000000000005)]",0.6900000000000005,,,33.0,0.003332,['Pass'],Pass,0.6900000000000005,-0.1900000000000005,4.0,8.0,0.5
369.0,5.0,wc_5,,0.0,,,,142.0,,,,Pass,,,,,
369.0,5.0,wc_5,wc_10,0.0,"[('wc_10', 0.7400000000000005), ('wc_5', 0.6900000000000005)]",0.9194000000000003,,,39.0,0.0045249999999999995,['Pass'],Pass,0.7400000000000005,-0.07333333333333392,4.0,6.0,1.0
369.0,5.0,wc_5,,0.0,,,,142.0,,,,Pass,,,,,
369.0,5.0,wc_5,wc_15,1.0,"[('wc_15', 0.5100000000000003), ('wc_5', 0.6900000000000005), ('wc_10', 0.7400000000000005)]",0.9605060000000002,,,30.0,0.043241,['Pass'],Pass,0.5100000000000003,-0.5100000000000003,0.0,0.0,0.5
380.0,6.0,wc_6,,0.0,,,,223.0,,,,Fail,,,,,
380.0,6.0,wc_6,,0.0,,,78.0,,,,,Fail,,,,,
380.0,6.0,wc_6,,0.0,,,,0.0,,,,Fail,,,,,
380.0,6.0,wc_6,wc_6,0.0,"[('wc_6', 0.19000000000000006)]",0.19000000000000006,,,22.0,0.002233,['Pass'],Fail,0.19000000000000006,0.14333333333333326,1.0,3.0,0.1
380.0,6.0,wc_6,,0.0,,,,162.0,,,,Fail,,,,,
380.0,6.0,wc_6,wc_12,0.0,"[('wc_12', 0.8400000000000006)]",0.8400000000000006,,,28.0,0.004391,['Fail'],Fail,0.8400000000000006,-0.6971428571428577,1.0,7.0,0.9
380.0,6.0,wc_6,,0.0,,,,222.0,,,,Fail,,,,,
380.0,6.0,wc_6,wc_8,0.0,"[('wc_8', 0.7300000000000005), ('wc_12', 0.8400000000000006)]",0.9568000000000002,,,33.0,0.006473,['Fail'],Fail,0.7300000000000005,-0.5871428571428576,0.0,0.0,0.9
380.0,6.0,wc_6,,0.0,,,,162.0,,,,Fail,,,,,
380.0,6.0,wc_6,wc_1,1.0,"[('wc_1', 0.3800000000000002), ('wc_12', 0.8400000000000006), ('wc_8', 0.7300000000000005)]",0.9732160000000002,,,34.0,0.03987700000000001,['Fail'],Fail,0.3800000000000002,-0.04666666666666691,3.0,9.0,0.4
396.0,6.0,wc_6,,0.0,,,,142.0,,,,Pass,,,,,
396.0,6.0,wc_6,,0.0,,,76.0,,,,,Pass,,,,,
396.0,6.0,wc_6,,0.0,,,,0.0,,,,Pass,,,,,
396.0,6.0,wc_6,wc_6,0.0,"[('wc_6', 0.19000000000000006)]",0.19000000000000006,,,40.0,0.002131,['Fail'],Pass,0.19000000000000006,0.05999999999999994,1.0,4.0,0.1
396.0,6.0,wc_6,,0.0,,,,182.0,,,,Pass,,,,,
396.0,6.0,wc_6,wc_13,0.0,"[('wc_13', 0.7100000000000005)]",0.7100000000000005,,,39.0,0.008712000000000001,['Pass'],Pass,0.7100000000000005,-0.7100000000000005,0.0,8.0,0.8
396.0,6.0,wc_6,,0.0,,,,102.0,,,,Pass,,,,,
396.0,6.0,wc_6,wc_12,0.0,"[('wc_12', 0.8400000000000006), ('wc_6', 0.19000000000000006)]",0.8704000000000005,,,27.0,0.006172,['Fail'],Pass,0.8400000000000006,-0.5900000000000006,2.0,8.0,0.9
396.0,6.0,wc_6,,0.0,,,,222.0,,,,Pass,,,,,
396.0,6.0,wc_6,wc_8,0.0,"[('wc_8', 0.7400000000000005), ('wc_13', 0.7100000000000005)]",0.9246000000000003,,,23.0,0.011659,['Pass'],Pass,0.7400000000000005,0.25999999999999945,1.0,1.0,0.9
396.0,6.0,wc_6,,0.0,,,,162.0,,,,Pass,,,,,
396.0,6.0,wc_6,wc_14,1.0,"[('wc_14', 0.6400000000000005), ('wc_13', 0.7100000000000005), ('wc_8', 0.7400000000000005)]",0.9728560000000002,,,26.0,0.045634,['Pass'],Pass,0.6400000000000005,-0.30666666666666714,2.0,6.0,0.9
402.0,9.0,wc_9,,0.0,,,,281.0,,,,Fail,,,,,
402.0,9.0,wc_9,,0.0,,,50.0,,,,,Fail,,,,,
402.0,9.0,wc_9,,0.0,,,,0.0,,,,Fail,,,,,
402.0,9.0,wc_9,wc_9,0.0,"[('wc_9', 0.5600000000000004)]",0.5600000000000004,,,39.0,0.002209,['Fail'],Fail,0.5600000000000004,-0.5011764705882357,0.0,0.0,0.5
402.0,9.0,wc_9,,0.0,,,,0.0,,,,Fail,,,,,
402.0,9.0,wc_9,wc_11,0.0,"[('wc_11', 0.7300000000000005), ('wc_9', 0.5600000000000004)]",0.8812000000000003,,,31.0,0.003985000000000001,['Fail'],Fail,0.7300000000000005,-0.6050000000000005,0.0,0.0,0.8
402.0,9.0,wc_9,,0.0,,,,122.0,,,,Fail,,,,,
402.0,9.0,wc_9,wc_15,1.0,"[('wc_15', 0.5100000000000003), ('wc_9', 0.5600000000000004), ('wc_11', 0.7300000000000005)]",0.9417880000000002,,,34.0,0.039767000000000004,['Fail'],Fail,0.5100000000000003,-0.17666666666666703,1.0,3.0,0.5
413.0,9.0,wc_9,,0.0,,,,362.0,,,,Fail,,,,,
413.0,9.0,wc_9,,0.0,,,75.0,,,,,Fail,,,,,
413.0,9.0,wc_9,,0.0,,,,0.0,,,,Fail,,,,,
413.0,9.0,wc_9,wc_9,0.0,"[('wc_9', 0.5700000000000004)]",0.5700000000000004,,,37.0,0.003166,['Fail'],Fail,0.5700000000000004,0.4299999999999996,1.0,1.0,0.5
413.0,9.0,wc_9,,0.0,,,,202.0,,,,Fail,,,,,
413.0,9.0,wc_9,wc_17,0.0,"[('wc_17', 0.6100000000000004)]",0.6100000000000004,,,30.0,0.004139,['Pass'],Fail,0.6100000000000004,-0.32428571428571473,0.0,0.0,0.5
413.0,9.0,wc_9,,0.0,,,,402.0,,,,Fail,,,,,
413.0,9.0,wc_9,wc_5,0.0,"[('wc_5', 0.6900000000000005), ('wc_9', 0.5700000000000004)]",0.8667000000000004,,,32.0,0.009078000000000001,['Fail'],Fail,0.6900000000000005,-0.2733333333333338,0.0,0.0,0.5
413.0,9.0,wc_9,,0.0,,,,83.0,,,,Fail,,,,,
413.0,9.0,wc_9,wc_3,0.0,"[('wc_9', 0.5700000000000004), ('wc_5', 0.6900000000000005)]",0.8667000000000004,,,32.0,0.00822,['Fail'],Fail,0.21000000000000008,-0.11909090909090916,0.0,0.0,0.2
413.0,9.0,wc_9,,0.0,,,,141.0,,,,Fail,,,,,
413.0,9.0,wc_9,wc_12,1.0,"[('wc_12', 0.8300000000000006), ('wc_9', 0.5700000000000004), ('wc_5', 0.6900000000000005)]",0.9773390000000002,,,21.0,0.041391000000000004,['Fail'],Fail,0.8300000000000006,-0.8300000000000006,0.0,0.0,0.9
426.0,7.0,wc_7,,0.0,,,,202.0,,,,Fail,,,,,
426.0,7.0,wc_7,,0.0,,,71.0,,,,,Fail,,,,,
426.0,7.0,wc_7,,0.0,,,,0.0,,,,Fail,,,,,
426.0,7.0,wc_7,wc_7,0.0,"[('wc_7', 0.6100000000000004)]",0.6100000000000004,,,30.0,0.00501,['Fail'],Fail,0.6100000000000004,-0.6100000000000004,0.0,0.0,0.6
426.0,7.0,wc_7,,0.0,,,,102.0,,,,Fail,,,,,
426.0,7.0,wc_7,wc_6,0.0,"[('wc_6', 0.19000000000000006), ('wc_7', 0.6100000000000004)]",0.6841000000000004,,,37.0,0.00897,['Fail'],Fail,0.19000000000000006,-0.04714285714285721,1.0,7.0,0.1
426.0,7.0,wc_7,,0.0,,,,202.0,,,,Fail,,,,,
426.0,7.0,wc_7,wc_14,0.0,"[('wc_14', 0.6400000000000005), ('wc_7', 0.6100000000000004), ('wc_6', 0.19000000000000006)]",0.8862760000000003,,,26.0,0.008074,['Fail'],Fail,0.6400000000000005,-0.39000000000000046,2.0,8.0,0.9
426.0,7.0,wc_7,,0.0,,,,0.0,,,,Fail,,,,,
426.0,7.0,wc_7,wc_17,1.0,"[('wc_17', 0.6000000000000004), ('wc_7', 0.6100000000000004), ('wc_6', 0.19000000000000006), ('wc_14', 0.6400000000000005)]",0.9545104000000002,,,36.0,0.0434,['Fail'],Fail,0.6000000000000004,-0.10000000000000042,1.0,2.0,0.5
433.0,8.0,wc_8,,0.0,,,,223.0,,,,Pass,,,,,
433.0,8.0,wc_8,,0.0,,,58.0,,,,,Pass,,,,,
433.0,8.0,wc_8,,0.0,,,,0.0,,,,Pass,,,,,
433.0,8.0,wc_8,wc_8,0.0,"[('wc_8', 0.7500000000000006)]",0.7500000000000006,,,24.0,0.002313,['Pass'],Pass,0.7500000000000006,-0.35000000000000053,2.0,5.0,0.9
433.0,8.0,wc_8,,0.0,,,,301.0,,,,Pass,,,,,
433.0,8.0,wc_8,wc_4,0.0,"[('wc_4', 0.39000000000000024), ('wc_8', 0.7500000000000006)]",0.8475000000000004,,,36.0,0.004442,['Pass'],Pass,0.39000000000000024,-0.20250000000000024,0.0,0.0,0.1
433.0,8.0,wc_8,,0.0,,,,202.0,,,,Pass,,,,,
433.0,8.0,wc_8,wc_16,1.0,"[('wc_16', 0.3800000000000002), ('wc_8', 0.7500000000000006), ('wc_4', 0.39000000000000024)]",0.9054500000000003,,,20.0,0.042239,['Pass'],Pass,0.3800000000000002,-0.3800000000000002,0.0,0.0,0.3
446.0,11.0,wc_11,,0.0,,,,382.0,,,,Pass,,,,,
446.0,11.0,wc_11,,0.0,,,76.0,,,,,Pass,,,,,
446.0,11.0,wc_11,,0.0,,,,0.0,,,,Pass,,,,,
446.0,11.0,wc_11,wc_11,0.0,"[('wc_11', 0.7400000000000005)]",0.7400000000000005,,,26.0,0.002389,['Pass'],Pass,0.7400000000000005,-0.49000000000000055,1.0,4.0,0.8
446.0,11.0,wc_11,,0.0,,,,203.0,,,,Pass,,,,,
446.0,11.0,wc_11,wc_1,0.0,"[('wc_1', 0.3800000000000002), ('wc_11', 0.7400000000000005)]",0.8388000000000004,,,33.0,0.004177,['Pass'],Pass,0.3800000000000002,-0.16571428571428595,0.0,0.0,0.4
446.0,11.0,wc_11,,0.0,,,,162.0,,,,Pass,,,,,
446.0,11.0,wc_11,wc_7,0.0,"[('wc_11', 0.7400000000000005), ('wc_1', 0.3800000000000002)]",0.8388000000000004,,,26.0,0.009513,['Pass'],Pass,0.6200000000000004,-0.12000000000000044,1.0,2.0,0.6
446.0,11.0,wc_11,,0.0,,,,142.0,,,,Pass,,,,,
446.0,11.0,wc_11,wc_12,1.0,"[('wc_12', 0.8300000000000006), ('wc_11', 0.7400000000000005), ('wc_1', 0.3800000000000002)]",0.9725960000000001,,,26.0,0.042267,['Pass'],Pass,0.8300000000000006,-0.4966666666666673,1.0,3.0,0.9
463.0,9.0,wc_9,,0.0,,,,321.0,,,,Fail,,,,,
463.0,9.0,wc_9,,0.0,,,73.0,,,,,Fail,,,,,
463.0,9.0,wc_9,,0.0,,,,0.0,,,,Fail,,,,,
463.0,9.0,wc_9,wc_9,0.0,"[('wc_9', 0.5800000000000004)]",0.5800000000000004,,,29.0,0.005358,['Pass'],Fail,0.5800000000000004,-0.18000000000000038,2.0,5.0,0.5
463.0,9.0,wc_9,,0.0,,,,182.0,,,,Fail,,,,,
463.0,9.0,wc_9,wc_16,0.0,"[('wc_16', 0.3800000000000002), ('wc_9', 0.5800000000000004)]",0.7396000000000004,,,29.0,0.004093,['Pass'],Fail,0.3800000000000002,-0.3800000000000002,0.0,1.0,0.3
463.0,9.0,wc_9,,0.0,,,,402.0,,,,Fail,,,,,
463.0,9.0,wc_9,wc_4,0.0,"[('wc_9', 0.5800000000000004), ('wc_16', 0.3800000000000002)]",0.7396000000000004,,,22.0,0.005469,['Pass'],Fail,0.40000000000000024,0.09999999999999976,1.0,2.0,0.1
463.0,9.0,wc_9,,0.0,,,,161.0,,,,Fail,,,,,
463.0,9.0,wc_9,wc_14,0.0,"[('wc_14', 0.6400000000000005), ('wc_4', 0.40000000000000024)]",0.7840000000000004,,,38.0,0.009302999999999999,['Fail'],Fail,0.6400000000000005,-0.36727272727272775,0.0,0.0,0.9
463.0,9.0,wc_9,,0.0,,,,102.0,,,,Fail,,,,,
463.0,9.0,wc_9,wc_13,1.0,"[('wc_13', 0.7100000000000005), ('wc_4', 0.40000000000000024), ('wc_14', 0.6400000000000005)]",0.9373600000000002,,,39.0,0.06810500000000001,['Fail'],Fail,0.7100000000000005,-0.7100000000000005,0.0,0.0,0.8
471.0,7.0,wc_7,,0.0,,,,182.0,,,,Pass,,,,,
471.0,7.0,wc_7,,0.0,,,55.0,,,,,Pass,,,,,
471.0,7.0,wc_7,,0.0,,,,0.0,,,,Pass,,,,,
471.0,7.0,wc_7,wc_7,0.0,"[('wc_7', 0.6100000000000004)]",0.6100000000000004,,,32.0,0.00222,['Pass'],Pass,0.6100000000000004,-0.36000000000000043,1.0,4.0,0.6
471.0,7.0,wc_7,,0.0,,,,0.0,,,,Pass,,,,,
471.0,7.0,wc_7,wc_10,0.0,"[('wc_10', 0.7400000000000005), ('wc_7', 0.6100000000000004)]",0.8986000000000003,,,39.0,0.0045579999999999996,['Pass'],Pass,0.7400000000000005,-0.40666666666666723,0.0,0.0,1.0
471.0,7.0,wc_7,,0.0,,,,382.0,,,,Pass,,,,,
471.0,7.0,wc_7,wc_5,1.0,"[('wc_5', 0.7000000000000005), ('wc_7', 0.6100000000000004), ('wc_10', 0.7400000000000005)]",0.9695800000000001,,,35.0,0.037942000000000004,['Pass'],Pass,0.7000000000000005,-0.3666666666666672,2.0,6.0,0.5
478.0,9.0,wc_9,,0.0,,,,122.0,,,,Pass,,,,,
478.0,9.0,wc_9,,0.0,,,62.0,,,,,Pass,,,,,
478.0,9.0,wc_9,,0.0,,,,0.0,,,,Pass,,,,,
478.0,9.0,wc_9,wc_9,0.0,"[('wc_9', 0.5700000000000004)]",0.5700000000000004,,,28.0,0.002228,['Pass'],Pass,0.5700000000000004,-0.2842857142857147,2.0,7.0,0.5
478.0,9.0,wc_9,,0.0,,,,362.0,,,,Pass,,,,,
478.0,9.0,wc_9,wc_3,0.0,"[('wc_9', 0.5700000000000004)]",0.5700000000000004,,,35.0,0.003983,['Pass'],Pass,0.20000000000000007,-0.20000000000000007,0.0,6.0,0.2
478.0,9.0,wc_9,,0.0,,,,101.0,,,,Pass,,,,,
478.0,9.0,wc_9,wc_6,0.0,"[('wc_9', 0.5700000000000004)]",0.5700000000000004,,,27.0,0.00653,['Pass'],Pass,0.20000000000000007,-0.03333333333333341,0.0,0.0,0.1
478.0,9.0,wc_9,,0.0,,,,263.0,,,,Pass,,,,,
478.0,9.0,wc_9,wc_17,0.0,"[('wc_17', 0.6000000000000004), ('wc_9', 0.5700000000000004)]",0.8280000000000003,,,29.0,0.009477,['Pass'],Pass,0.6000000000000004,-0.4333333333333338,1.0,6.0,0.5
478.0,9.0,wc_9,,0.0,,,,342.0,,,,Pass,,,,,
478.0,9.0,wc_9,wc_10,1.0,"[('wc_10', 0.7500000000000006), ('wc_9', 0.5700000000000004), ('wc_17', 0.6000000000000004)]",0.9570000000000002,,,24.0,0.045763000000000005,['Pass'],Pass,0.7600000000000006,0.23999999999999944,2.0,2.0,1.0
498.0,10.0,wc_10,,0.0,,,,0.0,,,,Fail,,,,,
498.0,10.0,wc_10,,0.0,,,77.0,,,,,Fail,,,,,
498.0,10.0,wc_10,,0.0,,,,0.0,,,,Fail,,,,,
498.0,10.0,wc_10,wc_10,0.0,"[('wc_10', 0.7600000000000006)]",0.7600000000000006,,,21.0,0.002735,['Fail'],Fail,0.7600000000000006,0.23999999999999944,2.0,2.0,1.0
498.0,10.0,wc_10,,0.0,,,,382.0,,,,Fail,,,,,
498.0,10.0,wc_10,wc_5,0.0,"[('wc_5', 0.7000000000000005), ('wc_10', 0.7600000000000006)]",0.9280000000000003,,,27.0,0.005204,['Fail'],Fail,0.7000000000000005,-0.4142857142857148,2.0,7.0,0.5
498.0,10.0,wc_10,,0.0,,,,103.0,,,,Fail,,,,,
498.0,10.0,wc_10,wc_4,1.0,"[('wc_4', 0.41000000000000025), ('wc_10', 0.7600000000000006), ('wc_5', 0.7000000000000005)]",0.9575200000000001,,,37.0,0.05917099999999999,['Fail'],Fail,0.42000000000000026,0.07999999999999974,3.0,6.0,0.1
514.0,10.0,wc_10,,0.0,,,,162.0,,,,Pass,,,,,
514.0,10.0,wc_10,,0.0,,,71.0,,,,,Pass,,,,,
514.0,10.0,wc_10,,0.0,,,,0.0,,,,Pass,,,,,
514.0,10.0,wc_10,wc_10,0.0,"[('wc_10', 0.7700000000000006)]",0.7700000000000006,,,22.0,0.003178,['Pass'],Pass,0.7700000000000006,0.22999999999999943,3.0,3.0,1.0
514.0,10.0,wc_10,,0.0,,,,182.0,,,,Pass,,,,,
514.0,10.0,wc_10,wc_17,0.0,"[('wc_10', 0.7700000000000006)]",0.7700000000000006,,,32.0,0.004258,['Pass'],Pass,0.6000000000000004,-0.3500000000000004,2.0,8.0,0.5
514.0,10.0,wc_10,,0.0,,,,103.0,,,,Pass,,,,,
514.0,10.0,wc_10,wc_16,0.0,"[('wc_16', 0.3700000000000002), ('wc_10', 0.7700000000000006)]",0.8551000000000004,,,24.0,0.006557,['Pass'],Pass,0.3700000000000002,-0.3700000000000002,0.0,5.0,0.3
514.0,10.0,wc_10,,0.0,,,,243.0,,,,Pass,,,,,
514.0,10.0,wc_10,wc_8,1.0,"[('wc_8', 0.7500000000000006), ('wc_10', 0.7700000000000006), ('wc_16', 0.3700000000000002)]",0.9637750000000002,,,35.0,0.04116299999999999,['Pass'],Pass,0.7500000000000006,-0.7500000000000006,0.0,0.0,0.9
531.0,12.0,wc_12,,0.0,,,,122.0,,,,Pass,,,,,
531.0,12.0,wc_12,,0.0,,,54.0,,,,,Pass,,,,,
531.0,12.0,wc_12,,0.0,,,,0.0,,,,Pass,,,,,
531.0,12.0,wc_12,wc_12,0.0,"[('wc_12', 0.8300000000000006)]",0.8300000000000006,,,38.0,0.002414,['Pass'],Pass,0.8300000000000006,-0.7050000000000006,1.0,8.0,0.9
531.0,12.0,wc_12,,0.0,,,,321.0,,,,Pass,,,,,
531.0,12.0,wc_12,wc_9,0.0,"[('wc_9', 0.5700000000000004), ('wc_12', 0.8300000000000006)]",0.9269000000000003,,,22.0,0.0041919999999999995,['Pass'],Pass,0.5700000000000004,-0.2700000000000004,0.0,0.0,0.5
531.0,12.0,wc_12,,0.0,,,,182.0,,,,Pass,,,,,
531.0,12.0,wc_12,wc_16,0.0,"[('wc_12', 0.8300000000000006), ('wc_9', 0.5700000000000004)]",0.9269000000000003,,,24.0,0.006541999999999999,['Pass'],Pass,0.3700000000000002,-0.20333333333333356,1.0,6.0,0.3
531.0,12.0,wc_12,,0.0,,,,362.0,,,,Pass,,,,,
531.0,12.0,wc_12,wc_10,0.0,"[('wc_12', 0.8300000000000006), ('wc_9', 0.5700000000000004)]",0.9269000000000003,,,38.0,0.009433,['Pass'],Pass,0.7800000000000006,0.21999999999999942,4.0,4.0,1.0
531.0,12.0,wc_12,,0.0,,,,121.0,,,,Pass,,,,,
531.0,12.0,wc_12,wc_14,1.0,"[('wc_14', 0.6500000000000005), ('wc_12', 0.8300000000000006), ('wc_9', 0.5700000000000004)]",0.9744150000000001,,,29.0,0.042806,['Pass'],Pass,0.6500000000000005,-0.31666666666666715,2.0,6.0,0.9
551.0,13.0,wc_13,,0.0,,,,102.0,,,,Pass,,,,,
551.0,13.0,wc_13,,0.0,,,51.0,,,,,Pass,,,,,
551.0,13.0,wc_13,,0.0,,,,0.0,,,,Pass,,,,,
551.0,13.0,wc_13,wc_13,0.0,"[('wc_13', 0.7100000000000005)]",0.7100000000000005,,,31.0,0.002873,['Pass'],Pass,0.7100000000000005,-0.7100000000000005,0.0,5.0,0.8
551.0,13.0,wc_13,,0.0,,,,361.0,,,,Pass,,,,,
551.0,13.0,wc_13,wc_4,0.0,"[('wc_4', 0.42000000000000026), ('wc_13', 0.7100000000000005)]",0.8318000000000003,,,35.0,0.004548999999999999,['Pass'],Pass,0.42000000000000026,-0.04500000000000026,3.0,8.0,0.1
551.0,13.0,wc_13,,0.0,,,,81.0,,,,Pass,,,,,
551.0,13.0,wc_13,wc_2,1.0,"[('wc_2', 0.8400000000000006), ('wc_13', 0.7100000000000005), ('wc_4', 0.42000000000000026)]",0.9730880000000002,,,26.0,0.04096999999999999,['Pass'],Pass,0.8400000000000006,-0.8400000000000006,0.0,0.0,1.0
558.0,16.0,wc_16,,0.0,,,,243.0,,,,Fail,,,,,
558.0,16.0,wc_16,,0.0,,,73.0,,,,,Fail,,,,,
558.0,16.0,wc_16,,0.0,,,,0.0,,,,Fail,,,,,
558.0,16.0,wc_16,wc_16,0.0,"[('wc_16', 0.3600000000000002)]",0.3600000000000002,,,31.0,0.002116,['Pass'],Fail,0.3600000000000002,-0.2350000000000002,1.0,8.0,0.3
558.0,16.0,wc_16,,0.0,,,,61.0,,,,Fail,,,,,
558.0,16.0,wc_16,wc_13,0.0,"[('wc_13', 0.7100000000000005)]",0.7100000000000005,,,30.0,0.005515,['Fail'],Fail,0.7100000000000005,-0.5433333333333339,1.0,6.0,0.8
558.0,16.0,wc_16,,0.0,,,,102.0,,,,Fail,,,,,
558.0,16.0,wc_16,wc_12,0.0,"[('wc_12', 0.8300000000000006), ('wc_13', 0.7100000000000005)]",0.9507000000000003,,,39.0,0.007353,['Fail'],Fail,0.8300000000000006,-0.6300000000000006,0.0,0.0,0.9
558.0,16.0,wc_16,,0.0,,,,262.0,,,,Fail,,,,,
558.0,16.0,wc_16,wc_2,1.0,"[('wc_2', 0.8400000000000006), ('wc_13', 0.7100000000000005), ('wc_12', 0.8300000000000006)]",0.9921120000000001,,,26.0,0.041769,['Fail'],Fail,0.8500000000000006,0.14999999999999936,1.0,1.0,1.0
561.0,16.0,wc_16,,0.0,,,,243.0,,,,Fail,,,,,
561.0,16.0,wc_16,,0.0,,,53.0,,,,,Fail,,,,,
561.0,16.0,wc_16,,0.0,,,,0.0,,,,Fail,,,,,
561.0,16.0,wc_16,wc_16,0.0,"[('wc_16', 0.3500000000000002)]",0.3500000000000002,,,20.0,0.002008,['Pass'],Fail,0.3500000000000002,-0.2388888888888891,1.0,9.0,0.3
561.0,16.0,wc_16,,0.0,,,,263.0,,,,Fail,,,,,
561.0,16.0,wc_16,wc_1,0.0,"[('wc_1', 0.39000000000000024), ('wc_16', 0.3500000000000002)]",0.6035000000000003,,,36.0,0.0055379999999999995,['Pass'],Fail,0.39000000000000024,-0.27888888888888913,1.0,9.0,0.4
561.0,16.0,wc_16,,0.0,,,,182.0,,,,Fail,,,,,
561.0,16.0,wc_16,wc_12,0.0,"[('wc_12', 0.8400000000000006)]",0.8400000000000006,,,29.0,0.006168999999999999,['Fail'],Fail,0.8400000000000006,0.15999999999999936,1.0,1.0,0.9
561.0,16.0,wc_16,,0.0,,,,401.0,,,,Fail,,,,,
561.0,16.0,wc_16,wc_5,0.0,"[('wc_5', 0.7000000000000005), ('wc_12', 0.8400000000000006)]",0.9520000000000003,,,24.0,0.00797,['Fail'],Fail,0.7000000000000005,-0.4500000000000005,0.0,0.0,0.5
561.0,16.0,wc_16,,0.0,,,,162.0,,,,Fail,,,,,
561.0,16.0,wc_16,wc_15,1.0,"[('wc_15', 0.5100000000000003), ('wc_12', 0.8400000000000006), ('wc_5', 0.7000000000000005)]",0.9764800000000001,,,24.0,0.051105,['Fail'],Fail,0.5100000000000003,-0.5100000000000003,0.0,0.0,0.5
569.0,14.0,wc_14,,0.0,,,,101.0,,,,Pass,,,,,
569.0,14.0,wc_14,,0.0,,,68.0,,,,,Pass,,,,,
569.0,14.0,wc_14,,0.0,,,,0.0,,,,Pass,,,,,
569.0,14.0,wc_14,wc_14,0.0,"[('wc_14', 0.6500000000000005)]",0.6500000000000005,,,26.0,0.004073,['Pass'],Pass,0.6500000000000005,-0.42777777777777826,2.0,9.0,0.9
569.0,14.0,wc_14,,0.0,,,,0.0,,,,Pass,,,,,
569.0,14.0,wc_14,wc_17,0.0,"[('wc_17', 0.5900000000000004), ('wc_14', 0.6500000000000005)]",0.8565000000000004,,,25.0,0.005860000000000001,['Pass'],Pass,0.5900000000000004,-0.43615384615384656,0.0,0.0,0.5
569.0,14.0,wc_14,,0.0,,,,103.0,,,,Pass,,,,,
569.0,14.0,wc_14,wc_16,1.0,"[('wc_16', 0.3400000000000002), ('wc_14', 0.6500000000000005), ('wc_17', 0.5900000000000004)]",0.9052900000000003,,,21.0,0.041706,['Pass'],Pass,0.3500000000000002,0.6499999999999998,1.0,1.0,0.3
578.0,15.0,wc_15,,0.0,,,,103.0,,,,Fail,,,,,
578.0,15.0,wc_15,,0.0,,,64.0,,,,,Fail,,,,,
578.0,15.0,wc_15,,0.0,,,,0.0,,,,Fail,,,,,
578.0,15.0,wc_15,wc_15,0.0,"[('wc_15', 0.5100000000000003)]",0.5100000000000003,,,40.0,0.003059,['Pass'],Fail,0.5100000000000003,-0.5100000000000003,0.0,1.0,0.5
578.0,15.0,wc_15,,0.0,,,,81.0,,,,Fail,,,,,
578.0,15.0,wc_15,wc_13,0.0,"[('wc_13', 0.7100000000000005)]",0.7100000000000005,,,36.0,0.003882,['Fail'],Fail,0.7100000000000005,-0.4877777777777783,2.0,9.0,0.8
578.0,15.0,wc_15,,0.0,,,,381.0,,,,Fail,,,,,
578.0,15.0,wc_15,wc_5,0.0,"[('wc_5', 0.7100000000000005), ('wc_13', 0.7100000000000005)]",0.9159000000000003,,,27.0,0.005692,['Fail'],Fail,0.7100000000000005,-0.21000000000000052,1.0,2.0,0.5
578.0,15.0,wc_15,,0.0,,,,83.0,,,,Fail,,,,,
578.0,15.0,wc_15,wc_3,1.0,"[('wc_3', 0.19000000000000006), ('wc_13', 0.7100000000000005), ('wc_5', 0.7100000000000005)]",0.9318790000000002,,,22.0,0.049062999999999996,['Fail'],Fail,0.19000000000000006,-0.19000000000000006,0.0,0.0,0.2
589.0,15.0,wc_15,,0.0,,,,202.0,,,,Pass,,,,,
589.0,15.0,wc_15,,0.0,,,64.0,,,,,Pass,,,,,
589.0,15.0,wc_15,,0.0,,,,0.0,,,,Pass,,,,,
589.0,15.0,wc_15,wc_15,0.0,"[('wc_15', 0.5000000000000003)]",0.5000000000000003,,,34.0,0.003245,['Pass'],Pass,0.5000000000000003,-0.5000000000000003,0.0,2.0,0.5
589.0,15.0,wc_15,,0.0,,,,0.0,,,,Pass,,,,,
589.0,15.0,wc_15,wc_17,0.0,"[('wc_17', 0.6000000000000004), ('wc_15', 0.5000000000000003)]",0.8000000000000004,,,33.0,0.004146,['Pass'],Pass,0.6000000000000004,-0.10000000000000042,1.0,2.0,0.5
589.0,15.0,wc_15,,0.0,,,,362.0,,,,Pass,,,,,
589.0,15.0,wc_15,wc_3,0.0,"[('wc_15', 0.5000000000000003), ('wc_17', 0.6000000000000004)]",0.8000000000000004,,,30.0,0.005386,['Pass'],Pass,0.19000000000000006,-0.19000000000000006,0.0,0.0,0.2
589.0,15.0,wc_15,,0.0,,,,81.0,,,,Pass,,,,,
589.0,15.0,wc_15,wc_1,0.0,"[('wc_15', 0.5000000000000003), ('wc_17', 0.6000000000000004)]",0.8000000000000004,,,22.0,0.007943,['Pass'],Pass,0.3800000000000002,-0.3800000000000002,0.0,2.0,0.4
589.0,15.0,wc_15,,0.0,,,,0.0,,,,Pass,,,,,
589.0,15.0,wc_15,wc_2,1.0,"[('wc_2', 0.8500000000000006), ('wc_3', 0.19000000000000006), ('wc_1', 0.3800000000000002)]",0.9246700000000003,,,38.0,0.045113,['Fail'],Pass,0.8500000000000006,-0.4500000000000006,2.0,5.0,1.0
598.0,16.0,wc_16,,0.0,,,,243.0,,,,Pass,,,,,
598.0,16.0,wc_16,,0.0,,,73.0,,,,,Pass,,,,,
598.0,16.0,wc_16,,0.0,,,,0.0,,,,Pass,,,,,
598.0,16.0,wc_16,wc_16,0.0,"[('wc_16', 0.3500000000000002)]",0.3500000000000002,,,28.0,0.002222,['Pass'],Pass,0.3500000000000002,-0.016666666666666885,1.0,3.0,0.3
598.0,16.0,wc_16,,0.0,,,,283.0,,,,Pass,,,,,
598.0,16.0,wc_16,wc_2,0.0,"[('wc_2', 0.8500000000000006), ('wc_16', 0.3500000000000002)]",0.9025000000000004,,,29.0,0.004339,['Pass'],Pass,0.8500000000000006,-0.4500000000000006,2.0,5.0,1.0
598.0,16.0,wc_16,,0.0,,,,0.0,,,,Pass,,,,,
598.0,16.0,wc_16,wc_4,0.0,"[('wc_16', 0.3500000000000002), ('wc_2', 0.8500000000000006)]",0.9025000000000004,,,39.0,0.006634000000000001,['Pass'],Pass,0.43000000000000027,-0.14428571428571457,0.0,0.0,0.1
598.0,16.0,wc_16,,0.0,,,,161.0,,,,Pass,,,,,
598.0,16.0,wc_16,wc_14,1.0,"[('wc_14', 0.6500000000000005), ('wc_16', 0.3500000000000002), ('wc_2', 0.8500000000000006)]",0.9658750000000003,,,31.0,0.060263,['Pass'],Pass,0.6500000000000005,-0.31666666666666715,1.0,3.0,0.9
610.0,17.0,wc_17,,0.0,,,,0.0,,,,Pass,,,,,
610.0,17.0,wc_17,,0.0,,,79.0,,,,,Pass,,,,,
610.0,17.0,wc_17,,0.0,,,,0.0,,,,Pass,,,,,
610.0,17.0,wc_17,wc_17,0.0,"[('wc_17', 0.5900000000000004)]",0.5900000000000004,,,30.0,0.002958,['Fail'],Pass,0.5900000000000004,-0.3400000000000004,1.0,4.0,0.5
610.0,17.0,wc_17,,0.0,,,,61.0,,,,Pass,,,,,
610.0,17.0,wc_17,wc_14,0.0,"[('wc_14', 0.6500000000000005)]",0.6500000000000005,,,26.0,0.003972,['Pass'],Pass,0.6500000000000005,-0.31666666666666715,1.0,3.0,0.9
610.0,17.0,wc_17,,0.0,,,,301.0,,,,Pass,,,,,
610.0,17.0,wc_17,wc_10,0.0,"[('wc_10', 0.7800000000000006), ('wc_14', 0.6500000000000005)]",0.9230000000000003,,,30.0,0.006209999999999999,['Pass'],Pass,0.7800000000000006,-0.44666666666666727,0.0,0.0,1.0
610.0,17.0,wc_17,,0.0,,,,342.0,,,,Pass,,,,,
610.0,17.0,wc_17,wc_3,0.0,"[('wc_14', 0.6500000000000005), ('wc_10', 0.7800000000000006)]",0.9230000000000003,,,28.0,0.007723,['Pass'],Pass,0.20000000000000007,0.29999999999999993,1.0,2.0,0.2
610.0,17.0,wc_17,,0.0,,,,161.0,,,,Pass,,,,,
610.0,17.0,wc_17,wc_13,1.0,"[('wc_13', 0.7100000000000005), ('wc_14', 0.6500000000000005), ('wc_10', 0.7800000000000006)]",0.9776700000000002,,,33.0,0.04618799999999999,['Pass'],Pass,0.7100000000000005,-0.3766666666666672,1.0,3.0,0.8
