mpecck/BCQC/bcqc_with_qdt/results/raw/input_13/independent_qc/training/20_workpiece/20200429_090311/wp_10_qc_majority_0.9.csv
production_index,step_idx,production_workcell,qc,consent,winner_qc_list,score,production_time,transport_time,inspection_time,network_time,qc_results,actual_quality,qc_score,score_error,in_winner_counter,in_qc_counter,qc_capability
33.0,1.0,wc_1,,0.0,,,69.0,,,,,Fail,,,,,
33.0,1.0,wc_1,,0.0,,,,0.0,,,,Fail,,,,,
33.0,1.0,wc_1,wc_1,0.0,"[('wc_1', 0.3600000000000002)]",0.3600000000000002,,,28.0,0.002453,['Fail'],Fail,0.3600000000000002,-0.1600000000000002,1.0,5.0,0.4
33.0,1.0,wc_1,,0.0,,,,0.0,,,,Fail,,,,,
33.0,1.0,wc_1,wc_5,0.0,"[('wc_5', 0.6100000000000004), ('wc_1', 0.3600000000000002)]",0.7504000000000004,,,35.0,0.004018,['Fail'],Fail,0.6100000000000004,-0.538571428571429,0.0,0.0,0.5
33.0,1.0,wc_1,,0.0,,,,101.0,,,,Fail,,,,,
33.0,1.0,wc_1,wc_12,0.0,"[('wc_1', 0.3600000000000002), ('wc_5', 0.6100000000000004)]",0.7504000000000004,,,22.0,0.006713,['Fail'],Fail,0.7100000000000005,-0.5281818181818188,0.0,0.0,0.9
33.0,1.0,wc_1,,0.0,,,,202.0,,,,Fail,,,,,
33.0,1.0,wc_1,wc_7,0.0,"[('wc_7', 0.5200000000000004), ('wc_1', 0.3600000000000002), ('wc_5', 0.6100000000000004)]",0.8801920000000003,,,35.0,0.008265000000000002,['Fail'],Fail,0.5200000000000004,-0.5200000000000004,0.0,0.0,0.6
33.0,1.0,wc_1,,0.0,,,,243.0,,,,Fail,,,,,
33.0,1.0,wc_1,wc_17,0.0,"[('wc_1', 0.3600000000000002), ('wc_5', 0.6100000000000004), ('wc_7', 0.5200000000000004)]",0.8801920000000003,,,24.0,0.016612000000000002,['Fail'],Fail,0.5000000000000003,0.49999999999999967,1.0,1.0,0.5
33.0,1.0,wc_1,,0.0,,,,362.0,,,,Fail,,,,,
33.0,1.0,wc_1,wc_11,1.0,"[('wc_11', 0.6500000000000005), ('wc_1', 0.3600000000000002), ('wc_5', 0.6100000000000004), ('wc_7', 0.5200000000000004)]",0.9580672000000001,,,20.0,0.044264000000000005,['Fail'],Fail,0.6600000000000005,0.0066666666666661545,4.0,6.0,0.8
133.0,1.0,wc_1,,0.0,,,,203.0,,,,Pass,,,,,
133.0,1.0,wc_1,,0.0,,,79.0,,,,,Pass,,,,,
133.0,1.0,wc_1,,0.0,,,,0.0,,,,Pass,,,,,
133.0,1.0,wc_1,wc_1,0.0,"[('wc_1', 0.3600000000000002)]",0.3600000000000002,,,40.0,0.006729,['Pass'],Pass,0.3600000000000002,-0.026666666666666894,2.0,6.0,0.4
133.0,1.0,wc_1,,0.0,,,,222.0,,,,Pass,,,,,
133.0,1.0,wc_1,wc_14,0.0,"[('wc_14', 0.6100000000000004), ('wc_1', 0.3600000000000002)]",0.7504000000000004,,,27.0,0.012672,['Pass'],Pass,0.6100000000000004,-0.6100000000000004,0.0,2.0,0.9
133.0,1.0,wc_1,,0.0,,,,0.0,,,,Pass,,,,,
133.0,1.0,wc_1,wc_16,0.0,"[('wc_1', 0.3600000000000002), ('wc_14', 0.6100000000000004)]",0.7504000000000004,,,28.0,0.01048,['Pass'],Pass,0.42000000000000026,-0.08666666666666695,2.0,6.0,0.3
133.0,1.0,wc_1,,0.0,,,,203.0,,,,Pass,,,,,
133.0,1.0,wc_1,wc_6,0.0,"[('wc_1', 0.3600000000000002), ('wc_14', 0.6100000000000004)]",0.7504000000000004,,,20.0,0.00892,['Pass'],Pass,0.19000000000000006,-0.10666666666666673,0.0,0.0,0.1
133.0,1.0,wc_1,,0.0,,,,222.0,,,,Pass,,,,,
133.0,1.0,wc_1,wc_2,1.0,"[('wc_2', 0.7100000000000005), ('wc_1', 0.3600000000000002), ('wc_14', 0.6100000000000004)]",0.9276160000000002,,,39.0,0.045029999999999994,['Pass'],Pass,0.7100000000000005,-0.7100000000000005,0.0,0.0,1.0
163.0,2.0,wc_2,,0.0,,,,0.0,,,,Fail,,,,,
163.0,2.0,wc_2,,0.0,,,75.0,,,,,Fail,,,,,
163.0,2.0,wc_2,,0.0,,,,0.0,,,,Fail,,,,,
163.0,2.0,wc_2,wc_2,0.0,"[('wc_2', 0.7100000000000005)]",0.7100000000000005,,,40.0,0.002227,['Fail'],Fail,0.7100000000000005,-0.7100000000000005,0.0,0.0,1.0
163.0,2.0,wc_2,,0.0,,,,223.0,,,,Fail,,,,,
163.0,2.0,wc_2,wc_11,0.0,"[('wc_2', 0.7100000000000005)]",0.7100000000000005,,,39.0,0.004457,['Fail'],Fail,0.6600000000000005,-0.08857142857142908,4.0,7.0,0.8
163.0,2.0,wc_2,,0.0,,,,142.0,,,,Fail,,,,,
163.0,2.0,wc_2,wc_16,0.0,"[('wc_16', 0.41000000000000025), ('wc_2', 0.7100000000000005)]",0.8289000000000004,,,27.0,0.006035,['Fail'],Fail,0.41000000000000025,-0.12428571428571455,2.0,7.0,0.3
163.0,2.0,wc_2,,0.0,,,,103.0,,,,Fail,,,,,
163.0,2.0,wc_2,wc_15,1.0,"[('wc_15', 0.5000000000000003), ('wc_2', 0.7100000000000005), ('wc_16', 0.41000000000000025)]",0.9144500000000002,,,20.0,0.042267,['Fail'],Fail,0.5000000000000003,-0.5000000000000003,0.0,0.0,0.5
181.0,3.0,wc_3,,0.0,,,,402.0,,,,Fail,,,,,
181.0,3.0,wc_3,,0.0,,,59.0,,,,,Fail,,,,,
181.0,3.0,wc_3,,0.0,,,,0.0,,,,Fail,,,,,
181.0,3.0,wc_3,wc_3,0.0,"[('wc_3', 0.3400000000000002)]",0.3400000000000002,,,25.0,0.001923,['Fail'],Fail,0.3400000000000002,-0.3400000000000002,0.0,0.0,0.2
181.0,3.0,wc_3,,0.0,,,,121.0,,,,Fail,,,,,
181.0,3.0,wc_3,wc_7,0.0,"[('wc_7', 0.5300000000000004), ('wc_3', 0.3400000000000002)]",0.6898000000000003,,,28.0,0.0072770000000000005,['Fail'],Fail,0.5300000000000004,-0.19666666666666704,1.0,3.0,0.6
181.0,3.0,wc_3,,0.0,,,,202.0,,,,Fail,,,,,
181.0,3.0,wc_3,wc_2,1.0,"[('wc_2', 0.7200000000000005), ('wc_3', 0.3400000000000002), ('wc_7', 0.5300000000000004)]",0.9131440000000003,,,39.0,0.042367999999999996,['Fail'],Fail,0.7300000000000005,0.26999999999999946,2.0,2.0,1.0
230.0,4.0,wc_4,,0.0,,,,0.0,,,,Pass,,,,,
230.0,4.0,wc_4,,0.0,,,79.0,,,,,Pass,,,,,
230.0,4.0,wc_4,,0.0,,,,0.0,,,,Pass,,,,,
230.0,4.0,wc_4,wc_4,0.0,"[('wc_4', 0.4400000000000003)]",0.4400000000000003,,,23.0,0.002541,['Fail'],Pass,0.4400000000000003,-0.4400000000000003,0.0,0.0,0.1
230.0,4.0,wc_4,,0.0,,,,121.0,,,,Pass,,,,,
230.0,4.0,wc_4,wc_12,0.0,"[('wc_12', 0.7000000000000005)]",0.7000000000000005,,,25.0,0.004073,['Pass'],Pass,0.7000000000000005,-0.7000000000000005,0.0,4.0,0.9
230.0,4.0,wc_4,,0.0,,,,0.0,,,,Pass,,,,,
230.0,4.0,wc_4,wc_15,0.0,"[('wc_15', 0.5000000000000003), ('wc_12', 0.7000000000000005)]",0.8500000000000003,,,28.0,0.01749,['Pass'],Pass,0.5000000000000003,-0.5000000000000003,0.0,1.0,0.5
230.0,4.0,wc_4,,0.0,,,,402.0,,,,Pass,,,,,
230.0,4.0,wc_4,wc_11,1.0,"[('wc_11', 0.6500000000000005), ('wc_12', 0.7000000000000005), ('wc_15', 0.5000000000000003)]",0.9475000000000002,,,33.0,0.040950999999999994,['Pass'],Pass,0.6500000000000005,-0.6500000000000005,0.0,0.0,0.8
255.0,2.0,wc_2,,0.0,,,,223.0,,,,Fail,,,,,
255.0,2.0,wc_2,,0.0,,,55.0,,,,,Fail,,,,,
255.0,2.0,wc_2,,0.0,,,,0.0,,,,Fail,,,,,
255.0,2.0,wc_2,wc_2,0.0,"[('wc_2', 0.7300000000000005)]",0.7300000000000005,,,24.0,0.003348,['Fail'],Fail,0.7300000000000005,-0.06333333333333391,2.0,3.0,1.0
255.0,2.0,wc_2,,0.0,,,,243.0,,,,Fail,,,,,
255.0,2.0,wc_2,wc_16,0.0,"[('wc_2', 0.7300000000000005)]",0.7300000000000005,,,22.0,0.01424,['Fail'],Fail,0.41000000000000025,-0.11000000000000026,0.0,0.0,0.3
255.0,2.0,wc_2,,0.0,,,,0.0,,,,Fail,,,,,
255.0,2.0,wc_2,wc_17,0.0,"[('wc_17', 0.5000000000000003), ('wc_2', 0.7300000000000005)]",0.8650000000000003,,,21.0,0.010111,['Fail'],Fail,0.5000000000000003,-0.3333333333333337,1.0,6.0,0.5
255.0,2.0,wc_2,,0.0,,,,362.0,,,,Fail,,,,,
255.0,2.0,wc_2,wc_11,1.0,"[('wc_11', 0.6500000000000005), ('wc_2', 0.7300000000000005), ('wc_17', 0.5000000000000003)]",0.9527500000000002,,,35.0,0.040824000000000006,['Fail'],Fail,0.6600000000000005,0.3399999999999995,1.0,1.0,0.8
283.0,3.0,wc_3,,0.0,,,,322.0,,,,Pass,,,,,
283.0,3.0,wc_3,,0.0,,,74.0,,,,,Pass,,,,,
283.0,3.0,wc_3,,0.0,,,,0.0,,,,Pass,,,,,
283.0,3.0,wc_3,wc_3,0.0,"[('wc_3', 0.3500000000000002)]",0.3500000000000002,,,20.0,0.003227,['Fail'],Pass,0.3500000000000002,-0.016666666666666885,1.0,3.0,0.2
283.0,3.0,wc_3,,0.0,,,,181.0,,,,Pass,,,,,
283.0,3.0,wc_3,wc_14,0.0,"[('wc_14', 0.6100000000000004), ('wc_3', 0.3500000000000002)]",0.7465000000000004,,,35.0,0.00434,['Fail'],Pass,0.6100000000000004,-0.4671428571428576,1.0,7.0,0.9
283.0,3.0,wc_3,,0.0,,,,0.0,,,,Pass,,,,,
283.0,3.0,wc_3,wc_15,0.0,"[('wc_3', 0.3500000000000002), ('wc_14', 0.6100000000000004)]",0.7465000000000004,,,23.0,0.005784000000000001,['Fail'],Pass,0.5000000000000003,-0.16666666666666702,1.0,3.0,0.5
283.0,3.0,wc_3,,0.0,,,,243.0,,,,Pass,,,,,
283.0,3.0,wc_3,wc_7,0.0,"[('wc_7', 0.5300000000000004), ('wc_15', 0.5000000000000003)]",0.7650000000000003,,,31.0,0.008480999999999999,['Pass'],Pass,0.5300000000000004,-0.19666666666666704,2.0,6.0,0.6
283.0,3.0,wc_3,,0.0,,,,142.0,,,,Pass,,,,,
283.0,3.0,wc_3,wc_12,1.0,"[('wc_12', 0.7000000000000005), ('wc_15', 0.5000000000000003), ('wc_7', 0.5300000000000004)]",0.9295000000000002,,,33.0,0.048839,['Pass'],Pass,0.7000000000000005,-0.4142857142857148,2.0,7.0,0.9
299.0,2.0,wc_2,,0.0,,,,262.0,,,,Fail,,,,,
299.0,2.0,wc_2,,0.0,,,70.0,,,,,Fail,,,,,
299.0,2.0,wc_2,,0.0,,,,0.0,,,,Fail,,,,,
299.0,2.0,wc_2,wc_2,0.0,"[('wc_2', 0.7400000000000005)]",0.7400000000000005,,,32.0,0.002149,['Fail'],Fail,0.7400000000000005,-0.14000000000000057,3.0,5.0,1.0
299.0,2.0,wc_2,,0.0,,,,263.0,,,,Fail,,,,,
299.0,2.0,wc_2,wc_17,0.0,"[('wc_17', 0.5000000000000003), ('wc_2', 0.7400000000000005)]",0.8700000000000003,,,26.0,0.005372,['Fail'],Fail,0.5000000000000003,-0.25000000000000033,2.0,8.0,0.5
299.0,2.0,wc_2,,0.0,,,,41.0,,,,Fail,,,,,
299.0,2.0,wc_2,wc_13,1.0,"[('wc_13', 0.6300000000000004), ('wc_2', 0.7400000000000005), ('wc_17', 0.5000000000000003)]",0.9519000000000002,,,20.0,0.037956,['Fail'],Fail,0.6300000000000004,-0.6300000000000004,0.0,0.0,0.8
339.0,2.0,wc_2,,0.0,,,,242.0,,,,Fail,,,,,
339.0,2.0,wc_2,,0.0,,,55.0,,,,,Fail,,,,,
339.0,2.0,wc_2,,0.0,,,,0.0,,,,Fail,,,,,
339.0,2.0,wc_2,wc_2,0.0,"[('wc_2', 0.7400000000000005)]",0.7400000000000005,,,35.0,0.003208,['Fail'],Fail,0.7400000000000005,-0.07333333333333392,4.0,6.0,1.0
339.0,2.0,wc_2,,0.0,,,,162.0,,,,Fail,,,,,
339.0,2.0,wc_2,wc_8,0.0,"[('wc_8', 0.6400000000000005), ('wc_2', 0.7400000000000005)]",0.9064000000000003,,,38.0,0.0044399999999999995,['Fail'],Fail,0.6400000000000005,-0.5490909090909095,0.0,0.0,0.9
339.0,2.0,wc_2,,0.0,,,,183.0,,,,Fail,,,,,
339.0,2.0,wc_2,wc_15,1.0,"[('wc_15', 0.5000000000000003), ('wc_2', 0.7400000000000005), ('wc_8', 0.6400000000000005)]",0.9532000000000002,,,30.0,0.041075,['Fail'],Fail,0.5000000000000003,-3.3306690738754696e-16,3.0,6.0,0.5
354.0,2.0,wc_2,,0.0,,,,303.0,,,,Pass,,,,,
354.0,2.0,wc_2,,0.0,,,69.0,,,,,Pass,,,,,
354.0,2.0,wc_2,,0.0,,,,0.0,,,,Pass,,,,,
354.0,2.0,wc_2,wc_2,0.0,"[('wc_2', 0.7400000000000005)]",0.7400000000000005,,,37.0,0.002454,['Pass'],Pass,0.7400000000000005,-0.025714285714286245,5.0,7.0,1.0
354.0,2.0,wc_2,,0.0,,,,263.0,,,,Pass,,,,,
354.0,2.0,wc_2,wc_17,0.0,"[('wc_17', 0.5000000000000003), ('wc_2', 0.7400000000000005)]",0.8700000000000003,,,26.0,0.005927,['Pass'],Pass,0.5000000000000003,-0.20000000000000034,0.0,0.0,0.5
354.0,2.0,wc_2,,0.0,,,,203.0,,,,Pass,,,,,
354.0,2.0,wc_2,wc_7,1.0,"[('wc_7', 0.5300000000000004), ('wc_2', 0.7400000000000005), ('wc_17', 0.5000000000000003)]",0.9389000000000002,,,23.0,0.037409,['Pass'],Pass,0.5300000000000004,-0.5300000000000004,0.0,0.0,0.6
419.0,5.0,wc_5,,0.0,,,,341.0,,,,Fail,,,,,
419.0,5.0,wc_5,,0.0,,,69.0,,,,,Fail,,,,,
419.0,5.0,wc_5,,0.0,,,,0.0,,,,Fail,,,,,
419.0,5.0,wc_5,wc_5,0.0,"[('wc_5', 0.6200000000000004)]",0.6200000000000004,,,26.0,0.005005,['Fail'],Fail,0.6200000000000004,-0.5200000000000005,0.0,0.0,0.5
419.0,5.0,wc_5,,0.0,,,,182.0,,,,Fail,,,,,
419.0,5.0,wc_5,wc_16,0.0,"[('wc_5', 0.6200000000000004)]",0.6200000000000004,,,23.0,0.004198,['Fail'],Fail,0.40000000000000024,-0.40000000000000024,0.0,5.0,0.3
419.0,5.0,wc_5,,0.0,,,,0.0,,,,Fail,,,,,
419.0,5.0,wc_5,wc_17,0.0,"[('wc_17', 0.5100000000000003), ('wc_16', 0.40000000000000024)]",0.7060000000000004,,,22.0,0.009096,['Pass'],Fail,0.5100000000000003,0.48999999999999966,1.0,1.0,0.5
419.0,5.0,wc_5,,0.0,,,,263.0,,,,Fail,,,,,
419.0,5.0,wc_5,wc_2,0.0,"[('wc_2', 0.7400000000000005), ('wc_5', 0.6200000000000004)]",0.9012000000000003,,,37.0,0.008442,['Fail'],Fail,0.7400000000000005,0.009999999999999454,6.0,8.0,1.0
419.0,5.0,wc_5,,0.0,,,,0.0,,,,Fail,,,,,
419.0,5.0,wc_5,wc_3,1.0,"[('wc_3', 0.3400000000000002), ('wc_5', 0.6200000000000004), ('wc_2', 0.7400000000000005)]",0.9347920000000003,,,22.0,0.05401500000000001,['Fail'],Fail,0.3400000000000002,-0.09000000000000019,2.0,8.0,0.2
454.0,5.0,wc_5,,0.0,,,,0.0,,,,Fail,,,,,
454.0,5.0,wc_5,,0.0,,,80.0,,,,,Fail,,,,,
454.0,5.0,wc_5,,0.0,,,,0.0,,,,Fail,,,,,
454.0,5.0,wc_5,wc_5,0.0,"[('wc_5', 0.6300000000000004)]",0.6300000000000004,,,20.0,0.002602,['Fail'],Fail,0.6300000000000004,0.36999999999999955,1.0,1.0,0.5
454.0,5.0,wc_5,,0.0,,,,81.0,,,,Fail,,,,,
454.0,5.0,wc_5,wc_7,0.0,"[('wc_7', 0.5300000000000004), ('wc_5', 0.6300000000000004)]",0.8261000000000003,,,37.0,0.014136,['Fail'],Fail,0.5300000000000004,-0.5300000000000004,0.0,1.0,0.6
454.0,5.0,wc_5,,0.0,,,,182.0,,,,Fail,,,,,
454.0,5.0,wc_5,wc_1,0.0,"[('wc_1', 0.3700000000000002), ('wc_5', 0.6300000000000004), ('wc_7', 0.5300000000000004)]",0.8904430000000002,,,36.0,0.005934,['Fail'],Fail,0.3700000000000002,-0.18250000000000022,0.0,0.0,0.4
454.0,5.0,wc_5,,0.0,,,,203.0,,,,Fail,,,,,
454.0,5.0,wc_5,wc_9,1.0,"[('wc_9', 0.5900000000000004), ('wc_5', 0.6300000000000004), ('wc_7', 0.5300000000000004), ('wc_1', 0.3700000000000002)]",0.9550816300000001,,,40.0,0.040678,['Fail'],Fail,0.5900000000000004,-0.5900000000000004,0.0,0.0,0.5
473.0,5.0,wc_5,,0.0,,,,402.0,,,,Fail,,,,,
473.0,5.0,wc_5,,0.0,,,68.0,,,,,Fail,,,,,
473.0,5.0,wc_5,,0.0,,,,0.0,,,,Fail,,,,,
473.0,5.0,wc_5,wc_5,0.0,"[('wc_5', 0.6400000000000005)]",0.6400000000000005,,,20.0,0.002082,['Fail'],Fail,0.6400000000000005,0.35999999999999954,2.0,2.0,0.5
473.0,5.0,wc_5,,0.0,,,,103.0,,,,Fail,,,,,
473.0,5.0,wc_5,wc_4,0.0,"[('wc_4', 0.43000000000000027), ('wc_5', 0.6400000000000005)]",0.7948000000000004,,,36.0,0.005407,['Fail'],Fail,0.43000000000000027,-0.43000000000000027,0.0,8.0,0.1
473.0,5.0,wc_5,,0.0,,,,101.0,,,,Fail,,,,,
473.0,5.0,wc_5,wc_7,1.0,"[('wc_7', 0.5300000000000004), ('wc_5', 0.6400000000000005), ('wc_4', 0.43000000000000027)]",0.9035560000000002,,,35.0,0.042307000000000004,['Fail'],Fail,0.5400000000000004,0.12666666666666626,2.0,3.0,0.6
486.0,5.0,wc_5,,0.0,,,,341.0,,,,Fail,,,,,
486.0,5.0,wc_5,,0.0,,,65.0,,,,,Fail,,,,,
486.0,5.0,wc_5,,0.0,,,,0.0,,,,Fail,,,,,
486.0,5.0,wc_5,wc_5,0.0,"[('wc_5', 0.6500000000000005)]",0.6500000000000005,,,28.0,0.002315,['Fail'],Fail,0.6500000000000005,0.34999999999999953,3.0,3.0,0.5
486.0,5.0,wc_5,,0.0,,,,83.0,,,,Fail,,,,,
486.0,5.0,wc_5,wc_3,0.0,"[('wc_5', 0.6500000000000005)]",0.6500000000000005,,,38.0,0.004194,['Fail'],Fail,0.3400000000000002,-0.14000000000000018,0.0,0.0,0.2
486.0,5.0,wc_5,,0.0,,,,81.0,,,,Fail,,,,,
486.0,5.0,wc_5,wc_1,0.0,"[('wc_1', 0.3800000000000002), ('wc_5', 0.6500000000000005)]",0.7830000000000004,,,35.0,0.006286,['Fail'],Fail,0.3800000000000002,0.11999999999999977,1.0,2.0,0.4
486.0,5.0,wc_5,,0.0,,,,203.0,,,,Fail,,,,,
486.0,5.0,wc_5,wc_9,0.0,"[('wc_5', 0.6500000000000005), ('wc_1', 0.3800000000000002)]",0.7830000000000004,,,39.0,0.009655,['Fail'],Fail,0.5900000000000004,-0.5900000000000004,0.0,1.0,0.5
486.0,5.0,wc_5,,0.0,,,,141.0,,,,Fail,,,,,
486.0,5.0,wc_5,wc_14,1.0,"[('wc_14', 0.6000000000000004), ('wc_5', 0.6500000000000005), ('wc_1', 0.3800000000000002)]",0.9132000000000002,,,33.0,0.04507,['Fail'],Fail,0.6000000000000004,-0.6000000000000004,0.0,0.0,0.9
492.0,5.0,wc_5,,0.0,,,,361.0,,,,Pass,,,,,
492.0,5.0,wc_5,,0.0,,,63.0,,,,,Pass,,,,,
492.0,5.0,wc_5,,0.0,,,,0.0,,,,Pass,,,,,
492.0,5.0,wc_5,wc_5,0.0,"[('wc_5', 0.6600000000000005)]",0.6600000000000005,,,29.0,0.002336,['Pass'],Pass,0.6600000000000005,0.3399999999999995,4.0,4.0,0.5
492.0,5.0,wc_5,,0.0,,,,202.0,,,,Pass,,,,,
492.0,5.0,wc_5,wc_17,0.0,"[('wc_17', 0.5000000000000003), ('wc_5', 0.6600000000000005)]",0.8300000000000003,,,32.0,0.004782,['Pass'],Pass,0.5000000000000003,-0.3000000000000003,1.0,5.0,0.5
492.0,5.0,wc_5,,0.0,,,,41.0,,,,Pass,,,,,
492.0,5.0,wc_5,wc_13,1.0,"[('wc_13', 0.6300000000000004), ('wc_5', 0.6600000000000005), ('wc_17', 0.5000000000000003)]",0.9371000000000003,,,24.0,0.044332,['Pass'],Pass,0.6300000000000004,-0.4871428571428576,1.0,7.0,0.8
501.0,6.0,wc_6,,0.0,,,,162.0,,,,Fail,,,,,
501.0,6.0,wc_6,,0.0,,,74.0,,,,,Fail,,,,,
501.0,6.0,wc_6,,0.0,,,,0.0,,,,Fail,,,,,
501.0,6.0,wc_6,wc_6,0.0,"[('wc_6', 0.18000000000000005)]",0.18000000000000005,,,29.0,0.002216,['Pass'],Fail,0.18000000000000005,-0.18000000000000005,0.0,0.0,0.1
501.0,6.0,wc_6,,0.0,,,,202.0,,,,Fail,,,,,
501.0,6.0,wc_6,wc_1,0.0,"[('wc_1', 0.39000000000000024)]",0.39000000000000024,,,38.0,0.0051589999999999995,['Fail'],Fail,0.39000000000000024,0.10999999999999976,2.0,4.0,0.4
501.0,6.0,wc_6,,0.0,,,,283.0,,,,Fail,,,,,
501.0,6.0,wc_6,wc_17,0.0,"[('wc_17', 0.5000000000000003), ('wc_1', 0.39000000000000024)]",0.6950000000000003,,,34.0,0.00916,['Fail'],Fail,0.5000000000000003,-0.16666666666666702,2.0,6.0,0.5
501.0,6.0,wc_6,,0.0,,,,322.0,,,,Fail,,,,,
501.0,6.0,wc_6,wc_9,0.0,"[('wc_9', 0.5800000000000004), ('wc_1', 0.39000000000000024), ('wc_17', 0.5000000000000003)]",0.8719000000000002,,,32.0,0.011344,['Fail'],Fail,0.5800000000000004,-0.5800000000000004,0.0,3.0,0.5
501.0,6.0,wc_6,,0.0,,,,162.0,,,,Fail,,,,,
501.0,6.0,wc_6,wc_15,1.0,"[('wc_15', 0.5000000000000003), ('wc_1', 0.39000000000000024), ('wc_17', 0.5000000000000003), ('wc_9', 0.5800000000000004)]",0.9359500000000002,,,20.0,0.046868999999999994,['Fail'],Fail,0.5000000000000003,-0.5000000000000003,0.0,0.0,0.5
511.0,6.0,wc_6,,0.0,,,,223.0,,,,Fail,,,,,
511.0,6.0,wc_6,,0.0,,,78.0,,,,,Fail,,,,,
511.0,6.0,wc_6,,0.0,,,,0.0,,,,Fail,,,,,
511.0,6.0,wc_6,wc_6,0.0,"[('wc_6', 0.17000000000000004)]",0.17000000000000004,,,23.0,0.002304,['Pass'],Fail,0.17000000000000004,-0.17000000000000004,0.0,1.0,0.1
511.0,6.0,wc_6,,0.0,,,,263.0,,,,Fail,,,,,
511.0,6.0,wc_6,wc_17,0.0,"[('wc_17', 0.5000000000000003)]",0.5000000000000003,,,38.0,0.004089,['Fail'],Fail,0.5000000000000003,-0.07142857142857179,3.0,7.0,0.5
511.0,6.0,wc_6,,0.0,,,,223.0,,,,Fail,,,,,
511.0,6.0,wc_6,wc_8,0.0,"[('wc_8', 0.6500000000000005), ('wc_17', 0.5000000000000003)]",0.8250000000000004,,,36.0,0.006359,['Fail'],Fail,0.6500000000000005,-0.5250000000000005,1.0,8.0,0.9
511.0,6.0,wc_6,,0.0,,,,0.0,,,,Fail,,,,,
511.0,6.0,wc_6,wc_11,1.0,"[('wc_11', 0.6600000000000005), ('wc_17', 0.5000000000000003), ('wc_8', 0.6500000000000005)]",0.9405000000000002,,,40.0,0.05318600000000001,['Fail'],Fail,0.6600000000000005,-0.6600000000000005,0.0,0.0,0.8
520.0,6.0,wc_6,,0.0,,,,21.0,,,,Pass,,,,,
520.0,6.0,wc_6,,0.0,,,69.0,,,,,Pass,,,,,
520.0,6.0,wc_6,,0.0,,,,0.0,,,,Pass,,,,,
520.0,6.0,wc_6,wc_6,0.0,"[('wc_6', 0.16000000000000003)]",0.16000000000000003,,,36.0,0.004314,['Pass'],Pass,0.16000000000000003,-0.16000000000000003,0.0,2.0,0.1
520.0,6.0,wc_6,,0.0,,,,162.0,,,,Pass,,,,,
520.0,6.0,wc_6,wc_12,0.0,"[('wc_12', 0.7000000000000005), ('wc_6', 0.16000000000000003)]",0.7480000000000004,,,20.0,0.004674,['Pass'],Pass,0.7000000000000005,-0.5823529411764711,0.0,0.0,0.9
520.0,6.0,wc_6,,0.0,,,,321.0,,,,Pass,,,,,
520.0,6.0,wc_6,wc_9,0.0,"[('wc_9', 0.5800000000000004), ('wc_6', 0.16000000000000003), ('wc_12', 0.7000000000000005)]",0.8941600000000003,,,27.0,0.007406,['Pass'],Pass,0.5800000000000004,-0.3800000000000004,1.0,5.0,0.5
520.0,6.0,wc_6,,0.0,,,,101.0,,,,Pass,,,,,
520.0,6.0,wc_6,wc_8,1.0,"[('wc_8', 0.6500000000000005), ('wc_6', 0.16000000000000003), ('wc_12', 0.7000000000000005), ('wc_9', 0.5800000000000004)]",0.9629560000000001,,,28.0,0.06006500000000001,['Pass'],Pass,0.6500000000000005,-0.6500000000000005,0.0,0.0,0.9
530.0,8.0,wc_8,,0.0,,,,0.0,,,,Pass,,,,,
530.0,8.0,wc_8,,0.0,,,80.0,,,,,Pass,,,,,
530.0,8.0,wc_8,,0.0,,,,0.0,,,,Pass,,,,,
530.0,8.0,wc_8,wc_8,0.0,"[('wc_8', 0.6500000000000005)]",0.6500000000000005,,,33.0,0.003636,['Pass'],Pass,0.6500000000000005,-0.6500000000000005,0.0,0.0,0.9
530.0,8.0,wc_8,,0.0,,,,102.0,,,,Pass,,,,,
530.0,8.0,wc_8,wc_7,0.0,"[('wc_7', 0.5400000000000004), ('wc_8', 0.6500000000000005)]",0.8390000000000004,,,24.0,0.004331,['Pass'],Pass,0.5400000000000004,-0.29000000000000037,2.0,8.0,0.6
530.0,8.0,wc_8,,0.0,,,,182.0,,,,Pass,,,,,
530.0,8.0,wc_8,wc_14,1.0,"[('wc_14', 0.6000000000000004), ('wc_8', 0.6500000000000005), ('wc_7', 0.5400000000000004)]",0.9356000000000002,,,38.0,0.045598,['Pass'],Pass,0.6000000000000004,-0.4000000000000004,1.0,5.0,0.9
535.0,7.0,wc_7,,0.0,,,,162.0,,,,Pass,,,,,
535.0,7.0,wc_7,,0.0,,,56.0,,,,,Pass,,,,,
535.0,7.0,wc_7,,0.0,,,,0.0,,,,Pass,,,,,
535.0,7.0,wc_7,wc_7,0.0,"[('wc_7', 0.5400000000000004)]",0.5400000000000004,,,35.0,0.002484,['Pass'],Pass,0.5400000000000004,-0.20666666666666705,3.0,9.0,0.6
535.0,7.0,wc_7,,0.0,,,,0.0,,,,Pass,,,,,
535.0,7.0,wc_7,wc_10,0.0,"[('wc_10', 0.6800000000000005), ('wc_7', 0.5400000000000004)]",0.8528000000000003,,,39.0,0.004141,['Pass'],Pass,0.6800000000000005,-0.6800000000000005,0.0,0.0,1.0
535.0,7.0,wc_7,,0.0,,,,101.0,,,,Pass,,,,,
535.0,7.0,wc_7,wc_13,1.0,"[('wc_13', 0.6300000000000004), ('wc_7', 0.5400000000000004), ('wc_10', 0.6800000000000005)]",0.9455360000000002,,,23.0,0.040315000000000004,['Pass'],Pass,0.6300000000000004,-0.6300000000000004,0.0,0.0,0.8
541.0,9.0,wc_9,,0.0,,,,301.0,,,,Fail,,,,,
541.0,9.0,wc_9,,0.0,,,57.0,,,,,Fail,,,,,
541.0,9.0,wc_9,,0.0,,,,0.0,,,,Fail,,,,,
541.0,9.0,wc_9,wc_9,0.0,"[('wc_9', 0.5800000000000004)]",0.5800000000000004,,,40.0,0.002115,['Fail'],Fail,0.5800000000000004,-0.3300000000000004,2.0,8.0,0.5
541.0,9.0,wc_9,,0.0,,,,121.0,,,,Fail,,,,,
541.0,9.0,wc_9,wc_13,0.0,"[('wc_13', 0.6300000000000004), ('wc_9', 0.5800000000000004)]",0.8446000000000004,,,40.0,0.004822,['Fail'],Fail,0.6300000000000004,-0.6300000000000004,0.0,0.0,0.8
541.0,9.0,wc_9,,0.0,,,,321.0,,,,Fail,,,,,
541.0,9.0,wc_9,wc_10,1.0,"[('wc_10', 0.6900000000000005), ('wc_9', 0.5800000000000004), ('wc_13', 0.6300000000000004)]",0.9518260000000002,,,21.0,0.03793600000000001,['Fail'],Fail,0.7000000000000005,0.2999999999999995,2.0,2.0,1.0
549.0,10.0,wc_10,,0.0,,,,0.0,,,,Pass,,,,,
549.0,10.0,wc_10,,0.0,,,75.0,,,,,Pass,,,,,
549.0,10.0,wc_10,,0.0,,,,0.0,,,,Pass,,,,,
549.0,10.0,wc_10,wc_10,0.0,"[('wc_10', 0.7000000000000005)]",0.7000000000000005,,,30.0,0.002269,['Pass'],Pass,0.7000000000000005,0.2999999999999995,2.0,2.0,1.0
549.0,10.0,wc_10,,0.0,,,,162.0,,,,Pass,,,,,
549.0,10.0,wc_10,wc_16,0.0,"[('wc_16', 0.39000000000000024), ('wc_10', 0.7000000000000005)]",0.8170000000000004,,,28.0,0.003987,['Pass'],Pass,0.39000000000000024,-0.39000000000000024,0.0,0.0,0.3
549.0,10.0,wc_10,,0.0,,,,342.0,,,,Pass,,,,,
549.0,10.0,wc_10,wc_9,1.0,"[('wc_9', 0.5800000000000004), ('wc_10', 0.7000000000000005), ('wc_16', 0.39000000000000024)]",0.9231400000000003,,,32.0,0.039463,['Pass'],Pass,0.5800000000000004,-0.5800000000000004,0.0,0.0,0.5
555.0,9.0,wc_9,,0.0,,,,0.0,,,,Fail,,,,,
555.0,9.0,wc_9,,0.0,,,66.0,,,,,Fail,,,,,
555.0,9.0,wc_9,,0.0,,,,0.0,,,,Fail,,,,,
555.0,9.0,wc_9,wc_9,0.0,"[('wc_9', 0.5800000000000004)]",0.5800000000000004,,,29.0,0.002409,['Fail'],Fail,0.5800000000000004,-0.5800000000000004,0.0,0.0,0.5
555.0,9.0,wc_9,,0.0,,,,101.0,,,,Fail,,,,,
555.0,9.0,wc_9,wc_12,0.0,"[('wc_12', 0.7100000000000005), ('wc_9', 0.5800000000000004)]",0.8782000000000003,,,29.0,0.004481000000000001,['Fail'],Fail,0.7100000000000005,-0.5100000000000005,1.0,5.0,0.9
555.0,9.0,wc_9,,0.0,,,,361.0,,,,Fail,,,,,
555.0,9.0,wc_9,wc_11,1.0,"[('wc_11', 0.6600000000000005), ('wc_9', 0.5800000000000004), ('wc_12', 0.7100000000000005)]",0.9585880000000002,,,21.0,0.041198,['Fail'],Fail,0.6600000000000005,-0.49333333333333385,1.0,6.0,0.8
560.0,11.0,wc_11,,0.0,,,,0.0,,,,Pass,,,,,
560.0,11.0,wc_11,,0.0,,,63.0,,,,,Pass,,,,,
560.0,11.0,wc_11,,0.0,,,,0.0,,,,Pass,,,,,
560.0,11.0,wc_11,wc_11,0.0,"[('wc_11', 0.6600000000000005)]",0.6600000000000005,,,25.0,0.002415,['Pass'],Pass,0.6600000000000005,-0.49333333333333385,1.0,6.0,0.8
560.0,11.0,wc_11,,0.0,,,,61.0,,,,Pass,,,,,
560.0,11.0,wc_11,wc_12,0.0,"[('wc_12', 0.7100000000000005), ('wc_11', 0.6600000000000005)]",0.9014000000000003,,,25.0,0.0045520000000000005,['Pass'],Pass,0.7100000000000005,-0.3766666666666672,2.0,6.0,0.9
560.0,11.0,wc_11,,0.0,,,,0.0,,,,Pass,,,,,
560.0,11.0,wc_11,wc_16,0.0,"[('wc_11', 0.6600000000000005), ('wc_12', 0.7100000000000005)]",0.9014000000000003,,,27.0,0.005912,['Pass'],Pass,0.40000000000000024,0.09999999999999976,1.0,2.0,0.3
560.0,11.0,wc_11,,0.0,,,,382.0,,,,Pass,,,,,
560.0,11.0,wc_11,wc_3,1.0,"[('wc_3', 0.3300000000000002), ('wc_11', 0.6600000000000005), ('wc_12', 0.7100000000000005)]",0.9339380000000003,,,27.0,0.044747,['Pass'],Pass,0.3300000000000002,-0.3300000000000002,0.0,0.0,0.2
574.0,9.0,wc_9,,0.0,,,,162.0,,,,Fail,,,,,
574.0,9.0,wc_9,,0.0,,,74.0,,,,,Fail,,,,,
574.0,9.0,wc_9,,0.0,,,,0.0,,,,Fail,,,,,
574.0,9.0,wc_9,wc_9,0.0,"[('wc_9', 0.5900000000000004)]",0.5900000000000004,,,32.0,0.003483,['Pass'],Fail,0.5900000000000004,-0.09000000000000041,1.0,2.0,0.5
574.0,9.0,wc_9,,0.0,,,,141.0,,,,Fail,,,,,
574.0,9.0,wc_9,wc_14,0.0,"[('wc_14', 0.6000000000000004)]",0.6000000000000004,,,33.0,0.009051,['Fail'],Fail,0.6000000000000004,-0.5000000000000004,0.0,0.0,0.9
574.0,9.0,wc_9,,0.0,,,,301.0,,,,Fail,,,,,
574.0,9.0,wc_9,wc_10,0.0,"[('wc_10', 0.7100000000000005), ('wc_14', 0.6000000000000004)]",0.8840000000000003,,,22.0,0.006181,['Fail'],Fail,0.7100000000000005,-0.11000000000000054,3.0,5.0,1.0
574.0,9.0,wc_9,,0.0,,,,243.0,,,,Fail,,,,,
574.0,9.0,wc_9,wc_2,1.0,"[('wc_2', 0.7500000000000006), ('wc_14', 0.6000000000000004), ('wc_10', 0.7100000000000005)]",0.9710000000000002,,,34.0,0.044125000000000004,['Fail'],Fail,0.7500000000000006,-0.7500000000000006,0.0,0.0,1.0
588.0,9.0,wc_9,,0.0,,,,183.0,,,,Pass,,,,,
588.0,9.0,wc_9,,0.0,,,58.0,,,,,Pass,,,,,
588.0,9.0,wc_9,,0.0,,,,0.0,,,,Pass,,,,,
588.0,9.0,wc_9,wc_9,0.0,"[('wc_9', 0.5800000000000004)]",0.5800000000000004,,,31.0,0.002229,['Fail'],Pass,0.5800000000000004,-0.2466666666666671,1.0,3.0,0.5
588.0,9.0,wc_9,,0.0,,,,61.0,,,,Pass,,,,,
588.0,9.0,wc_9,wc_6,0.0,"[('wc_9', 0.5800000000000004)]",0.5800000000000004,,,21.0,0.009483,['Fail'],Pass,0.17000000000000004,-0.07000000000000003,0.0,0.0,0.1
588.0,9.0,wc_9,,0.0,,,,341.0,,,,Pass,,,,,
588.0,9.0,wc_9,wc_4,0.0,"[('wc_9', 0.5800000000000004)]",0.5800000000000004,,,28.0,0.005947,['Fail'],Pass,0.43000000000000027,-0.38238095238095265,0.0,0.0,0.1
588.0,9.0,wc_9,,0.0,,,,222.0,,,,Pass,,,,,
588.0,9.0,wc_9,wc_17,0.0,"[('wc_17', 0.5000000000000003), ('wc_6', 0.17000000000000004), ('wc_4', 0.43000000000000027)]",0.7634500000000003,,,25.0,0.009437,['Pass'],Pass,0.5000000000000003,-0.25000000000000033,0.0,0.0,0.5
588.0,9.0,wc_9,,0.0,,,,223.0,,,,Pass,,,,,
588.0,9.0,wc_9,wc_8,1.0,"[('wc_8', 0.6600000000000005), ('wc_6', 0.17000000000000004), ('wc_4', 0.43000000000000027), ('wc_17', 0.5000000000000003)]",0.9195730000000002,,,36.0,0.048987,['Pass'],Pass,0.6600000000000005,-0.4100000000000005,2.0,8.0,0.9
594.0,12.0,wc_12,,0.0,,,,122.0,,,,Fail,,,,,
594.0,12.0,wc_12,,0.0,,,56.0,,,,,Fail,,,,,
594.0,12.0,wc_12,,0.0,,,,0.0,,,,Fail,,,,,
594.0,12.0,wc_12,wc_12,0.0,"[('wc_12', 0.7100000000000005)]",0.7100000000000005,,,38.0,0.002211,['Fail'],Fail,0.7100000000000005,-0.3766666666666672,3.0,9.0,0.9
594.0,12.0,wc_12,,0.0,,,,0.0,,,,Fail,,,,,
594.0,12.0,wc_12,wc_14,0.0,"[('wc_14', 0.6100000000000004), ('wc_12', 0.7100000000000005)]",0.8869000000000004,,,33.0,0.004288,['Fail'],Fail,0.6100000000000004,-0.11000000000000043,1.0,2.0,0.9
594.0,12.0,wc_12,,0.0,,,,142.0,,,,Fail,,,,,
594.0,12.0,wc_12,wc_6,1.0,"[('wc_6', 0.18000000000000005), ('wc_12', 0.7100000000000005), ('wc_14', 0.6100000000000004)]",0.9072580000000002,,,33.0,0.046416999999999986,['Fail'],Fail,0.19000000000000006,0.8099999999999999,2.0,2.0,0.1
600.0,12.0,wc_12,,0.0,,,,162.0,,,,Fail,,,,,
600.0,12.0,wc_12,,0.0,,,62.0,,,,,Fail,,,,,
600.0,12.0,wc_12,,0.0,,,,0.0,,,,Fail,,,,,
600.0,12.0,wc_12,wc_12,0.0,"[('wc_12', 0.7100000000000005)]",0.7100000000000005,,,28.0,0.002142,['Fail'],Fail,0.7100000000000005,-0.7100000000000005,0.0,0.0,0.9
600.0,12.0,wc_12,,0.0,,,,321.0,,,,Fail,,,,,
600.0,12.0,wc_12,wc_9,0.0,"[('wc_12', 0.7100000000000005)]",0.7100000000000005,,,25.0,0.004091,['Fail'],Fail,0.5700000000000004,-0.3700000000000004,1.0,5.0,0.5
600.0,12.0,wc_12,,0.0,,,,61.0,,,,Fail,,,,,
600.0,12.0,wc_12,wc_6,0.0,"[('wc_12', 0.7100000000000005)]",0.7100000000000005,,,23.0,0.008178999999999999,['Fail'],Fail,0.19000000000000006,0.8099999999999999,2.0,2.0,0.1
600.0,12.0,wc_12,,0.0,,,,0.0,,,,Fail,,,,,
600.0,12.0,wc_12,wc_8,0.0,"[('wc_8', 0.6600000000000005), ('wc_12', 0.7100000000000005)]",0.9014000000000003,,,32.0,0.009666999999999999,['Fail'],Fail,0.6600000000000005,-0.43777777777777827,2.0,9.0,0.9
600.0,12.0,wc_12,,0.0,,,,0.0,,,,Fail,,,,,
600.0,12.0,wc_12,wc_10,0.0,"[('wc_12', 0.7100000000000005), ('wc_8', 0.6600000000000005)]",0.9014000000000003,,,30.0,0.018782,['Fail'],Fail,0.7100000000000005,-0.21000000000000052,4.0,8.0,1.0
600.0,12.0,wc_12,,0.0,,,,342.0,,,,Fail,,,,,
600.0,12.0,wc_12,wc_3,1.0,"[('wc_3', 0.3300000000000002), ('wc_12', 0.7100000000000005), ('wc_8', 0.6600000000000005)]",0.9339380000000003,,,29.0,0.04980000000000001,['Fail'],Fail,0.3300000000000002,-0.08000000000000018,1.0,4.0,0.2
606.0,12.0,wc_12,,0.0,,,,141.0,,,,Pass,,,,,
606.0,12.0,wc_12,,0.0,,,52.0,,,,,Pass,,,,,
606.0,12.0,wc_12,,0.0,,,,0.0,,,,Pass,,,,,
606.0,12.0,wc_12,wc_12,0.0,"[('wc_12', 0.7200000000000005)]",0.7200000000000005,,,34.0,0.002149,['Pass'],Pass,0.7200000000000005,0.27999999999999947,1.0,1.0,0.9
606.0,12.0,wc_12,,0.0,,,,182.0,,,,Pass,,,,,
606.0,12.0,wc_12,wc_6,0.0,"[('wc_6', 0.19000000000000006), ('wc_12', 0.7200000000000005)]",0.7732000000000004,,,28.0,0.004609,['Pass'],Pass,0.19000000000000006,0.47666666666666657,2.0,3.0,0.1
606.0,12.0,wc_12,,0.0,,,,0.0,,,,Pass,,,,,
606.0,12.0,wc_12,wc_10,1.0,"[('wc_10', 0.7000000000000005), ('wc_12', 0.7200000000000005), ('wc_6', 0.19000000000000006)]",0.9319600000000002,,,34.0,0.046632999999999994,['Pass'],Pass,0.7000000000000005,-0.7000000000000005,0.0,0.0,1.0
616.0,12.0,wc_12,,0.0,,,,81.0,,,,Fail,,,,,
616.0,12.0,wc_12,,0.0,,,69.0,,,,,Fail,,,,,
616.0,12.0,wc_12,,0.0,,,,0.0,,,,Fail,,,,,
616.0,12.0,wc_12,wc_12,0.0,"[('wc_12', 0.7300000000000005)]",0.7300000000000005,,,35.0,0.002075,['Fail'],Fail,0.7300000000000005,0.26999999999999946,2.0,2.0,0.9
616.0,12.0,wc_12,,0.0,,,,262.0,,,,Fail,,,,,
616.0,12.0,wc_12,wc_2,0.0,"[('wc_2', 0.7500000000000006), ('wc_12', 0.7300000000000005)]",0.9325000000000003,,,31.0,0.004594,['Fail'],Fail,0.7500000000000006,-0.7500000000000006,0.0,4.0,1.0
616.0,12.0,wc_12,,0.0,,,,263.0,,,,Fail,,,,,
616.0,12.0,wc_12,wc_17,1.0,"[('wc_17', 0.5100000000000003), ('wc_12', 0.7300000000000005), ('wc_2', 0.7500000000000006)]",0.9669250000000001,,,28.0,0.045102,['Fail'],Fail,0.5100000000000003,-0.11000000000000032,2.0,5.0,0.5
626.0,12.0,wc_12,,0.0,,,,21.0,,,,Pass,,,,,
626.0,12.0,wc_12,,0.0,,,74.0,,,,,Pass,,,,,
626.0,12.0,wc_12,,0.0,,,,0.0,,,,Pass,,,,,
626.0,12.0,wc_12,wc_12,0.0,"[('wc_12', 0.7400000000000005)]",0.7400000000000005,,,21.0,0.002347,['Pass'],Pass,0.7400000000000005,0.25999999999999945,3.0,3.0,0.9
626.0,12.0,wc_12,,0.0,,,,401.0,,,,Pass,,,,,
626.0,12.0,wc_12,wc_5,0.0,"[('wc_12', 0.7400000000000005)]",0.7400000000000005,,,24.0,0.005376000000000001,['Pass'],Pass,0.6700000000000005,-0.4200000000000005,0.0,0.0,0.5
626.0,12.0,wc_12,,0.0,,,,101.0,,,,Pass,,,,,
626.0,12.0,wc_12,wc_8,0.0,"[('wc_8', 0.6600000000000005), ('wc_12', 0.7400000000000005)]",0.9116000000000003,,,27.0,0.013117,['Pass'],Pass,0.6600000000000005,-0.6600000000000005,0.0,2.0,0.9
626.0,12.0,wc_12,,0.0,,,,102.0,,,,Pass,,,,,
626.0,12.0,wc_12,wc_7,1.0,"[('wc_7', 0.5400000000000004), ('wc_12', 0.7400000000000005), ('wc_8', 0.6600000000000005)]",0.9593360000000002,,,28.0,0.046273,['Pass'],Pass,0.5400000000000004,-0.5400000000000004,0.0,0.0,0.6
631.0,13.0,wc_13,,0.0,,,,162.0,,,,Pass,,,,,
631.0,13.0,wc_13,,0.0,,,54.0,,,,,Pass,,,,,
631.0,13.0,wc_13,,0.0,,,,0.0,,,,Pass,,,,,
631.0,13.0,wc_13,wc_13,0.0,"[('wc_13', 0.6400000000000005)]",0.6400000000000005,,,25.0,0.008814,['Pass'],Pass,0.6400000000000005,-0.5490909090909095,0.0,0.0,0.8
631.0,13.0,wc_13,,0.0,,,,182.0,,,,Pass,,,,,
631.0,13.0,wc_13,wc_7,0.0,"[('wc_7', 0.5400000000000004), ('wc_13', 0.6400000000000005)]",0.8344000000000004,,,21.0,0.004026999999999999,['Pass'],Pass,0.5400000000000004,-0.5400000000000004,0.0,0.0,0.6
631.0,13.0,wc_13,,0.0,,,,0.0,,,,Pass,,,,,
631.0,13.0,wc_13,wc_10,1.0,"[('wc_10', 0.7000000000000005), ('wc_13', 0.6400000000000005), ('wc_7', 0.5400000000000004)]",0.9503200000000002,,,26.0,0.041726,['Pass'],Pass,0.7000000000000005,-0.3666666666666672,1.0,3.0,1.0
635.0,16.0,wc_16,,0.0,,,,162.0,,,,Fail,,,,,
635.0,16.0,wc_16,,0.0,,,68.0,,,,,Fail,,,,,
635.0,16.0,wc_16,,0.0,,,,0.0,,,,Fail,,,,,
635.0,16.0,wc_16,wc_16,0.0,"[('wc_16', 0.39000000000000024)]",0.39000000000000024,,,21.0,0.003008,['Fail'],Fail,0.39000000000000024,-0.2990909090909093,0.0,0.0,0.3
635.0,16.0,wc_16,,0.0,,,,342.0,,,,Fail,,,,,
635.0,16.0,wc_16,wc_9,0.0,"[('wc_9', 0.5600000000000004), ('wc_16', 0.39000000000000024)]",0.7316000000000004,,,26.0,0.004313,['Fail'],Fail,0.5600000000000004,-0.4600000000000004,0.0,0.0,0.5
635.0,16.0,wc_16,,0.0,,,,202.0,,,,Fail,,,,,
635.0,16.0,wc_16,wc_17,0.0,"[('wc_16', 0.39000000000000024), ('wc_9', 0.5600000000000004)]",0.7316000000000004,,,38.0,0.006649,['Fail'],Fail,0.5100000000000003,-0.22428571428571464,2.0,7.0,0.5
635.0,16.0,wc_16,,0.0,,,,402.0,,,,Fail,,,,,
635.0,16.0,wc_16,wc_5,1.0,"[('wc_5', 0.6600000000000005), ('wc_16', 0.39000000000000024), ('wc_9', 0.5600000000000004)]",0.9087440000000002,,,25.0,0.04956300000000001,['Fail'],Fail,0.6600000000000005,-0.32666666666666716,1.0,3.0,0.5
638.0,16.0,wc_16,,0.0,,,,182.0,,,,Pass,,,,,
638.0,16.0,wc_16,,0.0,,,78.0,,,,,Pass,,,,,
638.0,16.0,wc_16,,0.0,,,,0.0,,,,Pass,,,,,
638.0,16.0,wc_16,wc_16,0.0,"[('wc_16', 0.40000000000000024)]",0.40000000000000024,,,31.0,0.002585,['Pass'],Pass,0.40000000000000024,0.5999999999999998,1.0,1.0,0.3
638.0,16.0,wc_16,,0.0,,,,283.0,,,,Pass,,,,,
638.0,16.0,wc_16,wc_2,0.0,"[('wc_2', 0.7500000000000006), ('wc_16', 0.40000000000000024)]",0.8500000000000004,,,30.0,0.004311000000000001,['Pass'],Pass,0.7500000000000006,-0.6250000000000006,1.0,8.0,1.0
638.0,16.0,wc_16,,0.0,,,,223.0,,,,Pass,,,,,
638.0,16.0,wc_16,wc_15,0.0,"[('wc_16', 0.40000000000000024), ('wc_2', 0.7500000000000006)]",0.8500000000000004,,,28.0,0.006686,['Pass'],Pass,0.5000000000000003,-0.5000000000000003,0.0,0.0,0.5
638.0,16.0,wc_16,,0.0,,,,422.0,,,,Pass,,,,,
638.0,16.0,wc_16,wc_4,1.0,"[('wc_4', 0.4400000000000003), ('wc_16', 0.40000000000000024), ('wc_2', 0.7500000000000006)]",0.9160000000000003,,,30.0,0.043687000000000004,['Pass'],Pass,0.4400000000000003,-0.21777777777777807,2.0,9.0,0.1
642.0,15.0,wc_15,,0.0,,,,182.0,,,,Fail,,,,,
642.0,15.0,wc_15,,0.0,,,64.0,,,,,Fail,,,,,
642.0,15.0,wc_15,,0.0,,,,0.0,,,,Fail,,,,,
642.0,15.0,wc_15,wc_15,0.0,"[('wc_15', 0.4900000000000003)]",0.4900000000000003,,,20.0,0.002135,['Fail'],Fail,0.4900000000000003,-0.4900000000000003,0.0,1.0,0.5
642.0,15.0,wc_15,,0.0,,,,382.0,,,,Fail,,,,,
642.0,15.0,wc_15,wc_10,0.0,"[('wc_10', 0.7000000000000005), ('wc_15', 0.4900000000000003)]",0.8470000000000004,,,29.0,0.004452,['Fail'],Fail,0.7000000000000005,-0.5000000000000004,1.0,5.0,1.0
642.0,15.0,wc_15,,0.0,,,,81.0,,,,Fail,,,,,
642.0,15.0,wc_15,wc_12,1.0,"[('wc_12', 0.7500000000000006), ('wc_15', 0.4900000000000003), ('wc_10', 0.7000000000000005)]",0.9617500000000002,,,34.0,0.042654000000000004,['Fail'],Fail,0.7500000000000006,-0.12500000000000056,5.0,8.0,0.9
646.0,14.0,wc_14,,0.0,,,,0.0,,,,Fail,,,,,
646.0,14.0,wc_14,,0.0,,,79.0,,,,,Fail,,,,,
646.0,14.0,wc_14,,0.0,,,,0.0,,,,Fail,,,,,
646.0,14.0,wc_14,wc_14,0.0,"[('wc_14', 0.6200000000000004)]",0.6200000000000004,,,40.0,0.002034,['Fail'],Fail,0.6200000000000004,-0.4381818181818186,0.0,0.0,0.9
646.0,14.0,wc_14,,0.0,,,,0.0,,,,Fail,,,,,
646.0,14.0,wc_14,wc_17,0.0,"[('wc_17', 0.5000000000000003), ('wc_14', 0.6200000000000004)]",0.8100000000000004,,,20.0,0.004224,['Fail'],Fail,0.5000000000000003,-0.3000000000000003,0.0,0.0,0.5
646.0,14.0,wc_14,,0.0,,,,223.0,,,,Fail,,,,,
646.0,14.0,wc_14,wc_8,1.0,"[('wc_8', 0.6600000000000005), ('wc_14', 0.6200000000000004), ('wc_17', 0.5000000000000003)]",0.9354000000000002,,,25.0,0.04334999999999999,['Fail'],Fail,0.6600000000000005,-0.4100000000000005,2.0,8.0,0.9
649.0,15.0,wc_15,,0.0,,,,183.0,,,,Fail,,,,,
649.0,15.0,wc_15,,0.0,,,51.0,,,,,Fail,,,,,
649.0,15.0,wc_15,,0.0,,,,0.0,,,,Fail,,,,,
649.0,15.0,wc_15,wc_15,0.0,"[('wc_15', 0.4900000000000003)]",0.4900000000000003,,,21.0,0.00233,['Pass'],Fail,0.4900000000000003,-0.156666666666667,1.0,3.0,0.5
649.0,15.0,wc_15,,0.0,,,,61.0,,,,Fail,,,,,
649.0,15.0,wc_15,wc_12,0.0,"[('wc_12', 0.7500000000000006)]",0.7500000000000006,,,26.0,0.004268,['Fail'],Fail,0.7500000000000006,-0.19444444444444497,5.0,9.0,0.9
649.0,15.0,wc_15,,0.0,,,,0.0,,,,Fail,,,,,
649.0,15.0,wc_15,wc_13,0.0,"[('wc_13', 0.6500000000000005), ('wc_12', 0.7500000000000006)]",0.9125000000000003,,,26.0,0.007696,['Fail'],Fail,0.6500000000000005,-0.45000000000000046,1.0,5.0,0.8
649.0,15.0,wc_15,,0.0,,,,341.0,,,,Fail,,,,,
649.0,15.0,wc_15,wc_3,0.0,"[('wc_12', 0.7500000000000006), ('wc_13', 0.6500000000000005)]",0.9125000000000003,,,37.0,0.007592,['Fail'],Fail,0.3300000000000002,-0.24666666666666687,0.0,0.0,0.2
649.0,15.0,wc_15,,0.0,,,,202.0,,,,Fail,,,,,
649.0,15.0,wc_15,wc_11,1.0,"[('wc_11', 0.6600000000000005), ('wc_12', 0.7500000000000006), ('wc_13', 0.6500000000000005)]",0.9702500000000002,,,21.0,0.048347999999999995,['Fail'],Fail,0.6600000000000005,-0.6600000000000005,0.0,0.0,0.8
651.0,14.0,wc_14,,0.0,,,,101.0,,,,Pass,,,,,
651.0,14.0,wc_14,,0.0,,,54.0,,,,,Pass,,,,,
651.0,14.0,wc_14,,0.0,,,,0.0,,,,Pass,,,,,
651.0,14.0,wc_14,wc_14,0.0,"[('wc_14', 0.6300000000000004)]",0.6300000000000004,,,29.0,0.002274,['Fail'],Pass,0.6300000000000004,-0.13000000000000045,1.0,2.0,0.9
651.0,14.0,wc_14,,0.0,,,,301.0,,,,Pass,,,,,
651.0,14.0,wc_14,wc_10,0.0,"[('wc_10', 0.7000000000000005)]",0.7000000000000005,,,36.0,0.003861,['Pass'],Pass,0.7000000000000005,-0.4500000000000005,2.0,8.0,1.0
651.0,14.0,wc_14,,0.0,,,,101.0,,,,Pass,,,,,
651.0,14.0,wc_14,wc_13,0.0,"[('wc_13', 0.6500000000000005), ('wc_10', 0.7000000000000005)]",0.8950000000000004,,,20.0,0.0060750000000000005,['Pass'],Pass,0.6500000000000005,-0.31666666666666715,2.0,6.0,0.8
651.0,14.0,wc_14,,0.0,,,,381.0,,,,Pass,,,,,
651.0,14.0,wc_14,wc_5,1.0,"[('wc_5', 0.6600000000000005), ('wc_10', 0.7000000000000005), ('wc_13', 0.6500000000000005)]",0.9643000000000002,,,27.0,0.049413000000000006,['Pass'],Pass,0.6600000000000005,-0.4100000000000005,2.0,8.0,0.5
654.0,15.0,wc_15,,0.0,,,,162.0,,,,Fail,,,,,
654.0,15.0,wc_15,,0.0,,,60.0,,,,,Fail,,,,,
654.0,15.0,wc_15,,0.0,,,,0.0,,,,Fail,,,,,
654.0,15.0,wc_15,wc_15,0.0,"[('wc_15', 0.4800000000000003)]",0.4800000000000003,,,25.0,0.002589,['Fail'],Fail,0.4800000000000003,-0.2800000000000003,1.0,5.0,0.5
654.0,15.0,wc_15,,0.0,,,,362.0,,,,Fail,,,,,
654.0,15.0,wc_15,wc_9,0.0,"[('wc_9', 0.5700000000000004)]",0.5700000000000004,,,35.0,0.005418,['Pass'],Fail,0.5700000000000004,-0.40333333333333377,1.0,6.0,0.5
654.0,15.0,wc_15,,0.0,,,,382.0,,,,Fail,,,,,
654.0,15.0,wc_15,wc_4,0.0,"[('wc_4', 0.4400000000000003), ('wc_9', 0.5700000000000004)]",0.7592000000000003,,,22.0,0.006509999999999999,['Pass'],Fail,0.4400000000000003,-0.2861538461538464,0.0,0.0,0.1
654.0,15.0,wc_15,,0.0,,,,121.0,,,,Fail,,,,,
654.0,15.0,wc_15,wc_12,0.0,"[('wc_12', 0.7500000000000006), ('wc_15', 0.4800000000000003)]",0.8700000000000003,,,27.0,0.008123,['Fail'],Fail,0.7500000000000006,-0.7500000000000006,0.0,1.0,0.9
654.0,15.0,wc_15,,0.0,,,,0.0,,,,Fail,,,,,
654.0,15.0,wc_15,wc_16,1.0,"[('wc_16', 0.41000000000000025), ('wc_15', 0.4800000000000003), ('wc_12', 0.7500000000000006)]",0.9233000000000002,,,40.0,0.046461999999999996,['Fail'],Fail,0.42000000000000026,0.008571428571428286,3.0,7.0,0.3
657.0,15.0,wc_15,,0.0,,,,103.0,,,,Fail,,,,,
657.0,15.0,wc_15,,0.0,,,50.0,,,,,Fail,,,,,
657.0,15.0,wc_15,,0.0,,,,0.0,,,,Fail,,,,,
657.0,15.0,wc_15,wc_15,0.0,"[('wc_15', 0.4800000000000003)]",0.4800000000000003,,,20.0,0.002559,['Fail'],Fail,0.4800000000000003,-0.146666666666667,2.0,6.0,0.5
657.0,15.0,wc_15,,0.0,,,,362.0,,,,Fail,,,,,
657.0,15.0,wc_15,wc_9,0.0,"[('wc_9', 0.5600000000000004), ('wc_15', 0.4800000000000003)]",0.7712000000000003,,,22.0,0.004078,['Fail'],Fail,0.5600000000000004,-0.41714285714285754,1.0,7.0,0.5
657.0,15.0,wc_15,,0.0,,,,141.0,,,,Fail,,,,,
657.0,15.0,wc_15,wc_14,1.0,"[('wc_14', 0.6200000000000004), ('wc_15', 0.4800000000000003), ('wc_9', 0.5600000000000004)]",0.9130560000000002,,,29.0,0.05353100000000001,['Fail'],Fail,0.6200000000000004,-0.22000000000000042,2.0,5.0,0.9
659.0,15.0,wc_15,,0.0,,,,0.0,,,,Fail,,,,,
659.0,15.0,wc_15,,0.0,,,59.0,,,,,Fail,,,,,
659.0,15.0,wc_15,,0.0,,,,0.0,,,,Fail,,,,,
659.0,15.0,wc_15,wc_15,0.0,"[('wc_15', 0.4800000000000003)]",0.4800000000000003,,,33.0,0.002471,['Fail'],Fail,0.4800000000000003,-0.05142857142857177,3.0,7.0,0.5
659.0,15.0,wc_15,,0.0,,,,0.0,,,,Fail,,,,,
659.0,15.0,wc_15,wc_17,0.0,"[('wc_17', 0.5100000000000003), ('wc_15', 0.4800000000000003)]",0.7452000000000003,,,37.0,0.006517,['Fail'],Fail,0.5100000000000003,-0.31000000000000033,1.0,5.0,0.5
659.0,15.0,wc_15,,0.0,,,,61.0,,,,Fail,,,,,
659.0,15.0,wc_15,wc_14,1.0,"[('wc_14', 0.6200000000000004), ('wc_15', 0.4800000000000003), ('wc_17', 0.5100000000000003)]",0.9031760000000002,,,35.0,0.044531,['Fail'],Fail,0.6200000000000004,-0.12000000000000044,3.0,6.0,0.9
663.0,15.0,wc_15,,0.0,,,,0.0,,,,Fail,,,,,
663.0,15.0,wc_15,,0.0,,,71.0,,,,,Fail,,,,,
663.0,15.0,wc_15,,0.0,,,,0.0,,,,Fail,,,,,
663.0,15.0,wc_15,wc_15,0.0,"[('wc_15', 0.4900000000000003)]",0.4900000000000003,,,29.0,0.002295,['Pass'],Fail,0.4900000000000003,0.009999999999999676,4.0,8.0,0.5
663.0,15.0,wc_15,,0.0,,,,303.0,,,,Fail,,,,,
663.0,15.0,wc_15,wc_2,0.0,"[('wc_2', 0.7500000000000006)]",0.7500000000000006,,,34.0,0.005775,['Fail'],Fail,0.7500000000000006,-0.6250000000000006,0.0,0.0,1.0
663.0,15.0,wc_15,,0.0,,,,203.0,,,,Fail,,,,,
663.0,15.0,wc_15,wc_10,0.0,"[('wc_10', 0.7000000000000005), ('wc_15', 0.4900000000000003)]",0.8470000000000004,,,40.0,0.006684000000000001,['Pass'],Fail,0.7000000000000005,-0.4500000000000005,0.0,0.0,1.0
663.0,15.0,wc_15,,0.0,,,,101.0,,,,Fail,,,,,
663.0,15.0,wc_15,wc_13,0.0,"[('wc_13', 0.6500000000000005), ('wc_2', 0.7500000000000006)]",0.9125000000000003,,,40.0,0.015364,['Fail'],Fail,0.6500000000000005,-0.3500000000000005,0.0,0.0,0.8
663.0,15.0,wc_15,,0.0,,,,182.0,,,,Fail,,,,,
663.0,15.0,wc_15,wc_7,1.0,"[('wc_7', 0.5500000000000004), ('wc_2', 0.7500000000000006), ('wc_13', 0.6500000000000005)]",0.9606250000000002,,,29.0,0.050350000000000006,['Fail'],Fail,0.5500000000000004,-0.5500000000000004,0.0,0.0,0.6
665.0,15.0,wc_15,,0.0,,,,203.0,,,,Fail,,,,,
665.0,15.0,wc_15,,0.0,,,53.0,,,,,Fail,,,,,
665.0,15.0,wc_15,,0.0,,,,0.0,,,,Fail,,,,,
665.0,15.0,wc_15,wc_15,0.0,"[('wc_15', 0.4800000000000003)]",0.4800000000000003,,,23.0,0.002085,['Fail'],Fail,0.4800000000000003,-0.035555555555555896,4.0,9.0,0.5
665.0,15.0,wc_15,,0.0,,,,0.0,,,,Fail,,,,,
665.0,15.0,wc_15,wc_17,0.0,"[('wc_17', 0.5100000000000003), ('wc_15', 0.4800000000000003)]",0.7452000000000003,,,36.0,0.007165,['Fail'],Fail,0.5100000000000003,-0.22428571428571464,2.0,7.0,0.5
665.0,15.0,wc_15,,0.0,,,,183.0,,,,Fail,,,,,
665.0,15.0,wc_15,wc_6,0.0,"[('wc_15', 0.4800000000000003), ('wc_17', 0.5100000000000003)]",0.7452000000000003,,,26.0,0.006902,['Fail'],Fail,0.20000000000000007,-0.023529411764705938,0.0,0.0,0.1
665.0,15.0,wc_15,,0.0,,,,341.0,,,,Fail,,,,,
665.0,15.0,wc_15,wc_4,0.0,"[('wc_4', 0.43000000000000027), ('wc_15', 0.4800000000000003), ('wc_17', 0.5100000000000003)]",0.8547640000000003,,,20.0,0.011309,['Fail'],Fail,0.43000000000000027,-0.43000000000000027,0.0,4.0,0.1
665.0,15.0,wc_15,,0.0,,,,0.0,,,,Fail,,,,,
665.0,15.0,wc_15,wc_5,1.0,"[('wc_5', 0.6600000000000005), ('wc_15', 0.4800000000000003), ('wc_17', 0.5100000000000003), ('wc_4', 0.43000000000000027)]",0.9506197600000001,,,37.0,0.048851000000000006,['Fail'],Fail,0.6600000000000005,-0.6600000000000005,0.0,0.0,0.5
667.0,15.0,wc_15,,0.0,,,,162.0,,,,Pass,,,,,
667.0,15.0,wc_15,,0.0,,,70.0,,,,,Pass,,,,,
667.0,15.0,wc_15,,0.0,,,,0.0,,,,Pass,,,,,
667.0,15.0,wc_15,wc_15,0.0,"[('wc_15', 0.4900000000000003)]",0.4900000000000003,,,33.0,0.002313,['Pass'],Pass,0.4900000000000003,-0.4900000000000003,0.0,0.0,0.5
667.0,15.0,wc_15,,0.0,,,,362.0,,,,Pass,,,,,
667.0,15.0,wc_15,wc_9,0.0,"[('wc_9', 0.5600000000000004), ('wc_15', 0.4900000000000003)]",0.7756000000000003,,,21.0,0.008076,['Pass'],Pass,0.5600000000000004,-0.37818181818181856,0.0,0.0,0.5
667.0,15.0,wc_15,,0.0,,,,0.0,,,,Pass,,,,,
667.0,15.0,wc_15,wc_10,1.0,"[('wc_10', 0.6900000000000005), ('wc_15', 0.4900000000000003), ('wc_9', 0.5600000000000004)]",0.9304360000000003,,,31.0,0.04610199999999999,['Pass'],Pass,0.6900000000000005,-0.3566666666666672,1.0,3.0,1.0
669.0,17.0,wc_17,,0.0,,,,182.0,,,,Pass,,,,,
669.0,17.0,wc_17,,0.0,,,51.0,,,,,Pass,,,,,
669.0,17.0,wc_17,,0.0,,,,0.0,,,,Pass,,,,,
669.0,17.0,wc_17,wc_17,0.0,"[('wc_17', 0.5100000000000003)]",0.5100000000000003,,,20.0,0.008946,['Pass'],Pass,0.5100000000000003,-0.17666666666666703,3.0,9.0,0.5
669.0,17.0,wc_17,,0.0,,,,61.0,,,,Pass,,,,,
669.0,17.0,wc_17,wc_14,0.0,"[('wc_14', 0.6200000000000004), ('wc_17', 0.5100000000000003)]",0.8138000000000003,,,35.0,0.00441,['Pass'],Pass,0.6200000000000004,-0.2866666666666671,3.0,9.0,0.9
669.0,17.0,wc_17,,0.0,,,,142.0,,,,Pass,,,,,
669.0,17.0,wc_17,wc_6,0.0,"[('wc_6', 0.19000000000000006), ('wc_17', 0.5100000000000003), ('wc_14', 0.6200000000000004)]",0.8491780000000003,,,27.0,0.005986,['Pass'],Pass,0.19000000000000006,-0.19000000000000006,0.0,2.0,0.1
669.0,17.0,wc_17,,0.0,,,,222.0,,,,Pass,,,,,
669.0,17.0,wc_17,wc_2,1.0,"[('wc_2', 0.7600000000000006), ('wc_17', 0.5100000000000003), ('wc_14', 0.6200000000000004), ('wc_6', 0.19000000000000006)]",0.9638027200000001,,,34.0,0.047158,['Pass'],Pass,0.7600000000000006,-0.26000000000000056,2.0,4.0,1.0
