mpecck/BCQC/bcqc_with_qdt/results/raw/input_13/independent_qc/training/20_workpiece/20200429_090311/wp_4_qc_majority_0.9.csv
production_index,step_idx,production_workcell,qc,consent,winner_qc_list,score,production_time,transport_time,inspection_time,network_time,qc_results,actual_quality,qc_score,score_error,in_winner_counter,in_qc_counter,qc_capability
7.0,1.0,wc_1,,0.0,,,69.0,,,,,Fail,,,,,
7.0,1.0,wc_1,,0.0,,,,0.0,,,,Fail,,,,,
7.0,1.0,wc_1,wc_1,0.0,"[('wc_1', 0.22000000000000008)]",0.22000000000000008,,,32.0,0.006379,['Fail'],Fail,0.22000000000000008,0.029999999999999916,2.0,8.0,0.4
7.0,1.0,wc_1,,0.0,,,,223.0,,,,Fail,,,,,
7.0,1.0,wc_1,wc_10,0.0,"[('wc_10', 0.4800000000000003), ('wc_1', 0.22000000000000008)]",0.5944000000000003,,,27.0,0.010568000000000001,['Fail'],Fail,0.4800000000000003,-0.035555555555555896,4.0,9.0,1.0
7.0,1.0,wc_1,,0.0,,,,182.0,,,,Fail,,,,,
7.0,1.0,wc_1,wc_17,0.0,"[('wc_17', 0.40000000000000024), ('wc_1', 0.22000000000000008), ('wc_10', 0.4800000000000003)]",0.7566400000000003,,,40.0,0.0072109999999999995,['Fail'],Fail,0.40000000000000024,0.09999999999999976,1.0,2.0,0.5
7.0,1.0,wc_1,,0.0,,,,382.0,,,,Fail,,,,,
7.0,1.0,wc_1,wc_4,0.0,"[('wc_1', 0.22000000000000008), ('wc_10', 0.4800000000000003), ('wc_17', 0.40000000000000024)]",0.7566400000000003,,,31.0,0.008521,['Fail'],Fail,0.2500000000000001,-0.08333333333333345,1.0,6.0,0.1
7.0,1.0,wc_1,,0.0,,,,182.0,,,,Fail,,,,,
7.0,1.0,wc_1,wc_15,0.0,"[('wc_15', 0.39000000000000024), ('wc_1', 0.22000000000000008), ('wc_10', 0.4800000000000003), ('wc_17', 0.40000000000000024)]",0.8515504000000003,,,39.0,0.010034000000000001,['Fail'],Fail,0.39000000000000024,-0.05666666666666692,3.0,9.0,0.5
7.0,1.0,wc_1,,0.0,,,,61.0,,,,Fail,,,,,
7.0,1.0,wc_1,wc_12,1.0,"[('wc_12', 0.5700000000000004), ('wc_1', 0.22000000000000008), ('wc_10', 0.4800000000000003), ('wc_17', 0.40000000000000024), ('wc_15', 0.39000000000000024)]",0.9361666720000001,,,38.0,0.056042,['Fail'],Fail,0.5700000000000004,-0.2842857142857147,2.0,7.0,0.9
116.0,1.0,wc_1,,0.0,,,,242.0,,,,Fail,,,,,
116.0,1.0,wc_1,,0.0,,,73.0,,,,,Fail,,,,,
116.0,1.0,wc_1,,0.0,,,,0.0,,,,Fail,,,,,
116.0,1.0,wc_1,wc_1,0.0,"[('wc_1', 0.2300000000000001)]",0.2300000000000001,,,38.0,0.002173,['Pass'],Fail,0.2300000000000001,0.10333333333333322,3.0,9.0,0.4
116.0,1.0,wc_1,,0.0,,,,203.0,,,,Fail,,,,,
116.0,1.0,wc_1,wc_9,0.0,"[('wc_9', 0.30000000000000016)]",0.30000000000000016,,,37.0,0.005836,['Fail'],Fail,0.30000000000000016,-0.050000000000000155,1.0,4.0,0.5
116.0,1.0,wc_1,,0.0,,,,61.0,,,,Fail,,,,,
116.0,1.0,wc_1,wc_6,0.0,"[('wc_6', 0.17000000000000004), ('wc_9', 0.30000000000000016)]",0.41900000000000015,,,27.0,0.007706,['Fail'],Fail,0.17000000000000004,-0.17000000000000004,0.0,0.0,0.1
116.0,1.0,wc_1,,0.0,,,,222.0,,,,Fail,,,,,
116.0,1.0,wc_1,wc_2,0.0,"[('wc_2', 0.5600000000000004), ('wc_9', 0.30000000000000016), ('wc_6', 0.17000000000000004)]",0.7443600000000004,,,38.0,0.012176,['Fail'],Fail,0.5600000000000004,-0.5600000000000004,0.0,4.0,1.0
116.0,1.0,wc_1,,0.0,,,,202.0,,,,Fail,,,,,
116.0,1.0,wc_1,wc_14,0.0,"[('wc_14', 0.5400000000000004), ('wc_9', 0.30000000000000016), ('wc_6', 0.17000000000000004), ('wc_2', 0.5600000000000004)]",0.8824056000000002,,,22.0,0.014452,['Fail'],Fail,0.5400000000000004,-0.24000000000000038,0.0,0.0,0.9
116.0,1.0,wc_1,,0.0,,,,321.0,,,,Fail,,,,,
116.0,1.0,wc_1,wc_3,1.0,"[('wc_3', 0.18000000000000005), ('wc_9', 0.30000000000000016), ('wc_6', 0.17000000000000004), ('wc_2', 0.5600000000000004), ('wc_14', 0.5400000000000004)]",0.9035725920000002,,,21.0,0.050184999999999994,['Fail'],Fail,0.18000000000000005,-0.18000000000000005,0.0,0.0,0.2
180.0,1.0,wc_1,,0.0,,,,81.0,,,,Fail,,,,,
180.0,1.0,wc_1,,0.0,,,66.0,,,,,Fail,,,,,
180.0,1.0,wc_1,,0.0,,,,0.0,,,,Fail,,,,,
180.0,1.0,wc_1,wc_1,0.0,"[('wc_1', 0.2300000000000001)]",0.2300000000000001,,,28.0,0.002399,['Pass'],Fail,0.2300000000000001,-0.2300000000000001,0.0,0.0,0.4
180.0,1.0,wc_1,,0.0,,,,223.0,,,,Fail,,,,,
180.0,1.0,wc_1,wc_10,0.0,"[('wc_10', 0.4900000000000003)]",0.4900000000000003,,,39.0,0.004626,['Fail'],Fail,0.4900000000000003,-0.4900000000000003,0.0,1.0,1.0
180.0,1.0,wc_1,,0.0,,,,0.0,,,,Fail,,,,,
180.0,1.0,wc_1,wc_11,0.0,"[('wc_11', 0.39000000000000024), ('wc_10', 0.4900000000000003)]",0.6889000000000003,,,24.0,0.006038,['Fail'],Fail,0.39000000000000024,-0.3130769230769233,0.0,0.0,0.8
180.0,1.0,wc_1,,0.0,,,,122.0,,,,Fail,,,,,
180.0,1.0,wc_1,wc_15,0.0,"[('wc_15', 0.39000000000000024), ('wc_10', 0.4900000000000003), ('wc_11', 0.39000000000000024)]",0.8102290000000003,,,27.0,0.009237,['Fail'],Fail,0.39000000000000024,-0.39000000000000024,0.0,1.0,0.5
180.0,1.0,wc_1,,0.0,,,,61.0,,,,Fail,,,,,
180.0,1.0,wc_1,wc_12,1.0,"[('wc_12', 0.5700000000000004), ('wc_10', 0.4900000000000003), ('wc_11', 0.39000000000000024), ('wc_15', 0.39000000000000024)]",0.9183984700000002,,,30.0,0.042971999999999996,['Fail'],Fail,0.5700000000000004,-0.23666666666666708,3.0,9.0,0.9
201.0,1.0,wc_1,,0.0,,,,242.0,,,,Pass,,,,,
201.0,1.0,wc_1,,0.0,,,64.0,,,,,Pass,,,,,
201.0,1.0,wc_1,,0.0,,,,0.0,,,,Pass,,,,,
201.0,1.0,wc_1,wc_1,0.0,"[('wc_1', 0.22000000000000008)]",0.22000000000000008,,,37.0,0.002111,['Pass'],Pass,0.22000000000000008,-0.22000000000000008,0.0,1.0,0.4
201.0,1.0,wc_1,,0.0,,,,243.0,,,,Pass,,,,,
201.0,1.0,wc_1,wc_11,0.0,"[('wc_11', 0.40000000000000024), ('wc_1', 0.22000000000000008)]",0.5320000000000003,,,27.0,0.004175,['Pass'],Pass,0.40000000000000024,0.5999999999999998,1.0,1.0,0.8
201.0,1.0,wc_1,,0.0,,,,81.0,,,,Pass,,,,,
201.0,1.0,wc_1,wc_13,0.0,"[('wc_13', 0.4700000000000003), ('wc_1', 0.22000000000000008), ('wc_11', 0.40000000000000024)]",0.7519600000000003,,,27.0,0.007808000000000001,['Pass'],Pass,0.4700000000000003,-0.136666666666667,2.0,6.0,0.8
201.0,1.0,wc_1,,0.0,,,,242.0,,,,Pass,,,,,
201.0,1.0,wc_1,wc_2,0.0,"[('wc_2', 0.5600000000000004), ('wc_1', 0.22000000000000008), ('wc_11', 0.40000000000000024), ('wc_13', 0.4700000000000003)]",0.8908624000000003,,,25.0,0.007958,['Pass'],Pass,0.5600000000000004,-0.39333333333333376,1.0,6.0,1.0
201.0,1.0,wc_1,,0.0,,,,162.0,,,,Pass,,,,,
201.0,1.0,wc_1,wc_8,1.0,"[('wc_8', 0.4900000000000003), ('wc_1', 0.22000000000000008), ('wc_11', 0.40000000000000024), ('wc_13', 0.4700000000000003), ('wc_2', 0.5600000000000004)]",0.9443398240000002,,,25.0,0.056172,['Pass'],Pass,0.4900000000000003,-0.4900000000000003,0.0,0.0,0.9
212.0,4.0,wc_4,,0.0,,,,301.0,,,,Pass,,,,,
212.0,4.0,wc_4,,0.0,,,59.0,,,,,Pass,,,,,
212.0,4.0,wc_4,,0.0,,,,0.0,,,,Pass,,,,,
212.0,4.0,wc_4,wc_4,0.0,"[('wc_4', 0.2400000000000001)]",0.2400000000000001,,,37.0,0.002132,['Pass'],Pass,0.2400000000000001,-0.1400000000000001,0.0,0.0,0.1
212.0,4.0,wc_4,,0.0,,,,121.0,,,,Pass,,,,,
212.0,4.0,wc_4,wc_12,0.0,"[('wc_12', 0.5700000000000004), ('wc_4', 0.2400000000000001)]",0.6732000000000004,,,31.0,0.004011,['Pass'],Pass,0.5700000000000004,-0.2700000000000004,0.0,0.0,0.9
212.0,4.0,wc_4,,0.0,,,,182.0,,,,Pass,,,,,
212.0,4.0,wc_4,wc_6,0.0,"[('wc_4', 0.2400000000000001), ('wc_12', 0.5700000000000004)]",0.6732000000000004,,,36.0,0.005946999999999999,['Pass'],Pass,0.18000000000000005,0.15333333333333327,1.0,3.0,0.1
212.0,4.0,wc_4,,0.0,,,,0.0,,,,Pass,,,,,
212.0,4.0,wc_4,wc_9,0.0,"[('wc_9', 0.31000000000000016), ('wc_4', 0.2400000000000001), ('wc_12', 0.5700000000000004)]",0.7745080000000003,,,39.0,0.010675,['Pass'],Pass,0.31000000000000016,-0.024285714285714466,2.0,7.0,0.5
212.0,4.0,wc_4,,0.0,,,,141.0,,,,Pass,,,,,
212.0,4.0,wc_4,wc_14,0.0,"[('wc_14', 0.5500000000000004), ('wc_4', 0.2400000000000001), ('wc_12', 0.5700000000000004), ('wc_9', 0.31000000000000016)]",0.8985286000000002,,,27.0,0.018446999999999998,['Pass'],Pass,0.5500000000000004,-0.21666666666666706,1.0,3.0,0.9
212.0,4.0,wc_4,,0.0,,,,301.0,,,,Pass,,,,,
212.0,4.0,wc_4,wc_10,1.0,"[('wc_10', 0.4900000000000003), ('wc_4', 0.2400000000000001), ('wc_12', 0.5700000000000004), ('wc_9', 0.31000000000000016), ('wc_14', 0.5500000000000004)]",0.9482495860000001,,,33.0,0.045245,['Pass'],Pass,0.4900000000000003,0.009999999999999676,2.0,4.0,1.0
226.0,2.0,wc_2,,0.0,,,,243.0,,,,Pass,,,,,
226.0,2.0,wc_2,,0.0,,,71.0,,,,,Pass,,,,,
226.0,2.0,wc_2,,0.0,,,,0.0,,,,Pass,,,,,
226.0,2.0,wc_2,wc_2,0.0,"[('wc_2', 0.5600000000000004)]",0.5600000000000004,,,40.0,0.002561,['Pass'],Pass,0.5600000000000004,-0.3100000000000004,2.0,8.0,1.0
226.0,2.0,wc_2,,0.0,,,,102.0,,,,Pass,,,,,
226.0,2.0,wc_2,wc_1,0.0,"[('wc_1', 0.2300000000000001), ('wc_2', 0.5600000000000004)]",0.6612000000000003,,,31.0,0.004424,['Pass'],Pass,0.2300000000000001,0.10333333333333322,1.0,3.0,0.4
226.0,2.0,wc_2,,0.0,,,,142.0,,,,Pass,,,,,
226.0,2.0,wc_2,wc_6,0.0,"[('wc_2', 0.5600000000000004), ('wc_1', 0.2300000000000001)]",0.6612000000000003,,,38.0,0.0061979999999999995,['Pass'],Pass,0.18000000000000005,0.06999999999999995,1.0,4.0,0.1
226.0,2.0,wc_2,,0.0,,,,202.0,,,,Pass,,,,,
226.0,2.0,wc_2,wc_14,0.0,"[('wc_14', 0.5500000000000004), ('wc_2', 0.5600000000000004), ('wc_1', 0.2300000000000001)]",0.8475400000000003,,,33.0,0.009281,['Pass'],Pass,0.5500000000000004,-0.05000000000000038,2.0,4.0,0.9
226.0,2.0,wc_2,,0.0,,,,82.0,,,,Pass,,,,,
226.0,2.0,wc_2,wc_12,1.0,"[('wc_12', 0.5800000000000004), ('wc_2', 0.5600000000000004), ('wc_1', 0.2300000000000001), ('wc_14', 0.5500000000000004)]",0.9359668000000002,,,39.0,0.04641200000000001,['Pass'],Pass,0.5900000000000004,0.4099999999999996,2.0,2.0,0.9
242.0,3.0,wc_3,,0.0,,,,361.0,,,,Pass,,,,,
242.0,3.0,wc_3,,0.0,,,74.0,,,,,Pass,,,,,
242.0,3.0,wc_3,,0.0,,,,0.0,,,,Pass,,,,,
242.0,3.0,wc_3,wc_3,0.0,"[('wc_3', 0.18000000000000005)]",0.18000000000000005,,,33.0,0.002164,['Fail'],Pass,0.18000000000000005,-0.18000000000000005,0.0,4.0,0.2
242.0,3.0,wc_3,,0.0,,,,0.0,,,,Pass,,,,,
242.0,3.0,wc_3,wc_4,0.0,"[('wc_4', 0.2500000000000001)]",0.2500000000000001,,,38.0,0.004916,['Pass'],Pass,0.2500000000000001,0.2499999999999999,1.0,2.0,0.1
242.0,3.0,wc_3,,0.0,,,,161.0,,,,Pass,,,,,
242.0,3.0,wc_3,wc_14,0.0,"[('wc_14', 0.5600000000000004), ('wc_4', 0.2500000000000001)]",0.6700000000000004,,,39.0,0.008114,['Pass'],Pass,0.5600000000000004,0.03999999999999959,3.0,5.0,0.9
242.0,3.0,wc_3,,0.0,,,,102.0,,,,Pass,,,,,
242.0,3.0,wc_3,wc_13,0.0,"[('wc_13', 0.4700000000000003), ('wc_4', 0.2500000000000001), ('wc_14', 0.5600000000000004)]",0.8251000000000003,,,38.0,0.008626,['Pass'],Pass,0.4700000000000003,-0.136666666666667,3.0,9.0,0.8
242.0,3.0,wc_3,,0.0,,,,242.0,,,,Pass,,,,,
242.0,3.0,wc_3,wc_2,1.0,"[('wc_2', 0.5600000000000004), ('wc_4', 0.2500000000000001), ('wc_14', 0.5600000000000004), ('wc_13', 0.4700000000000003)]",0.9230440000000002,,,30.0,0.043366,['Pass'],Pass,0.5600000000000004,-0.5600000000000004,0.0,0.0,1.0
258.0,5.0,wc_5,,0.0,,,,0.0,,,,Pass,,,,,
258.0,5.0,wc_5,,0.0,,,74.0,,,,,Pass,,,,,
258.0,5.0,wc_5,,0.0,,,,0.0,,,,Pass,,,,,
258.0,5.0,wc_5,wc_5,0.0,"[('wc_5', 0.43000000000000027)]",0.43000000000000027,,,39.0,0.003038,['Pass'],Pass,0.43000000000000027,-0.2871428571428574,0.0,0.0,0.5
258.0,5.0,wc_5,,0.0,,,,162.0,,,,Pass,,,,,
258.0,5.0,wc_5,wc_11,0.0,"[('wc_11', 0.41000000000000025), ('wc_5', 0.43000000000000027)]",0.6637000000000003,,,27.0,0.007131,['Pass'],Pass,0.41000000000000025,-0.010000000000000231,2.0,5.0,0.8
258.0,5.0,wc_5,,0.0,,,,342.0,,,,Pass,,,,,
258.0,5.0,wc_5,wc_4,0.0,"[('wc_5', 0.43000000000000027), ('wc_11', 0.41000000000000025)]",0.6637000000000003,,,27.0,0.007500999999999999,['Pass'],Pass,0.2600000000000001,0.4066666666666665,2.0,3.0,0.1
258.0,5.0,wc_5,,0.0,,,,141.0,,,,Pass,,,,,
258.0,5.0,wc_5,wc_13,0.0,"[('wc_13', 0.4700000000000003), ('wc_5', 0.43000000000000027), ('wc_11', 0.41000000000000025)]",0.8217610000000002,,,35.0,0.010617,['Pass'],Pass,0.4700000000000003,-0.4700000000000003,0.0,0.0,0.8
258.0,5.0,wc_5,,0.0,,,,242.0,,,,Pass,,,,,
258.0,5.0,wc_5,wc_2,1.0,"[('wc_2', 0.5600000000000004), ('wc_5', 0.43000000000000027), ('wc_11', 0.41000000000000025), ('wc_13', 0.4700000000000003)]",0.9215748400000002,,,38.0,0.045367000000000005,['Pass'],Pass,0.5700000000000004,0.4299999999999996,1.0,1.0,1.0
276.0,6.0,wc_6,,0.0,,,,122.0,,,,Pass,,,,,
276.0,6.0,wc_6,,0.0,,,59.0,,,,,Pass,,,,,
276.0,6.0,wc_6,,0.0,,,,0.0,,,,Pass,,,,,
276.0,6.0,wc_6,wc_6,0.0,"[('wc_6', 0.18000000000000005)]",0.18000000000000005,,,34.0,0.002088,['Fail'],Pass,0.18000000000000005,-0.0371428571428572,1.0,7.0,0.1
276.0,6.0,wc_6,,0.0,,,,222.0,,,,Pass,,,,,
276.0,6.0,wc_6,wc_2,0.0,"[('wc_2', 0.5700000000000004)]",0.5700000000000004,,,31.0,0.004241,['Pass'],Pass,0.5700000000000004,0.4299999999999996,1.0,1.0,1.0
276.0,6.0,wc_6,,0.0,,,,0.0,,,,Pass,,,,,
276.0,6.0,wc_6,wc_5,0.0,"[('wc_5', 0.4400000000000003), ('wc_2', 0.5700000000000004)]",0.7592000000000003,,,33.0,0.00615,['Pass'],Pass,0.4400000000000003,0.5599999999999997,1.0,1.0,0.5
276.0,6.0,wc_6,,0.0,,,,101.0,,,,Pass,,,,,
276.0,6.0,wc_6,wc_8,0.0,"[('wc_8', 0.4900000000000003), ('wc_2', 0.5700000000000004), ('wc_5', 0.4400000000000003)]",0.8771920000000002,,,26.0,0.008539999999999999,['Pass'],Pass,0.4900000000000003,-0.4900000000000003,0.0,4.0,0.9
276.0,6.0,wc_6,,0.0,,,,0.0,,,,Pass,,,,,
276.0,6.0,wc_6,wc_9,1.0,"[('wc_9', 0.3200000000000002), ('wc_2', 0.5700000000000004), ('wc_5', 0.4400000000000003), ('wc_8', 0.4900000000000003)]",0.9164905600000002,,,40.0,0.044359,['Pass'],Pass,0.3300000000000002,-0.3300000000000002,0.0,0.0,0.5
287.0,9.0,wc_9,,0.0,,,,0.0,,,,Pass,,,,,
287.0,9.0,wc_9,,0.0,,,72.0,,,,,Pass,,,,,
287.0,9.0,wc_9,,0.0,,,,0.0,,,,Pass,,,,,
287.0,9.0,wc_9,wc_9,0.0,"[('wc_9', 0.3300000000000002)]",0.3300000000000002,,,35.0,0.002701,['Pass'],Pass,0.3300000000000002,-0.3300000000000002,0.0,0.0,0.5
287.0,9.0,wc_9,,0.0,,,,141.0,,,,Pass,,,,,
287.0,9.0,wc_9,wc_14,0.0,"[('wc_14', 0.5700000000000004), ('wc_9', 0.3300000000000002)]",0.7119000000000004,,,20.0,0.00415,['Pass'],Pass,0.5700000000000004,-0.0700000000000004,4.0,8.0,0.9
287.0,9.0,wc_9,,0.0,,,,102.0,,,,Pass,,,,,
287.0,9.0,wc_9,wc_13,0.0,"[('wc_13', 0.4800000000000003), ('wc_9', 0.3300000000000002), ('wc_14', 0.5700000000000004)]",0.8501880000000003,,,21.0,0.008229,['Pass'],Pass,0.4800000000000003,0.019999999999999685,1.0,2.0,0.8
287.0,9.0,wc_9,,0.0,,,,0.0,,,,Pass,,,,,
287.0,9.0,wc_9,wc_17,0.0,"[('wc_9', 0.3300000000000002), ('wc_14', 0.5700000000000004), ('wc_13', 0.4800000000000003)]",0.8501880000000003,,,28.0,0.015791,['Pass'],Pass,0.41000000000000025,-0.22818181818181843,0.0,0.0,0.5
287.0,9.0,wc_9,,0.0,,,,223.0,,,,Pass,,,,,
287.0,9.0,wc_9,wc_8,0.0,"[('wc_9', 0.3300000000000002), ('wc_14', 0.5700000000000004), ('wc_13', 0.4800000000000003)]",0.8501880000000003,,,29.0,0.011847,['Pass'],Pass,0.4900000000000003,-0.2900000000000003,1.0,5.0,0.9
287.0,9.0,wc_9,,0.0,,,,122.0,,,,Pass,,,,,
287.0,9.0,wc_9,wc_12,1.0,"[('wc_12', 0.5900000000000004), ('wc_9', 0.3300000000000002), ('wc_14', 0.5700000000000004), ('wc_13', 0.4800000000000003)]",0.9385770800000002,,,35.0,0.04596599999999999,['Pass'],Pass,0.5900000000000004,-0.09000000000000041,3.0,6.0,0.9
297.0,7.0,wc_7,,0.0,,,,202.0,,,,Fail,,,,,
297.0,7.0,wc_7,,0.0,,,60.0,,,,,Fail,,,,,
297.0,7.0,wc_7,,0.0,,,,0.0,,,,Fail,,,,,
297.0,7.0,wc_7,wc_7,0.0,"[('wc_7', 0.4800000000000003)]",0.4800000000000003,,,24.0,0.002836,['Fail'],Fail,0.4800000000000003,-0.3550000000000003,0.0,0.0,0.6
297.0,7.0,wc_7,,0.0,,,,162.0,,,,Fail,,,,,
297.0,7.0,wc_7,wc_13,0.0,"[('wc_13', 0.4900000000000003), ('wc_7', 0.4800000000000003)]",0.7348000000000003,,,38.0,0.005833,['Fail'],Fail,0.4900000000000003,0.1766666666666663,2.0,3.0,0.8
297.0,7.0,wc_7,,0.0,,,,321.0,,,,Fail,,,,,
297.0,7.0,wc_7,wc_10,0.0,"[('wc_10', 0.4900000000000003), ('wc_7', 0.4800000000000003), ('wc_13', 0.4900000000000003)]",0.8647480000000003,,,29.0,0.007076000000000001,['Fail'],Fail,0.4900000000000003,-0.2677777777777781,2.0,9.0,1.0
297.0,7.0,wc_7,,0.0,,,,182.0,,,,Fail,,,,,
297.0,7.0,wc_7,wc_17,1.0,"[('wc_17', 0.40000000000000024), ('wc_7', 0.4800000000000003), ('wc_13', 0.4900000000000003), ('wc_10', 0.4900000000000003)]",0.9188488000000001,,,20.0,0.047637,['Fail'],Fail,0.41000000000000025,0.08999999999999975,1.0,2.0,0.5
309.0,10.0,wc_10,,0.0,,,,342.0,,,,Fail,,,,,
309.0,10.0,wc_10,,0.0,,,72.0,,,,,Fail,,,,,
309.0,10.0,wc_10,,0.0,,,,0.0,,,,Fail,,,,,
309.0,10.0,wc_10,wc_10,0.0,"[('wc_10', 0.4900000000000003)]",0.4900000000000003,,,21.0,0.003243,['Fail'],Fail,0.4900000000000003,-0.4900000000000003,0.0,0.0,1.0
309.0,10.0,wc_10,,0.0,,,,182.0,,,,Fail,,,,,
309.0,10.0,wc_10,wc_17,0.0,"[('wc_17', 0.41000000000000025), ('wc_10', 0.4900000000000003)]",0.6991000000000003,,,23.0,0.004200000000000001,['Fail'],Fail,0.41000000000000025,0.08999999999999975,1.0,2.0,0.5
309.0,10.0,wc_10,,0.0,,,,183.0,,,,Fail,,,,,
309.0,10.0,wc_10,wc_6,0.0,"[('wc_6', 0.17000000000000004), ('wc_10', 0.4900000000000003), ('wc_17', 0.41000000000000025)]",0.7502530000000003,,,36.0,0.007771,['Fail'],Fail,0.17000000000000004,-0.07000000000000003,0.0,0.0,0.1
309.0,10.0,wc_10,,0.0,,,,0.0,,,,Fail,,,,,
309.0,10.0,wc_10,wc_9,0.0,"[('wc_9', 0.3400000000000002), ('wc_10', 0.4900000000000003), ('wc_17', 0.41000000000000025), ('wc_6', 0.17000000000000004)]",0.8351669800000002,,,34.0,0.008517,['Fail'],Fail,0.3400000000000002,0.1599999999999998,1.0,2.0,0.5
309.0,10.0,wc_10,,0.0,,,,263.0,,,,Fail,,,,,
309.0,10.0,wc_10,wc_2,1.0,"[('wc_2', 0.5800000000000004), ('wc_10', 0.4900000000000003), ('wc_17', 0.41000000000000025), ('wc_6', 0.17000000000000004), ('wc_9', 0.3400000000000002)]",0.9307701316000001,,,35.0,0.048917,['Fail'],Fail,0.5900000000000004,0.009999999999999565,3.0,5.0,1.0
318.0,8.0,wc_8,,0.0,,,,162.0,,,,Fail,,,,,
318.0,8.0,wc_8,,0.0,,,52.0,,,,,Fail,,,,,
318.0,8.0,wc_8,,0.0,,,,0.0,,,,Fail,,,,,
318.0,8.0,wc_8,wc_8,0.0,"[('wc_8', 0.4800000000000003)]",0.4800000000000003,,,28.0,0.002215,['Fail'],Fail,0.4800000000000003,-0.3550000000000003,1.0,8.0,0.9
318.0,8.0,wc_8,,0.0,,,,0.0,,,,Fail,,,,,
318.0,8.0,wc_8,wc_10,0.0,"[('wc_10', 0.5000000000000003), ('wc_8', 0.4800000000000003)]",0.7400000000000003,,,32.0,0.006294,['Fail'],Fail,0.5000000000000003,0.49999999999999967,1.0,1.0,1.0
318.0,8.0,wc_8,,0.0,,,,182.0,,,,Fail,,,,,
318.0,8.0,wc_8,wc_17,0.0,"[('wc_17', 0.42000000000000026), ('wc_8', 0.4800000000000003), ('wc_10', 0.5000000000000003)]",0.8492000000000003,,,23.0,0.006175,['Fail'],Fail,0.42000000000000026,0.24666666666666637,2.0,3.0,0.5
318.0,8.0,wc_8,,0.0,,,,362.0,,,,Fail,,,,,
318.0,8.0,wc_8,wc_3,0.0,"[('wc_3', 0.17000000000000004), ('wc_8', 0.4800000000000003), ('wc_10', 0.5000000000000003), ('wc_17', 0.42000000000000026)]",0.8748360000000002,,,33.0,0.008463,['Fail'],Fail,0.17000000000000004,-0.17000000000000004,0.0,0.0,0.2
318.0,8.0,wc_8,,0.0,,,,202.0,,,,Fail,,,,,
318.0,8.0,wc_8,wc_15,1.0,"[('wc_15', 0.40000000000000024), ('wc_8', 0.4800000000000003), ('wc_10', 0.5000000000000003), ('wc_17', 0.42000000000000026), ('wc_3', 0.17000000000000004)]",0.9249016000000002,,,25.0,0.047614,['Fail'],Fail,0.40000000000000024,-0.40000000000000024,0.0,0.0,0.5
330.0,8.0,wc_8,,0.0,,,,263.0,,,,Fail,,,,,
330.0,8.0,wc_8,,0.0,,,70.0,,,,,Fail,,,,,
330.0,8.0,wc_8,,0.0,,,,0.0,,,,Fail,,,,,
330.0,8.0,wc_8,wc_8,0.0,"[('wc_8', 0.4800000000000003)]",0.4800000000000003,,,35.0,0.00243,['Fail'],Fail,0.4800000000000003,-0.2577777777777781,2.0,9.0,0.9
330.0,8.0,wc_8,,0.0,,,,0.0,,,,Fail,,,,,
330.0,8.0,wc_8,wc_10,0.0,"[('wc_10', 0.5100000000000003), ('wc_8', 0.4800000000000003)]",0.7452000000000003,,,27.0,0.0041329999999999995,['Fail'],Fail,0.5100000000000003,0.48999999999999966,2.0,2.0,1.0
330.0,8.0,wc_8,,0.0,,,,142.0,,,,Fail,,,,,
330.0,8.0,wc_8,wc_15,0.0,"[('wc_8', 0.4800000000000003), ('wc_10', 0.5100000000000003)]",0.7452000000000003,,,37.0,0.009094,['Fail'],Fail,0.40000000000000024,-0.40000000000000024,0.0,0.0,0.5
330.0,8.0,wc_8,,0.0,,,,81.0,,,,Fail,,,,,
330.0,8.0,wc_8,wc_13,0.0,"[('wc_13', 0.5000000000000003), ('wc_8', 0.4800000000000003), ('wc_10', 0.5100000000000003)]",0.8726000000000003,,,25.0,0.01097,['Fail'],Fail,0.5000000000000003,-3.3306690738754696e-16,3.0,6.0,0.8
330.0,8.0,wc_8,,0.0,,,,222.0,,,,Fail,,,,,
330.0,8.0,wc_8,wc_1,1.0,"[('wc_1', 0.2400000000000001), ('wc_8', 0.4800000000000003), ('wc_10', 0.5100000000000003), ('wc_13', 0.5000000000000003)]",0.9031760000000002,,,21.0,0.054241,['Fail'],Fail,0.2400000000000001,-0.2400000000000001,0.0,0.0,0.4
341.0,8.0,wc_8,,0.0,,,,182.0,,,,Fail,,,,,
341.0,8.0,wc_8,,0.0,,,78.0,,,,,Fail,,,,,
341.0,8.0,wc_8,,0.0,,,,0.0,,,,Fail,,,,,
341.0,8.0,wc_8,wc_8,0.0,"[('wc_8', 0.4800000000000003)]",0.4800000000000003,,,22.0,0.002473,['Fail'],Fail,0.4800000000000003,-0.4800000000000003,0.0,0.0,0.9
341.0,8.0,wc_8,,0.0,,,,162.0,,,,Fail,,,,,
341.0,8.0,wc_8,wc_14,0.0,"[('wc_14', 0.5700000000000004), ('wc_8', 0.4800000000000003)]",0.7764000000000003,,,22.0,0.0042049999999999995,['Fail'],Fail,0.5700000000000004,-0.18538461538461576,0.0,0.0,0.9
341.0,8.0,wc_8,,0.0,,,,82.0,,,,Fail,,,,,
341.0,8.0,wc_8,wc_12,1.0,"[('wc_12', 0.5900000000000004), ('wc_8', 0.4800000000000003), ('wc_14', 0.5700000000000004)]",0.9083240000000002,,,28.0,0.043768999999999995,['Fail'],Fail,0.5900000000000004,-0.5900000000000004,0.0,0.0,0.9
349.0,11.0,wc_11,,0.0,,,,361.0,,,,Pass,,,,,
349.0,11.0,wc_11,,0.0,,,73.0,,,,,Pass,,,,,
349.0,11.0,wc_11,,0.0,,,,0.0,,,,Pass,,,,,
349.0,11.0,wc_11,wc_11,0.0,"[('wc_11', 0.42000000000000026)]",0.42000000000000026,,,31.0,0.008468,['Pass'],Pass,0.42000000000000026,-0.18923076923076948,0.0,0.0,0.8
349.0,11.0,wc_11,,0.0,,,,81.0,,,,Pass,,,,,
349.0,11.0,wc_11,wc_13,0.0,"[('wc_13', 0.5100000000000003), ('wc_11', 0.42000000000000026)]",0.7158000000000003,,,32.0,0.005748,['Pass'],Pass,0.5100000000000003,-0.010000000000000342,4.0,8.0,0.8
349.0,11.0,wc_11,,0.0,,,,242.0,,,,Pass,,,,,
349.0,11.0,wc_11,wc_2,0.0,"[('wc_2', 0.5900000000000004), ('wc_11', 0.42000000000000026), ('wc_13', 0.5100000000000003)]",0.8834780000000002,,,35.0,0.00723,['Pass'],Pass,0.5900000000000004,-0.2150000000000004,3.0,8.0,1.0
349.0,11.0,wc_11,,0.0,,,,0.0,,,,Pass,,,,,
349.0,11.0,wc_11,wc_5,1.0,"[('wc_5', 0.4500000000000003), ('wc_11', 0.42000000000000026), ('wc_13', 0.5100000000000003), ('wc_2', 0.5900000000000004)]",0.9359129000000002,,,36.0,0.040534,['Pass'],Pass,0.4500000000000003,-0.11666666666666697,3.0,9.0,0.5
358.0,8.0,wc_8,,0.0,,,,101.0,,,,Fail,,,,,
358.0,8.0,wc_8,,0.0,,,70.0,,,,,Fail,,,,,
358.0,8.0,wc_8,,0.0,,,,0.0,,,,Fail,,,,,
358.0,8.0,wc_8,wc_8,0.0,"[('wc_8', 0.4900000000000003)]",0.4900000000000003,,,30.0,0.002371,['Fail'],Fail,0.4900000000000003,0.009999999999999676,1.0,2.0,0.9
358.0,8.0,wc_8,,0.0,,,,183.0,,,,Fail,,,,,
358.0,8.0,wc_8,wc_15,0.0,"[('wc_15', 0.39000000000000024), ('wc_8', 0.4900000000000003)]",0.6889000000000003,,,29.0,0.00387,['Fail'],Fail,0.39000000000000024,-0.39000000000000024,0.0,3.0,0.5
358.0,8.0,wc_8,,0.0,,,,382.0,,,,Fail,,,,,
358.0,8.0,wc_8,wc_10,0.0,"[('wc_10', 0.5200000000000004), ('wc_8', 0.4900000000000003), ('wc_15', 0.39000000000000024)]",0.8506720000000003,,,27.0,0.00652,['Fail'],Fail,0.5200000000000004,0.07999999999999963,3.0,5.0,1.0
358.0,8.0,wc_8,,0.0,,,,162.0,,,,Fail,,,,,
358.0,8.0,wc_8,wc_16,0.0,"[('wc_16', 0.2500000000000001), ('wc_8', 0.4900000000000003), ('wc_15', 0.39000000000000024), ('wc_10', 0.5200000000000004)]",0.8880040000000002,,,38.0,0.007961,['Fail'],Fail,0.2500000000000001,-0.2500000000000001,0.0,0.0,0.3
358.0,8.0,wc_8,,0.0,,,,382.0,,,,Fail,,,,,
358.0,8.0,wc_8,wc_3,0.0,"[('wc_8', 0.4900000000000003), ('wc_15', 0.39000000000000024), ('wc_10', 0.5200000000000004), ('wc_16', 0.2500000000000001)]",0.8880040000000002,,,40.0,0.015769000000000002,['Fail'],Fail,0.18000000000000005,0.06999999999999995,1.0,4.0,0.2
358.0,8.0,wc_8,,0.0,,,,162.0,,,,Fail,,,,,
358.0,8.0,wc_8,wc_9,0.0,"[('wc_8', 0.4900000000000003), ('wc_15', 0.39000000000000024), ('wc_10', 0.5200000000000004), ('wc_16', 0.2500000000000001)]",0.8880040000000002,,,26.0,0.015617,['Fail'],Fail,0.3500000000000002,-0.0642857142857145,2.0,7.0,0.5
358.0,8.0,wc_8,,0.0,,,,0.0,,,,Fail,,,,,
358.0,8.0,wc_8,wc_11,1.0,"[('wc_11', 0.43000000000000027), ('wc_8', 0.4900000000000003), ('wc_15', 0.39000000000000024), ('wc_10', 0.5200000000000004), ('wc_16', 0.2500000000000001)]",0.9361622800000001,,,22.0,0.054287,['Fail'],Fail,0.4400000000000003,0.5599999999999997,2.0,2.0,0.8
367.0,8.0,wc_8,,0.0,,,,61.0,,,,Fail,,,,,
367.0,8.0,wc_8,,0.0,,,65.0,,,,,Fail,,,,,
367.0,8.0,wc_8,,0.0,,,,0.0,,,,Fail,,,,,
367.0,8.0,wc_8,wc_8,0.0,"[('wc_8', 0.5000000000000003)]",0.5000000000000003,,,33.0,0.002325,['Fail'],Fail,0.5000000000000003,0.1666666666666663,2.0,3.0,0.9
367.0,8.0,wc_8,,0.0,,,,82.0,,,,Fail,,,,,
367.0,8.0,wc_8,wc_6,0.0,"[('wc_8', 0.5000000000000003)]",0.5000000000000003,,,30.0,0.004288,['Fail'],Fail,0.18000000000000005,-0.013333333333333391,1.0,6.0,0.1
367.0,8.0,wc_8,,0.0,,,,0.0,,,,Fail,,,,,
367.0,8.0,wc_8,wc_9,0.0,"[('wc_9', 0.3400000000000002), ('wc_8', 0.5000000000000003)]",0.6700000000000004,,,30.0,0.009231,['Fail'],Fail,0.3400000000000002,-0.09000000000000019,2.0,8.0,0.5
367.0,8.0,wc_8,,0.0,,,,81.0,,,,Fail,,,,,
367.0,8.0,wc_8,wc_7,0.0,"[('wc_8', 0.5000000000000003), ('wc_9', 0.3400000000000002)]",0.6700000000000004,,,23.0,0.008242,['Fail'],Fail,0.4900000000000003,-0.3471428571428575,1.0,7.0,0.6
367.0,8.0,wc_8,,0.0,,,,321.0,,,,Fail,,,,,
367.0,8.0,wc_8,wc_4,0.0,"[('wc_4', 0.2600000000000001), ('wc_8', 0.5000000000000003), ('wc_9', 0.3400000000000002)]",0.7558000000000002,,,39.0,0.01012,['Fail'],Fail,0.2600000000000001,-0.10615384615384627,0.0,0.0,0.1
367.0,8.0,wc_8,,0.0,,,,141.0,,,,Fail,,,,,
367.0,8.0,wc_8,wc_13,0.0,"[('wc_13', 0.5200000000000004), ('wc_8', 0.5000000000000003), ('wc_9', 0.3400000000000002), ('wc_4', 0.2600000000000001)]",0.8827840000000002,,,32.0,0.012083,['Fail'],Fail,0.5200000000000004,-0.02000000000000035,0.0,0.0,0.8
367.0,8.0,wc_8,,0.0,,,,341.0,,,,Fail,,,,,
367.0,8.0,wc_8,wc_3,1.0,"[('wc_3', 0.18000000000000005), ('wc_8', 0.5000000000000003), ('wc_9', 0.3400000000000002), ('wc_4', 0.2600000000000001), ('wc_13', 0.5200000000000004)]",0.9038828800000002,,,23.0,0.054058999999999996,['Fail'],Fail,0.19000000000000006,0.14333333333333326,2.0,6.0,0.2
377.0,8.0,wc_8,,0.0,,,,141.0,,,,Fail,,,,,
377.0,8.0,wc_8,,0.0,,,80.0,,,,,Fail,,,,,
377.0,8.0,wc_8,,0.0,,,,0.0,,,,Fail,,,,,
377.0,8.0,wc_8,wc_8,0.0,"[('wc_8', 0.5100000000000003)]",0.5100000000000003,,,26.0,0.002482,['Fail'],Fail,0.5100000000000003,0.23999999999999966,3.0,4.0,0.9
377.0,8.0,wc_8,,0.0,,,,301.0,,,,Fail,,,,,
377.0,8.0,wc_8,wc_4,0.0,"[('wc_8', 0.5100000000000003)]",0.5100000000000003,,,21.0,0.013162,['Fail'],Fail,0.27000000000000013,0.7299999999999999,1.0,1.0,0.1
377.0,8.0,wc_8,,0.0,,,,162.0,,,,Fail,,,,,
377.0,8.0,wc_8,wc_10,0.0,"[('wc_10', 0.5300000000000004), ('wc_8', 0.5100000000000003)]",0.7697000000000003,,,21.0,0.007726,['Fail'],Fail,0.5300000000000004,0.04142857142857104,4.0,7.0,1.0
377.0,8.0,wc_8,,0.0,,,,342.0,,,,Fail,,,,,
377.0,8.0,wc_8,wc_3,0.0,"[('wc_8', 0.5100000000000003), ('wc_10', 0.5300000000000004)]",0.7697000000000003,,,39.0,0.007956000000000001,['Fail'],Fail,0.19000000000000006,0.14333333333333326,2.0,6.0,0.2
377.0,8.0,wc_8,,0.0,,,,121.0,,,,Fail,,,,,
377.0,8.0,wc_8,wc_7,0.0,"[('wc_8', 0.5100000000000003), ('wc_10', 0.5300000000000004)]",0.7697000000000003,,,35.0,0.009915,['Fail'],Fail,0.4800000000000003,-0.3550000000000003,1.0,8.0,0.6
377.0,8.0,wc_8,,0.0,,,,162.0,,,,Fail,,,,,
377.0,8.0,wc_8,wc_13,0.0,"[('wc_13', 0.5300000000000004), ('wc_8', 0.5100000000000003), ('wc_10', 0.5300000000000004)]",0.8917590000000002,,,34.0,0.011446999999999999,['Fail'],Fail,0.5300000000000004,0.46999999999999964,1.0,1.0,0.8
377.0,8.0,wc_8,,0.0,,,,0.0,,,,Fail,,,,,
377.0,8.0,wc_8,wc_16,1.0,"[('wc_16', 0.2600000000000001), ('wc_8', 0.5100000000000003), ('wc_10', 0.5300000000000004), ('wc_13', 0.5300000000000004)]",0.9199016600000002,,,38.0,0.061398999999999995,['Fail'],Fail,0.27000000000000013,0.3966666666666665,2.0,3.0,0.3
384.0,7.0,wc_7,,0.0,,,,223.0,,,,Pass,,,,,
384.0,7.0,wc_7,,0.0,,,59.0,,,,,Pass,,,,,
384.0,7.0,wc_7,,0.0,,,,0.0,,,,Pass,,,,,
384.0,7.0,wc_7,wc_7,0.0,"[('wc_7', 0.4700000000000003)]",0.4700000000000003,,,22.0,0.002124,['Pass'],Pass,0.4700000000000003,-0.3588888888888892,1.0,9.0,0.6
384.0,7.0,wc_7,,0.0,,,,203.0,,,,Pass,,,,,
384.0,7.0,wc_7,wc_15,0.0,"[('wc_7', 0.4700000000000003)]",0.4700000000000003,,,20.0,0.008662,['Pass'],Pass,0.39000000000000024,-0.22333333333333358,1.0,6.0,0.5
384.0,7.0,wc_7,,0.0,,,,101.0,,,,Pass,,,,,
384.0,7.0,wc_7,wc_14,0.0,"[('wc_14', 0.5800000000000004), ('wc_7', 0.4700000000000003)]",0.7774000000000003,,,40.0,0.012069999999999999,['Pass'],Pass,0.5800000000000004,-0.3800000000000004,1.0,5.0,0.9
384.0,7.0,wc_7,,0.0,,,,102.0,,,,Pass,,,,,
384.0,7.0,wc_7,wc_13,0.0,"[('wc_13', 0.5400000000000004), ('wc_7', 0.4700000000000003), ('wc_14', 0.5800000000000004)]",0.8976040000000003,,,36.0,0.007517,['Pass'],Pass,0.5400000000000004,0.45999999999999963,2.0,2.0,0.8
384.0,7.0,wc_7,,0.0,,,,242.0,,,,Pass,,,,,
384.0,7.0,wc_7,wc_2,1.0,"[('wc_2', 0.5900000000000004), ('wc_7', 0.4700000000000003), ('wc_14', 0.5800000000000004), ('wc_13', 0.5400000000000004)]",0.9580176400000001,,,25.0,0.052323999999999996,['Pass'],Pass,0.5900000000000004,-0.5900000000000004,0.0,0.0,1.0
398.0,8.0,wc_8,,0.0,,,,162.0,,,,Pass,,,,,
398.0,8.0,wc_8,,0.0,,,65.0,,,,,Pass,,,,,
398.0,8.0,wc_8,,0.0,,,,0.0,,,,Pass,,,,,
398.0,8.0,wc_8,wc_8,0.0,"[('wc_8', 0.5200000000000004)]",0.5200000000000004,,,30.0,0.004805,['Pass'],Pass,0.5200000000000004,0.14666666666666628,4.0,6.0,0.9
398.0,8.0,wc_8,,0.0,,,,0.0,,,,Pass,,,,,
398.0,8.0,wc_8,wc_10,0.0,"[('wc_10', 0.5400000000000004), ('wc_8', 0.5200000000000004)]",0.7792000000000003,,,36.0,0.004097,['Pass'],Pass,0.5400000000000004,0.015555555555555212,5.0,9.0,1.0
398.0,8.0,wc_8,,0.0,,,,223.0,,,,Pass,,,,,
398.0,8.0,wc_8,wc_1,0.0,"[('wc_1', 0.2400000000000001), ('wc_8', 0.5200000000000004), ('wc_10', 0.5400000000000004)]",0.8321920000000003,,,31.0,0.006479,['Pass'],Pass,0.2400000000000001,-0.2400000000000001,0.0,6.0,0.4
398.0,8.0,wc_8,,0.0,,,,243.0,,,,Pass,,,,,
398.0,8.0,wc_8,wc_11,1.0,"[('wc_11', 0.4400000000000003), ('wc_8', 0.5200000000000004), ('wc_10', 0.5400000000000004), ('wc_1', 0.2400000000000001)]",0.9060275200000002,,,34.0,0.06145400000000001,['Pass'],Pass,0.4500000000000003,0.04999999999999971,3.0,6.0,0.8
416.0,10.0,wc_10,,0.0,,,,103.0,,,,Fail,,,,,
416.0,10.0,wc_10,,0.0,,,66.0,,,,,Fail,,,,,
416.0,10.0,wc_10,,0.0,,,,0.0,,,,Fail,,,,,
416.0,10.0,wc_10,wc_10,0.0,"[('wc_10', 0.5500000000000004)]",0.5500000000000004,,,23.0,0.005545,['Fail'],Fail,0.5500000000000004,-0.5500000000000004,0.0,0.0,1.0
416.0,10.0,wc_10,,0.0,,,,223.0,,,,Fail,,,,,
416.0,10.0,wc_10,wc_1,0.0,"[('wc_1', 0.2400000000000001), ('wc_10', 0.5500000000000004)]",0.6580000000000004,,,20.0,0.011805,['Fail'],Fail,0.2400000000000001,-0.09714285714285725,1.0,7.0,0.4
416.0,10.0,wc_10,,0.0,,,,182.0,,,,Fail,,,,,
416.0,10.0,wc_10,wc_8,0.0,"[('wc_8', 0.5300000000000004), ('wc_10', 0.5500000000000004), ('wc_1', 0.2400000000000001)]",0.8392600000000003,,,32.0,0.009498,['Fail'],Fail,0.5300000000000004,0.18428571428571394,5.0,7.0,0.9
416.0,10.0,wc_10,,0.0,,,,142.0,,,,Fail,,,,,
416.0,10.0,wc_10,wc_13,1.0,"[('wc_13', 0.5500000000000004), ('wc_10', 0.5500000000000004), ('wc_1', 0.2400000000000001), ('wc_8', 0.5300000000000004)]",0.9276670000000002,,,32.0,0.04876099999999999,['Fail'],Fail,0.5600000000000004,0.23999999999999966,4.0,5.0,0.8
437.0,10.0,wc_10,,0.0,,,,321.0,,,,Fail,,,,,
437.0,10.0,wc_10,,0.0,,,66.0,,,,,Fail,,,,,
437.0,10.0,wc_10,,0.0,,,,0.0,,,,Fail,,,,,
437.0,10.0,wc_10,wc_10,0.0,"[('wc_10', 0.5600000000000004)]",0.5600000000000004,,,28.0,0.002433,['Fail'],Fail,0.5600000000000004,0.4399999999999996,1.0,1.0,1.0
437.0,10.0,wc_10,,0.0,,,,81.0,,,,Fail,,,,,
437.0,10.0,wc_10,wc_12,0.0,"[('wc_12', 0.5900000000000004), ('wc_10', 0.5600000000000004)]",0.8196000000000003,,,32.0,0.0047279999999999996,['Fail'],Fail,0.5900000000000004,-0.5900000000000004,0.0,7.0,0.9
437.0,10.0,wc_10,,0.0,,,,401.0,,,,Fail,,,,,
437.0,10.0,wc_10,wc_5,1.0,"[('wc_5', 0.4500000000000003), ('wc_10', 0.5600000000000004), ('wc_12', 0.5900000000000004)]",0.9007800000000002,,,25.0,0.049166999999999995,['Fail'],Fail,0.4500000000000003,-0.4500000000000003,0.0,0.0,0.5
467.0,10.0,wc_10,,0.0,,,,142.0,,,,Pass,,,,,
467.0,10.0,wc_10,,0.0,,,54.0,,,,,Pass,,,,,
467.0,10.0,wc_10,,0.0,,,,0.0,,,,Pass,,,,,
467.0,10.0,wc_10,wc_10,0.0,"[('wc_10', 0.5700000000000004)]",0.5700000000000004,,,24.0,0.00218,['Pass'],Pass,0.5700000000000004,0.4299999999999996,2.0,2.0,1.0
467.0,10.0,wc_10,,0.0,,,,382.0,,,,Pass,,,,,
467.0,10.0,wc_10,wc_5,0.0,"[('wc_5', 0.4500000000000003), ('wc_10', 0.5700000000000004)]",0.7635000000000003,,,27.0,0.004194,['Pass'],Pass,0.4500000000000003,-0.4500000000000003,0.0,0.0,0.5
467.0,10.0,wc_10,,0.0,,,,101.0,,,,Pass,,,,,
467.0,10.0,wc_10,wc_12,1.0,"[('wc_12', 0.5900000000000004), ('wc_10', 0.5700000000000004), ('wc_5', 0.4500000000000003)]",0.9030350000000003,,,21.0,0.04463500000000001,['Pass'],Pass,0.5900000000000004,-0.3677777777777782,2.0,9.0,0.9
476.0,12.0,wc_12,,0.0,,,,0.0,,,,Pass,,,,,
476.0,12.0,wc_12,,0.0,,,63.0,,,,,Pass,,,,,
476.0,12.0,wc_12,,0.0,,,,0.0,,,,Pass,,,,,
476.0,12.0,wc_12,wc_12,0.0,"[('wc_12', 0.5900000000000004)]",0.5900000000000004,,,33.0,0.001967,['Pass'],Pass,0.5900000000000004,-0.3677777777777782,2.0,9.0,0.9
476.0,12.0,wc_12,,0.0,,,,321.0,,,,Pass,,,,,
476.0,12.0,wc_12,wc_9,0.0,"[('wc_9', 0.3400000000000002), ('wc_12', 0.5900000000000004)]",0.7294000000000003,,,36.0,0.010232000000000002,['Pass'],Pass,0.3400000000000002,-0.14000000000000018,0.0,0.0,0.5
476.0,12.0,wc_12,,0.0,,,,0.0,,,,Pass,,,,,
476.0,12.0,wc_12,wc_10,0.0,"[('wc_10', 0.5800000000000004), ('wc_12', 0.5900000000000004), ('wc_9', 0.3400000000000002)]",0.8863480000000002,,,32.0,0.006015,['Pass'],Pass,0.5800000000000004,0.4199999999999996,3.0,3.0,1.0
476.0,12.0,wc_12,,0.0,,,,382.0,,,,Pass,,,,,
476.0,12.0,wc_12,wc_5,0.0,"[('wc_12', 0.5900000000000004), ('wc_9', 0.3400000000000002), ('wc_10', 0.5800000000000004)]",0.8863480000000002,,,35.0,0.016641,['Pass'],Pass,0.4600000000000003,0.5399999999999997,1.0,1.0,0.5
476.0,12.0,wc_12,,0.0,,,,141.0,,,,Pass,,,,,
476.0,12.0,wc_12,wc_14,1.0,"[('wc_14', 0.5800000000000004), ('wc_12', 0.5900000000000004), ('wc_9', 0.3400000000000002), ('wc_10', 0.5800000000000004)]",0.9522661600000002,,,39.0,0.05142400000000001,['Pass'],Pass,0.5800000000000004,-0.5800000000000004,0.0,0.0,0.9
485.0,13.0,wc_13,,0.0,,,,102.0,,,,Fail,,,,,
485.0,13.0,wc_13,,0.0,,,69.0,,,,,Fail,,,,,
485.0,13.0,wc_13,,0.0,,,,0.0,,,,Fail,,,,,
485.0,13.0,wc_13,wc_13,0.0,"[('wc_13', 0.5600000000000004)]",0.5600000000000004,,,25.0,0.002243,['Pass'],Fail,0.5600000000000004,-0.060000000000000386,4.0,8.0,0.8
485.0,13.0,wc_13,,0.0,,,,341.0,,,,Fail,,,,,
485.0,13.0,wc_13,wc_3,0.0,"[('wc_13', 0.5600000000000004)]",0.5600000000000004,,,29.0,0.004078,['Pass'],Fail,0.19000000000000006,-0.0361538461538462,0.0,0.0,0.2
485.0,13.0,wc_13,,0.0,,,,162.0,,,,Fail,,,,,
485.0,13.0,wc_13,wc_9,0.0,"[('wc_13', 0.5600000000000004)]",0.5600000000000004,,,39.0,0.005874,['Pass'],Fail,0.3500000000000002,0.6499999999999998,1.0,1.0,0.5
485.0,13.0,wc_13,,0.0,,,,162.0,,,,Fail,,,,,
485.0,13.0,wc_13,wc_15,0.0,"[('wc_15', 0.3800000000000002), ('wc_3', 0.19000000000000006), ('wc_9', 0.3500000000000002)]",0.6735700000000002,,,24.0,0.00813,['Fail'],Fail,0.3800000000000002,-0.2966666666666669,0.0,0.0,0.5
485.0,13.0,wc_13,,0.0,,,,223.0,,,,Fail,,,,,
485.0,13.0,wc_13,wc_6,0.0,"[('wc_6', 0.17000000000000004), ('wc_3', 0.19000000000000006), ('wc_9', 0.3500000000000002), ('wc_15', 0.3800000000000002)]",0.7290631000000003,,,26.0,0.012408000000000002,['Fail'],Fail,0.17000000000000004,-0.09857142857142862,0.0,0.0,0.1
485.0,13.0,wc_13,,0.0,,,,0.0,,,,Fail,,,,,
485.0,13.0,wc_13,wc_7,0.0,"[('wc_7', 0.4700000000000003), ('wc_3', 0.19000000000000006), ('wc_9', 0.3500000000000002), ('wc_15', 0.3800000000000002), ('wc_6', 0.17000000000000004)]",0.8564034430000002,,,38.0,0.013235,['Fail'],Fail,0.4700000000000003,-0.4700000000000003,0.0,5.0,0.6
485.0,13.0,wc_13,,0.0,,,,321.0,,,,Fail,,,,,
485.0,13.0,wc_13,wc_4,0.0,"[('wc_4', 0.27000000000000013), ('wc_3', 0.19000000000000006), ('wc_9', 0.3500000000000002), ('wc_15', 0.3800000000000002), ('wc_6', 0.17000000000000004), ('wc_7', 0.4700000000000003)]",0.8951745133900002,,,34.0,0.020543,['Fail'],Fail,0.27000000000000013,-0.14500000000000013,1.0,8.0,0.1
485.0,13.0,wc_13,,0.0,,,,162.0,,,,Fail,,,,,
485.0,13.0,wc_13,wc_10,1.0,"[('wc_10', 0.5900000000000004), ('wc_3', 0.19000000000000006), ('wc_9', 0.3500000000000002), ('wc_15', 0.3800000000000002), ('wc_6', 0.17000000000000004), ('wc_7', 0.4700000000000003), ('wc_4', 0.27000000000000013)]",0.9570215504899001,,,26.0,0.050334,['Fail'],Fail,0.6000000000000004,0.3999999999999996,5.0,5.0,1.0
540.0,13.0,wc_13,,0.0,,,,101.0,,,,Pass,,,,,
540.0,13.0,wc_13,,0.0,,,76.0,,,,,Pass,,,,,
540.0,13.0,wc_13,,0.0,,,,0.0,,,,Pass,,,,,
540.0,13.0,wc_13,wc_13,0.0,"[('wc_13', 0.5500000000000004)]",0.5500000000000004,,,21.0,0.002105,['Pass'],Pass,0.5500000000000004,-0.10555555555555596,4.0,9.0,0.8
540.0,13.0,wc_13,,0.0,,,,341.0,,,,Pass,,,,,
540.0,13.0,wc_13,wc_11,0.0,"[('wc_11', 0.4500000000000003), ('wc_13', 0.5500000000000004)]",0.7525000000000004,,,39.0,0.006839,['Pass'],Pass,0.4500000000000003,-0.17727272727272758,0.0,0.0,0.8
540.0,13.0,wc_13,,0.0,,,,223.0,,,,Pass,,,,,
540.0,13.0,wc_13,wc_2,0.0,"[('wc_2', 0.5900000000000004), ('wc_13', 0.5500000000000004), ('wc_11', 0.4500000000000003)]",0.8985250000000002,,,22.0,0.00706,['Pass'],Pass,0.5900000000000004,-0.5900000000000004,0.0,6.0,1.0
540.0,13.0,wc_13,,0.0,,,,0.0,,,,Pass,,,,,
540.0,13.0,wc_13,wc_3,1.0,"[('wc_3', 0.20000000000000007), ('wc_13', 0.5500000000000004), ('wc_11', 0.4500000000000003), ('wc_2', 0.5900000000000004)]",0.9188200000000002,,,35.0,0.047269000000000005,['Pass'],Pass,0.21000000000000008,0.7899999999999999,2.0,2.0,0.2
546.0,16.0,wc_16,,0.0,,,,222.0,,,,Pass,,,,,
546.0,16.0,wc_16,,0.0,,,67.0,,,,,Pass,,,,,
546.0,16.0,wc_16,,0.0,,,,0.0,,,,Pass,,,,,
546.0,16.0,wc_16,wc_16,0.0,"[('wc_16', 0.27000000000000013)]",0.27000000000000013,,,36.0,0.002957,['Fail'],Pass,0.27000000000000013,-0.0881818181818183,0.0,0.0,0.3
546.0,16.0,wc_16,,0.0,,,,382.0,,,,Pass,,,,,
546.0,16.0,wc_16,wc_3,0.0,"[('wc_3', 0.21000000000000008), ('wc_16', 0.27000000000000013)]",0.4233000000000001,,,38.0,0.004595,['Fail'],Pass,0.21000000000000008,0.7899999999999999,2.0,2.0,0.2
546.0,16.0,wc_16,,0.0,,,,141.0,,,,Pass,,,,,
546.0,16.0,wc_16,wc_12,0.0,"[('wc_12', 0.5900000000000004)]",0.5900000000000004,,,40.0,0.005942,['Pass'],Pass,0.5900000000000004,-0.5900000000000004,0.0,2.0,0.9
546.0,16.0,wc_16,,0.0,,,,0.0,,,,Pass,,,,,
546.0,16.0,wc_16,wc_17,0.0,"[('wc_17', 0.43000000000000027), ('wc_16', 0.27000000000000013), ('wc_3', 0.21000000000000008)]",0.6712810000000002,,,24.0,0.0076950000000000005,['Fail'],Pass,0.43000000000000027,-0.26333333333333364,0.0,0.0,0.5
546.0,16.0,wc_16,,0.0,,,,382.0,,,,Pass,,,,,
546.0,16.0,wc_16,wc_4,0.0,"[('wc_4', 0.27000000000000013), ('wc_16', 0.27000000000000013), ('wc_3', 0.21000000000000008), ('wc_17', 0.43000000000000027)]",0.7600351300000002,,,23.0,0.009444999999999999,['Fail'],Pass,0.27000000000000013,-0.07000000000000012,0.0,0.0,0.1
546.0,16.0,wc_16,,0.0,,,,61.0,,,,Pass,,,,,
546.0,16.0,wc_16,wc_1,0.0,"[('wc_16', 0.27000000000000013), ('wc_3', 0.21000000000000008), ('wc_17', 0.43000000000000027), ('wc_4', 0.27000000000000013)]",0.7600351300000002,,,27.0,0.012545000000000002,['Fail'],Pass,0.2400000000000001,-0.08615384615384625,0.0,0.0,0.4
546.0,16.0,wc_16,,0.0,,,,203.0,,,,Pass,,,,,
546.0,16.0,wc_16,wc_9,0.0,"[('wc_9', 0.3600000000000002), ('wc_16', 0.27000000000000013), ('wc_3', 0.21000000000000008), ('wc_17', 0.43000000000000027), ('wc_4', 0.27000000000000013)]",0.8464224832000002,,,31.0,0.013814,['Fail'],Pass,0.3600000000000002,0.3066666666666664,2.0,3.0,0.5
546.0,16.0,wc_16,,0.0,,,,121.0,,,,Pass,,,,,
546.0,16.0,wc_16,wc_13,0.0,"[('wc_13', 0.5500000000000004), ('wc_12', 0.5900000000000004), ('wc_1', 0.2400000000000001)]",0.8597800000000002,,,34.0,0.019261999999999998,['Pass'],Pass,0.5500000000000004,-0.5500000000000004,0.0,0.0,0.8
546.0,16.0,wc_16,,0.0,,,,202.0,,,,Pass,,,,,
546.0,16.0,wc_16,wc_8,1.0,"[('wc_8', 0.5400000000000004), ('wc_12', 0.5900000000000004), ('wc_1', 0.2400000000000001), ('wc_13', 0.5500000000000004)]",0.9354988000000002,,,34.0,0.05815300000000001,['Pass'],Pass,0.5400000000000004,-0.5400000000000004,0.0,0.0,0.9
554.0,14.0,wc_14,,0.0,,,,162.0,,,,Pass,,,,,
554.0,14.0,wc_14,,0.0,,,67.0,,,,,Pass,,,,,
554.0,14.0,wc_14,,0.0,,,,0.0,,,,Pass,,,,,
554.0,14.0,wc_14,wc_14,0.0,"[('wc_14', 0.5800000000000004)]",0.5800000000000004,,,38.0,0.002334,['Pass'],Pass,0.5800000000000004,-0.5800000000000004,0.0,3.0,0.9
554.0,14.0,wc_14,,0.0,,,,0.0,,,,Pass,,,,,
554.0,14.0,wc_14,wc_15,0.0,"[('wc_15', 0.39000000000000024), ('wc_14', 0.5800000000000004)]",0.7438000000000003,,,22.0,0.004940999999999999,['Pass'],Pass,0.39000000000000024,-0.05666666666666692,1.0,3.0,0.5
554.0,14.0,wc_14,,0.0,,,,402.0,,,,Pass,,,,,
554.0,14.0,wc_14,wc_11,0.0,"[('wc_11', 0.4600000000000003), ('wc_14', 0.5800000000000004), ('wc_15', 0.39000000000000024)]",0.8616520000000003,,,20.0,0.006059999999999999,['Pass'],Pass,0.4600000000000003,0.0399999999999997,1.0,2.0,0.8
554.0,14.0,wc_14,,0.0,,,,21.0,,,,Pass,,,,,
554.0,14.0,wc_14,wc_6,0.0,"[('wc_14', 0.5800000000000004), ('wc_15', 0.39000000000000024), ('wc_11', 0.4600000000000003)]",0.8616520000000003,,,20.0,0.007938,['Pass'],Pass,0.18000000000000005,0.15333333333333327,1.0,3.0,0.1
554.0,14.0,wc_14,,0.0,,,,341.0,,,,Pass,,,,,
554.0,14.0,wc_14,wc_4,0.0,"[('wc_4', 0.2600000000000001), ('wc_14', 0.5800000000000004), ('wc_15', 0.39000000000000024), ('wc_11', 0.4600000000000003)]",0.8976224800000002,,,30.0,0.010882,['Pass'],Pass,0.2600000000000001,-0.2600000000000001,0.0,1.0,0.1
554.0,14.0,wc_14,,0.0,,,,103.0,,,,Pass,,,,,
554.0,14.0,wc_14,wc_3,0.0,"[('wc_14', 0.5800000000000004), ('wc_15', 0.39000000000000024), ('wc_11', 0.4600000000000003), ('wc_4', 0.2600000000000001)]",0.8976224800000002,,,21.0,0.012292,['Pass'],Pass,0.21000000000000008,0.45666666666666655,2.0,3.0,0.2
554.0,14.0,wc_14,,0.0,,,,0.0,,,,Pass,,,,,
554.0,14.0,wc_14,wc_5,1.0,"[('wc_5', 0.4600000000000003), ('wc_14', 0.5800000000000004), ('wc_15', 0.39000000000000024), ('wc_11', 0.4600000000000003), ('wc_4', 0.2600000000000001)]",0.9447161392000002,,,34.0,0.050134,['Pass'],Pass,0.4600000000000003,-0.12666666666666698,2.0,6.0,0.5
565.0,15.0,wc_15,,0.0,,,,162.0,,,,Fail,,,,,
565.0,15.0,wc_15,,0.0,,,80.0,,,,,Fail,,,,,
565.0,15.0,wc_15,,0.0,,,,0.0,,,,Fail,,,,,
565.0,15.0,wc_15,wc_15,0.0,"[('wc_15', 0.40000000000000024)]",0.40000000000000024,,,26.0,0.002379,['Fail'],Fail,0.40000000000000024,0.09999999999999976,2.0,4.0,0.5
565.0,15.0,wc_15,,0.0,,,,362.0,,,,Fail,,,,,
565.0,15.0,wc_15,wc_9,0.0,"[('wc_9', 0.3600000000000002), ('wc_15', 0.40000000000000024)]",0.6160000000000003,,,26.0,0.0041,['Fail'],Fail,0.3600000000000002,0.039999999999999813,2.0,5.0,0.5
565.0,15.0,wc_15,,0.0,,,,0.0,,,,Fail,,,,,
565.0,15.0,wc_15,wc_10,0.0,"[('wc_10', 0.6000000000000004), ('wc_15', 0.40000000000000024), ('wc_9', 0.3600000000000002)]",0.8464000000000003,,,21.0,0.006399,['Fail'],Fail,0.6000000000000004,0.024999999999999578,5.0,8.0,1.0
565.0,15.0,wc_15,,0.0,,,,0.0,,,,Fail,,,,,
565.0,15.0,wc_15,wc_11,1.0,"[('wc_11', 0.4700000000000003), ('wc_15', 0.40000000000000024), ('wc_9', 0.3600000000000002), ('wc_10', 0.6000000000000004)]",0.9185920000000002,,,39.0,0.042141000000000005,['Fail'],Fail,0.4800000000000003,0.2699999999999997,3.0,4.0,0.8
572.0,15.0,wc_15,,0.0,,,,122.0,,,,Pass,,,,,
572.0,15.0,wc_15,,0.0,,,52.0,,,,,Pass,,,,,
572.0,15.0,wc_15,,0.0,,,,0.0,,,,Pass,,,,,
572.0,15.0,wc_15,wc_15,0.0,"[('wc_15', 0.41000000000000025)]",0.41000000000000025,,,40.0,0.002384,['Fail'],Pass,0.41000000000000025,0.18999999999999972,3.0,5.0,0.5
572.0,15.0,wc_15,,0.0,,,,101.0,,,,Pass,,,,,
572.0,15.0,wc_15,wc_14,0.0,"[('wc_14', 0.5800000000000004)]",0.5800000000000004,,,23.0,0.004259,['Pass'],Pass,0.5800000000000004,-0.3800000000000004,1.0,5.0,0.9
572.0,15.0,wc_15,,0.0,,,,182.0,,,,Pass,,,,,
572.0,15.0,wc_15,wc_8,0.0,"[('wc_8', 0.5400000000000004), ('wc_14', 0.5800000000000004)]",0.8068000000000004,,,22.0,0.007464,['Pass'],Pass,0.5400000000000004,-0.5400000000000004,0.0,2.0,0.9
572.0,15.0,wc_15,,0.0,,,,0.0,,,,Pass,,,,,
572.0,15.0,wc_15,wc_11,0.0,"[('wc_11', 0.4800000000000003), ('wc_14', 0.5800000000000004), ('wc_8', 0.5400000000000004)]",0.8995360000000002,,,22.0,0.012231,['Pass'],Pass,0.4800000000000003,0.2699999999999997,3.0,4.0,0.8
572.0,15.0,wc_15,,0.0,,,,342.0,,,,Pass,,,,,
572.0,15.0,wc_15,wc_4,1.0,"[('wc_4', 0.27000000000000013), ('wc_14', 0.5800000000000004), ('wc_8', 0.5400000000000004), ('wc_11', 0.4800000000000003)]",0.9266612800000003,,,35.0,0.054023,['Pass'],Pass,0.28000000000000014,0.21999999999999986,2.0,4.0,0.1
579.0,17.0,wc_17,,0.0,,,,222.0,,,,Pass,,,,,
579.0,17.0,wc_17,,0.0,,,66.0,,,,,Pass,,,,,
579.0,17.0,wc_17,,0.0,,,,0.0,,,,Pass,,,,,
579.0,17.0,wc_17,wc_17,0.0,"[('wc_17', 0.42000000000000026)]",0.42000000000000026,,,28.0,0.002548,['Pass'],Pass,0.42000000000000026,-0.42000000000000026,0.0,4.0,0.5
579.0,17.0,wc_17,,0.0,,,,21.0,,,,Pass,,,,,
579.0,17.0,wc_17,wc_12,0.0,"[('wc_12', 0.5900000000000004), ('wc_17', 0.42000000000000026)]",0.7622000000000003,,,35.0,0.005013,['Pass'],Pass,0.5900000000000004,-0.4233333333333338,1.0,6.0,0.9
579.0,17.0,wc_17,,0.0,,,,361.0,,,,Pass,,,,,
579.0,17.0,wc_17,wc_11,0.0,"[('wc_17', 0.42000000000000026), ('wc_12', 0.5900000000000004)]",0.7622000000000003,,,36.0,0.007657,['Pass'],Pass,0.4900000000000003,0.3099999999999997,4.0,5.0,0.8
579.0,17.0,wc_17,,0.0,,,,61.0,,,,Pass,,,,,
579.0,17.0,wc_17,wc_8,0.0,"[('wc_8', 0.5400000000000004), ('wc_17', 0.42000000000000026), ('wc_12', 0.5900000000000004)]",0.8906120000000003,,,22.0,0.009196000000000001,['Pass'],Pass,0.5400000000000004,-0.20666666666666705,1.0,3.0,0.9
579.0,17.0,wc_17,,0.0,,,,281.0,,,,Pass,,,,,
579.0,17.0,wc_17,wc_3,1.0,"[('wc_3', 0.21000000000000008), ('wc_17', 0.42000000000000026), ('wc_12', 0.5900000000000004), ('wc_8', 0.5400000000000004)]",0.9135834800000002,,,37.0,0.055053,['Pass'],Pass,0.22000000000000008,0.20857142857142846,3.0,7.0,0.2
