mpecck/BCQC/bcqc_with_qdt/results/raw/input_13/independent_qc/training/20_workpiece/20200429_090311/wp_6_qc_majority_0.9.csv
production_index,step_idx,production_workcell,qc,consent,winner_qc_list,score,production_time,transport_time,inspection_time,network_time,qc_results,actual_quality,qc_score,score_error,in_winner_counter,in_qc_counter,qc_capability
15.0,1.0,wc_1,,0.0,,,66.0,,,,,Fail,,,,,
15.0,1.0,wc_1,,0.0,,,,0.0,,,,Fail,,,,,
15.0,1.0,wc_1,wc_1,0.0,"[('wc_1', 0.2300000000000001)]",0.2300000000000001,,,36.0,0.002718,['Fail'],Fail,0.2300000000000001,-0.11235294117647068,0.0,0.0,0.4
15.0,1.0,wc_1,,0.0,,,,162.0,,,,Fail,,,,,
15.0,1.0,wc_1,wc_7,0.0,"[('wc_7', 0.4600000000000003), ('wc_1', 0.2300000000000001)]",0.5842000000000003,,,21.0,0.004802000000000001,['Fail'],Fail,0.4600000000000003,-0.4600000000000003,0.0,1.0,0.6
15.0,1.0,wc_1,,0.0,,,,0.0,,,,Fail,,,,,
15.0,1.0,wc_1,wc_9,0.0,"[('wc_1', 0.2300000000000001), ('wc_7', 0.4600000000000003)]",0.5842000000000003,,,31.0,0.008216,['Fail'],Fail,0.42000000000000026,-0.42000000000000026,0.0,3.0,0.5
15.0,1.0,wc_1,,0.0,,,,382.0,,,,Fail,,,,,
15.0,1.0,wc_1,wc_4,0.0,"[('wc_4', 0.3300000000000002), ('wc_9', 0.42000000000000026)]",0.6114000000000003,,,25.0,0.009330999999999999,['Pass'],Fail,0.3300000000000002,-0.3300000000000002,0.0,6.0,0.1
15.0,1.0,wc_1,,0.0,,,,182.0,,,,Fail,,,,,
15.0,1.0,wc_1,wc_11,0.0,"[('wc_11', 0.5600000000000004), ('wc_1', 0.2300000000000001), ('wc_7', 0.4600000000000003)]",0.8170480000000002,,,28.0,0.010129,['Fail'],Fail,0.5600000000000004,-0.2742857142857147,2.0,7.0,0.8
15.0,1.0,wc_1,,0.0,,,,61.0,,,,Fail,,,,,
15.0,1.0,wc_1,wc_8,1.0,"[('wc_8', 0.5600000000000004), ('wc_1', 0.2300000000000001), ('wc_7', 0.4600000000000003), ('wc_11', 0.5600000000000004)]",0.9195011200000002,,,33.0,0.044035000000000005,['Fail'],Fail,0.5600000000000004,-0.060000000000000386,3.0,6.0,0.9
124.0,1.0,wc_1,,0.0,,,,162.0,,,,Pass,,,,,
124.0,1.0,wc_1,,0.0,,,63.0,,,,,Pass,,,,,
124.0,1.0,wc_1,,0.0,,,,0.0,,,,Pass,,,,,
124.0,1.0,wc_1,wc_1,0.0,"[('wc_1', 0.2400000000000001)]",0.2400000000000001,,,21.0,0.007061,['Pass'],Pass,0.2400000000000001,0.7599999999999999,1.0,1.0,0.4
124.0,1.0,wc_1,,0.0,,,,283.0,,,,Pass,,,,,
124.0,1.0,wc_1,wc_17,0.0,"[('wc_17', 0.43000000000000027), ('wc_1', 0.2400000000000001)]",0.5668000000000002,,,26.0,0.004416,['Pass'],Pass,0.43000000000000027,0.06999999999999973,1.0,2.0,0.5
124.0,1.0,wc_1,,0.0,,,,382.0,,,,Pass,,,,,
124.0,1.0,wc_1,wc_4,0.0,"[('wc_1', 0.2400000000000001), ('wc_17', 0.43000000000000027)]",0.5668000000000002,,,37.0,0.009917,['Pass'],Pass,0.3200000000000002,-0.3200000000000002,0.0,7.0,0.1
124.0,1.0,wc_1,,0.0,,,,81.0,,,,Pass,,,,,
124.0,1.0,wc_1,wc_2,0.0,"[('wc_2', 0.6200000000000004), ('wc_1', 0.2400000000000001), ('wc_17', 0.43000000000000027)]",0.8353840000000003,,,24.0,0.007975,['Pass'],Pass,0.6200000000000004,-0.22000000000000042,2.0,5.0,1.0
124.0,1.0,wc_1,,0.0,,,,243.0,,,,Pass,,,,,
124.0,1.0,wc_1,wc_16,0.0,"[('wc_1', 0.2400000000000001), ('wc_17', 0.43000000000000027), ('wc_2', 0.6200000000000004)]",0.8353840000000003,,,23.0,0.009689,['Pass'],Pass,0.29000000000000015,0.3766666666666665,2.0,3.0,0.3
124.0,1.0,wc_1,,0.0,,,,342.0,,,,Pass,,,,,
124.0,1.0,wc_1,wc_9,1.0,"[('wc_9', 0.41000000000000025), ('wc_1', 0.2400000000000001), ('wc_17', 0.43000000000000027), ('wc_2', 0.6200000000000004)]",0.9028765600000002,,,30.0,0.04410900000000001,['Pass'],Pass,0.41000000000000025,-0.21000000000000024,1.0,5.0,0.5
135.0,2.0,wc_2,,0.0,,,,263.0,,,,Fail,,,,,
135.0,2.0,wc_2,,0.0,,,64.0,,,,,Fail,,,,,
135.0,2.0,wc_2,,0.0,,,,0.0,,,,Fail,,,,,
135.0,2.0,wc_2,wc_2,0.0,"[('wc_2', 0.6200000000000004)]",0.6200000000000004,,,29.0,0.002393,['Pass'],Fail,0.6200000000000004,-0.12000000000000044,3.0,6.0,1.0
135.0,2.0,wc_2,,0.0,,,,162.0,,,,Fail,,,,,
135.0,2.0,wc_2,wc_8,0.0,"[('wc_2', 0.6200000000000004)]",0.6200000000000004,,,27.0,0.004108,['Pass'],Fail,0.5600000000000004,-0.13142857142857184,3.0,7.0,0.9
135.0,2.0,wc_2,,0.0,,,,162.0,,,,Fail,,,,,
135.0,2.0,wc_2,wc_1,0.0,"[('wc_1', 0.2500000000000001), ('wc_2', 0.6200000000000004)]",0.7150000000000003,,,33.0,0.015359999999999999,['Pass'],Fail,0.2500000000000001,0.7499999999999999,2.0,2.0,0.4
135.0,2.0,wc_2,,0.0,,,,243.0,,,,Fail,,,,,
135.0,2.0,wc_2,wc_11,0.0,"[('wc_11', 0.5600000000000004), ('wc_8', 0.5600000000000004)]",0.8064000000000003,,,33.0,0.007905,['Fail'],Fail,0.5600000000000004,-0.22666666666666707,3.0,9.0,0.8
135.0,2.0,wc_2,,0.0,,,,362.0,,,,Fail,,,,,
135.0,2.0,wc_2,wc_5,0.0,"[('wc_5', 0.4900000000000003), ('wc_2', 0.6200000000000004), ('wc_1', 0.2500000000000001)]",0.8546500000000004,,,30.0,0.010741,['Pass'],Fail,0.4900000000000003,-0.25923076923076954,0.0,0.0,0.5
135.0,2.0,wc_2,,0.0,,,,61.0,,,,Fail,,,,,
135.0,2.0,wc_2,wc_6,0.0,"[('wc_2', 0.6200000000000004), ('wc_1', 0.2500000000000001), ('wc_5', 0.4900000000000003)]",0.8546500000000002,,,27.0,0.011204,['Pass'],Fail,0.16000000000000003,-0.06909090909090912,0.0,0.0,0.1
135.0,2.0,wc_2,,0.0,,,,321.0,,,,Fail,,,,,
135.0,2.0,wc_2,wc_3,0.0,"[('wc_3', 0.29000000000000015), ('wc_2', 0.6200000000000004), ('wc_1', 0.2500000000000001), ('wc_5', 0.4900000000000003)]",0.8968015000000003,,,32.0,0.013602999999999999,['Pass'],Fail,0.29000000000000015,-0.19000000000000014,0.0,0.0,0.2
135.0,2.0,wc_2,,0.0,,,,222.0,,,,Fail,,,,,
135.0,2.0,wc_2,wc_16,0.0,"[('wc_2', 0.6200000000000004), ('wc_1', 0.2500000000000001), ('wc_5', 0.4900000000000003), ('wc_3', 0.29000000000000015)]",0.8968015000000003,,,36.0,0.014909999999999998,['Pass'],Fail,0.29000000000000015,0.20999999999999985,2.0,4.0,0.3
135.0,2.0,wc_2,,0.0,,,,41.0,,,,Fail,,,,,
135.0,2.0,wc_2,wc_12,1.0,"[('wc_12', 0.6000000000000004), ('wc_8', 0.5600000000000004), ('wc_11', 0.5600000000000004), ('wc_6', 0.16000000000000003), ('wc_16', 0.29000000000000015)]",0.9538147840000002,,,25.0,0.051193,['Fail'],Fail,0.6000000000000004,-0.6000000000000004,0.0,0.0,0.9
155.0,4.0,wc_4,,0.0,,,,381.0,,,,Fail,,,,,
155.0,4.0,wc_4,,0.0,,,61.0,,,,,Fail,,,,,
155.0,4.0,wc_4,,0.0,,,,0.0,,,,Fail,,,,,
155.0,4.0,wc_4,wc_4,0.0,"[('wc_4', 0.31000000000000016)]",0.31000000000000016,,,39.0,0.002258,['Pass'],Fail,0.31000000000000016,-0.31000000000000016,0.0,9.0,0.1
155.0,4.0,wc_4,,0.0,,,,162.0,,,,Fail,,,,,
155.0,4.0,wc_4,wc_10,0.0,"[('wc_10', 0.5900000000000004)]",0.5900000000000004,,,26.0,0.004346,['Fail'],Fail,0.5900000000000004,-0.5900000000000004,0.0,0.0,1.0
155.0,4.0,wc_4,,0.0,,,,382.0,,,,Fail,,,,,
155.0,4.0,wc_4,wc_5,0.0,"[('wc_5', 0.4800000000000003), ('wc_10', 0.5900000000000004)]",0.7868000000000004,,,27.0,0.006894,['Fail'],Fail,0.4800000000000003,-0.4800000000000003,0.0,1.0,0.5
155.0,4.0,wc_4,,0.0,,,,162.0,,,,Fail,,,,,
155.0,4.0,wc_4,wc_15,0.0,"[('wc_15', 0.4400000000000003), ('wc_10', 0.5900000000000004), ('wc_5', 0.4800000000000003)]",0.8806080000000003,,,22.0,0.008213,['Fail'],Fail,0.4400000000000003,-0.19000000000000028,2.0,8.0,0.5
155.0,4.0,wc_4,,0.0,,,,263.0,,,,Fail,,,,,
155.0,4.0,wc_4,wc_8,1.0,"[('wc_8', 0.5600000000000004), ('wc_10', 0.5900000000000004), ('wc_5', 0.4800000000000003), ('wc_15', 0.4400000000000003)]",0.9474675200000001,,,24.0,0.04557400000000001,['Fail'],Fail,0.5600000000000004,-0.004444444444444806,5.0,9.0,0.9
173.0,3.0,wc_3,,0.0,,,,281.0,,,,Fail,,,,,
173.0,3.0,wc_3,,0.0,,,78.0,,,,,Fail,,,,,
173.0,3.0,wc_3,,0.0,,,,0.0,,,,Fail,,,,,
173.0,3.0,wc_3,wc_3,0.0,"[('wc_3', 0.28000000000000014)]",0.28000000000000014,,,26.0,0.003272,['Fail'],Fail,0.28000000000000014,-0.28000000000000014,0.0,2.0,0.2
173.0,3.0,wc_3,,0.0,,,,0.0,,,,Fail,,,,,
173.0,3.0,wc_3,wc_4,0.0,"[('wc_4', 0.30000000000000016)]",0.30000000000000016,,,28.0,0.004285000000000001,['Pass'],Fail,0.30000000000000016,-0.30000000000000016,0.0,0.0,0.1
173.0,3.0,wc_3,,0.0,,,,142.0,,,,Fail,,,,,
173.0,3.0,wc_3,wc_9,0.0,"[('wc_9', 0.41000000000000025), ('wc_3', 0.28000000000000014)]",0.5752000000000003,,,38.0,0.0059039999999999995,['Fail'],Fail,0.41000000000000025,-0.2671428571428574,1.0,7.0,0.5
173.0,3.0,wc_3,,0.0,,,,263.0,,,,Fail,,,,,
173.0,3.0,wc_3,wc_2,0.0,"[('wc_2', 0.6100000000000004), ('wc_3', 0.28000000000000014), ('wc_9', 0.41000000000000025)]",0.8343280000000003,,,24.0,0.009179,['Fail'],Fail,0.6100000000000004,-0.23500000000000043,3.0,8.0,1.0
173.0,3.0,wc_3,,0.0,,,,202.0,,,,Fail,,,,,
173.0,3.0,wc_3,wc_14,1.0,"[('wc_14', 0.6000000000000004), ('wc_3', 0.28000000000000014), ('wc_9', 0.41000000000000025), ('wc_2', 0.6100000000000004)]",0.9337312000000002,,,31.0,0.05787200000000001,['Fail'],Fail,0.6000000000000004,-0.6000000000000004,0.0,0.0,0.9
222.0,4.0,wc_4,,0.0,,,,341.0,,,,Fail,,,,,
222.0,4.0,wc_4,,0.0,,,64.0,,,,,Fail,,,,,
222.0,4.0,wc_4,,0.0,,,,0.0,,,,Fail,,,,,
222.0,4.0,wc_4,wc_4,0.0,"[('wc_4', 0.29000000000000015)]",0.29000000000000015,,,36.0,0.007938,['Fail'],Fail,0.29000000000000015,-0.29000000000000015,0.0,1.0,0.1
222.0,4.0,wc_4,,0.0,,,,121.0,,,,Fail,,,,,
222.0,4.0,wc_4,wc_8,0.0,"[('wc_8', 0.5600000000000004), ('wc_4', 0.29000000000000015)]",0.6876000000000003,,,24.0,0.005683,['Fail'],Fail,0.5600000000000004,-0.060000000000000386,0.0,0.0,0.9
222.0,4.0,wc_4,,0.0,,,,281.0,,,,Fail,,,,,
222.0,4.0,wc_4,wc_3,0.0,"[('wc_3', 0.29000000000000015), ('wc_4', 0.29000000000000015), ('wc_8', 0.5600000000000004)]",0.7781960000000003,,,33.0,0.006177,['Fail'],Fail,0.29000000000000015,0.04333333333333317,1.0,3.0,0.2
222.0,4.0,wc_4,,0.0,,,,121.0,,,,Fail,,,,,
222.0,4.0,wc_4,wc_7,0.0,"[('wc_7', 0.4700000000000003), ('wc_4', 0.29000000000000015), ('wc_8', 0.5600000000000004), ('wc_3', 0.29000000000000015)]",0.8824438800000002,,,36.0,0.007799,['Fail'],Fail,0.4700000000000003,-0.3033333333333337,1.0,6.0,0.6
222.0,4.0,wc_4,,0.0,,,,202.0,,,,Fail,,,,,
222.0,4.0,wc_4,wc_2,1.0,"[('wc_2', 0.6100000000000004), ('wc_4', 0.29000000000000015), ('wc_8', 0.5600000000000004), ('wc_3', 0.29000000000000015), ('wc_7', 0.4700000000000003)]",0.9541531132000002,,,21.0,0.042572,['Fail'],Fail,0.6100000000000004,-0.6100000000000004,0.0,0.0,1.0
233.0,2.0,wc_2,,0.0,,,,0.0,,,,Pass,,,,,
233.0,2.0,wc_2,,0.0,,,60.0,,,,,Pass,,,,,
233.0,2.0,wc_2,,0.0,,,,0.0,,,,Pass,,,,,
233.0,2.0,wc_2,wc_2,0.0,"[('wc_2', 0.6100000000000004)]",0.6100000000000004,,,36.0,0.00859,['Pass'],Pass,0.6100000000000004,-0.6100000000000004,0.0,0.0,1.0
233.0,2.0,wc_2,,0.0,,,,183.0,,,,Pass,,,,,
233.0,2.0,wc_2,wc_9,0.0,"[('wc_2', 0.6100000000000004)]",0.6100000000000004,,,29.0,0.004506,['Pass'],Pass,0.41000000000000025,-0.18777777777777804,2.0,9.0,0.5
233.0,2.0,wc_2,,0.0,,,,81.0,,,,Pass,,,,,
233.0,2.0,wc_2,wc_7,0.0,"[('wc_7', 0.4700000000000003), ('wc_9', 0.41000000000000025)]",0.6873000000000002,,,40.0,0.006304000000000001,['Fail'],Pass,0.4700000000000003,-0.1842857142857146,2.0,7.0,0.6
233.0,2.0,wc_2,,0.0,,,,203.0,,,,Pass,,,,,
233.0,2.0,wc_2,wc_15,0.0,"[('wc_15', 0.4400000000000003), ('wc_9', 0.41000000000000025), ('wc_7', 0.4700000000000003)]",0.8248880000000003,,,30.0,0.013526,['Fail'],Pass,0.4400000000000003,-0.16727272727272757,0.0,0.0,0.5
233.0,2.0,wc_2,,0.0,,,,382.0,,,,Pass,,,,,
233.0,2.0,wc_2,wc_10,0.0,"[('wc_10', 0.6000000000000004), ('wc_2', 0.6100000000000004)]",0.8440000000000003,,,36.0,0.009822,['Pass'],Pass,0.6000000000000004,-0.2666666666666671,1.0,3.0,1.0
233.0,2.0,wc_2,,0.0,,,,0.0,,,,Pass,,,,,
233.0,2.0,wc_2,wc_11,1.0,"[('wc_11', 0.5600000000000004), ('wc_2', 0.6100000000000004), ('wc_10', 0.6000000000000004)]",0.9313600000000002,,,23.0,0.04364,['Pass'],Pass,0.5600000000000004,-0.3100000000000004,1.0,4.0,0.8
251.0,3.0,wc_3,,0.0,,,,322.0,,,,Fail,,,,,
251.0,3.0,wc_3,,0.0,,,53.0,,,,,Fail,,,,,
251.0,3.0,wc_3,,0.0,,,,0.0,,,,Fail,,,,,
251.0,3.0,wc_3,wc_3,0.0,"[('wc_3', 0.30000000000000016)]",0.30000000000000016,,,39.0,0.002437,['Pass'],Fail,0.30000000000000016,0.09999999999999987,2.0,5.0,0.2
251.0,3.0,wc_3,,0.0,,,,101.0,,,,Fail,,,,,
251.0,3.0,wc_3,wc_6,0.0,"[('wc_6', 0.17000000000000004), ('wc_3', 0.30000000000000016)]",0.41900000000000015,,,27.0,0.01531,['Pass'],Fail,0.17000000000000004,0.02999999999999997,1.0,5.0,0.1
251.0,3.0,wc_3,,0.0,,,,0.0,,,,Fail,,,,,
251.0,3.0,wc_3,wc_7,0.0,"[('wc_7', 0.4600000000000003)]",0.4600000000000003,,,29.0,0.0062439999999999996,['Fail'],Fail,0.4600000000000003,-0.2100000000000003,2.0,8.0,0.6
251.0,3.0,wc_3,,0.0,,,,341.0,,,,Fail,,,,,
251.0,3.0,wc_3,wc_5,0.0,"[('wc_5', 0.4900000000000003), ('wc_3', 0.30000000000000016), ('wc_6', 0.17000000000000004)]",0.7036900000000003,,,29.0,0.009401,['Pass'],Fail,0.4900000000000003,-0.2900000000000003,1.0,5.0,0.5
251.0,3.0,wc_3,,0.0,,,,182.0,,,,Fail,,,,,
251.0,3.0,wc_3,wc_16,0.0,"[('wc_16', 0.30000000000000016), ('wc_3', 0.30000000000000016), ('wc_6', 0.17000000000000004), ('wc_5', 0.4900000000000003)]",0.7925830000000003,,,39.0,0.01016,['Pass'],Fail,0.30000000000000016,0.03333333333333316,3.0,9.0,0.3
251.0,3.0,wc_3,,0.0,,,,283.0,,,,Fail,,,,,
251.0,3.0,wc_3,wc_2,0.0,"[('wc_2', 0.6200000000000004), ('wc_7', 0.4600000000000003)]",0.7948000000000004,,,29.0,0.011438,['Fail'],Fail,0.6200000000000004,0.37999999999999956,1.0,1.0,1.0
251.0,3.0,wc_3,,0.0,,,,263.0,,,,Fail,,,,,
251.0,3.0,wc_3,wc_17,0.0,"[('wc_17', 0.4400000000000003), ('wc_3', 0.30000000000000016), ('wc_6', 0.17000000000000004), ('wc_5', 0.4900000000000003), ('wc_16', 0.30000000000000016)]",0.8838464800000002,,,28.0,0.012919,['Pass'],Fail,0.4400000000000003,-0.19000000000000028,2.0,8.0,0.5
251.0,3.0,wc_3,,0.0,,,,382.0,,,,Fail,,,,,
251.0,3.0,wc_3,wc_4,1.0,"[('wc_4', 0.30000000000000016), ('wc_3', 0.30000000000000016), ('wc_6', 0.17000000000000004), ('wc_5', 0.4900000000000003), ('wc_16', 0.30000000000000016), ('wc_17', 0.4400000000000003)]",0.9186925360000001,,,21.0,0.050024,['Pass'],Fail,0.31000000000000016,0.18999999999999984,2.0,4.0,0.1
270.0,3.0,wc_3,,0.0,,,,103.0,,,,Pass,,,,,
270.0,3.0,wc_3,,0.0,,,74.0,,,,,Pass,,,,,
270.0,3.0,wc_3,,0.0,,,,0.0,,,,Pass,,,,,
270.0,3.0,wc_3,wc_3,0.0,"[('wc_3', 0.31000000000000016)]",0.31000000000000016,,,36.0,0.002013,['Fail'],Pass,0.31000000000000016,0.18999999999999984,3.0,6.0,0.2
270.0,3.0,wc_3,,0.0,,,,222.0,,,,Pass,,,,,
270.0,3.0,wc_3,wc_16,0.0,"[('wc_16', 0.31000000000000016), ('wc_3', 0.31000000000000016)]",0.5239000000000003,,,31.0,0.009253,['Fail'],Pass,0.31000000000000016,-0.31000000000000016,0.0,0.0,0.3
270.0,3.0,wc_3,,0.0,,,,223.0,,,,Pass,,,,,
270.0,3.0,wc_3,wc_7,0.0,"[('wc_3', 0.31000000000000016), ('wc_16', 0.31000000000000016)]",0.5239000000000003,,,37.0,0.010372000000000001,['Fail'],Pass,0.4500000000000003,-0.22777777777777808,2.0,9.0,0.6
270.0,3.0,wc_3,,0.0,,,,243.0,,,,Pass,,,,,
270.0,3.0,wc_3,wc_17,0.0,"[('wc_17', 0.4400000000000003), ('wc_7', 0.4500000000000003)]",0.6920000000000004,,,34.0,0.008801,['Pass'],Pass,0.4400000000000003,-0.10666666666666696,3.0,9.0,0.5
270.0,3.0,wc_3,,0.0,,,,382.0,,,,Pass,,,,,
270.0,3.0,wc_3,wc_4,0.0,"[('wc_7', 0.4500000000000003), ('wc_17', 0.4400000000000003)]",0.6920000000000004,,,37.0,0.013887,['Pass'],Pass,0.31000000000000016,0.18999999999999984,2.0,4.0,0.1
270.0,3.0,wc_3,,0.0,,,,81.0,,,,Pass,,,,,
270.0,3.0,wc_3,wc_6,0.0,"[('wc_6', 0.18000000000000005), ('wc_3', 0.31000000000000016), ('wc_16', 0.31000000000000016), ('wc_4', 0.31000000000000016)]",0.7306226200000002,,,20.0,0.012898,['Fail'],Pass,0.18000000000000005,0.15333333333333327,2.0,6.0,0.1
270.0,3.0,wc_3,,0.0,,,,0.0,,,,Pass,,,,,
270.0,3.0,wc_3,wc_10,0.0,"[('wc_10', 0.6000000000000004), ('wc_7', 0.4500000000000003), ('wc_17', 0.4400000000000003)]",0.8768000000000002,,,23.0,0.014244,['Pass'],Pass,0.6000000000000004,-0.2000000000000004,2.0,5.0,1.0
270.0,3.0,wc_3,,0.0,,,,103.0,,,,Pass,,,,,
270.0,3.0,wc_3,wc_9,1.0,"[('wc_9', 0.40000000000000024), ('wc_7', 0.4500000000000003), ('wc_17', 0.4400000000000003), ('wc_10', 0.6000000000000004)]",0.9260800000000002,,,37.0,0.045772999999999994,['Pass'],Pass,0.41000000000000025,0.08999999999999975,1.0,2.0,0.5
282.0,4.0,wc_4,,0.0,,,,382.0,,,,Pass,,,,,
282.0,4.0,wc_4,,0.0,,,58.0,,,,,Pass,,,,,
282.0,4.0,wc_4,,0.0,,,,0.0,,,,Pass,,,,,
282.0,4.0,wc_4,wc_4,0.0,"[('wc_4', 0.31000000000000016)]",0.31000000000000016,,,27.0,0.00271,['Pass'],Pass,0.31000000000000016,0.08999999999999986,2.0,5.0,0.1
282.0,4.0,wc_4,,0.0,,,,103.0,,,,Pass,,,,,
282.0,4.0,wc_4,wc_3,0.0,"[('wc_3', 0.31000000000000016), ('wc_4', 0.31000000000000016)]",0.5239000000000003,,,23.0,0.003935,['Pass'],Pass,0.31000000000000016,0.11857142857142838,3.0,7.0,0.2
282.0,4.0,wc_4,,0.0,,,,202.0,,,,Pass,,,,,
282.0,4.0,wc_4,wc_11,0.0,"[('wc_11', 0.5600000000000004), ('wc_4', 0.31000000000000016), ('wc_3', 0.31000000000000016)]",0.7905160000000003,,,33.0,0.006841,['Pass'],Pass,0.5600000000000004,-0.39333333333333376,1.0,6.0,0.8
282.0,4.0,wc_4,,0.0,,,,61.0,,,,Pass,,,,,
282.0,4.0,wc_4,wc_8,1.0,"[('wc_8', 0.5700000000000004), ('wc_4', 0.31000000000000016), ('wc_3', 0.31000000000000016), ('wc_11', 0.5600000000000004)]",0.9099218800000002,,,35.0,0.039588,['Pass'],Pass,0.5700000000000004,-0.17000000000000037,2.0,5.0,0.9
304.0,5.0,wc_5,,0.0,,,,321.0,,,,Fail,,,,,
304.0,5.0,wc_5,,0.0,,,73.0,,,,,Fail,,,,,
304.0,5.0,wc_5,,0.0,,,,0.0,,,,Fail,,,,,
304.0,5.0,wc_5,wc_5,0.0,"[('wc_5', 0.4900000000000003)]",0.4900000000000003,,,30.0,0.00252,['Fail'],Fail,0.4900000000000003,-0.24000000000000032,2.0,8.0,0.5
304.0,5.0,wc_5,,0.0,,,,41.0,,,,Fail,,,,,
304.0,5.0,wc_5,wc_1,0.0,"[('wc_5', 0.4900000000000003)]",0.4900000000000003,,,33.0,0.003992,['Fail'],Fail,0.2500000000000001,-0.0500000000000001,0.0,0.0,0.4
304.0,5.0,wc_5,,0.0,,,,202.0,,,,Fail,,,,,
304.0,5.0,wc_5,wc_13,0.0,"[('wc_13', 0.5600000000000004), ('wc_5', 0.4900000000000003)]",0.7756000000000003,,,26.0,0.006022,['Fail'],Fail,0.5600000000000004,-0.49333333333333373,0.0,0.0,0.8
304.0,5.0,wc_5,,0.0,,,,0.0,,,,Fail,,,,,
304.0,5.0,wc_5,wc_14,1.0,"[('wc_14', 0.6000000000000004), ('wc_5', 0.4900000000000003), ('wc_13', 0.5600000000000004)]",0.9102400000000003,,,24.0,0.04739500000000001,['Fail'],Fail,0.6000000000000004,-0.4333333333333338,1.0,6.0,0.9
351.0,5.0,wc_5,,0.0,,,,361.0,,,,Pass,,,,,
351.0,5.0,wc_5,,0.0,,,67.0,,,,,Pass,,,,,
351.0,5.0,wc_5,,0.0,,,,0.0,,,,Pass,,,,,
351.0,5.0,wc_5,wc_5,0.0,"[('wc_5', 0.4900000000000003)]",0.4900000000000003,,,29.0,0.002279,['Pass'],Pass,0.4900000000000003,-0.156666666666667,3.0,9.0,0.5
351.0,5.0,wc_5,,0.0,,,,122.0,,,,Pass,,,,,
351.0,5.0,wc_5,wc_9,0.0,"[('wc_5', 0.4900000000000003)]",0.4900000000000003,,,37.0,0.006103,['Pass'],Pass,0.41000000000000025,-0.16000000000000025,1.0,4.0,0.5
351.0,5.0,wc_5,,0.0,,,,182.0,,,,Pass,,,,,
351.0,5.0,wc_5,wc_16,0.0,"[('wc_16', 0.30000000000000016), ('wc_9', 0.41000000000000025)]",0.5870000000000002,,,31.0,0.005693,['Fail'],Pass,0.30000000000000016,-0.30000000000000016,0.0,3.0,0.3
351.0,5.0,wc_5,,0.0,,,,263.0,,,,Pass,,,,,
351.0,5.0,wc_5,wc_1,0.0,"[('wc_1', 0.2400000000000001), ('wc_5', 0.4900000000000003)]",0.6124000000000003,,,24.0,0.00783,['Pass'],Pass,0.2400000000000001,-0.2400000000000001,0.0,1.0,0.4
351.0,5.0,wc_5,,0.0,,,,142.0,,,,Pass,,,,,
351.0,5.0,wc_5,wc_6,0.0,"[('wc_6', 0.18000000000000005), ('wc_5', 0.4900000000000003), ('wc_1', 0.2400000000000001)]",0.6821680000000003,,,39.0,0.009446999999999999,['Pass'],Pass,0.18000000000000005,0.04222222222222216,2.0,9.0,0.1
351.0,5.0,wc_5,,0.0,,,,0.0,,,,Pass,,,,,
351.0,5.0,wc_5,wc_8,0.0,"[('wc_8', 0.5700000000000004), ('wc_9', 0.41000000000000025), ('wc_16', 0.30000000000000016)]",0.8224100000000003,,,40.0,0.013028000000000001,['Fail'],Pass,0.5700000000000004,-0.23666666666666708,2.0,6.0,0.9
351.0,5.0,wc_5,,0.0,,,,183.0,,,,Pass,,,,,
351.0,5.0,wc_5,wc_15,0.0,"[('wc_9', 0.41000000000000025), ('wc_16', 0.30000000000000016), ('wc_8', 0.5700000000000004)]",0.8224100000000003,,,36.0,0.014617,['Fail'],Pass,0.43000000000000027,-0.43000000000000027,0.0,5.0,0.5
351.0,5.0,wc_5,,0.0,,,,303.0,,,,Pass,,,,,
351.0,5.0,wc_5,wc_2,1.0,"[('wc_2', 0.6100000000000004), ('wc_5', 0.4900000000000003), ('wc_1', 0.2400000000000001), ('wc_6', 0.18000000000000005), ('wc_15', 0.43000000000000027)]",0.9293459464000002,,,39.0,0.047606,['Pass'],Pass,0.6100000000000004,-0.2766666666666671,2.0,6.0,1.0
363.0,6.0,wc_6,,0.0,,,,122.0,,,,Pass,,,,,
363.0,6.0,wc_6,,0.0,,,80.0,,,,,Pass,,,,,
363.0,6.0,wc_6,,0.0,,,,0.0,,,,Pass,,,,,
363.0,6.0,wc_6,wc_6,0.0,"[('wc_6', 0.19000000000000006)]",0.19000000000000006,,,31.0,0.002693,['Fail'],Pass,0.19000000000000006,-0.19000000000000006,0.0,0.0,0.1
363.0,6.0,wc_6,,0.0,,,,0.0,,,,Pass,,,,,
363.0,6.0,wc_6,wc_7,0.0,"[('wc_7', 0.4500000000000003)]",0.4500000000000003,,,32.0,0.004814000000000001,['Pass'],Pass,0.4500000000000003,-0.4500000000000003,0.0,3.0,0.6
363.0,6.0,wc_6,,0.0,,,,243.0,,,,Pass,,,,,
363.0,6.0,wc_6,wc_17,0.0,"[('wc_17', 0.4400000000000003), ('wc_7', 0.4500000000000003)]",0.6920000000000004,,,20.0,0.0065509999999999995,['Pass'],Pass,0.4400000000000003,-0.4400000000000003,0.0,3.0,0.5
363.0,6.0,wc_6,,0.0,,,,402.0,,,,Pass,,,,,
363.0,6.0,wc_6,wc_5,0.0,"[('wc_5', 0.4900000000000003), ('wc_7', 0.4500000000000003), ('wc_17', 0.4400000000000003)]",0.8429200000000002,,,22.0,0.009497,['Pass'],Pass,0.4900000000000003,-0.4900000000000003,0.0,0.0,0.5
363.0,6.0,wc_6,,0.0,,,,41.0,,,,Pass,,,,,
363.0,6.0,wc_6,wc_1,0.0,"[('wc_1', 0.2500000000000001), ('wc_7', 0.4500000000000003), ('wc_17', 0.4400000000000003), ('wc_5', 0.4900000000000003)]",0.8821900000000003,,,23.0,0.009732,['Pass'],Pass,0.2500000000000001,0.2499999999999999,1.0,2.0,0.4
363.0,6.0,wc_6,,0.0,,,,223.0,,,,Pass,,,,,
363.0,6.0,wc_6,wc_10,1.0,"[('wc_10', 0.6000000000000004), ('wc_7', 0.4500000000000003), ('wc_17', 0.4400000000000003), ('wc_5', 0.4900000000000003), ('wc_1', 0.2500000000000001)]",0.9528760000000002,,,30.0,0.045084,['Pass'],Pass,0.6000000000000004,-0.6000000000000004,0.0,0.0,1.0
372.0,11.0,wc_11,,0.0,,,,0.0,,,,Fail,,,,,
372.0,11.0,wc_11,,0.0,,,76.0,,,,,Fail,,,,,
372.0,11.0,wc_11,,0.0,,,,0.0,,,,Fail,,,,,
372.0,11.0,wc_11,wc_11,0.0,"[('wc_11', 0.5600000000000004)]",0.5600000000000004,,,32.0,0.002764,['Pass'],Fail,0.5600000000000004,-0.3600000000000004,0.0,0.0,0.8
372.0,11.0,wc_11,,0.0,,,,322.0,,,,Fail,,,,,
372.0,11.0,wc_11,wc_3,0.0,"[('wc_11', 0.5600000000000004)]",0.5600000000000004,,,26.0,0.004264,['Pass'],Fail,0.3200000000000002,0.04363636363636347,0.0,0.0,0.2
372.0,11.0,wc_11,,0.0,,,,141.0,,,,Fail,,,,,
372.0,11.0,wc_11,wc_12,0.0,"[('wc_12', 0.6000000000000004), ('wc_3', 0.3200000000000002)]",0.7280000000000004,,,32.0,0.010620999999999998,['Fail'],Fail,0.6000000000000004,-0.6000000000000004,0.0,0.0,0.9
372.0,11.0,wc_11,,0.0,,,,0.0,,,,Fail,,,,,
372.0,11.0,wc_11,wc_13,0.0,"[('wc_13', 0.5700000000000004), ('wc_3', 0.3200000000000002), ('wc_12', 0.6000000000000004)]",0.8830400000000003,,,26.0,0.007859,['Fail'],Fail,0.5700000000000004,-0.23666666666666708,1.0,3.0,0.8
372.0,11.0,wc_11,,0.0,,,,361.0,,,,Fail,,,,,
372.0,11.0,wc_11,wc_4,1.0,"[('wc_4', 0.3200000000000002), ('wc_3', 0.3200000000000002), ('wc_12', 0.6000000000000004), ('wc_13', 0.5700000000000004)]",0.9204672000000002,,,28.0,0.046929,['Fail'],Fail,0.3300000000000002,-0.3300000000000002,0.0,0.0,0.1
379.0,11.0,wc_11,,0.0,,,,182.0,,,,Fail,,,,,
379.0,11.0,wc_11,,0.0,,,57.0,,,,,Fail,,,,,
379.0,11.0,wc_11,,0.0,,,,0.0,,,,Fail,,,,,
379.0,11.0,wc_11,wc_11,0.0,"[('wc_11', 0.5500000000000004)]",0.5500000000000004,,,35.0,0.002327,['Pass'],Fail,0.5500000000000004,-0.5500000000000004,0.0,1.0,0.8
379.0,11.0,wc_11,,0.0,,,,61.0,,,,Fail,,,,,
379.0,11.0,wc_11,wc_12,0.0,"[('wc_12', 0.6100000000000004)]",0.6100000000000004,,,29.0,0.004339,['Fail'],Fail,0.6100000000000004,0.38999999999999957,1.0,1.0,0.9
379.0,11.0,wc_11,,0.0,,,,401.0,,,,Fail,,,,,
379.0,11.0,wc_11,wc_5,0.0,"[('wc_5', 0.5000000000000003), ('wc_12', 0.6100000000000004)]",0.8050000000000004,,,37.0,0.007862,['Fail'],Fail,0.5000000000000003,-3.3306690738754696e-16,1.0,2.0,0.5
379.0,11.0,wc_11,,0.0,,,,101.0,,,,Fail,,,,,
379.0,11.0,wc_11,wc_8,1.0,"[('wc_8', 0.5600000000000004), ('wc_12', 0.6100000000000004), ('wc_5', 0.5000000000000003)]",0.9142000000000002,,,28.0,0.04816399999999999,['Fail'],Fail,0.5600000000000004,-0.5600000000000004,0.0,0.0,0.9
388.0,8.0,wc_8,,0.0,,,,0.0,,,,Pass,,,,,
388.0,8.0,wc_8,,0.0,,,78.0,,,,,Pass,,,,,
388.0,8.0,wc_8,,0.0,,,,0.0,,,,Pass,,,,,
388.0,8.0,wc_8,wc_8,0.0,"[('wc_8', 0.5600000000000004)]",0.5600000000000004,,,39.0,0.002757,['Pass'],Pass,0.5600000000000004,-0.5600000000000004,0.0,0.0,0.9
388.0,8.0,wc_8,,0.0,,,,281.0,,,,Pass,,,,,
388.0,8.0,wc_8,wc_3,0.0,"[('wc_8', 0.5600000000000004)]",0.5600000000000004,,,28.0,0.0041069999999999995,['Pass'],Pass,0.3300000000000002,0.16999999999999982,1.0,2.0,0.2
388.0,8.0,wc_8,,0.0,,,,121.0,,,,Pass,,,,,
388.0,8.0,wc_8,wc_7,0.0,"[('wc_7', 0.4500000000000003), ('wc_3', 0.3300000000000002)]",0.6315000000000003,,,21.0,0.009547,['Fail'],Pass,0.4500000000000003,-0.28333333333333366,1.0,6.0,0.6
388.0,8.0,wc_8,,0.0,,,,142.0,,,,Pass,,,,,
388.0,8.0,wc_8,wc_12,0.0,"[('wc_12', 0.6200000000000004), ('wc_3', 0.3300000000000002), ('wc_7', 0.4500000000000003)]",0.8599700000000002,,,34.0,0.012410000000000001,['Fail'],Pass,0.6200000000000004,0.37999999999999956,2.0,2.0,0.9
388.0,8.0,wc_8,,0.0,,,,381.0,,,,Pass,,,,,
388.0,8.0,wc_8,wc_4,1.0,"[('wc_4', 0.3300000000000002), ('wc_3', 0.3300000000000002), ('wc_7', 0.4500000000000003), ('wc_12', 0.6200000000000004)]",0.9061799000000003,,,27.0,0.04661499999999999,['Fail'],Pass,0.3400000000000002,0.1599999999999998,1.0,2.0,0.1
399.0,11.0,wc_11,,0.0,,,,182.0,,,,Fail,,,,,
399.0,11.0,wc_11,,0.0,,,72.0,,,,,Fail,,,,,
399.0,11.0,wc_11,,0.0,,,,0.0,,,,Fail,,,,,
399.0,11.0,wc_11,wc_11,0.0,"[('wc_11', 0.5400000000000004)]",0.5400000000000004,,,24.0,0.002292,['Fail'],Fail,0.5400000000000004,-0.5400000000000004,0.0,3.0,0.8
399.0,11.0,wc_11,,0.0,,,,21.0,,,,Fail,,,,,
399.0,11.0,wc_11,wc_6,0.0,"[('wc_6', 0.18000000000000005), ('wc_11', 0.5400000000000004)]",0.6228000000000002,,,21.0,0.004087,['Fail'],Fail,0.18000000000000005,-0.18000000000000005,0.0,4.0,0.1
399.0,11.0,wc_11,,0.0,,,,341.0,,,,Fail,,,,,
399.0,11.0,wc_11,wc_4,0.0,"[('wc_4', 0.3400000000000002), ('wc_11', 0.5400000000000004), ('wc_6', 0.18000000000000005)]",0.7510480000000003,,,32.0,0.0077469999999999995,['Fail'],Fail,0.3400000000000002,0.1599999999999998,1.0,2.0,0.1
399.0,11.0,wc_11,,0.0,,,,101.0,,,,Fail,,,,,
399.0,11.0,wc_11,wc_7,0.0,"[('wc_7', 0.4500000000000003), ('wc_11', 0.5400000000000004), ('wc_6', 0.18000000000000005), ('wc_4', 0.3400000000000002)]",0.8630764000000002,,,28.0,0.007958,['Fail'],Fail,0.4500000000000003,-0.1642857142857146,2.0,7.0,0.6
399.0,11.0,wc_11,,0.0,,,,162.0,,,,Fail,,,,,
399.0,11.0,wc_11,wc_13,1.0,"[('wc_13', 0.5700000000000004), ('wc_11', 0.5400000000000004), ('wc_6', 0.18000000000000005), ('wc_4', 0.3400000000000002), ('wc_7', 0.4500000000000003)]",0.9411228520000001,,,31.0,0.048203,['Fail'],Fail,0.5700000000000004,-0.14142857142857185,3.0,7.0,0.8
407.0,11.0,wc_11,,0.0,,,,341.0,,,,Fail,,,,,
407.0,11.0,wc_11,,0.0,,,67.0,,,,,Fail,,,,,
407.0,11.0,wc_11,,0.0,,,,0.0,,,,Fail,,,,,
407.0,11.0,wc_11,wc_11,0.0,"[('wc_11', 0.5400000000000004)]",0.5400000000000004,,,36.0,0.002236,['Fail'],Fail,0.5400000000000004,-0.29000000000000037,1.0,4.0,0.8
407.0,11.0,wc_11,,0.0,,,,162.0,,,,Fail,,,,,
407.0,11.0,wc_11,wc_17,0.0,"[('wc_11', 0.5400000000000004)]",0.5400000000000004,,,36.0,0.004063000000000001,['Fail'],Fail,0.4400000000000003,-0.3150000000000003,1.0,8.0,0.5
407.0,11.0,wc_11,,0.0,,,,83.0,,,,Fail,,,,,
407.0,11.0,wc_11,wc_15,0.0,"[('wc_15', 0.43000000000000027), ('wc_11', 0.5400000000000004)]",0.7378000000000003,,,40.0,0.006803,['Fail'],Fail,0.43000000000000027,-0.33909090909090933,0.0,0.0,0.5
407.0,11.0,wc_11,,0.0,,,,382.0,,,,Fail,,,,,
407.0,11.0,wc_11,wc_10,0.0,"[('wc_10', 0.6000000000000004), ('wc_11', 0.5400000000000004), ('wc_15', 0.43000000000000027)]",0.8951200000000002,,,21.0,0.00804,['Fail'],Fail,0.6000000000000004,-0.6000000000000004,0.0,4.0,1.0
407.0,11.0,wc_11,,0.0,,,,362.0,,,,Fail,,,,,
407.0,11.0,wc_11,wc_4,1.0,"[('wc_4', 0.3500000000000002), ('wc_11', 0.5400000000000004), ('wc_15', 0.43000000000000027), ('wc_10', 0.6000000000000004)]",0.9318280000000002,,,33.0,0.06497999999999998,['Fail'],Fail,0.3600000000000002,0.3899999999999998,3.0,4.0,0.1
418.0,9.0,wc_9,,0.0,,,,142.0,,,,Pass,,,,,
418.0,9.0,wc_9,,0.0,,,52.0,,,,,Pass,,,,,
418.0,9.0,wc_9,,0.0,,,,0.0,,,,Pass,,,,,
418.0,9.0,wc_9,wc_9,0.0,"[('wc_9', 0.40000000000000024)]",0.40000000000000024,,,35.0,0.002341,['Pass'],Pass,0.40000000000000024,-0.3090909090909093,0.0,0.0,0.5
418.0,9.0,wc_9,,0.0,,,,61.0,,,,Pass,,,,,
418.0,9.0,wc_9,wc_6,0.0,"[('wc_9', 0.40000000000000024)]",0.40000000000000024,,,37.0,0.004039,['Pass'],Pass,0.19000000000000006,-0.0233333333333334,1.0,6.0,0.1
418.0,9.0,wc_9,,0.0,,,,162.0,,,,Pass,,,,,
418.0,9.0,wc_9,wc_12,0.0,"[('wc_12', 0.6300000000000004), ('wc_9', 0.40000000000000024)]",0.7780000000000004,,,34.0,0.006745,['Pass'],Pass,0.6300000000000004,-0.03000000000000047,3.0,5.0,0.9
418.0,9.0,wc_9,,0.0,,,,222.0,,,,Pass,,,,,
418.0,9.0,wc_9,wc_8,1.0,"[('wc_8', 0.5500000000000004), ('wc_9', 0.40000000000000024), ('wc_12', 0.6300000000000004)]",0.9001000000000002,,,26.0,0.04147700000000001,['Pass'],Pass,0.5500000000000004,-0.3000000000000004,1.0,4.0,0.9
435.0,11.0,wc_11,,0.0,,,,0.0,,,,Pass,,,,,
435.0,11.0,wc_11,,0.0,,,75.0,,,,,Pass,,,,,
435.0,11.0,wc_11,,0.0,,,,0.0,,,,Pass,,,,,
435.0,11.0,wc_11,wc_11,0.0,"[('wc_11', 0.5400000000000004)]",0.5400000000000004,,,38.0,0.002295,['Fail'],Pass,0.5400000000000004,-0.20666666666666705,2.0,6.0,0.8
435.0,11.0,wc_11,,0.0,,,,101.0,,,,Pass,,,,,
435.0,11.0,wc_11,wc_14,0.0,"[('wc_14', 0.6000000000000004)]",0.6000000000000004,,,38.0,0.0061189999999999994,['Pass'],Pass,0.6000000000000004,-0.528571428571429,0.0,0.0,0.9
435.0,11.0,wc_11,,0.0,,,,321.0,,,,Pass,,,,,
435.0,11.0,wc_11,wc_3,0.0,"[('wc_3', 0.3400000000000002), ('wc_14', 0.6000000000000004)]",0.7360000000000004,,,38.0,0.008241,['Pass'],Pass,0.3400000000000002,-0.006666666666666876,2.0,6.0,0.2
435.0,11.0,wc_11,,0.0,,,,101.0,,,,Pass,,,,,
435.0,11.0,wc_11,wc_6,0.0,"[('wc_14', 0.6000000000000004), ('wc_3', 0.3400000000000002)]",0.7360000000000004,,,35.0,0.008656,['Pass'],Pass,0.18000000000000005,-0.0371428571428572,1.0,7.0,0.1
435.0,11.0,wc_11,,0.0,,,,0.0,,,,Pass,,,,,
435.0,11.0,wc_11,wc_7,0.0,"[('wc_7', 0.4500000000000003), ('wc_14', 0.6000000000000004), ('wc_3', 0.3400000000000002)]",0.8548000000000002,,,32.0,0.023066999999999997,['Pass'],Pass,0.4500000000000003,-0.1500000000000003,0.0,0.0,0.6
435.0,11.0,wc_11,,0.0,,,,0.0,,,,Pass,,,,,
435.0,11.0,wc_11,wc_8,0.0,"[('wc_14', 0.6000000000000004), ('wc_3', 0.3400000000000002), ('wc_7', 0.4500000000000003)]",0.8548000000000002,,,29.0,0.013093,['Pass'],Pass,0.5500000000000004,-0.3000000000000004,1.0,4.0,0.9
435.0,11.0,wc_11,,0.0,,,,142.0,,,,Pass,,,,,
435.0,11.0,wc_11,wc_13,1.0,"[('wc_13', 0.5700000000000004), ('wc_11', 0.5400000000000004), ('wc_6', 0.18000000000000005), ('wc_8', 0.5500000000000004)]",0.9270118000000002,,,30.0,0.048029999999999996,['Fail'],Pass,0.5700000000000004,-0.5700000000000004,0.0,0.0,0.8
445.0,10.0,wc_10,,0.0,,,,321.0,,,,Fail,,,,,
445.0,10.0,wc_10,,0.0,,,53.0,,,,,Fail,,,,,
445.0,10.0,wc_10,,0.0,,,,0.0,,,,Fail,,,,,
445.0,10.0,wc_10,wc_10,0.0,"[('wc_10', 0.6000000000000004)]",0.6000000000000004,,,24.0,0.003029,['Fail'],Fail,0.6000000000000004,-0.4571428571428576,1.0,7.0,1.0
445.0,10.0,wc_10,,0.0,,,,103.0,,,,Fail,,,,,
445.0,10.0,wc_10,wc_9,0.0,"[('wc_9', 0.41000000000000025), ('wc_10', 0.6000000000000004)]",0.7640000000000003,,,29.0,0.004659,['Fail'],Fail,0.41000000000000025,0.08999999999999975,1.0,2.0,0.5
445.0,10.0,wc_10,,0.0,,,,402.0,,,,Fail,,,,,
445.0,10.0,wc_10,wc_5,0.0,"[('wc_5', 0.5100000000000003), ('wc_10', 0.6000000000000004), ('wc_9', 0.41000000000000025)]",0.8843600000000003,,,40.0,0.00618,['Fail'],Fail,0.5100000000000003,-0.26000000000000034,2.0,8.0,0.5
445.0,10.0,wc_10,,0.0,,,,103.0,,,,Fail,,,,,
445.0,10.0,wc_10,wc_4,0.0,"[('wc_10', 0.6000000000000004), ('wc_9', 0.41000000000000025), ('wc_5', 0.5100000000000003)]",0.8843600000000003,,,31.0,0.007970999999999999,['Fail'],Fail,0.3600000000000002,0.1399999999999998,3.0,6.0,0.1
445.0,10.0,wc_10,,0.0,,,,121.0,,,,Fail,,,,,
445.0,10.0,wc_10,wc_8,1.0,"[('wc_8', 0.5500000000000004), ('wc_10', 0.6000000000000004), ('wc_9', 0.41000000000000025), ('wc_5', 0.5100000000000003)]",0.9479620000000002,,,36.0,0.053203,['Fail'],Fail,0.5500000000000004,-0.05000000000000038,3.0,6.0,0.9
452.0,7.0,wc_7,,0.0,,,,102.0,,,,Fail,,,,,
452.0,7.0,wc_7,,0.0,,,61.0,,,,,Fail,,,,,
452.0,7.0,wc_7,,0.0,,,,0.0,,,,Fail,,,,,
452.0,7.0,wc_7,wc_7,0.0,"[('wc_7', 0.4400000000000003)]",0.4400000000000003,,,37.0,0.002237,['Fail'],Fail,0.4400000000000003,-0.4400000000000003,0.0,2.0,0.6
452.0,7.0,wc_7,,0.0,,,,162.0,,,,Fail,,,,,
452.0,7.0,wc_7,wc_13,0.0,"[('wc_13', 0.5700000000000004), ('wc_7', 0.4400000000000003)]",0.7592000000000003,,,20.0,0.0076939999999999995,['Fail'],Fail,0.5700000000000004,-0.5700000000000004,0.0,1.0,0.8
452.0,7.0,wc_7,,0.0,,,,381.0,,,,Fail,,,,,
452.0,7.0,wc_7,wc_5,0.0,"[('wc_5', 0.5100000000000003), ('wc_7', 0.4400000000000003), ('wc_13', 0.5700000000000004)]",0.8820080000000002,,,23.0,0.006108000000000001,['Fail'],Fail,0.5100000000000003,-0.17666666666666703,3.0,9.0,0.5
452.0,7.0,wc_7,,0.0,,,,141.0,,,,Fail,,,,,
452.0,7.0,wc_7,wc_14,1.0,"[('wc_14', 0.5900000000000004), ('wc_7', 0.4400000000000003), ('wc_13', 0.5700000000000004), ('wc_5', 0.5100000000000003)]",0.9516232800000002,,,22.0,0.045348999999999993,['Fail'],Fail,0.5900000000000004,-0.2566666666666671,1.0,3.0,0.9
464.0,7.0,wc_7,,0.0,,,,162.0,,,,Pass,,,,,
464.0,7.0,wc_7,,0.0,,,78.0,,,,,Pass,,,,,
464.0,7.0,wc_7,,0.0,,,,0.0,,,,Pass,,,,,
464.0,7.0,wc_7,wc_7,0.0,"[('wc_7', 0.4400000000000003)]",0.4400000000000003,,,35.0,0.003483,['Pass'],Pass,0.4400000000000003,-0.10666666666666696,1.0,3.0,0.6
464.0,7.0,wc_7,,0.0,,,,162.0,,,,Pass,,,,,
464.0,7.0,wc_7,wc_13,0.0,"[('wc_13', 0.5700000000000004), ('wc_7', 0.4400000000000003)]",0.7592000000000003,,,35.0,0.004004000000000001,['Pass'],Pass,0.5700000000000004,-0.0700000000000004,1.0,2.0,0.8
464.0,7.0,wc_7,,0.0,,,,0.0,,,,Pass,,,,,
464.0,7.0,wc_7,wc_17,0.0,"[('wc_17', 0.43000000000000027), ('wc_7', 0.4400000000000003), ('wc_13', 0.5700000000000004)]",0.8627440000000003,,,26.0,0.011488,['Pass'],Pass,0.43000000000000027,-0.35307692307692334,0.0,0.0,0.5
464.0,7.0,wc_7,,0.0,,,,263.0,,,,Pass,,,,,
464.0,7.0,wc_7,wc_2,1.0,"[('wc_2', 0.6100000000000004), ('wc_7', 0.4400000000000003), ('wc_13', 0.5700000000000004), ('wc_17', 0.43000000000000027)]",0.9464701600000002,,,26.0,0.05082999999999999,['Pass'],Pass,0.6100000000000004,-0.6100000000000004,0.0,0.0,1.0
475.0,10.0,wc_10,,0.0,,,,203.0,,,,Pass,,,,,
475.0,10.0,wc_10,,0.0,,,60.0,,,,,Pass,,,,,
475.0,10.0,wc_10,,0.0,,,,0.0,,,,Pass,,,,,
475.0,10.0,wc_10,wc_10,0.0,"[('wc_10', 0.6000000000000004)]",0.6000000000000004,,,30.0,0.002317,['Pass'],Pass,0.6000000000000004,-0.4000000000000004,0.0,0.0,1.0
475.0,10.0,wc_10,,0.0,,,,182.0,,,,Pass,,,,,
475.0,10.0,wc_10,wc_17,0.0,"[('wc_17', 0.4400000000000003), ('wc_10', 0.6000000000000004)]",0.7760000000000004,,,22.0,0.004265,['Pass'],Pass,0.4400000000000003,0.5599999999999997,1.0,1.0,0.5
475.0,10.0,wc_10,,0.0,,,,21.0,,,,Pass,,,,,
475.0,10.0,wc_10,wc_12,1.0,"[('wc_12', 0.6400000000000005), ('wc_10', 0.6000000000000004), ('wc_17', 0.4400000000000003)]",0.9193600000000002,,,38.0,0.043662,['Pass'],Pass,0.6400000000000005,-0.6400000000000005,0.0,0.0,0.9
482.0,12.0,wc_12,,0.0,,,,0.0,,,,Pass,,,,,
482.0,12.0,wc_12,,0.0,,,61.0,,,,,Pass,,,,,
482.0,12.0,wc_12,,0.0,,,,0.0,,,,Pass,,,,,
482.0,12.0,wc_12,wc_12,0.0,"[('wc_12', 0.6400000000000005)]",0.6400000000000005,,,26.0,0.002157,['Pass'],Pass,0.6400000000000005,-0.6400000000000005,0.0,0.0,0.9
482.0,12.0,wc_12,,0.0,,,,381.0,,,,Pass,,,,,
482.0,12.0,wc_12,wc_4,0.0,"[('wc_4', 0.3600000000000002), ('wc_12', 0.6400000000000005)]",0.7696000000000004,,,37.0,0.007435000000000001,['Pass'],Pass,0.3600000000000002,-0.06000000000000022,0.0,0.0,0.1
482.0,12.0,wc_12,,0.0,,,,142.0,,,,Pass,,,,,
482.0,12.0,wc_12,wc_9,0.0,"[('wc_9', 0.42000000000000026), ('wc_12', 0.6400000000000005), ('wc_4', 0.3600000000000002)]",0.8663680000000002,,,32.0,0.012573999999999998,['Pass'],Pass,0.42000000000000026,-0.08666666666666695,2.0,6.0,0.5
482.0,12.0,wc_12,,0.0,,,,101.0,,,,Pass,,,,,
482.0,12.0,wc_12,wc_8,1.0,"[('wc_8', 0.5500000000000004), ('wc_12', 0.6400000000000005), ('wc_4', 0.3600000000000002), ('wc_9', 0.42000000000000026)]",0.9398656000000002,,,37.0,0.045499,['Pass'],Pass,0.5500000000000004,-0.5500000000000004,0.0,0.0,0.9
495.0,13.0,wc_13,,0.0,,,,142.0,,,,Pass,,,,,
495.0,13.0,wc_13,,0.0,,,76.0,,,,,Pass,,,,,
495.0,13.0,wc_13,,0.0,,,,0.0,,,,Pass,,,,,
495.0,13.0,wc_13,wc_13,0.0,"[('wc_13', 0.5800000000000004)]",0.5800000000000004,,,30.0,0.003779,['Fail'],Pass,0.5800000000000004,-0.18000000000000038,2.0,5.0,0.8
495.0,13.0,wc_13,,0.0,,,,202.0,,,,Pass,,,,,
495.0,13.0,wc_13,wc_8,0.0,"[('wc_13', 0.5800000000000004)]",0.5800000000000004,,,32.0,0.004103,['Fail'],Pass,0.5500000000000004,-0.5500000000000004,0.0,0.0,0.9
495.0,13.0,wc_13,,0.0,,,,0.0,,,,Pass,,,,,
495.0,13.0,wc_13,wc_9,0.0,"[('wc_9', 0.42000000000000026), ('wc_8', 0.5500000000000004)]",0.7390000000000003,,,25.0,0.0065769999999999995,['Pass'],Pass,0.42000000000000026,0.008571428571428286,3.0,7.0,0.5
495.0,13.0,wc_13,,0.0,,,,162.0,,,,Pass,,,,,
495.0,13.0,wc_13,wc_15,0.0,"[('wc_15', 0.4400000000000003), ('wc_8', 0.5500000000000004), ('wc_9', 0.42000000000000026)]",0.8538400000000003,,,40.0,0.014517,['Pass'],Pass,0.4400000000000003,-0.3150000000000003,1.0,8.0,0.5
495.0,13.0,wc_13,,0.0,,,,402.0,,,,Pass,,,,,
495.0,13.0,wc_13,wc_3,1.0,"[('wc_3', 0.3300000000000002), ('wc_8', 0.5500000000000004), ('wc_9', 0.42000000000000026), ('wc_15', 0.4400000000000003)]",0.9020728000000002,,,35.0,0.047999,['Pass'],Pass,0.3300000000000002,-0.3300000000000002,0.0,0.0,0.2
502.0,16.0,wc_16,,0.0,,,,222.0,,,,Pass,,,,,
502.0,16.0,wc_16,,0.0,,,75.0,,,,,Pass,,,,,
502.0,16.0,wc_16,,0.0,,,,0.0,,,,Pass,,,,,
502.0,16.0,wc_16,wc_16,0.0,"[('wc_16', 0.29000000000000015)]",0.29000000000000015,,,27.0,0.003136,['Fail'],Pass,0.29000000000000015,-0.29000000000000015,0.0,0.0,0.3
502.0,16.0,wc_16,,0.0,,,,61.0,,,,Pass,,,,,
502.0,16.0,wc_16,wc_13,0.0,"[('wc_13', 0.5700000000000004)]",0.5700000000000004,,,39.0,0.004486,['Pass'],Pass,0.5700000000000004,-0.23666666666666708,2.0,6.0,0.8
502.0,16.0,wc_16,,0.0,,,,102.0,,,,Pass,,,,,
502.0,16.0,wc_16,wc_12,0.0,"[('wc_12', 0.6500000000000005), ('wc_13', 0.5700000000000004)]",0.8495000000000004,,,27.0,0.006921999999999999,['Pass'],Pass,0.6500000000000005,-0.15000000000000047,1.0,2.0,0.9
502.0,16.0,wc_16,,0.0,,,,182.0,,,,Pass,,,,,
502.0,16.0,wc_16,wc_6,0.0,"[('wc_13', 0.5700000000000004), ('wc_12', 0.6500000000000005)]",0.8495000000000004,,,37.0,0.01125,['Pass'],Pass,0.19000000000000006,-0.04714285714285721,0.0,0.0,0.1
502.0,16.0,wc_16,,0.0,,,,361.0,,,,Pass,,,,,
502.0,16.0,wc_16,wc_5,1.0,"[('wc_5', 0.5100000000000003), ('wc_13', 0.5700000000000004), ('wc_12', 0.6500000000000005)]",0.9262550000000003,,,27.0,0.047665999999999986,['Pass'],Pass,0.5100000000000003,-0.31000000000000033,1.0,5.0,0.5
508.0,14.0,wc_14,,0.0,,,,141.0,,,,Pass,,,,,
508.0,14.0,wc_14,,0.0,,,58.0,,,,,Pass,,,,,
508.0,14.0,wc_14,,0.0,,,,0.0,,,,Pass,,,,,
508.0,14.0,wc_14,wc_14,0.0,"[('wc_14', 0.5900000000000004)]",0.5900000000000004,,,26.0,0.002263,['Pass'],Pass,0.5900000000000004,-0.4650000000000004,1.0,8.0,0.9
508.0,14.0,wc_14,,0.0,,,,341.0,,,,Pass,,,,,
508.0,14.0,wc_14,wc_4,0.0,"[('wc_14', 0.5900000000000004)]",0.5900000000000004,,,25.0,0.0047480000000000005,['Pass'],Pass,0.3700000000000002,-0.0366666666666669,1.0,3.0,0.1
508.0,14.0,wc_14,,0.0,,,,121.0,,,,Pass,,,,,
508.0,14.0,wc_14,wc_12,0.0,"[('wc_12', 0.6600000000000005), ('wc_14', 0.5900000000000004)]",0.8606000000000004,,,25.0,0.007476999999999999,['Pass'],Pass,0.6600000000000005,0.0066666666666661545,2.0,3.0,0.9
508.0,14.0,wc_14,,0.0,,,,262.0,,,,Pass,,,,,
508.0,14.0,wc_14,wc_2,1.0,"[('wc_2', 0.6100000000000004), ('wc_14', 0.5900000000000004), ('wc_12', 0.6600000000000005)]",0.9456340000000002,,,37.0,0.051441,['Pass'],Pass,0.6100000000000004,-0.4100000000000004,1.0,5.0,1.0
522.0,15.0,wc_15,,0.0,,,,223.0,,,,Fail,,,,,
522.0,15.0,wc_15,,0.0,,,73.0,,,,,Fail,,,,,
522.0,15.0,wc_15,,0.0,,,,0.0,,,,Fail,,,,,
522.0,15.0,wc_15,wc_15,0.0,"[('wc_15', 0.4400000000000003)]",0.4400000000000003,,,33.0,0.002124,['Pass'],Fail,0.4400000000000003,-0.25818181818181846,0.0,0.0,0.5
522.0,15.0,wc_15,,0.0,,,,283.0,,,,Fail,,,,,
522.0,15.0,wc_15,wc_1,0.0,"[('wc_1', 0.2600000000000001), ('wc_15', 0.4400000000000003)]",0.5856000000000003,,,22.0,0.005969,['Pass'],Fail,0.2600000000000001,-0.14888888888888901,0.0,0.0,0.4
522.0,15.0,wc_15,,0.0,,,,0.0,,,,Fail,,,,,
522.0,15.0,wc_15,wc_2,0.0,"[('wc_2', 0.6100000000000004), ('wc_15', 0.4400000000000003), ('wc_1', 0.2600000000000001)]",0.8383840000000002,,,32.0,0.00636,['Pass'],Fail,0.6100000000000004,-0.4100000000000004,1.0,5.0,1.0
522.0,15.0,wc_15,,0.0,,,,162.0,,,,Fail,,,,,
522.0,15.0,wc_15,wc_8,1.0,"[('wc_8', 0.5600000000000004), ('wc_15', 0.4400000000000003), ('wc_1', 0.2600000000000001), ('wc_2', 0.6100000000000004)]",0.9288889600000002,,,30.0,0.04689699999999999,['Pass'],Fail,0.5600000000000004,-0.060000000000000386,2.0,4.0,0.9
529.0,15.0,wc_15,,0.0,,,,183.0,,,,Pass,,,,,
529.0,15.0,wc_15,,0.0,,,73.0,,,,,Pass,,,,,
529.0,15.0,wc_15,,0.0,,,,0.0,,,,Pass,,,,,
529.0,15.0,wc_15,wc_15,0.0,"[('wc_15', 0.4500000000000003)]",0.4500000000000003,,,36.0,0.002276,['Pass'],Pass,0.4500000000000003,0.5499999999999997,1.0,1.0,0.5
529.0,15.0,wc_15,,0.0,,,,362.0,,,,Pass,,,,,
529.0,15.0,wc_15,wc_9,0.0,"[('wc_9', 0.43000000000000027), ('wc_15', 0.4500000000000003)]",0.6865000000000003,,,24.0,0.004208,['Pass'],Pass,0.43000000000000027,-0.06636363636363662,0.0,0.0,0.5
529.0,15.0,wc_15,,0.0,,,,243.0,,,,Pass,,,,,
529.0,15.0,wc_15,wc_1,0.0,"[('wc_1', 0.27000000000000013), ('wc_15', 0.4500000000000003), ('wc_9', 0.43000000000000027)]",0.7711450000000002,,,23.0,0.008609,['Pass'],Pass,0.27000000000000013,0.7299999999999999,1.0,1.0,0.4
529.0,15.0,wc_15,,0.0,,,,162.0,,,,Pass,,,,,
529.0,15.0,wc_15,wc_7,0.0,"[('wc_7', 0.4500000000000003), ('wc_15', 0.4500000000000003), ('wc_9', 0.43000000000000027), ('wc_1', 0.27000000000000013)]",0.8741297500000003,,,40.0,0.019878000000000003,['Pass'],Pass,0.4500000000000003,-0.2500000000000003,0.0,0.0,0.6
529.0,15.0,wc_15,,0.0,,,,0.0,,,,Pass,,,,,
529.0,15.0,wc_15,wc_11,1.0,"[('wc_11', 0.5400000000000004), ('wc_15', 0.4500000000000003), ('wc_9', 0.43000000000000027), ('wc_1', 0.27000000000000013), ('wc_7', 0.4500000000000003)]",0.9420996850000002,,,38.0,0.04725100000000001,['Pass'],Pass,0.5400000000000004,-0.5400000000000004,0.0,0.0,0.8
542.0,17.0,wc_17,,0.0,,,,162.0,,,,Pass,,,,,
542.0,17.0,wc_17,,0.0,,,51.0,,,,,Pass,,,,,
542.0,17.0,wc_17,,0.0,,,,0.0,,,,Pass,,,,,
542.0,17.0,wc_17,wc_17,0.0,"[('wc_17', 0.4500000000000003)]",0.4500000000000003,,,20.0,0.002116,['Fail'],Pass,0.4500000000000003,-0.2000000000000003,2.0,8.0,0.5
542.0,17.0,wc_17,,0.0,,,,322.0,,,,Pass,,,,,
542.0,17.0,wc_17,wc_9,0.0,"[('wc_9', 0.4400000000000003), ('wc_17', 0.4500000000000003)]",0.6920000000000004,,,20.0,0.004582,['Fail'],Pass,0.4400000000000003,0.5599999999999997,1.0,1.0,0.5
542.0,17.0,wc_17,,0.0,,,,101.0,,,,Pass,,,,,
542.0,17.0,wc_17,wc_8,0.0,"[('wc_8', 0.5600000000000004), ('wc_17', 0.4500000000000003), ('wc_9', 0.4400000000000003)]",0.8644800000000002,,,32.0,0.005789,['Fail'],Pass,0.5600000000000004,-0.16000000000000036,2.0,5.0,0.9
542.0,17.0,wc_17,,0.0,,,,0.0,,,,Pass,,,,,
542.0,17.0,wc_17,wc_11,1.0,"[('wc_11', 0.5400000000000004), ('wc_17', 0.4500000000000003), ('wc_9', 0.4400000000000003), ('wc_8', 0.5600000000000004)]",0.9376608000000002,,,23.0,0.043971,['Fail'],Pass,0.5500000000000004,0.4499999999999996,1.0,1.0,0.8
