mpecck/BCQC/bcqc_with_qdt/results/raw/input_1/independent_qc/training/20_workpiece/20200429_084306/wp_18_qc_majority_0.9.csv
production_index,step_idx,production_workcell,qc,consent,winner_qc_list,score,production_time,transport_time,inspection_time,network_time,qc_results,actual_quality,qc_score,score_error,in_winner_counter,in_qc_counter,qc_capability
62.0,1.0,wc_1,,0.0,,,72.0,,,,,Pass,,,,,
62.0,1.0,wc_1,,0.0,,,,0.0,,,,Pass,,,,,
62.0,1.0,wc_1,wc_1,0.0,"[('wc_1', 0.7700000000000006)]",0.7700000000000006,,,36.0,0.002283,['Pass'],Pass,0.7700000000000006,-0.7700000000000006,0.0,0.0,1.0
62.0,1.0,wc_1,,0.0,,,,243.0,,,,Pass,,,,,
62.0,1.0,wc_1,wc_15,0.0,"[('wc_15', 0.7800000000000006), ('wc_1', 0.7700000000000006)]",0.9494000000000002,,,20.0,0.003992,['Pass'],Pass,0.7800000000000006,-0.613333333333334,0.0,0.0,0.7
62.0,1.0,wc_1,,0.0,,,,0.0,,,,Pass,,,,,
62.0,1.0,wc_1,wc_17,1.0,"[('wc_17', 0.7000000000000005), ('wc_1', 0.7700000000000006), ('wc_15', 0.7800000000000006)]",0.9848200000000001,,,20.0,0.040039000000000005,['Pass'],Pass,0.7100000000000005,0.2899999999999995,5.0,5.0,0.9
74.0,2.0,wc_2,,0.0,,,,263.0,,,,Fail,,,,,
74.0,2.0,wc_2,,0.0,,,61.0,,,,,Fail,,,,,
74.0,2.0,wc_2,,0.0,,,,0.0,,,,Fail,,,,,
74.0,2.0,wc_2,wc_2,0.0,"[('wc_2', 0.4800000000000003)]",0.4800000000000003,,,33.0,0.0022,['Fail'],Fail,0.4800000000000003,-0.4800000000000003,0.0,0.0,0.3
74.0,2.0,wc_2,,0.0,,,,223.0,,,,Fail,,,,,
74.0,2.0,wc_2,wc_11,0.0,"[('wc_11', 0.6400000000000005), ('wc_2', 0.4800000000000003)]",0.8128000000000004,,,20.0,0.004359,['Fail'],Fail,0.6400000000000005,-0.587368421052632,0.0,0.0,0.7
74.0,2.0,wc_2,,0.0,,,,61.0,,,,Fail,,,,,
74.0,2.0,wc_2,wc_8,1.0,"[('wc_8', 0.5000000000000003), ('wc_2', 0.4800000000000003), ('wc_11', 0.6400000000000005)]",0.9064000000000002,,,31.0,0.042151999999999995,['Fail'],Fail,0.5000000000000003,-0.25000000000000033,2.0,8.0,0.4
84.0,4.0,wc_4,,0.0,,,,301.0,,,,Fail,,,,,
84.0,4.0,wc_4,,0.0,,,79.0,,,,,Fail,,,,,
84.0,4.0,wc_4,,0.0,,,,0.0,,,,Fail,,,,,
84.0,4.0,wc_4,wc_4,0.0,"[('wc_4', 0.3700000000000002)]",0.3700000000000002,,,30.0,0.002326,['Fail'],Fail,0.3700000000000002,-0.2790909090909093,0.0,0.0,0.3
84.0,4.0,wc_4,,0.0,,,,161.0,,,,Fail,,,,,
84.0,4.0,wc_4,wc_14,0.0,"[('wc_14', 0.7900000000000006), ('wc_4', 0.3700000000000002)]",0.8677000000000004,,,33.0,0.004189,['Fail'],Fail,0.7900000000000006,-0.7900000000000006,0.0,5.0,0.7
84.0,4.0,wc_4,,0.0,,,,0.0,,,,Fail,,,,,
84.0,4.0,wc_4,wc_17,1.0,"[('wc_17', 0.7100000000000005), ('wc_4', 0.3700000000000002), ('wc_14', 0.7900000000000006)]",0.9616330000000002,,,25.0,0.035744,['Fail'],Fail,0.7200000000000005,0.13714285714285657,6.0,7.0,0.9
93.0,3.0,wc_3,,0.0,,,,362.0,,,,Fail,,,,,
93.0,3.0,wc_3,,0.0,,,72.0,,,,,Fail,,,,,
93.0,3.0,wc_3,,0.0,,,,0.0,,,,Fail,,,,,
93.0,3.0,wc_3,wc_3,0.0,"[('wc_3', 0.8000000000000006)]",0.8000000000000006,,,30.0,0.002104,['Fail'],Fail,0.8000000000000006,-0.8000000000000006,0.0,5.0,0.9
93.0,3.0,wc_3,,0.0,,,,242.0,,,,Fail,,,,,
93.0,3.0,wc_3,wc_17,0.0,"[('wc_17', 0.7200000000000005), ('wc_3', 0.8000000000000006)]",0.9440000000000003,,,23.0,0.004487,['Fail'],Fail,0.7200000000000005,0.13714285714285657,6.0,7.0,0.9
93.0,3.0,wc_3,,0.0,,,,183.0,,,,Fail,,,,,
93.0,3.0,wc_3,wc_6,1.0,"[('wc_6', 0.9500000000000007), ('wc_3', 0.8000000000000006), ('wc_17', 0.7200000000000005)]",0.9972000000000001,,,32.0,0.037273999999999995,['Fail'],Fail,0.9500000000000007,-0.9500000000000007,0.0,0.0,1.0
106.0,4.0,wc_4,,0.0,,,,341.0,,,,Pass,,,,,
106.0,4.0,wc_4,,0.0,,,80.0,,,,,Pass,,,,,
106.0,4.0,wc_4,,0.0,,,,0.0,,,,Pass,,,,,
106.0,4.0,wc_4,wc_4,0.0,"[('wc_4', 0.3800000000000002)]",0.3800000000000002,,,32.0,0.002135,['Pass'],Pass,0.3800000000000002,0.11999999999999977,1.0,2.0,0.3
106.0,4.0,wc_4,,0.0,,,,61.0,,,,Pass,,,,,
106.0,4.0,wc_4,wc_1,0.0,"[('wc_1', 0.7800000000000006), ('wc_4', 0.3800000000000002)]",0.8636000000000004,,,39.0,0.004443,['Pass'],Pass,0.7800000000000006,-0.5300000000000006,1.0,4.0,1.0
106.0,4.0,wc_4,,0.0,,,,203.0,,,,Pass,,,,,
106.0,4.0,wc_4,wc_9,1.0,"[('wc_9', 0.39000000000000024), ('wc_4', 0.3800000000000002), ('wc_1', 0.7800000000000006)]",0.9167960000000003,,,40.0,0.037328,['Pass'],Pass,0.39000000000000024,-0.39000000000000024,0.0,0.0,0.3
133.0,2.0,wc_2,,0.0,,,,263.0,,,,Pass,,,,,
133.0,2.0,wc_2,,0.0,,,67.0,,,,,Pass,,,,,
133.0,2.0,wc_2,,0.0,,,,0.0,,,,Pass,,,,,
133.0,2.0,wc_2,wc_2,0.0,"[('wc_2', 0.4900000000000003)]",0.4900000000000003,,,20.0,0.002198,['Pass'],Pass,0.4900000000000003,-0.24000000000000032,1.0,4.0,0.3
133.0,2.0,wc_2,,0.0,,,,0.0,,,,Pass,,,,,
133.0,2.0,wc_2,wc_5,0.0,"[('wc_5', 0.7500000000000006), ('wc_2', 0.4900000000000003)]",0.8725000000000004,,,36.0,0.003976,['Pass'],Pass,0.7500000000000006,-0.5833333333333339,0.0,0.0,0.7
133.0,2.0,wc_2,,0.0,,,,101.0,,,,Pass,,,,,
133.0,2.0,wc_2,wc_8,1.0,"[('wc_8', 0.5000000000000003), ('wc_2', 0.4900000000000003), ('wc_5', 0.7500000000000006)]",0.9362500000000002,,,22.0,0.039626,['Pass'],Pass,0.5000000000000003,-0.5000000000000003,0.0,0.0,0.4
149.0,3.0,wc_3,,0.0,,,,281.0,,,,Pass,,,,,
149.0,3.0,wc_3,,0.0,,,77.0,,,,,Pass,,,,,
149.0,3.0,wc_3,,0.0,,,,0.0,,,,Pass,,,,,
149.0,3.0,wc_3,wc_3,0.0,"[('wc_3', 0.8000000000000006)]",0.8000000000000006,,,28.0,0.002323,['Pass'],Pass,0.8000000000000006,-0.6750000000000006,1.0,8.0,0.9
149.0,3.0,wc_3,,0.0,,,,202.0,,,,Pass,,,,,
149.0,3.0,wc_3,wc_15,0.0,"[('wc_15', 0.7900000000000006), ('wc_3', 0.8000000000000006)]",0.9580000000000003,,,25.0,0.004344000000000001,['Pass'],Pass,0.7900000000000006,-0.623333333333334,1.0,6.0,0.7
149.0,3.0,wc_3,,0.0,,,,243.0,,,,Pass,,,,,
149.0,3.0,wc_3,wc_7,0.0,"[('wc_3', 0.8000000000000006), ('wc_15', 0.7900000000000006)]",0.9580000000000003,,,33.0,0.007396,['Pass'],Pass,0.3800000000000002,-0.2466666666666669,0.0,0.0,0.2
149.0,3.0,wc_3,,0.0,,,,321.0,,,,Pass,,,,,
149.0,3.0,wc_3,wc_4,1.0,"[('wc_4', 0.39000000000000024), ('wc_3', 0.8000000000000006), ('wc_15', 0.7900000000000006)]",0.9743800000000001,,,34.0,0.04037,['Pass'],Pass,0.40000000000000024,0.19999999999999973,3.0,5.0,0.3
160.0,5.0,wc_5,,0.0,,,,0.0,,,,Pass,,,,,
160.0,5.0,wc_5,,0.0,,,69.0,,,,,Pass,,,,,
160.0,5.0,wc_5,,0.0,,,,0.0,,,,Pass,,,,,
160.0,5.0,wc_5,wc_5,0.0,"[('wc_5', 0.7600000000000006)]",0.7600000000000006,,,31.0,0.002288,['Pass'],Pass,0.7600000000000006,-0.26000000000000056,1.0,2.0,0.7
160.0,5.0,wc_5,,0.0,,,,81.0,,,,Pass,,,,,
160.0,5.0,wc_5,wc_7,0.0,"[('wc_7', 0.3700000000000002), ('wc_5', 0.7600000000000006)]",0.8488000000000004,,,32.0,0.003962,['Pass'],Pass,0.3700000000000002,-0.3700000000000002,0.0,1.0,0.2
160.0,5.0,wc_5,,0.0,,,,162.0,,,,Pass,,,,,
160.0,5.0,wc_5,wc_13,1.0,"[('wc_13', 0.7500000000000006), ('wc_5', 0.7600000000000006), ('wc_7', 0.3700000000000002)]",0.9622000000000002,,,39.0,0.035461000000000006,['Pass'],Pass,0.7500000000000006,-0.7500000000000006,0.0,0.0,1.0
168.0,6.0,wc_6,,0.0,,,,162.0,,,,Pass,,,,,
168.0,6.0,wc_6,,0.0,,,51.0,,,,,Pass,,,,,
168.0,6.0,wc_6,,0.0,,,,0.0,,,,Pass,,,,,
168.0,6.0,wc_6,wc_6,0.0,"[('wc_6', 0.9500000000000007)]",0.9500000000000007,,,33.0,0.001945,['Pass'],Pass,0.9500000000000007,-0.9500000000000007,0.0,4.0,1.0
168.0,6.0,wc_6,,0.0,,,,202.0,,,,Pass,,,,,
168.0,6.0,wc_6,wc_1,0.0,"[('wc_1', 0.7800000000000006), ('wc_6', 0.9500000000000007)]",0.9890000000000002,,,20.0,0.0044480000000000006,['Pass'],Pass,0.7800000000000006,-0.5300000000000006,2.0,8.0,1.0
168.0,6.0,wc_6,,0.0,,,,162.0,,,,Pass,,,,,
168.0,6.0,wc_6,wc_7,0.0,"[('wc_6', 0.9500000000000007), ('wc_1', 0.7800000000000006)]",0.9890000000000002,,,39.0,0.006078,['Pass'],Pass,0.3800000000000002,0.11999999999999977,1.0,2.0,0.2
168.0,6.0,wc_6,,0.0,,,,301.0,,,,Pass,,,,,
168.0,6.0,wc_6,wc_3,1.0,"[('wc_3', 0.8000000000000006), ('wc_6', 0.9500000000000007), ('wc_1', 0.7800000000000006)]",0.9978,,,38.0,0.039448,['Pass'],Pass,0.8000000000000006,-0.8000000000000006,0.0,0.0,0.9
179.0,10.0,wc_10,,0.0,,,,182.0,,,,Pass,,,,,
179.0,10.0,wc_10,,0.0,,,62.0,,,,,Pass,,,,,
179.0,10.0,wc_10,,0.0,,,,0.0,,,,Pass,,,,,
179.0,10.0,wc_10,wc_10,0.0,"[('wc_10', 0.13)]",0.13,,,30.0,0.002181,['Fail'],Pass,0.13,-0.13,0.0,0.0,0.1
179.0,10.0,wc_10,,0.0,,,,162.0,,,,Pass,,,,,
179.0,10.0,wc_10,wc_16,0.0,"[('wc_16', 0.4800000000000003)]",0.4800000000000003,,,20.0,0.003969,['Pass'],Pass,0.4800000000000003,-0.4211764705882356,0.0,0.0,0.5
179.0,10.0,wc_10,,0.0,,,,402.0,,,,Pass,,,,,
179.0,10.0,wc_10,wc_4,0.0,"[('wc_16', 0.4800000000000003)]",0.4800000000000003,,,21.0,0.005805,['Pass'],Pass,0.40000000000000024,0.028571428571428303,3.0,7.0,0.3
179.0,10.0,wc_10,,0.0,,,,81.0,,,,Pass,,,,,
179.0,10.0,wc_10,wc_2,0.0,"[('wc_2', 0.4900000000000003), ('wc_10', 0.13), ('wc_4', 0.40000000000000024)]",0.7337800000000003,,,39.0,0.007209000000000001,['Fail'],Pass,0.4900000000000003,-0.24000000000000032,2.0,8.0,0.3
179.0,10.0,wc_10,,0.0,,,,182.0,,,,Pass,,,,,
179.0,10.0,wc_10,wc_13,0.0,"[('wc_13', 0.7500000000000006), ('wc_16', 0.4800000000000003)]",0.8700000000000003,,,36.0,0.011639,['Pass'],Pass,0.7500000000000006,-0.7500000000000006,0.0,1.0,1.0
179.0,10.0,wc_10,,0.0,,,,0.0,,,,Pass,,,,,
179.0,10.0,wc_10,wc_17,1.0,"[('wc_17', 0.7300000000000005), ('wc_16', 0.4800000000000003), ('wc_13', 0.7500000000000006)]",0.9649000000000002,,,29.0,0.043713999999999996,['Pass'],Pass,0.7300000000000005,-0.7300000000000005,0.0,0.0,0.9
194.0,9.0,wc_9,,0.0,,,,322.0,,,,Pass,,,,,
194.0,9.0,wc_9,,0.0,,,60.0,,,,,Pass,,,,,
194.0,9.0,wc_9,,0.0,,,,0.0,,,,Pass,,,,,
194.0,9.0,wc_9,wc_9,0.0,"[('wc_9', 0.39000000000000024)]",0.39000000000000024,,,26.0,0.0024,['Pass'],Pass,0.39000000000000024,-0.39000000000000024,0.0,5.0,0.3
194.0,9.0,wc_9,,0.0,,,,61.0,,,,Pass,,,,,
194.0,9.0,wc_9,wc_6,0.0,"[('wc_6', 0.9500000000000007), ('wc_9', 0.39000000000000024)]",0.9695000000000005,,,35.0,0.004155,['Pass'],Pass,0.9500000000000007,-0.7833333333333341,1.0,6.0,1.0
194.0,9.0,wc_9,,0.0,,,,0.0,,,,Pass,,,,,
194.0,9.0,wc_9,wc_8,0.0,"[('wc_9', 0.39000000000000024), ('wc_6', 0.9500000000000007)]",0.9695000000000005,,,30.0,0.006503,['Pass'],Pass,0.5000000000000003,-0.5000000000000003,0.0,4.0,0.4
194.0,9.0,wc_9,,0.0,,,,142.0,,,,Pass,,,,,
194.0,9.0,wc_9,wc_13,1.0,"[('wc_13', 0.7500000000000006), ('wc_9', 0.39000000000000024), ('wc_6', 0.9500000000000007)]",0.9923750000000001,,,26.0,0.039024,['Pass'],Pass,0.7500000000000006,-0.08333333333333393,2.0,3.0,1.0
206.0,11.0,wc_11,,0.0,,,,341.0,,,,Pass,,,,,
206.0,11.0,wc_11,,0.0,,,50.0,,,,,Pass,,,,,
206.0,11.0,wc_11,,0.0,,,,0.0,,,,Pass,,,,,
206.0,11.0,wc_11,wc_11,0.0,"[('wc_11', 0.6500000000000005)]",0.6500000000000005,,,30.0,0.002373,['Fail'],Pass,0.6500000000000005,-0.5500000000000005,0.0,0.0,0.7
206.0,11.0,wc_11,,0.0,,,,122.0,,,,Pass,,,,,
206.0,11.0,wc_11,wc_15,0.0,"[('wc_15', 0.7900000000000006)]",0.7900000000000006,,,24.0,0.004331,['Pass'],Pass,0.7900000000000006,-0.6081818181818188,0.0,0.0,0.7
206.0,11.0,wc_11,,0.0,,,,303.0,,,,Pass,,,,,
206.0,11.0,wc_11,wc_2,0.0,"[('wc_2', 0.4800000000000003), ('wc_15', 0.7900000000000006)]",0.8908000000000004,,,34.0,0.006439,['Pass'],Pass,0.4800000000000003,-0.2800000000000003,0.0,0.0,0.3
206.0,11.0,wc_11,,0.0,,,,162.0,,,,Pass,,,,,
206.0,11.0,wc_11,wc_8,1.0,"[('wc_8', 0.4900000000000003), ('wc_15', 0.7900000000000006), ('wc_2', 0.4800000000000003)]",0.9443080000000003,,,38.0,0.040601000000000005,['Pass'],Pass,0.4900000000000003,-0.3233333333333337,1.0,6.0,0.4
217.0,8.0,wc_8,,0.0,,,,0.0,,,,Pass,,,,,
217.0,8.0,wc_8,,0.0,,,55.0,,,,,Pass,,,,,
217.0,8.0,wc_8,,0.0,,,,0.0,,,,Pass,,,,,
217.0,8.0,wc_8,wc_8,0.0,"[('wc_8', 0.4900000000000003)]",0.4900000000000003,,,20.0,0.002043,['Fail'],Pass,0.4900000000000003,-0.3233333333333337,1.0,6.0,0.4
217.0,8.0,wc_8,,0.0,,,,182.0,,,,Pass,,,,,
217.0,8.0,wc_8,wc_2,0.0,"[('wc_8', 0.4900000000000003)]",0.4900000000000003,,,20.0,0.004568,['Fail'],Pass,0.4900000000000003,0.5099999999999997,1.0,1.0,0.3
217.0,8.0,wc_8,,0.0,,,,142.0,,,,Pass,,,,,
217.0,8.0,wc_8,wc_7,0.0,"[('wc_7', 0.3700000000000002), ('wc_8', 0.4900000000000003)]",0.6787000000000003,,,40.0,0.006671999999999999,['Fail'],Pass,0.3700000000000002,-0.20333333333333356,1.0,6.0,0.2
217.0,8.0,wc_8,,0.0,,,,0.0,,,,Pass,,,,,
217.0,8.0,wc_8,wc_10,0.0,"[('wc_10', 0.12000000000000001), ('wc_8', 0.4900000000000003), ('wc_7', 0.3700000000000002)]",0.7172560000000003,,,27.0,0.007635,['Fail'],Pass,0.12000000000000001,-0.12000000000000001,0.0,3.0,0.1
217.0,8.0,wc_8,,0.0,,,,223.0,,,,Pass,,,,,
217.0,8.0,wc_8,wc_1,0.0,"[('wc_1', 0.7800000000000006), ('wc_2', 0.4900000000000003)]",0.8878000000000004,,,22.0,0.00932,['Pass'],Pass,0.7800000000000006,-0.5300000000000006,0.0,0.0,1.0
217.0,8.0,wc_8,,0.0,,,,243.0,,,,Pass,,,,,
217.0,8.0,wc_8,wc_11,1.0,"[('wc_11', 0.6400000000000005), ('wc_2', 0.4900000000000003), ('wc_1', 0.7800000000000006)]",0.9596080000000002,,,20.0,0.04302600000000001,['Pass'],Pass,0.6400000000000005,-0.14000000000000046,1.0,2.0,0.7
227.0,7.0,wc_7,,0.0,,,,41.0,,,,Fail,,,,,
227.0,7.0,wc_7,,0.0,,,56.0,,,,,Fail,,,,,
227.0,7.0,wc_7,,0.0,,,,0.0,,,,Fail,,,,,
227.0,7.0,wc_7,wc_7,0.0,"[('wc_7', 0.3600000000000002)]",0.3600000000000002,,,40.0,0.002282,['Fail'],Fail,0.3600000000000002,-0.21714285714285736,1.0,7.0,0.2
227.0,7.0,wc_7,,0.0,,,,301.0,,,,Fail,,,,,
227.0,7.0,wc_7,wc_3,0.0,"[('wc_3', 0.8000000000000006), ('wc_7', 0.3600000000000002)]",0.8720000000000004,,,36.0,0.0040820000000000006,['Fail'],Fail,0.8000000000000006,-0.8000000000000006,0.0,4.0,0.9
227.0,7.0,wc_7,,0.0,,,,182.0,,,,Fail,,,,,
227.0,7.0,wc_7,wc_10,0.0,"[('wc_7', 0.3600000000000002), ('wc_3', 0.8000000000000006)]",0.8720000000000004,,,34.0,0.006762,['Fail'],Fail,0.11000000000000001,-0.11000000000000001,0.0,4.0,0.1
227.0,7.0,wc_7,,0.0,,,,142.0,,,,Fail,,,,,
227.0,7.0,wc_7,wc_15,1.0,"[('wc_15', 0.8000000000000006), ('wc_7', 0.3600000000000002), ('wc_3', 0.8000000000000006)]",0.9744000000000002,,,20.0,0.042627000000000005,['Fail'],Fail,0.8000000000000006,-0.13333333333333397,2.0,3.0,0.7
246.0,7.0,wc_7,,0.0,,,,243.0,,,,Fail,,,,,
246.0,7.0,wc_7,,0.0,,,58.0,,,,,Fail,,,,,
246.0,7.0,wc_7,,0.0,,,,0.0,,,,Fail,,,,,
246.0,7.0,wc_7,wc_7,0.0,"[('wc_7', 0.3600000000000002)]",0.3600000000000002,,,35.0,0.002239,['Fail'],Fail,0.3600000000000002,-0.11000000000000021,2.0,8.0,0.2
246.0,7.0,wc_7,,0.0,,,,102.0,,,,Fail,,,,,
246.0,7.0,wc_7,wc_6,0.0,"[('wc_6', 0.9500000000000007), ('wc_7', 0.3600000000000002)]",0.9680000000000005,,,39.0,0.003944,['Fail'],Fail,0.9500000000000007,-0.7500000000000007,0.0,0.0,1.0
246.0,7.0,wc_7,,0.0,,,,361.0,,,,Fail,,,,,
246.0,7.0,wc_7,wc_5,1.0,"[('wc_5', 0.7600000000000006), ('wc_7', 0.3600000000000002), ('wc_6', 0.9500000000000007)]",0.9923200000000001,,,36.0,0.041056999999999996,['Fail'],Fail,0.7600000000000006,-0.7600000000000006,0.0,0.0,0.7
253.0,7.0,wc_7,,0.0,,,,81.0,,,,Fail,,,,,
253.0,7.0,wc_7,,0.0,,,57.0,,,,,Fail,,,,,
253.0,7.0,wc_7,,0.0,,,,0.0,,,,Fail,,,,,
253.0,7.0,wc_7,wc_7,0.0,"[('wc_7', 0.3600000000000002)]",0.3600000000000002,,,28.0,0.002221,['Fail'],Fail,0.3600000000000002,-0.026666666666666894,3.0,9.0,0.2
253.0,7.0,wc_7,,0.0,,,,223.0,,,,Fail,,,,,
253.0,7.0,wc_7,wc_16,0.0,"[('wc_16', 0.4900000000000003), ('wc_7', 0.3600000000000002)]",0.6736000000000003,,,29.0,0.004111,['Fail'],Fail,0.4900000000000003,-0.3233333333333337,1.0,6.0,0.5
253.0,7.0,wc_7,,0.0,,,,283.0,,,,Fail,,,,,
253.0,7.0,wc_7,wc_2,0.0,"[('wc_7', 0.3600000000000002), ('wc_16', 0.4900000000000003)]",0.6736000000000003,,,30.0,0.005866,['Fail'],Fail,0.5000000000000003,-3.3306690738754696e-16,2.0,4.0,0.3
253.0,7.0,wc_7,,0.0,,,,203.0,,,,Fail,,,,,
253.0,7.0,wc_7,wc_10,0.0,"[('wc_10', 0.10000000000000002), ('wc_7', 0.3600000000000002), ('wc_16', 0.4900000000000003)]",0.7062400000000002,,,39.0,0.007698,['Fail'],Fail,0.10000000000000002,-0.10000000000000002,0.0,6.0,0.1
253.0,7.0,wc_7,,0.0,,,,142.0,,,,Fail,,,,,
253.0,7.0,wc_7,wc_15,1.0,"[('wc_15', 0.8000000000000006), ('wc_7', 0.3600000000000002), ('wc_16', 0.4900000000000003), ('wc_10', 0.10000000000000002)]",0.9412480000000002,,,25.0,0.043766,['Fail'],Fail,0.8000000000000006,-0.20000000000000062,3.0,5.0,0.7
274.0,7.0,wc_7,,0.0,,,,243.0,,,,Pass,,,,,
274.0,7.0,wc_7,,0.0,,,64.0,,,,,Pass,,,,,
274.0,7.0,wc_7,,0.0,,,,0.0,,,,Pass,,,,,
274.0,7.0,wc_7,wc_7,0.0,"[('wc_7', 0.3700000000000002)]",0.3700000000000002,,,30.0,0.002382,['Pass'],Pass,0.3700000000000002,-0.3700000000000002,0.0,0.0,0.2
274.0,7.0,wc_7,,0.0,,,,301.0,,,,Pass,,,,,
274.0,7.0,wc_7,wc_3,0.0,"[('wc_3', 0.8000000000000006), ('wc_7', 0.3700000000000002)]",0.8740000000000004,,,37.0,0.0039040000000000004,['Pass'],Pass,0.8000000000000006,-0.6571428571428577,1.0,7.0,0.9
274.0,7.0,wc_7,,0.0,,,,141.0,,,,Pass,,,,,
274.0,7.0,wc_7,wc_12,1.0,"[('wc_12', 0.7400000000000005), ('wc_7', 0.3700000000000002), ('wc_3', 0.8000000000000006)]",0.9672400000000002,,,22.0,0.041841,['Pass'],Pass,0.7400000000000005,-0.7400000000000005,0.0,0.0,0.5
290.0,12.0,wc_12,,0.0,,,,0.0,,,,Fail,,,,,
290.0,12.0,wc_12,,0.0,,,69.0,,,,,Fail,,,,,
290.0,12.0,wc_12,,0.0,,,,0.0,,,,Fail,,,,,
290.0,12.0,wc_12,wc_12,0.0,"[('wc_12', 0.7400000000000005)]",0.7400000000000005,,,36.0,0.003121,['Fail'],Fail,0.7400000000000005,-0.7400000000000005,0.0,0.0,0.5
290.0,12.0,wc_12,,0.0,,,,0.0,,,,Fail,,,,,
290.0,12.0,wc_12,wc_16,0.0,"[('wc_16', 0.4900000000000003), ('wc_12', 0.7400000000000005)]",0.8674000000000004,,,31.0,0.003963,['Fail'],Fail,0.4900000000000003,-0.24000000000000032,2.0,8.0,0.5
290.0,12.0,wc_12,,0.0,,,,0.0,,,,Fail,,,,,
290.0,12.0,wc_12,wc_17,1.0,"[('wc_17', 0.7300000000000005), ('wc_12', 0.7400000000000005), ('wc_16', 0.4900000000000003)]",0.9641980000000002,,,40.0,0.050321,['Fail'],Fail,0.7300000000000005,-0.6050000000000005,1.0,8.0,0.9
312.0,12.0,wc_12,,0.0,,,,21.0,,,,Pass,,,,,
312.0,12.0,wc_12,,0.0,,,68.0,,,,,Pass,,,,,
312.0,12.0,wc_12,,0.0,,,,0.0,,,,Pass,,,,,
312.0,12.0,wc_12,wc_12,0.0,"[('wc_12', 0.7500000000000006)]",0.7500000000000006,,,22.0,0.004454,['Fail'],Pass,0.7500000000000006,0.24999999999999944,1.0,1.0,0.5
312.0,12.0,wc_12,,0.0,,,,0.0,,,,Pass,,,,,
312.0,12.0,wc_12,wc_14,0.0,"[('wc_14', 0.7900000000000006)]",0.7900000000000006,,,31.0,0.004091,['Pass'],Pass,0.7900000000000006,-0.742380952380953,0.0,0.0,0.7
312.0,12.0,wc_12,,0.0,,,,0.0,,,,Pass,,,,,
312.0,12.0,wc_12,wc_17,0.0,"[('wc_17', 0.7300000000000005), ('wc_12', 0.7500000000000006)]",0.9325000000000003,,,34.0,0.0059229999999999994,['Fail'],Pass,0.7300000000000005,-0.6050000000000005,1.0,8.0,0.9
312.0,12.0,wc_12,,0.0,,,,402.0,,,,Pass,,,,,
312.0,12.0,wc_12,wc_5,0.0,"[('wc_5', 0.7600000000000006), ('wc_14', 0.7900000000000006)]",0.9496000000000002,,,29.0,0.008007,['Pass'],Pass,0.7600000000000006,-0.7600000000000006,0.0,3.0,0.7
312.0,12.0,wc_12,,0.0,,,,81.0,,,,Pass,,,,,
312.0,12.0,wc_12,wc_7,1.0,"[('wc_7', 0.3800000000000002), ('wc_14', 0.7900000000000006), ('wc_5', 0.7600000000000006)]",0.9687520000000002,,,31.0,0.04370299999999999,['Pass'],Pass,0.39000000000000024,0.2766666666666664,2.0,3.0,0.2
324.0,13.0,wc_13,,0.0,,,,162.0,,,,Pass,,,,,
324.0,13.0,wc_13,,0.0,,,69.0,,,,,Pass,,,,,
324.0,13.0,wc_13,,0.0,,,,0.0,,,,Pass,,,,,
324.0,13.0,wc_13,wc_13,0.0,"[('wc_13', 0.7500000000000006)]",0.7500000000000006,,,37.0,0.002265,['Pass'],Pass,0.7500000000000006,-0.5681818181818188,0.0,0.0,1.0
324.0,13.0,wc_13,,0.0,,,,381.0,,,,Pass,,,,,
324.0,13.0,wc_13,wc_5,0.0,"[('wc_5', 0.7600000000000006)]",0.7600000000000006,,,35.0,0.0040490000000000005,['Fail'],Pass,0.7600000000000006,-0.5100000000000006,1.0,4.0,0.7
324.0,13.0,wc_13,,0.0,,,,122.0,,,,Pass,,,,,
324.0,13.0,wc_13,wc_9,0.0,"[('wc_9', 0.39000000000000024), ('wc_5', 0.7600000000000006)]",0.8536000000000004,,,26.0,0.007062,['Fail'],Pass,0.39000000000000024,-0.31857142857142884,0.0,0.0,0.3
324.0,13.0,wc_13,,0.0,,,,362.0,,,,Pass,,,,,
324.0,13.0,wc_13,wc_3,1.0,"[('wc_3', 0.8000000000000006), ('wc_5', 0.7600000000000006), ('wc_9', 0.39000000000000024)]",0.9707200000000001,,,33.0,0.041047,['Fail'],Pass,0.8000000000000006,-0.8000000000000006,0.0,0.0,0.9
338.0,16.0,wc_16,,0.0,,,,222.0,,,,Fail,,,,,
338.0,16.0,wc_16,,0.0,,,75.0,,,,,Fail,,,,,
338.0,16.0,wc_16,,0.0,,,,0.0,,,,Fail,,,,,
338.0,16.0,wc_16,wc_16,0.0,"[('wc_16', 0.4900000000000003)]",0.4900000000000003,,,26.0,0.002364,['Pass'],Fail,0.4900000000000003,-0.21727272727272762,0.0,0.0,0.5
338.0,16.0,wc_16,,0.0,,,,61.0,,,,Fail,,,,,
338.0,16.0,wc_16,wc_13,0.0,"[('wc_13', 0.7400000000000005)]",0.7400000000000005,,,34.0,0.003919,['Fail'],Fail,0.7400000000000005,-0.7400000000000005,0.0,1.0,1.0
338.0,16.0,wc_16,,0.0,,,,341.0,,,,Fail,,,,,
338.0,16.0,wc_16,wc_11,0.0,"[('wc_11', 0.6400000000000005), ('wc_13', 0.7400000000000005)]",0.9064000000000003,,,24.0,0.00569,['Fail'],Fail,0.6400000000000005,-0.5288888888888894,1.0,9.0,0.7
338.0,16.0,wc_16,,0.0,,,,362.0,,,,Fail,,,,,
338.0,16.0,wc_16,wc_5,0.0,"[('wc_13', 0.7400000000000005), ('wc_11', 0.6400000000000005)]",0.9064000000000003,,,35.0,0.008119,['Fail'],Fail,0.7600000000000006,-0.36000000000000054,2.0,5.0,0.7
338.0,16.0,wc_16,,0.0,,,,101.0,,,,Fail,,,,,
338.0,16.0,wc_16,wc_8,1.0,"[('wc_8', 0.4800000000000003), ('wc_16', 0.4900000000000003), ('wc_5', 0.7600000000000006)]",0.9363520000000002,,,28.0,0.043146,['Pass'],Fail,0.4800000000000003,-0.4800000000000003,0.0,0.0,0.4
351.0,15.0,wc_15,,0.0,,,,183.0,,,,Fail,,,,,
351.0,15.0,wc_15,,0.0,,,69.0,,,,,Fail,,,,,
351.0,15.0,wc_15,,0.0,,,,0.0,,,,Fail,,,,,
351.0,15.0,wc_15,wc_15,0.0,"[('wc_15', 0.8000000000000006)]",0.8000000000000006,,,21.0,0.002219,['Fail'],Fail,0.8000000000000006,-0.5000000000000007,0.0,0.0,0.7
351.0,15.0,wc_15,,0.0,,,,402.0,,,,Fail,,,,,
351.0,15.0,wc_15,wc_3,0.0,"[('wc_3', 0.8000000000000006), ('wc_15', 0.8000000000000006)]",0.9600000000000002,,,34.0,0.003914,['Fail'],Fail,0.8000000000000006,-0.8000000000000006,0.0,1.0,0.9
351.0,15.0,wc_15,,0.0,,,,181.0,,,,Fail,,,,,
351.0,15.0,wc_15,wc_14,1.0,"[('wc_14', 0.8000000000000006), ('wc_15', 0.8000000000000006), ('wc_3', 0.8000000000000006)]",0.9920000000000001,,,25.0,0.039583999999999994,['Fail'],Fail,0.8000000000000006,-0.3000000000000006,2.0,4.0,0.7
362.0,15.0,wc_15,,0.0,,,,0.0,,,,Fail,,,,,
362.0,15.0,wc_15,,0.0,,,66.0,,,,,Fail,,,,,
362.0,15.0,wc_15,,0.0,,,,0.0,,,,Fail,,,,,
362.0,15.0,wc_15,wc_15,0.0,"[('wc_15', 0.8100000000000006)]",0.8100000000000006,,,31.0,0.004136,['Fail'],Fail,0.8100000000000006,0.1899999999999994,1.0,1.0,0.7
362.0,15.0,wc_15,,0.0,,,,223.0,,,,Fail,,,,,
362.0,15.0,wc_15,wc_6,0.0,"[('wc_6', 0.9600000000000007), ('wc_15', 0.8100000000000006)]",0.9924000000000002,,,24.0,0.004456,['Fail'],Fail,0.9600000000000007,-0.8350000000000007,1.0,8.0,1.0
362.0,15.0,wc_15,,0.0,,,,202.0,,,,Fail,,,,,
362.0,15.0,wc_15,wc_1,1.0,"[('wc_1', 0.7900000000000006), ('wc_15', 0.8100000000000006), ('wc_6', 0.9600000000000007)]",0.9984040000000001,,,40.0,0.040049,['Fail'],Fail,0.7900000000000006,-0.7900000000000006,0.0,0.0,1.0
370.0,15.0,wc_15,,0.0,,,,243.0,,,,Pass,,,,,
370.0,15.0,wc_15,,0.0,,,56.0,,,,,Pass,,,,,
370.0,15.0,wc_15,,0.0,,,,0.0,,,,Pass,,,,,
370.0,15.0,wc_15,wc_15,0.0,"[('wc_15', 0.8200000000000006)]",0.8200000000000006,,,30.0,0.002121,['Pass'],Pass,0.8200000000000006,0.17999999999999938,2.0,2.0,0.7
370.0,15.0,wc_15,,0.0,,,,101.0,,,,Pass,,,,,
370.0,15.0,wc_15,wc_14,0.0,"[('wc_14', 0.8000000000000006), ('wc_15', 0.8200000000000006)]",0.9640000000000002,,,23.0,0.004095,['Pass'],Pass,0.8000000000000006,-0.4000000000000006,2.0,5.0,0.7
370.0,15.0,wc_15,,0.0,,,,301.0,,,,Pass,,,,,
370.0,15.0,wc_15,wc_10,1.0,"[('wc_10', 0.11000000000000001), ('wc_15', 0.8200000000000006), ('wc_14', 0.8000000000000006)]",0.9679600000000002,,,21.0,0.046534,['Pass'],Pass,0.12000000000000001,-0.12000000000000001,0.0,0.0,0.1
382.0,16.0,wc_16,,0.0,,,,162.0,,,,Pass,,,,,
382.0,16.0,wc_16,,0.0,,,65.0,,,,,Pass,,,,,
382.0,16.0,wc_16,,0.0,,,,0.0,,,,Pass,,,,,
382.0,16.0,wc_16,wc_16,0.0,"[('wc_16', 0.5000000000000003)]",0.5000000000000003,,,29.0,0.002481,['Pass'],Pass,0.5000000000000003,-0.25000000000000033,1.0,4.0,0.5
382.0,16.0,wc_16,,0.0,,,,362.0,,,,Pass,,,,,
382.0,16.0,wc_16,wc_10,0.0,"[('wc_16', 0.5000000000000003)]",0.5000000000000003,,,21.0,0.004108,['Pass'],Pass,0.12000000000000001,-0.12000000000000001,0.0,0.0,0.1
382.0,16.0,wc_16,,0.0,,,,41.0,,,,Pass,,,,,
382.0,16.0,wc_16,wc_6,0.0,"[('wc_6', 0.9600000000000007), ('wc_16', 0.5000000000000003)]",0.9800000000000004,,,37.0,0.006038,['Pass'],Pass,0.9600000000000007,-0.7600000000000007,0.0,0.0,1.0
382.0,16.0,wc_16,,0.0,,,,361.0,,,,Pass,,,,,
382.0,16.0,wc_16,wc_5,1.0,"[('wc_5', 0.7600000000000006), ('wc_16', 0.5000000000000003), ('wc_6', 0.9600000000000007)]",0.9952000000000001,,,40.0,0.04523699999999999,['Pass'],Pass,0.7600000000000006,-0.7600000000000006,0.0,0.0,0.7
397.0,14.0,wc_14,,0.0,,,,141.0,,,,Pass,,,,,
397.0,14.0,wc_14,,0.0,,,76.0,,,,,Pass,,,,,
397.0,14.0,wc_14,,0.0,,,,0.0,,,,Pass,,,,,
397.0,14.0,wc_14,wc_14,0.0,"[('wc_14', 0.8000000000000006)]",0.8000000000000006,,,25.0,0.002534,['Pass'],Pass,0.8000000000000006,-0.37142857142857205,3.0,7.0,0.7
397.0,14.0,wc_14,,0.0,,,,222.0,,,,Pass,,,,,
397.0,14.0,wc_14,wc_2,0.0,"[('wc_14', 0.8000000000000006)]",0.8000000000000006,,,27.0,0.004049,['Pass'],Pass,0.4900000000000003,-0.3471428571428575,0.0,0.0,0.3
397.0,14.0,wc_14,,0.0,,,,203.0,,,,Pass,,,,,
397.0,14.0,wc_14,wc_10,0.0,"[('wc_14', 0.8000000000000006)]",0.8000000000000006,,,40.0,0.005935,['Pass'],Pass,0.11000000000000001,-0.11000000000000001,0.0,1.0,0.1
397.0,14.0,wc_14,,0.0,,,,142.0,,,,Pass,,,,,
397.0,14.0,wc_14,wc_15,0.0,"[('wc_15', 0.8300000000000006), ('wc_14', 0.8000000000000006)]",0.9660000000000002,,,31.0,0.008374,['Pass'],Pass,0.8300000000000006,-0.08000000000000063,3.0,4.0,0.7
397.0,14.0,wc_14,,0.0,,,,263.0,,,,Pass,,,,,
397.0,14.0,wc_14,wc_8,0.0,"[('wc_14', 0.8000000000000006), ('wc_15', 0.8300000000000006)]",0.9660000000000002,,,21.0,0.009186,['Pass'],Pass,0.4800000000000003,-0.4800000000000003,0.0,4.0,0.4
397.0,14.0,wc_14,,0.0,,,,122.0,,,,Pass,,,,,
397.0,14.0,wc_14,wc_12,0.0,"[('wc_14', 0.8000000000000006), ('wc_15', 0.8300000000000006)]",0.9660000000000002,,,31.0,0.011420000000000001,['Pass'],Pass,0.7400000000000005,-0.6150000000000005,1.0,8.0,0.5
397.0,14.0,wc_14,,0.0,,,,0.0,,,,Pass,,,,,
397.0,14.0,wc_14,wc_16,1.0,"[('wc_16', 0.5000000000000003), ('wc_14', 0.8000000000000006), ('wc_15', 0.8300000000000006)]",0.9830000000000001,,,29.0,0.049996,['Pass'],Pass,0.5000000000000003,-3.3306690738754696e-16,3.0,6.0,0.5
406.0,17.0,wc_17,,0.0,,,,0.0,,,,Pass,,,,,
406.0,17.0,wc_17,,0.0,,,59.0,,,,,Pass,,,,,
406.0,17.0,wc_17,,0.0,,,,0.0,,,,Pass,,,,,
406.0,17.0,wc_17,wc_17,0.0,"[('wc_17', 0.7200000000000005)]",0.7200000000000005,,,27.0,0.00202,['Fail'],Pass,0.7200000000000005,-0.6575000000000005,0.0,0.0,0.9
406.0,17.0,wc_17,,0.0,,,,263.0,,,,Pass,,,,,
406.0,17.0,wc_17,wc_2,0.0,"[('wc_2', 0.4800000000000003), ('wc_17', 0.7200000000000005)]",0.8544000000000004,,,22.0,0.0037920000000000002,['Fail'],Pass,0.4800000000000003,-0.4800000000000003,0.0,1.0,0.3
406.0,17.0,wc_17,,0.0,,,,183.0,,,,Pass,,,,,
406.0,17.0,wc_17,wc_9,1.0,"[('wc_9', 0.40000000000000024), ('wc_17', 0.7200000000000005), ('wc_2', 0.4800000000000003)]",0.9126400000000002,,,20.0,0.04191899999999999,['Fail'],Pass,0.40000000000000024,-0.15000000000000024,2.0,8.0,0.3
428.0,17.0,wc_17,,0.0,,,,202.0,,,,Pass,,,,,
428.0,17.0,wc_17,,0.0,,,66.0,,,,,Pass,,,,,
428.0,17.0,wc_17,,0.0,,,,0.0,,,,Pass,,,,,
428.0,17.0,wc_17,wc_17,0.0,"[('wc_17', 0.7300000000000005)]",0.7300000000000005,,,38.0,0.002143,['Pass'],Pass,0.7300000000000005,0.26999999999999946,1.0,1.0,0.9
428.0,17.0,wc_17,,0.0,,,,362.0,,,,Pass,,,,,
428.0,17.0,wc_17,wc_3,0.0,"[('wc_3', 0.8000000000000006), ('wc_17', 0.7300000000000005)]",0.9460000000000003,,,40.0,0.0035859999999999998,['Pass'],Pass,0.8000000000000006,-0.6571428571428577,1.0,7.0,0.9
428.0,17.0,wc_17,,0.0,,,,101.0,,,,Pass,,,,,
428.0,17.0,wc_17,wc_6,1.0,"[('wc_6', 0.9700000000000008), ('wc_17', 0.7300000000000005), ('wc_3', 0.8000000000000006)]",0.99838,,,37.0,0.043028000000000004,['Pass'],Pass,0.9700000000000008,-0.47000000000000075,2.0,4.0,1.0
