mpecck/BCQC/bcqc_with_qdt/results/raw/input_1/independent_qc/training/20_workpiece/20200429_084306/wp_19_qc_majority_0.9.csv
production_index,step_idx,production_workcell,qc,consent,winner_qc_list,score,production_time,transport_time,inspection_time,network_time,qc_results,actual_quality,qc_score,score_error,in_winner_counter,in_qc_counter,qc_capability
67.0,1.0,wc_1,,0.0,,,77.0,,,,,Fail,,,,,
67.0,1.0,wc_1,,0.0,,,,0.0,,,,Fail,,,,,
67.0,1.0,wc_1,wc_1,0.0,"[('wc_1', 0.7900000000000006)]",0.7900000000000006,,,23.0,0.002208,['Fail'],Fail,0.7900000000000006,-0.7900000000000006,0.0,5.0,1.0
67.0,1.0,wc_1,,0.0,,,,182.0,,,,Fail,,,,,
67.0,1.0,wc_1,wc_12,0.0,"[('wc_1', 0.7900000000000006)]",0.7900000000000006,,,24.0,0.004027,['Fail'],Fail,0.7300000000000005,-0.6390909090909096,0.0,0.0,0.5
67.0,1.0,wc_1,,0.0,,,,341.0,,,,Fail,,,,,
67.0,1.0,wc_1,wc_10,0.0,"[('wc_10', 0.10000000000000002), ('wc_1', 0.7900000000000006)]",0.8110000000000005,,,39.0,0.005971000000000001,['Fail'],Fail,0.10000000000000002,-0.10000000000000002,0.0,4.0,0.1
67.0,1.0,wc_1,,0.0,,,,0.0,,,,Fail,,,,,
67.0,1.0,wc_1,wc_11,0.0,"[('wc_11', 0.6300000000000004), ('wc_12', 0.7300000000000005)]",0.9001000000000003,,,38.0,0.007031999999999999,['Pass'],Fail,0.6300000000000004,-0.6300000000000004,0.0,7.0,0.7
67.0,1.0,wc_1,,0.0,,,,61.0,,,,Fail,,,,,
67.0,1.0,wc_1,wc_8,1.0,"[('wc_8', 0.4700000000000003), ('wc_12', 0.7300000000000005), ('wc_11', 0.6300000000000004)]",0.9470530000000001,,,29.0,0.042976,['Pass'],Fail,0.4700000000000003,-0.3450000000000003,1.0,8.0,0.4
135.0,1.0,wc_1,,0.0,,,,162.0,,,,Pass,,,,,
135.0,1.0,wc_1,,0.0,,,65.0,,,,,Pass,,,,,
135.0,1.0,wc_1,,0.0,,,,0.0,,,,Pass,,,,,
135.0,1.0,wc_1,wc_1,0.0,"[('wc_1', 0.7800000000000006)]",0.7800000000000006,,,25.0,0.002145,['Pass'],Pass,0.7800000000000006,-0.7800000000000006,0.0,6.0,1.0
135.0,1.0,wc_1,,0.0,,,,182.0,,,,Pass,,,,,
135.0,1.0,wc_1,wc_8,0.0,"[('wc_8', 0.4700000000000003), ('wc_1', 0.7800000000000006)]",0.8834000000000004,,,26.0,0.004018000000000001,['Pass'],Pass,0.4700000000000003,-0.3450000000000003,1.0,8.0,0.4
135.0,1.0,wc_1,,0.0,,,,0.0,,,,Pass,,,,,
135.0,1.0,wc_1,wc_9,0.0,"[('wc_1', 0.7800000000000006), ('wc_8', 0.4700000000000003)]",0.8834000000000004,,,27.0,0.005734,['Pass'],Pass,0.40000000000000024,-0.20000000000000023,0.0,0.0,0.3
135.0,1.0,wc_1,,0.0,,,,182.0,,,,Pass,,,,,
135.0,1.0,wc_1,wc_16,1.0,"[('wc_16', 0.5000000000000003), ('wc_1', 0.7800000000000006), ('wc_8', 0.4700000000000003)]",0.9417000000000002,,,22.0,0.036819000000000005,['Pass'],Pass,0.5000000000000003,-0.5000000000000003,0.0,0.0,0.5
143.0,4.0,wc_4,,0.0,,,,402.0,,,,Fail,,,,,
143.0,4.0,wc_4,,0.0,,,55.0,,,,,Fail,,,,,
143.0,4.0,wc_4,,0.0,,,,0.0,,,,Fail,,,,,
143.0,4.0,wc_4,wc_4,0.0,"[('wc_4', 0.39000000000000024)]",0.39000000000000024,,,26.0,0.002045,['Fail'],Fail,0.39000000000000024,-0.2828571428571431,0.0,0.0,0.3
143.0,4.0,wc_4,,0.0,,,,81.0,,,,Fail,,,,,
143.0,4.0,wc_4,wc_6,0.0,"[('wc_6', 0.9700000000000008), ('wc_4', 0.39000000000000024)]",0.9817000000000005,,,36.0,0.004099,['Fail'],Fail,0.9700000000000008,-0.6366666666666674,2.0,6.0,1.0
143.0,4.0,wc_4,,0.0,,,,0.0,,,,Fail,,,,,
143.0,4.0,wc_4,wc_9,1.0,"[('wc_9', 0.39000000000000024), ('wc_4', 0.39000000000000024), ('wc_6', 0.9700000000000008)]",0.9888370000000003,,,39.0,0.037612,['Fail'],Fail,0.40000000000000024,0.09999999999999976,1.0,2.0,0.3
159.0,3.0,wc_3,,0.0,,,,362.0,,,,Pass,,,,,
159.0,3.0,wc_3,,0.0,,,69.0,,,,,Pass,,,,,
159.0,3.0,wc_3,,0.0,,,,0.0,,,,Pass,,,,,
159.0,3.0,wc_3,wc_3,0.0,"[('wc_3', 0.8000000000000006)]",0.8000000000000006,,,24.0,0.002115,['Pass'],Pass,0.8000000000000006,-0.6181818181818188,0.0,0.0,0.9
159.0,3.0,wc_3,,0.0,,,,182.0,,,,Pass,,,,,
159.0,3.0,wc_3,wc_10,0.0,"[('wc_10', 0.09000000000000002), ('wc_3', 0.8000000000000006)]",0.8180000000000005,,,22.0,0.0047220000000000005,['Pass'],Pass,0.09000000000000002,-0.09000000000000002,0.0,7.0,0.1
159.0,3.0,wc_3,,0.0,,,,41.0,,,,Pass,,,,,
159.0,3.0,wc_3,wc_6,1.0,"[('wc_6', 0.9700000000000008), ('wc_3', 0.8000000000000006), ('wc_10', 0.09000000000000002)]",0.9945400000000002,,,29.0,0.040521,['Pass'],Pass,0.9700000000000008,-0.47000000000000075,4.0,8.0,1.0
175.0,4.0,wc_4,,0.0,,,,341.0,,,,Fail,,,,,
175.0,4.0,wc_4,,0.0,,,58.0,,,,,Fail,,,,,
175.0,4.0,wc_4,,0.0,,,,0.0,,,,Fail,,,,,
175.0,4.0,wc_4,wc_4,0.0,"[('wc_4', 0.40000000000000024)]",0.40000000000000024,,,36.0,0.002366,['Fail'],Fail,0.40000000000000024,0.09999999999999976,1.0,2.0,0.3
175.0,4.0,wc_4,,0.0,,,,182.0,,,,Fail,,,,,
175.0,4.0,wc_4,wc_15,0.0,"[('wc_15', 0.8300000000000006)]",0.8300000000000006,,,27.0,0.004006,['Pass'],Fail,0.8300000000000006,-0.466363636363637,0.0,0.0,0.7
175.0,4.0,wc_4,,0.0,,,,402.0,,,,Fail,,,,,
175.0,4.0,wc_4,wc_3,0.0,"[('wc_3', 0.8100000000000006), ('wc_4', 0.40000000000000024)]",0.8860000000000005,,,20.0,0.006746,['Fail'],Fail,0.8100000000000006,0.1899999999999994,1.0,1.0,0.9
175.0,4.0,wc_4,,0.0,,,,161.0,,,,Fail,,,,,
175.0,4.0,wc_4,wc_13,1.0,"[('wc_13', 0.7300000000000005), ('wc_4', 0.40000000000000024), ('wc_3', 0.8100000000000006)]",0.9692200000000002,,,34.0,0.041243000000000016,['Fail'],Fail,0.7300000000000005,-0.7300000000000005,0.0,0.0,1.0
210.0,4.0,wc_4,,0.0,,,,361.0,,,,Fail,,,,,
210.0,4.0,wc_4,,0.0,,,73.0,,,,,Fail,,,,,
210.0,4.0,wc_4,,0.0,,,,0.0,,,,Fail,,,,,
210.0,4.0,wc_4,wc_4,0.0,"[('wc_4', 0.41000000000000025)]",0.41000000000000025,,,20.0,0.002145,['Fail'],Fail,0.41000000000000025,0.2566666666666664,2.0,3.0,0.3
210.0,4.0,wc_4,,0.0,,,,142.0,,,,Fail,,,,,
210.0,4.0,wc_4,wc_9,0.0,"[('wc_9', 0.40000000000000024), ('wc_4', 0.41000000000000025)]",0.6460000000000004,,,31.0,0.0037679999999999996,['Fail'],Fail,0.40000000000000024,-0.15000000000000024,1.0,4.0,0.3
210.0,4.0,wc_4,,0.0,,,,202.0,,,,Fail,,,,,
210.0,4.0,wc_4,wc_17,1.0,"[('wc_17', 0.7400000000000005), ('wc_4', 0.41000000000000025), ('wc_9', 0.40000000000000024)]",0.9079600000000003,,,35.0,0.042009,['Fail'],Fail,0.7400000000000005,-0.36500000000000055,3.0,8.0,0.9
232.0,2.0,wc_2,,0.0,,,,263.0,,,,Pass,,,,,
232.0,2.0,wc_2,,0.0,,,66.0,,,,,Pass,,,,,
232.0,2.0,wc_2,,0.0,,,,0.0,,,,Pass,,,,,
232.0,2.0,wc_2,wc_2,0.0,"[('wc_2', 0.4900000000000003)]",0.4900000000000003,,,31.0,0.002114,['Fail'],Pass,0.4900000000000003,-0.3788888888888892,1.0,9.0,0.3
232.0,2.0,wc_2,,0.0,,,,263.0,,,,Pass,,,,,
232.0,2.0,wc_2,wc_17,0.0,"[('wc_17', 0.7400000000000005)]",0.7400000000000005,,,36.0,0.004233000000000001,['Pass'],Pass,0.7400000000000005,-0.36500000000000055,3.0,8.0,0.9
232.0,2.0,wc_2,,0.0,,,,362.0,,,,Pass,,,,,
232.0,2.0,wc_2,wc_11,0.0,"[('wc_11', 0.6300000000000004), ('wc_17', 0.7400000000000005)]",0.9038000000000004,,,35.0,0.006834000000000001,['Pass'],Pass,0.6300000000000004,-0.5530769230769235,0.0,0.0,0.7
232.0,2.0,wc_2,,0.0,,,,61.0,,,,Pass,,,,,
232.0,2.0,wc_2,wc_8,0.0,"[('wc_17', 0.7400000000000005), ('wc_11', 0.6300000000000004)]",0.9038000000000004,,,25.0,0.008634,['Pass'],Pass,0.4700000000000003,-0.31615384615384645,0.0,0.0,0.4
232.0,2.0,wc_2,,0.0,,,,102.0,,,,Pass,,,,,
232.0,2.0,wc_2,wc_7,1.0,"[('wc_7', 0.39000000000000024), ('wc_17', 0.7400000000000005), ('wc_11', 0.6300000000000004)]",0.9413180000000002,,,32.0,0.043750000000000004,['Pass'],Pass,0.39000000000000024,-0.39000000000000024,0.0,0.0,0.2
267.0,4.0,wc_4,,0.0,,,,321.0,,,,Pass,,,,,
267.0,4.0,wc_4,,0.0,,,64.0,,,,,Pass,,,,,
267.0,4.0,wc_4,,0.0,,,,0.0,,,,Pass,,,,,
267.0,4.0,wc_4,wc_4,0.0,"[('wc_4', 0.42000000000000026)]",0.42000000000000026,,,32.0,0.002338,['Fail'],Pass,0.42000000000000026,0.17999999999999972,3.0,5.0,0.3
267.0,4.0,wc_4,,0.0,,,,81.0,,,,Pass,,,,,
267.0,4.0,wc_4,wc_6,0.0,"[('wc_6', 0.9700000000000008)]",0.9700000000000008,,,36.0,0.003885,['Pass'],Pass,0.9700000000000008,-0.6063636363636371,0.0,0.0,1.0
267.0,4.0,wc_4,,0.0,,,,0.0,,,,Pass,,,,,
267.0,4.0,wc_4,wc_10,0.0,"[('wc_6', 0.9700000000000008)]",0.9700000000000008,,,39.0,0.006121,['Pass'],Pass,0.10000000000000002,-0.009090909090909108,0.0,0.0,0.1
267.0,4.0,wc_4,,0.0,,,,103.0,,,,Pass,,,,,
267.0,4.0,wc_4,wc_9,0.0,"[('wc_9', 0.40000000000000024), ('wc_6', 0.9700000000000008)]",0.9820000000000004,,,32.0,0.008116,['Pass'],Pass,0.40000000000000024,-0.06666666666666693,2.0,6.0,0.3
267.0,4.0,wc_4,,0.0,,,,101.0,,,,Pass,,,,,
267.0,4.0,wc_4,wc_12,1.0,"[('wc_12', 0.7400000000000005), ('wc_6', 0.9700000000000008), ('wc_9', 0.40000000000000024)]",0.9953200000000001,,,35.0,0.043567,['Pass'],Pass,0.7400000000000005,-0.49000000000000055,2.0,8.0,0.5
279.0,5.0,wc_5,,0.0,,,,401.0,,,,Pass,,,,,
279.0,5.0,wc_5,,0.0,,,70.0,,,,,Pass,,,,,
279.0,5.0,wc_5,,0.0,,,,0.0,,,,Pass,,,,,
279.0,5.0,wc_5,wc_5,0.0,"[('wc_5', 0.7600000000000006)]",0.7600000000000006,,,34.0,0.00226,['Pass'],Pass,0.7600000000000006,-0.7600000000000006,0.0,0.0,0.7
279.0,5.0,wc_5,,0.0,,,,162.0,,,,Pass,,,,,
279.0,5.0,wc_5,wc_11,0.0,"[('wc_11', 0.6400000000000005), ('wc_5', 0.7600000000000006)]",0.9136000000000003,,,22.0,0.003724,['Pass'],Pass,0.6400000000000005,-0.14000000000000046,1.0,2.0,0.7
279.0,5.0,wc_5,,0.0,,,,21.0,,,,Pass,,,,,
279.0,5.0,wc_5,wc_6,1.0,"[('wc_6', 0.9800000000000008), ('wc_5', 0.7600000000000006), ('wc_11', 0.6400000000000005)]",0.998272,,,38.0,0.039911,['Pass'],Pass,0.9900000000000008,0.009999999999999232,2.0,2.0,1.0
296.0,6.0,wc_6,,0.0,,,,0.0,,,,Pass,,,,,
296.0,6.0,wc_6,,0.0,,,59.0,,,,,Pass,,,,,
296.0,6.0,wc_6,,0.0,,,,0.0,,,,Pass,,,,,
296.0,6.0,wc_6,wc_6,0.0,"[('wc_6', 0.9900000000000008)]",0.9900000000000008,,,23.0,0.002597,['Pass'],Pass,0.9900000000000008,0.009999999999999232,2.0,2.0,1.0
296.0,6.0,wc_6,,0.0,,,,202.0,,,,Pass,,,,,
296.0,6.0,wc_6,wc_14,0.0,"[('wc_14', 0.8000000000000006), ('wc_6', 0.9900000000000008)]",0.9980000000000001,,,31.0,0.00376,['Pass'],Pass,0.8000000000000006,-0.5894736842105269,0.0,0.0,0.7
296.0,6.0,wc_6,,0.0,,,,222.0,,,,Pass,,,,,
296.0,6.0,wc_6,wc_2,1.0,"[('wc_2', 0.4800000000000003), ('wc_6', 0.9900000000000008), ('wc_14', 0.8000000000000006)]",0.9989600000000001,,,33.0,0.03987799999999999,['Pass'],Pass,0.4800000000000003,-0.146666666666667,1.0,3.0,0.3
309.0,10.0,wc_10,,0.0,,,,203.0,,,,Pass,,,,,
309.0,10.0,wc_10,,0.0,,,70.0,,,,,Pass,,,,,
309.0,10.0,wc_10,,0.0,,,,0.0,,,,Pass,,,,,
309.0,10.0,wc_10,wc_10,0.0,"[('wc_10', 0.09000000000000002)]",0.09000000000000008,,,32.0,0.002232,['Fail'],Pass,0.09000000000000002,-0.09000000000000002,0.0,3.0,0.1
309.0,10.0,wc_10,,0.0,,,,362.0,,,,Pass,,,,,
309.0,10.0,wc_10,wc_4,0.0,"[('wc_4', 0.42000000000000026), ('wc_10', 0.09000000000000002)]",0.4722000000000003,,,26.0,0.003995,['Fail'],Pass,0.42000000000000026,-0.04500000000000026,3.0,8.0,0.3
309.0,10.0,wc_10,,0.0,,,,182.0,,,,Pass,,,,,
309.0,10.0,wc_10,wc_15,1.0,"[('wc_15', 0.8200000000000006), ('wc_10', 0.09000000000000002), ('wc_4', 0.42000000000000026)]",0.9049960000000004,,,32.0,0.038525000000000004,['Fail'],Pass,0.8200000000000006,-0.6771428571428577,1.0,7.0,0.7
320.0,8.0,wc_8,,0.0,,,,263.0,,,,Fail,,,,,
320.0,8.0,wc_8,,0.0,,,55.0,,,,,Fail,,,,,
320.0,8.0,wc_8,,0.0,,,,0.0,,,,Fail,,,,,
320.0,8.0,wc_8,wc_8,0.0,"[('wc_8', 0.4600000000000003)]",0.4600000000000003,,,32.0,0.002271,['Fail'],Fail,0.4600000000000003,-0.4600000000000003,0.0,5.0,0.4
320.0,8.0,wc_8,,0.0,,,,321.0,,,,Fail,,,,,
320.0,8.0,wc_8,wc_5,0.0,"[('wc_5', 0.7700000000000006), ('wc_8', 0.4600000000000003)]",0.8758000000000004,,,26.0,0.003845,['Fail'],Fail,0.7700000000000006,-0.43666666666666726,1.0,3.0,0.7
320.0,8.0,wc_8,,0.0,,,,182.0,,,,Fail,,,,,
320.0,8.0,wc_8,wc_16,1.0,"[('wc_16', 0.5000000000000003), ('wc_8', 0.4600000000000003), ('wc_5', 0.7700000000000006)]",0.9379000000000002,,,25.0,0.039602,['Fail'],Fail,0.5000000000000003,-0.5000000000000003,0.0,0.0,0.5
336.0,7.0,wc_7,,0.0,,,,223.0,,,,Fail,,,,,
336.0,7.0,wc_7,,0.0,,,80.0,,,,,Fail,,,,,
336.0,7.0,wc_7,,0.0,,,,0.0,,,,Fail,,,,,
336.0,7.0,wc_7,wc_7,0.0,"[('wc_7', 0.39000000000000024)]",0.39000000000000024,,,37.0,0.002133,['Fail'],Fail,0.39000000000000024,-0.39000000000000024,0.0,5.0,0.2
336.0,7.0,wc_7,,0.0,,,,0.0,,,,Fail,,,,,
336.0,7.0,wc_7,wc_8,0.0,"[('wc_8', 0.4600000000000003), ('wc_7', 0.39000000000000024)]",0.6706000000000003,,,35.0,0.004059,['Fail'],Fail,0.4600000000000003,-0.29333333333333367,1.0,6.0,0.4
336.0,7.0,wc_7,,0.0,,,,162.0,,,,Fail,,,,,
336.0,7.0,wc_7,wc_14,1.0,"[('wc_14', 0.8100000000000006), ('wc_7', 0.39000000000000024), ('wc_8', 0.4600000000000003)]",0.9374140000000003,,,25.0,0.038418999999999995,['Fail'],Fail,0.8100000000000006,-0.3100000000000006,2.0,4.0,0.7
352.0,11.0,wc_11,,0.0,,,,321.0,,,,Fail,,,,,
352.0,11.0,wc_11,,0.0,,,78.0,,,,,Fail,,,,,
352.0,11.0,wc_11,,0.0,,,,0.0,,,,Fail,,,,,
352.0,11.0,wc_11,wc_11,0.0,"[('wc_11', 0.6500000000000005)]",0.6500000000000005,,,36.0,0.002191,['Fail'],Fail,0.6500000000000005,-0.36428571428571477,2.0,7.0,0.7
352.0,11.0,wc_11,,0.0,,,,223.0,,,,Fail,,,,,
352.0,11.0,wc_11,wc_2,0.0,"[('wc_11', 0.6500000000000005)]",0.6500000000000005,,,24.0,0.0038410000000000002,['Fail'],Fail,0.4800000000000003,-0.3133333333333337,1.0,6.0,0.3
352.0,11.0,wc_11,,0.0,,,,162.0,,,,Fail,,,,,
352.0,11.0,wc_11,wc_8,0.0,"[('wc_8', 0.4600000000000003), ('wc_11', 0.6500000000000005)]",0.8110000000000004,,,37.0,0.005648,['Fail'],Fail,0.4600000000000003,-0.1742857142857146,2.0,7.0,0.4
352.0,11.0,wc_11,,0.0,,,,321.0,,,,Fail,,,,,
352.0,11.0,wc_11,wc_5,1.0,"[('wc_5', 0.7700000000000006), ('wc_11', 0.6500000000000005), ('wc_8', 0.4600000000000003)]",0.9565300000000002,,,38.0,0.042983999999999994,['Fail'],Fail,0.7700000000000006,-0.2700000000000006,3.0,6.0,0.7
372.0,7.0,wc_7,,0.0,,,,81.0,,,,Fail,,,,,
372.0,7.0,wc_7,,0.0,,,76.0,,,,,Fail,,,,,
372.0,7.0,wc_7,,0.0,,,,0.0,,,,Fail,,,,,
372.0,7.0,wc_7,wc_7,0.0,"[('wc_7', 0.39000000000000024)]",0.39000000000000024,,,31.0,0.002135,['Fail'],Fail,0.39000000000000024,-0.2471428571428574,1.0,7.0,0.2
372.0,7.0,wc_7,,0.0,,,,162.0,,,,Fail,,,,,
372.0,7.0,wc_7,wc_13,0.0,"[('wc_13', 0.7300000000000005), ('wc_7', 0.39000000000000024)]",0.8353000000000004,,,40.0,0.004221,['Fail'],Fail,0.7300000000000005,-0.7300000000000005,0.0,9.0,1.0
372.0,7.0,wc_7,,0.0,,,,341.0,,,,Fail,,,,,
372.0,7.0,wc_7,wc_3,1.0,"[('wc_3', 0.8200000000000006), ('wc_7', 0.39000000000000024), ('wc_13', 0.7300000000000005)]",0.9703540000000002,,,40.0,0.039511000000000004,['Fail'],Fail,0.8200000000000006,-0.8200000000000006,0.0,0.0,0.9
387.0,9.0,wc_9,,0.0,,,,162.0,,,,Pass,,,,,
387.0,9.0,wc_9,,0.0,,,78.0,,,,,Pass,,,,,
387.0,9.0,wc_9,,0.0,,,,0.0,,,,Pass,,,,,
387.0,9.0,wc_9,wc_9,0.0,"[('wc_9', 0.41000000000000025)]",0.41000000000000025,,,24.0,0.002918,['Fail'],Pass,0.41000000000000025,-0.19571428571428598,0.0,0.0,0.3
387.0,9.0,wc_9,,0.0,,,,101.0,,,,Pass,,,,,
387.0,9.0,wc_9,wc_12,0.0,"[('wc_12', 0.7400000000000005)]",0.7400000000000005,,,20.0,0.0039380000000000005,['Pass'],Pass,0.7400000000000005,-0.6066666666666672,0.0,0.0,0.5
387.0,9.0,wc_9,,0.0,,,,0.0,,,,Pass,,,,,
387.0,9.0,wc_9,wc_17,0.0,"[('wc_17', 0.7400000000000005), ('wc_12', 0.7400000000000005)]",0.9324000000000003,,,35.0,0.005864,['Pass'],Pass,0.7400000000000005,-0.5047058823529418,0.0,0.0,0.9
387.0,9.0,wc_9,,0.0,,,,382.0,,,,Pass,,,,,
387.0,9.0,wc_9,wc_4,0.0,"[('wc_12', 0.7400000000000005), ('wc_17', 0.7400000000000005)]",0.9324000000000003,,,27.0,0.008438000000000001,['Pass'],Pass,0.43000000000000027,-0.12230769230769256,0.0,0.0,0.3
387.0,9.0,wc_9,,0.0,,,,121.0,,,,Pass,,,,,
387.0,9.0,wc_9,wc_8,0.0,"[('wc_12', 0.7400000000000005), ('wc_17', 0.7400000000000005)]",0.9324000000000003,,,23.0,0.009621,['Pass'],Pass,0.4600000000000003,-0.12666666666666698,3.0,9.0,0.4
387.0,9.0,wc_9,,0.0,,,,162.0,,,,Pass,,,,,
387.0,9.0,wc_9,wc_1,1.0,"[('wc_1', 0.7800000000000006), ('wc_12', 0.7400000000000005), ('wc_17', 0.7400000000000005)]",0.9851280000000001,,,34.0,0.043355,['Pass'],Pass,0.7800000000000006,-0.7800000000000006,0.0,0.0,1.0
399.0,7.0,wc_7,,0.0,,,,162.0,,,,Fail,,,,,
399.0,7.0,wc_7,,0.0,,,63.0,,,,,Fail,,,,,
399.0,7.0,wc_7,,0.0,,,,0.0,,,,Fail,,,,,
399.0,7.0,wc_7,wc_7,0.0,"[('wc_7', 0.39000000000000024)]",0.39000000000000024,,,36.0,0.002075,['Pass'],Fail,0.39000000000000024,-0.16777777777777803,2.0,9.0,0.2
399.0,7.0,wc_7,,0.0,,,,243.0,,,,Fail,,,,,
399.0,7.0,wc_7,wc_17,0.0,"[('wc_17', 0.7500000000000006)]",0.7500000000000006,,,21.0,0.004307,['Fail'],Fail,0.7500000000000006,0.24999999999999944,1.0,1.0,0.9
399.0,7.0,wc_7,,0.0,,,,362.0,,,,Fail,,,,,
399.0,7.0,wc_7,wc_11,0.0,"[('wc_11', 0.6500000000000005), ('wc_7', 0.39000000000000024)]",0.7865000000000004,,,29.0,0.006548,['Pass'],Fail,0.6500000000000005,-0.3500000000000005,0.0,0.0,0.7
399.0,7.0,wc_7,,0.0,,,,223.0,,,,Fail,,,,,
399.0,7.0,wc_7,wc_2,0.0,"[('wc_2', 0.4700000000000003), ('wc_7', 0.39000000000000024), ('wc_11', 0.6500000000000005)]",0.8868450000000002,,,23.0,0.007670999999999999,['Pass'],Fail,0.4700000000000003,-0.3588888888888892,1.0,9.0,0.3
399.0,7.0,wc_7,,0.0,,,,162.0,,,,Fail,,,,,
399.0,7.0,wc_7,wc_8,1.0,"[('wc_8', 0.4500000000000003), ('wc_7', 0.39000000000000024), ('wc_11', 0.6500000000000005), ('wc_2', 0.4700000000000003)]",0.9377647500000001,,,26.0,0.043988,['Pass'],Fail,0.4600000000000003,0.5399999999999997,1.0,1.0,0.4
407.0,7.0,wc_7,,0.0,,,,102.0,,,,Fail,,,,,
407.0,7.0,wc_7,,0.0,,,52.0,,,,,Fail,,,,,
407.0,7.0,wc_7,,0.0,,,,0.0,,,,Fail,,,,,
407.0,7.0,wc_7,wc_7,0.0,"[('wc_7', 0.39000000000000024)]",0.39000000000000024,,,25.0,0.002101,['Fail'],Fail,0.39000000000000024,-0.39000000000000024,0.0,0.0,0.2
407.0,7.0,wc_7,,0.0,,,,0.0,,,,Fail,,,,,
407.0,7.0,wc_7,wc_9,0.0,"[('wc_9', 0.40000000000000024), ('wc_7', 0.39000000000000024)]",0.6340000000000003,,,39.0,0.004066,['Fail'],Fail,0.40000000000000024,-0.40000000000000024,0.0,2.0,0.3
407.0,7.0,wc_7,,0.0,,,,121.0,,,,Fail,,,,,
407.0,7.0,wc_7,wc_13,1.0,"[('wc_13', 0.7300000000000005), ('wc_7', 0.39000000000000024), ('wc_9', 0.40000000000000024)]",0.9011800000000003,,,39.0,0.045457,['Fail'],Fail,0.7300000000000005,-0.3966666666666672,1.0,3.0,1.0
416.0,11.0,wc_11,,0.0,,,,341.0,,,,Fail,,,,,
416.0,11.0,wc_11,,0.0,,,61.0,,,,,Fail,,,,,
416.0,11.0,wc_11,,0.0,,,,0.0,,,,Fail,,,,,
416.0,11.0,wc_11,wc_11,0.0,"[('wc_11', 0.6600000000000005)]",0.6600000000000005,,,20.0,0.002013,['Fail'],Fail,0.6600000000000005,-0.16000000000000048,1.0,2.0,0.7
416.0,11.0,wc_11,,0.0,,,,101.0,,,,Fail,,,,,
416.0,11.0,wc_11,wc_14,0.0,"[('wc_14', 0.8100000000000006), ('wc_11', 0.6600000000000005)]",0.9354000000000003,,,27.0,0.00401,['Fail'],Fail,0.8100000000000006,-0.5877777777777784,2.0,9.0,0.7
416.0,11.0,wc_11,,0.0,,,,142.0,,,,Fail,,,,,
416.0,11.0,wc_11,wc_6,1.0,"[('wc_6', 0.9900000000000008), ('wc_11', 0.6600000000000005), ('wc_14', 0.8100000000000006)]",0.9993540000000001,,,27.0,0.038513000000000006,['Fail'],Fail,0.9900000000000008,-0.9900000000000008,0.0,0.0,1.0
424.0,11.0,wc_11,,0.0,,,,0.0,,,,Pass,,,,,
424.0,11.0,wc_11,,0.0,,,56.0,,,,,Pass,,,,,
424.0,11.0,wc_11,,0.0,,,,0.0,,,,Pass,,,,,
424.0,11.0,wc_11,wc_11,0.0,"[('wc_11', 0.6600000000000005)]",0.6600000000000005,,,27.0,0.002077,['Fail'],Pass,0.6600000000000005,0.0066666666666661545,2.0,3.0,0.7
424.0,11.0,wc_11,,0.0,,,,103.0,,,,Pass,,,,,
424.0,11.0,wc_11,wc_10,0.0,"[('wc_10', 0.10000000000000002), ('wc_11', 0.6600000000000005)]",0.6940000000000004,,,36.0,0.0045179999999999994,['Fail'],Pass,0.10000000000000002,-0.01666666666666669,0.0,0.0,0.1
424.0,11.0,wc_11,,0.0,,,,121.0,,,,Pass,,,,,
424.0,11.0,wc_11,wc_14,0.0,"[('wc_14', 0.8100000000000006)]",0.8100000000000006,,,32.0,0.0056749999999999995,['Pass'],Pass,0.8100000000000006,-0.8100000000000006,0.0,0.0,0.7
424.0,11.0,wc_11,,0.0,,,,341.0,,,,Pass,,,,,
424.0,11.0,wc_11,wc_4,0.0,"[('wc_4', 0.42000000000000026), ('wc_11', 0.6600000000000005), ('wc_10', 0.10000000000000002)]",0.8225200000000004,,,31.0,0.009465000000000001,['Fail'],Pass,0.42000000000000026,-0.42000000000000026,0.0,4.0,0.3
424.0,11.0,wc_11,,0.0,,,,0.0,,,,Pass,,,,,
424.0,11.0,wc_11,wc_5,0.0,"[('wc_5', 0.7700000000000006), ('wc_14', 0.8100000000000006)]",0.9563000000000003,,,22.0,0.010628,['Pass'],Pass,0.7700000000000006,-0.49727272727272787,0.0,0.0,0.7
424.0,11.0,wc_11,,0.0,,,,121.0,,,,Pass,,,,,
424.0,11.0,wc_11,wc_13,1.0,"[('wc_13', 0.7300000000000005), ('wc_14', 0.8100000000000006), ('wc_5', 0.7700000000000006)]",0.9882010000000001,,,20.0,0.046539,['Pass'],Pass,0.7300000000000005,-0.3300000000000005,2.0,5.0,1.0
435.0,7.0,wc_7,,0.0,,,,182.0,,,,Fail,,,,,
435.0,7.0,wc_7,,0.0,,,71.0,,,,,Fail,,,,,
435.0,7.0,wc_7,,0.0,,,,0.0,,,,Fail,,,,,
435.0,7.0,wc_7,wc_7,0.0,"[('wc_7', 0.40000000000000024)]",0.40000000000000024,,,37.0,0.002327,['Fail'],Fail,0.40000000000000024,-0.06666666666666693,1.0,3.0,0.2
435.0,7.0,wc_7,,0.0,,,,162.0,,,,Fail,,,,,
435.0,7.0,wc_7,wc_13,0.0,"[('wc_13', 0.7300000000000005), ('wc_7', 0.40000000000000024)]",0.8380000000000004,,,24.0,0.004027,['Fail'],Fail,0.7300000000000005,-0.3300000000000005,2.0,5.0,1.0
435.0,7.0,wc_7,,0.0,,,,0.0,,,,Fail,,,,,
435.0,7.0,wc_7,wc_15,1.0,"[('wc_15', 0.8200000000000006), ('wc_7', 0.40000000000000024), ('wc_13', 0.7300000000000005)]",0.9708400000000001,,,37.0,0.041827,['Fail'],Fail,0.8200000000000006,-0.8200000000000006,0.0,0.0,0.7
446.0,7.0,wc_7,,0.0,,,,243.0,,,,Fail,,,,,
446.0,7.0,wc_7,,0.0,,,79.0,,,,,Fail,,,,,
446.0,7.0,wc_7,,0.0,,,,0.0,,,,Fail,,,,,
446.0,7.0,wc_7,wc_7,0.0,"[('wc_7', 0.41000000000000025)]",0.41000000000000025,,,36.0,0.002092,['Fail'],Fail,0.41000000000000025,0.08999999999999975,2.0,4.0,0.2
446.0,7.0,wc_7,,0.0,,,,0.0,,,,Fail,,,,,
446.0,7.0,wc_7,wc_9,0.0,"[('wc_9', 0.40000000000000024), ('wc_7', 0.41000000000000025)]",0.6460000000000004,,,27.0,0.003978000000000001,['Fail'],Fail,0.40000000000000024,-0.2333333333333336,1.0,6.0,0.3
446.0,7.0,wc_7,,0.0,,,,61.0,,,,Fail,,,,,
446.0,7.0,wc_7,wc_6,1.0,"[('wc_6', 0.9900000000000008), ('wc_7', 0.41000000000000025), ('wc_9', 0.40000000000000024)]",0.9964600000000002,,,40.0,0.039493,['Fail'],Fail,0.9900000000000008,-0.6566666666666674,1.0,3.0,1.0
453.0,8.0,wc_8,,0.0,,,,0.0,,,,Fail,,,,,
453.0,8.0,wc_8,,0.0,,,65.0,,,,,Fail,,,,,
453.0,8.0,wc_8,,0.0,,,,0.0,,,,Fail,,,,,
453.0,8.0,wc_8,wc_8,0.0,"[('wc_8', 0.4600000000000003)]",0.4600000000000003,,,23.0,0.001899,['Fail'],Fail,0.4600000000000003,-0.29333333333333367,1.0,6.0,0.4
453.0,8.0,wc_8,,0.0,,,,183.0,,,,Fail,,,,,
453.0,8.0,wc_8,wc_15,0.0,"[('wc_15', 0.8200000000000006), ('wc_8', 0.4600000000000003)]",0.9028000000000004,,,21.0,0.003889,['Fail'],Fail,0.8200000000000006,-0.8200000000000006,0.0,1.0,0.7
453.0,8.0,wc_8,,0.0,,,,61.0,,,,Fail,,,,,
453.0,8.0,wc_8,wc_12,1.0,"[('wc_12', 0.7500000000000006), ('wc_8', 0.4600000000000003), ('wc_15', 0.8200000000000006)]",0.9757000000000001,,,39.0,0.042105,['Fail'],Fail,0.7500000000000006,-0.5000000000000006,2.0,8.0,0.5
460.0,8.0,wc_8,,0.0,,,,222.0,,,,Pass,,,,,
460.0,8.0,wc_8,,0.0,,,77.0,,,,,Pass,,,,,
460.0,8.0,wc_8,,0.0,,,,0.0,,,,Pass,,,,,
460.0,8.0,wc_8,wc_8,0.0,"[('wc_8', 0.4600000000000003)]",0.4600000000000003,,,28.0,0.002209,['Pass'],Pass,0.4600000000000003,-0.1742857142857146,2.0,7.0,0.4
460.0,8.0,wc_8,,0.0,,,,301.0,,,,Pass,,,,,
460.0,8.0,wc_8,wc_4,0.0,"[('wc_4', 0.41000000000000025), ('wc_8', 0.4600000000000003)]",0.6814000000000003,,,27.0,0.0038659999999999996,['Pass'],Pass,0.41000000000000025,-0.41000000000000025,0.0,8.0,0.3
460.0,8.0,wc_8,,0.0,,,,222.0,,,,Pass,,,,,
460.0,8.0,wc_8,wc_17,1.0,"[('wc_17', 0.7400000000000005), ('wc_8', 0.4600000000000003), ('wc_4', 0.41000000000000025)]",0.9171640000000003,,,21.0,0.041271999999999996,['Pass'],Pass,0.7400000000000005,-0.5177777777777783,2.0,9.0,0.9
470.0,7.0,wc_7,,0.0,,,,203.0,,,,Pass,,,,,
470.0,7.0,wc_7,,0.0,,,78.0,,,,,Pass,,,,,
470.0,7.0,wc_7,,0.0,,,,0.0,,,,Pass,,,,,
470.0,7.0,wc_7,wc_7,0.0,"[('wc_7', 0.42000000000000026)]",0.42000000000000026,,,33.0,0.002155,['Fail'],Pass,0.42000000000000026,0.008571428571428286,3.0,7.0,0.2
470.0,7.0,wc_7,,0.0,,,,223.0,,,,Pass,,,,,
470.0,7.0,wc_7,wc_16,0.0,"[('wc_16', 0.5000000000000003), ('wc_7', 0.42000000000000026)]",0.7100000000000003,,,26.0,0.003922,['Fail'],Pass,0.5000000000000003,-0.5000000000000003,0.0,0.0,0.5
470.0,7.0,wc_7,,0.0,,,,61.0,,,,Pass,,,,,
470.0,7.0,wc_7,wc_13,0.0,"[('wc_13', 0.7300000000000005)]",0.7300000000000005,,,30.0,0.005988,['Pass'],Pass,0.7300000000000005,-0.3966666666666672,3.0,9.0,1.0
470.0,7.0,wc_7,,0.0,,,,202.0,,,,Pass,,,,,
470.0,7.0,wc_7,wc_8,0.0,"[('wc_8', 0.4600000000000003), ('wc_13', 0.7300000000000005)]",0.8542000000000004,,,28.0,0.007739000000000001,['Pass'],Pass,0.4600000000000003,-0.0850000000000003,3.0,8.0,0.4
470.0,7.0,wc_7,,0.0,,,,162.0,,,,Pass,,,,,
470.0,7.0,wc_7,wc_14,1.0,"[('wc_14', 0.8200000000000006), ('wc_13', 0.7300000000000005), ('wc_8', 0.4600000000000003)]",0.9737560000000002,,,38.0,0.043858999999999995,['Pass'],Pass,0.8200000000000006,-0.4866666666666673,2.0,6.0,0.7
486.0,12.0,wc_12,,0.0,,,,82.0,,,,Pass,,,,,
486.0,12.0,wc_12,,0.0,,,66.0,,,,,Pass,,,,,
486.0,12.0,wc_12,,0.0,,,,0.0,,,,Pass,,,,,
486.0,12.0,wc_12,wc_12,0.0,"[('wc_12', 0.7500000000000006)]",0.7500000000000006,,,32.0,0.002142,['Fail'],Pass,0.7500000000000006,-0.5500000000000005,0.0,0.0,0.5
486.0,12.0,wc_12,,0.0,,,,182.0,,,,Pass,,,,,
486.0,12.0,wc_12,wc_6,0.0,"[('wc_6', 0.9900000000000008)]",0.9900000000000008,,,37.0,0.004197,['Pass'],Pass,0.9900000000000008,-0.8233333333333341,1.0,6.0,1.0
486.0,12.0,wc_12,,0.0,,,,243.0,,,,Pass,,,,,
486.0,12.0,wc_12,wc_16,0.0,"[('wc_6', 0.9900000000000008)]",0.9900000000000008,,,37.0,0.006206,['Pass'],Pass,0.4900000000000003,-0.4900000000000003,0.0,1.0,0.5
486.0,12.0,wc_12,,0.0,,,,0.0,,,,Pass,,,,,
486.0,12.0,wc_12,wc_17,0.0,"[('wc_17', 0.7400000000000005), ('wc_6', 0.9900000000000008)]",0.9974000000000002,,,36.0,0.008011999999999998,['Pass'],Pass,0.7400000000000005,-0.5400000000000005,0.0,0.0,0.9
486.0,12.0,wc_12,,0.0,,,,223.0,,,,Pass,,,,,
486.0,12.0,wc_12,wc_8,1.0,"[('wc_8', 0.4600000000000003), ('wc_6', 0.9900000000000008), ('wc_17', 0.7400000000000005)]",0.9985960000000002,,,34.0,0.044425000000000006,['Pass'],Pass,0.4700000000000003,-0.4700000000000003,0.0,0.0,0.4
496.0,13.0,wc_13,,0.0,,,,142.0,,,,Pass,,,,,
496.0,13.0,wc_13,,0.0,,,76.0,,,,,Pass,,,,,
496.0,13.0,wc_13,,0.0,,,,0.0,,,,Pass,,,,,
496.0,13.0,wc_13,wc_13,0.0,"[('wc_13', 0.7300000000000005)]",0.7300000000000005,,,31.0,0.002139,['Pass'],Pass,0.7300000000000005,-0.7300000000000005,0.0,1.0,1.0
496.0,13.0,wc_13,,0.0,,,,202.0,,,,Pass,,,,,
496.0,13.0,wc_13,wc_8,0.0,"[('wc_8', 0.4700000000000003), ('wc_13', 0.7300000000000005)]",0.8569000000000003,,,28.0,0.004069,['Pass'],Pass,0.4700000000000003,-0.4700000000000003,0.0,0.0,0.4
496.0,13.0,wc_13,,0.0,,,,162.0,,,,Pass,,,,,
496.0,13.0,wc_13,wc_14,0.0,"[('wc_13', 0.7300000000000005), ('wc_8', 0.4700000000000003)]",0.8569000000000003,,,33.0,0.006144999999999999,['Pass'],Pass,0.8200000000000006,-0.5342857142857149,2.0,7.0,0.7
496.0,13.0,wc_13,,0.0,,,,222.0,,,,Pass,,,,,
496.0,13.0,wc_13,wc_2,1.0,"[('wc_2', 0.4700000000000003), ('wc_13', 0.7300000000000005), ('wc_8', 0.4700000000000003)]",0.9241570000000002,,,28.0,0.042513,['Pass'],Pass,0.4700000000000003,-0.4700000000000003,0.0,0.0,0.3
506.0,15.0,wc_15,,0.0,,,,223.0,,,,Fail,,,,,
506.0,15.0,wc_15,,0.0,,,64.0,,,,,Fail,,,,,
506.0,15.0,wc_15,,0.0,,,,0.0,,,,Fail,,,,,
506.0,15.0,wc_15,wc_15,0.0,"[('wc_15', 0.8200000000000006)]",0.8200000000000006,,,31.0,0.002487,['Fail'],Fail,0.8200000000000006,-0.653333333333334,1.0,6.0,0.7
506.0,15.0,wc_15,,0.0,,,,263.0,,,,Fail,,,,,
506.0,15.0,wc_15,wc_8,0.0,"[('wc_15', 0.8200000000000006)]",0.8200000000000006,,,26.0,0.003888,['Fail'],Fail,0.4800000000000003,0.5199999999999997,1.0,1.0,0.4
506.0,15.0,wc_15,,0.0,,,,281.0,,,,Fail,,,,,
506.0,15.0,wc_15,wc_3,0.0,"[('wc_3', 0.8200000000000006), ('wc_15', 0.8200000000000006)]",0.9676000000000002,,,36.0,0.006873000000000001,['Fail'],Fail,0.8200000000000006,-0.8200000000000006,0.0,0.0,0.9
506.0,15.0,wc_15,,0.0,,,,0.0,,,,Fail,,,,,
506.0,15.0,wc_15,wc_5,0.0,"[('wc_15', 0.8200000000000006), ('wc_3', 0.8200000000000006)]",0.9676000000000002,,,37.0,0.007451,['Fail'],Fail,0.7800000000000006,-0.6550000000000006,1.0,8.0,0.7
506.0,15.0,wc_15,,0.0,,,,81.0,,,,Fail,,,,,
506.0,15.0,wc_15,wc_7,0.0,"[('wc_15', 0.8200000000000006), ('wc_3', 0.8200000000000006)]",0.9676000000000002,,,28.0,0.010698999999999998,['Fail'],Fail,0.41000000000000025,-0.11000000000000026,0.0,0.0,0.2
506.0,15.0,wc_15,,0.0,,,,0.0,,,,Fail,,,,,
506.0,15.0,wc_15,wc_9,1.0,"[('wc_9', 0.40000000000000024), ('wc_15', 0.8200000000000006), ('wc_3', 0.8200000000000006)]",0.9805600000000001,,,21.0,0.044789,['Fail'],Fail,0.40000000000000024,-0.40000000000000024,0.0,0.0,0.3
513.0,16.0,wc_16,,0.0,,,,182.0,,,,Fail,,,,,
513.0,16.0,wc_16,,0.0,,,51.0,,,,,Fail,,,,,
513.0,16.0,wc_16,,0.0,,,,0.0,,,,Fail,,,,,
513.0,16.0,wc_16,wc_16,0.0,"[('wc_16', 0.4800000000000003)]",0.4800000000000003,,,37.0,0.002088,['Fail'],Fail,0.4800000000000003,-0.4800000000000003,0.0,4.0,0.5
513.0,16.0,wc_16,,0.0,,,,0.0,,,,Fail,,,,,
513.0,16.0,wc_16,wc_17,0.0,"[('wc_17', 0.7500000000000006), ('wc_16', 0.4800000000000003)]",0.8700000000000003,,,37.0,0.003822,['Fail'],Fail,0.7500000000000006,-0.41666666666666724,1.0,3.0,0.9
513.0,16.0,wc_16,,0.0,,,,21.0,,,,Fail,,,,,
513.0,16.0,wc_16,wc_12,1.0,"[('wc_12', 0.7400000000000005), ('wc_16', 0.4800000000000003), ('wc_17', 0.7500000000000006)]",0.9662000000000002,,,25.0,0.043828,['Fail'],Fail,0.7400000000000005,-0.49000000000000055,1.0,4.0,0.5
522.0,14.0,wc_14,,0.0,,,,0.0,,,,Fail,,,,,
522.0,14.0,wc_14,,0.0,,,51.0,,,,,Fail,,,,,
522.0,14.0,wc_14,,0.0,,,,0.0,,,,Fail,,,,,
522.0,14.0,wc_14,wc_14,0.0,"[('wc_14', 0.8100000000000006)]",0.8100000000000006,,,34.0,0.002139,['Pass'],Fail,0.8100000000000006,-0.6100000000000005,0.0,0.0,0.7
522.0,14.0,wc_14,,0.0,,,,142.0,,,,Fail,,,,,
522.0,14.0,wc_14,wc_6,0.0,"[('wc_6', 0.9900000000000008)]",0.9900000000000008,,,22.0,0.005013,['Fail'],Fail,0.9900000000000008,-0.7900000000000007,0.0,0.0,1.0
522.0,14.0,wc_14,,0.0,,,,263.0,,,,Fail,,,,,
522.0,14.0,wc_14,wc_17,0.0,"[('wc_6', 0.9900000000000008)]",0.9900000000000008,,,31.0,0.006033,['Fail'],Fail,0.7500000000000006,-0.25000000000000056,2.0,4.0,0.9
522.0,14.0,wc_14,,0.0,,,,223.0,,,,Fail,,,,,
522.0,14.0,wc_14,wc_8,0.0,"[('wc_8', 0.4800000000000003), ('wc_6', 0.9900000000000008)]",0.9948000000000004,,,31.0,0.007574999999999999,['Fail'],Fail,0.4800000000000003,-0.146666666666667,1.0,3.0,0.4
522.0,14.0,wc_14,,0.0,,,,122.0,,,,Fail,,,,,
522.0,14.0,wc_14,wc_12,1.0,"[('wc_12', 0.7400000000000005), ('wc_6', 0.9900000000000008), ('wc_8', 0.4800000000000003)]",0.9986480000000001,,,24.0,0.047157,['Fail'],Fail,0.7400000000000005,-0.3400000000000005,2.0,5.0,0.5
533.0,15.0,wc_15,,0.0,,,,0.0,,,,Pass,,,,,
533.0,15.0,wc_15,,0.0,,,62.0,,,,,Pass,,,,,
533.0,15.0,wc_15,,0.0,,,,0.0,,,,Pass,,,,,
533.0,15.0,wc_15,wc_15,0.0,"[('wc_15', 0.8200000000000006)]",0.8200000000000006,,,28.0,0.002204,['Pass'],Pass,0.8200000000000006,-0.5977777777777784,2.0,9.0,0.7
533.0,15.0,wc_15,,0.0,,,,382.0,,,,Pass,,,,,
533.0,15.0,wc_15,wc_10,0.0,"[('wc_15', 0.8200000000000006)]",0.8200000000000006,,,31.0,0.003961,['Pass'],Pass,0.09000000000000002,-0.09000000000000002,0.0,0.0,0.1
533.0,15.0,wc_15,,0.0,,,,162.0,,,,Pass,,,,,
533.0,15.0,wc_15,wc_16,0.0,"[('wc_15', 0.8200000000000006)]",0.8200000000000006,,,26.0,0.00574,['Pass'],Pass,0.4800000000000003,-0.3133333333333337,1.0,6.0,0.5
533.0,15.0,wc_15,,0.0,,,,61.0,,,,Pass,,,,,
533.0,15.0,wc_15,wc_13,0.0,"[('wc_13', 0.7300000000000005), ('wc_15', 0.8200000000000006)]",0.9514000000000002,,,28.0,0.008053000000000001,['Pass'],Pass,0.7300000000000005,-0.5300000000000005,1.0,5.0,1.0
533.0,15.0,wc_15,,0.0,,,,182.0,,,,Pass,,,,,
533.0,15.0,wc_15,wc_7,1.0,"[('wc_7', 0.40000000000000024), ('wc_15', 0.8200000000000006), ('wc_13', 0.7300000000000005)]",0.9708400000000001,,,35.0,0.04730500000000001,['Pass'],Pass,0.40000000000000024,-0.15000000000000024,1.0,4.0,0.2
542.0,16.0,wc_16,,0.0,,,,223.0,,,,Fail,,,,,
542.0,16.0,wc_16,,0.0,,,59.0,,,,,Fail,,,,,
542.0,16.0,wc_16,,0.0,,,,0.0,,,,Fail,,,,,
542.0,16.0,wc_16,wc_16,0.0,"[('wc_16', 0.4700000000000003)]",0.4700000000000003,,,27.0,0.002293,['Fail'],Fail,0.4700000000000003,-0.32714285714285746,1.0,7.0,0.5
542.0,16.0,wc_16,,0.0,,,,263.0,,,,Fail,,,,,
542.0,16.0,wc_16,wc_1,0.0,"[('wc_1', 0.7800000000000006), ('wc_16', 0.4700000000000003)]",0.8834000000000004,,,38.0,0.0038610000000000003,['Fail'],Fail,0.7800000000000006,-0.7800000000000006,0.0,0.0,1.0
542.0,16.0,wc_16,,0.0,,,,182.0,,,,Fail,,,,,
542.0,16.0,wc_16,wc_12,1.0,"[('wc_12', 0.7400000000000005), ('wc_16', 0.4700000000000003), ('wc_1', 0.7800000000000006)]",0.9696840000000002,,,21.0,0.041249999999999995,['Fail'],Fail,0.7400000000000005,-0.311428571428572,3.0,7.0,0.5
549.0,16.0,wc_16,,0.0,,,,0.0,,,,Fail,,,,,
549.0,16.0,wc_16,,0.0,,,63.0,,,,,Fail,,,,,
549.0,16.0,wc_16,,0.0,,,,0.0,,,,Fail,,,,,
549.0,16.0,wc_16,wc_16,0.0,"[('wc_16', 0.4700000000000003)]",0.4700000000000003,,,32.0,0.00196,['Fail'],Fail,0.4700000000000003,-0.2200000000000003,2.0,8.0,0.5
549.0,16.0,wc_16,,0.0,,,,422.0,,,,Fail,,,,,
549.0,16.0,wc_16,wc_5,0.0,"[('wc_5', 0.7700000000000006), ('wc_16', 0.4700000000000003)]",0.8781000000000003,,,34.0,0.004514000000000001,['Fail'],Fail,0.7700000000000006,-0.6930769230769236,0.0,0.0,0.7
549.0,16.0,wc_16,,0.0,,,,141.0,,,,Fail,,,,,
549.0,16.0,wc_16,wc_14,1.0,"[('wc_14', 0.8000000000000006), ('wc_16', 0.4700000000000003), ('wc_5', 0.7700000000000006)]",0.9756200000000002,,,33.0,0.044210000000000006,['Fail'],Fail,0.8000000000000006,-0.5500000000000006,1.0,4.0,0.7
557.0,16.0,wc_16,,0.0,,,,0.0,,,,Pass,,,,,
557.0,16.0,wc_16,,0.0,,,61.0,,,,,Pass,,,,,
557.0,16.0,wc_16,,0.0,,,,0.0,,,,Pass,,,,,
557.0,16.0,wc_16,wc_16,0.0,"[('wc_16', 0.4700000000000003)]",0.4700000000000003,,,26.0,0.002184,['Fail'],Pass,0.4700000000000003,-0.136666666666667,3.0,9.0,0.5
557.0,16.0,wc_16,,0.0,,,,103.0,,,,Pass,,,,,
557.0,16.0,wc_16,wc_15,0.0,"[('wc_15', 0.8200000000000006), ('wc_16', 0.4700000000000003)]",0.9046000000000004,,,25.0,0.004617,['Fail'],Pass,0.8200000000000006,-0.8200000000000006,0.0,2.0,0.7
557.0,16.0,wc_16,,0.0,,,,422.0,,,,Pass,,,,,
557.0,16.0,wc_16,wc_4,0.0,"[('wc_16', 0.4700000000000003), ('wc_15', 0.8200000000000006)]",0.9046000000000004,,,26.0,0.005654,['Fail'],Pass,0.41000000000000025,-0.3544444444444447,0.0,0.0,0.3
557.0,16.0,wc_16,,0.0,,,,222.0,,,,Pass,,,,,
557.0,16.0,wc_16,wc_17,0.0,"[('wc_16', 0.4700000000000003), ('wc_15', 0.8200000000000006)]",0.9046000000000004,,,28.0,0.007198999999999999,['Fail'],Pass,0.7400000000000005,-0.49000000000000055,2.0,8.0,0.9
557.0,16.0,wc_16,,0.0,,,,402.0,,,,Pass,,,,,
557.0,16.0,wc_16,wc_5,1.0,"[('wc_5', 0.7800000000000006), ('wc_4', 0.41000000000000025), ('wc_17', 0.7400000000000005)]",0.9662520000000002,,,34.0,0.043309,['Pass'],Pass,0.7900000000000006,0.2099999999999994,2.0,2.0,0.7
563.0,15.0,wc_15,,0.0,,,,162.0,,,,Pass,,,,,
563.0,15.0,wc_15,,0.0,,,63.0,,,,,Pass,,,,,
563.0,15.0,wc_15,,0.0,,,,0.0,,,,Pass,,,,,
563.0,15.0,wc_15,wc_15,0.0,"[('wc_15', 0.8100000000000006)]",0.8100000000000006,,,30.0,0.002022,['Pass'],Pass,0.8100000000000006,-0.8100000000000006,0.0,3.0,0.7
563.0,15.0,wc_15,,0.0,,,,402.0,,,,Pass,,,,,
563.0,15.0,wc_15,wc_3,0.0,"[('wc_3', 0.8300000000000006), ('wc_15', 0.8100000000000006)]",0.9677000000000002,,,24.0,0.004686,['Pass'],Pass,0.8300000000000006,-0.6871428571428577,1.0,7.0,0.9
563.0,15.0,wc_15,,0.0,,,,161.0,,,,Pass,,,,,
563.0,15.0,wc_15,wc_13,1.0,"[('wc_13', 0.7300000000000005), ('wc_15', 0.8100000000000006), ('wc_3', 0.8300000000000006)]",0.991279,,,37.0,0.038985,['Pass'],Pass,0.7300000000000005,-0.7300000000000005,0.0,0.0,1.0
575.0,14.0,wc_14,,0.0,,,,0.0,,,,Fail,,,,,
575.0,14.0,wc_14,,0.0,,,65.0,,,,,Fail,,,,,
575.0,14.0,wc_14,,0.0,,,,0.0,,,,Fail,,,,,
575.0,14.0,wc_14,wc_14,0.0,"[('wc_14', 0.8000000000000006)]",0.8000000000000006,,,38.0,0.002192,['Fail'],Fail,0.8000000000000006,-0.633333333333334,1.0,6.0,0.7
575.0,14.0,wc_14,,0.0,,,,202.0,,,,Fail,,,,,
575.0,14.0,wc_14,wc_1,0.0,"[('wc_1', 0.7900000000000006), ('wc_14', 0.8000000000000006)]",0.9580000000000003,,,29.0,0.003816,['Fail'],Fail,0.7900000000000006,-0.5400000000000006,1.0,4.0,1.0
575.0,14.0,wc_14,,0.0,,,,203.0,,,,Fail,,,,,
575.0,14.0,wc_14,wc_9,0.0,"[('wc_14', 0.8000000000000006), ('wc_1', 0.7900000000000006)]",0.9580000000000003,,,34.0,0.006439,['Fail'],Fail,0.40000000000000024,-0.40000000000000024,0.0,7.0,0.3
575.0,14.0,wc_14,,0.0,,,,362.0,,,,Fail,,,,,
575.0,14.0,wc_14,wc_3,1.0,"[('wc_3', 0.8300000000000006), ('wc_14', 0.8000000000000006), ('wc_1', 0.7900000000000006)]",0.9928600000000001,,,20.0,0.041761000000000006,['Fail'],Fail,0.8300000000000006,-0.4966666666666673,3.0,9.0,0.9
590.0,14.0,wc_14,,0.0,,,,181.0,,,,Fail,,,,,
590.0,14.0,wc_14,,0.0,,,69.0,,,,,Fail,,,,,
590.0,14.0,wc_14,,0.0,,,,0.0,,,,Fail,,,,,
590.0,14.0,wc_14,wc_14,0.0,"[('wc_14', 0.8000000000000006)]",0.8000000000000006,,,33.0,0.001945,['Fail'],Fail,0.8000000000000006,-0.5142857142857149,2.0,7.0,0.7
590.0,14.0,wc_14,,0.0,,,,102.0,,,,Fail,,,,,
590.0,14.0,wc_14,wc_13,0.0,"[('wc_13', 0.7300000000000005), ('wc_14', 0.8000000000000006)]",0.9460000000000003,,,29.0,0.003652,['Fail'],Fail,0.7300000000000005,-0.7300000000000005,0.0,1.0,1.0
590.0,14.0,wc_14,,0.0,,,,102.0,,,,Fail,,,,,
590.0,14.0,wc_14,wc_12,1.0,"[('wc_12', 0.7400000000000005), ('wc_14', 0.8000000000000006), ('wc_13', 0.7300000000000005)]",0.9859600000000001,,,22.0,0.040944999999999995,['Fail'],Fail,0.7400000000000005,-0.7400000000000005,0.0,0.0,0.5
595.0,14.0,wc_14,,0.0,,,,0.0,,,,Fail,,,,,
595.0,14.0,wc_14,,0.0,,,59.0,,,,,Fail,,,,,
595.0,14.0,wc_14,,0.0,,,,0.0,,,,Fail,,,,,
595.0,14.0,wc_14,wc_14,0.0,"[('wc_14', 0.8000000000000006)]",0.8000000000000006,,,39.0,0.002467,['Fail'],Fail,0.8000000000000006,-0.4250000000000006,3.0,8.0,0.7
595.0,14.0,wc_14,,0.0,,,,182.0,,,,Fail,,,,,
595.0,14.0,wc_14,wc_8,0.0,"[('wc_8', 0.4900000000000003), ('wc_14', 0.8000000000000006)]",0.8980000000000004,,,34.0,0.003869,['Fail'],Fail,0.4900000000000003,-0.3081818181818185,0.0,0.0,0.4
595.0,14.0,wc_14,,0.0,,,,182.0,,,,Fail,,,,,
595.0,14.0,wc_14,wc_2,1.0,"[('wc_2', 0.4700000000000003), ('wc_14', 0.8000000000000006), ('wc_8', 0.4900000000000003)]",0.9459400000000002,,,32.0,0.04185200000000001,['Fail'],Fail,0.4700000000000003,-0.4700000000000003,0.0,0.0,0.3
603.0,14.0,wc_14,,0.0,,,,202.0,,,,Fail,,,,,
603.0,14.0,wc_14,,0.0,,,76.0,,,,,Fail,,,,,
603.0,14.0,wc_14,,0.0,,,,0.0,,,,Fail,,,,,
603.0,14.0,wc_14,wc_14,0.0,"[('wc_14', 0.8000000000000006)]",0.8000000000000006,,,25.0,0.003392,['Fail'],Fail,0.8000000000000006,-0.3555555555555562,4.0,9.0,0.7
603.0,14.0,wc_14,,0.0,,,,321.0,,,,Fail,,,,,
603.0,14.0,wc_14,wc_3,0.0,"[('wc_3', 0.8300000000000006), ('wc_14', 0.8000000000000006)]",0.9660000000000002,,,26.0,0.003922999999999999,['Fail'],Fail,0.8300000000000006,-0.5572727272727279,0.0,0.0,0.9
603.0,14.0,wc_14,,0.0,,,,222.0,,,,Fail,,,,,
603.0,14.0,wc_14,wc_16,0.0,"[('wc_14', 0.8000000000000006), ('wc_3', 0.8300000000000006)]",0.9660000000000002,,,32.0,0.00591,['Fail'],Fail,0.4600000000000003,-0.4600000000000003,0.0,4.0,0.5
603.0,14.0,wc_14,,0.0,,,,382.0,,,,Fail,,,,,
603.0,14.0,wc_14,wc_11,0.0,"[('wc_14', 0.8000000000000006), ('wc_3', 0.8300000000000006)]",0.9660000000000002,,,29.0,0.008767,['Fail'],Fail,0.6500000000000005,-0.5590909090909095,0.0,0.0,0.7
603.0,14.0,wc_14,,0.0,,,,342.0,,,,Fail,,,,,
603.0,14.0,wc_14,wc_4,1.0,"[('wc_4', 0.42000000000000026), ('wc_14', 0.8000000000000006), ('wc_3', 0.8300000000000006)]",0.9802800000000002,,,32.0,0.045322999999999995,['Fail'],Fail,0.42000000000000026,-0.08666666666666695,2.0,6.0,0.3
611.0,14.0,wc_14,,0.0,,,,161.0,,,,Fail,,,,,
611.0,14.0,wc_14,,0.0,,,70.0,,,,,Fail,,,,,
611.0,14.0,wc_14,,0.0,,,,0.0,,,,Fail,,,,,
611.0,14.0,wc_14,wc_14,0.0,"[('wc_14', 0.8000000000000006)]",0.8000000000000006,,,36.0,0.002133,['Fail'],Fail,0.8000000000000006,-0.8000000000000006,0.0,0.0,0.7
611.0,14.0,wc_14,,0.0,,,,0.0,,,,Fail,,,,,
611.0,14.0,wc_14,wc_17,0.0,"[('wc_17', 0.7400000000000005), ('wc_14', 0.8000000000000006)]",0.9480000000000003,,,21.0,0.003986,['Fail'],Fail,0.7400000000000005,-0.5257142857142862,0.0,0.0,0.9
611.0,14.0,wc_14,,0.0,,,,322.0,,,,Fail,,,,,
611.0,14.0,wc_14,wc_9,1.0,"[('wc_9', 0.39000000000000024), ('wc_14', 0.8000000000000006), ('wc_17', 0.7400000000000005)]",0.9682800000000001,,,26.0,0.043053999999999995,['Fail'],Fail,0.39000000000000024,-0.39000000000000024,0.0,0.0,0.3
624.0,14.0,wc_14,,0.0,,,,141.0,,,,Fail,,,,,
624.0,14.0,wc_14,,0.0,,,52.0,,,,,Fail,,,,,
624.0,14.0,wc_14,,0.0,,,,0.0,,,,Fail,,,,,
624.0,14.0,wc_14,wc_14,0.0,"[('wc_14', 0.8100000000000006)]",0.8100000000000006,,,36.0,0.002176,['Fail'],Fail,0.8100000000000006,0.1899999999999994,1.0,1.0,0.7
624.0,14.0,wc_14,,0.0,,,,142.0,,,,Fail,,,,,
624.0,14.0,wc_14,wc_6,0.0,"[('wc_6', 0.9900000000000008), ('wc_14', 0.8100000000000006)]",0.9981000000000001,,,31.0,0.003871,['Fail'],Fail,0.9900000000000008,-0.8990909090909098,0.0,0.0,1.0
624.0,14.0,wc_14,,0.0,,,,182.0,,,,Fail,,,,,
624.0,14.0,wc_14,wc_13,1.0,"[('wc_13', 0.7300000000000005), ('wc_14', 0.8100000000000006), ('wc_6', 0.9900000000000008)]",0.999487,,,27.0,0.044180000000000004,['Fail'],Fail,0.7300000000000005,-0.3966666666666672,2.0,6.0,1.0
641.0,14.0,wc_14,,0.0,,,,0.0,,,,Fail,,,,,
641.0,14.0,wc_14,,0.0,,,54.0,,,,,Fail,,,,,
641.0,14.0,wc_14,,0.0,,,,0.0,,,,Fail,,,,,
641.0,14.0,wc_14,wc_14,0.0,"[('wc_14', 0.8200000000000006)]",0.8200000000000006,,,36.0,0.002055,['Fail'],Fail,0.8200000000000006,0.17999999999999938,2.0,2.0,0.7
641.0,14.0,wc_14,,0.0,,,,301.0,,,,Fail,,,,,
641.0,14.0,wc_14,wc_10,0.0,"[('wc_10', 0.08000000000000003), ('wc_14', 0.8200000000000006)]",0.8344000000000006,,,39.0,0.003949,['Fail'],Fail,0.08000000000000003,-0.08000000000000003,0.0,0.0,0.1
641.0,14.0,wc_14,,0.0,,,,182.0,,,,Fail,,,,,
641.0,14.0,wc_14,wc_17,1.0,"[('wc_17', 0.7500000000000006), ('wc_14', 0.8200000000000006), ('wc_10', 0.08000000000000003)]",0.9586000000000002,,,20.0,0.043199,['Fail'],Fail,0.7500000000000006,-0.08333333333333393,2.0,3.0,0.9
650.0,14.0,wc_14,,0.0,,,,61.0,,,,Pass,,,,,
650.0,14.0,wc_14,,0.0,,,65.0,,,,,Pass,,,,,
650.0,14.0,wc_14,,0.0,,,,0.0,,,,Pass,,,,,
650.0,14.0,wc_14,wc_14,0.0,"[('wc_14', 0.8300000000000006)]",0.8300000000000006,,,21.0,0.002477,['Fail'],Pass,0.8300000000000006,0.16999999999999937,3.0,3.0,0.7
650.0,14.0,wc_14,,0.0,,,,0.0,,,,Pass,,,,,
650.0,14.0,wc_14,wc_15,0.0,"[('wc_14', 0.8300000000000006)]",0.8300000000000006,,,38.0,0.003946,['Fail'],Pass,0.8100000000000006,-0.7190909090909097,0.0,0.0,0.7
650.0,14.0,wc_14,,0.0,,,,362.0,,,,Pass,,,,,
650.0,14.0,wc_14,wc_9,0.0,"[('wc_9', 0.39000000000000024), ('wc_15', 0.8100000000000006)]",0.8841000000000004,,,28.0,0.005727,['Pass'],Pass,0.39000000000000024,-0.39000000000000024,0.0,2.0,0.3
650.0,14.0,wc_14,,0.0,,,,402.0,,,,Pass,,,,,
650.0,14.0,wc_14,wc_5,1.0,"[('wc_5', 0.7900000000000006), ('wc_15', 0.8100000000000006), ('wc_9', 0.39000000000000024)]",0.9756610000000001,,,31.0,0.045599,['Pass'],Pass,0.7900000000000006,-0.7900000000000006,0.0,0.0,0.7
657.0,17.0,wc_17,,0.0,,,,202.0,,,,Fail,,,,,
657.0,17.0,wc_17,,0.0,,,79.0,,,,,Fail,,,,,
657.0,17.0,wc_17,,0.0,,,,0.0,,,,Fail,,,,,
657.0,17.0,wc_17,wc_17,0.0,"[('wc_17', 0.7500000000000006)]",0.7500000000000006,,,31.0,0.002701,['Fail'],Fail,0.7500000000000006,-0.25000000000000056,2.0,4.0,0.9
657.0,17.0,wc_17,,0.0,,,,362.0,,,,Fail,,,,,
657.0,17.0,wc_17,wc_11,0.0,"[('wc_17', 0.7500000000000006)]",0.7500000000000006,,,34.0,0.004003,['Fail'],Fail,0.6400000000000005,-0.6400000000000005,0.0,5.0,0.7
657.0,17.0,wc_17,,0.0,,,,101.0,,,,Fail,,,,,
657.0,17.0,wc_17,wc_14,0.0,"[('wc_14', 0.8200000000000006), ('wc_17', 0.7500000000000006)]",0.9550000000000003,,,32.0,0.005832,['Fail'],Fail,0.8200000000000006,-0.07000000000000062,3.0,4.0,0.7
657.0,17.0,wc_17,,0.0,,,,102.0,,,,Fail,,,,,
657.0,17.0,wc_17,wc_13,1.0,"[('wc_13', 0.7300000000000005), ('wc_17', 0.7500000000000006), ('wc_14', 0.8200000000000006)]",0.9878500000000001,,,38.0,0.045649999999999996,['Fail'],Fail,0.7300000000000005,-0.3966666666666672,3.0,9.0,1.0
667.0,17.0,wc_17,,0.0,,,,0.0,,,,Fail,,,,,
667.0,17.0,wc_17,,0.0,,,77.0,,,,,Fail,,,,,
667.0,17.0,wc_17,,0.0,,,,0.0,,,,Fail,,,,,
667.0,17.0,wc_17,wc_17,0.0,"[('wc_17', 0.7500000000000006)]",0.7500000000000006,,,31.0,0.002125,['Fail'],Fail,0.7500000000000006,-0.15000000000000058,3.0,5.0,0.9
667.0,17.0,wc_17,,0.0,,,,21.0,,,,Fail,,,,,
667.0,17.0,wc_17,wc_12,0.0,"[('wc_12', 0.7400000000000005), ('wc_17', 0.7500000000000006)]",0.9350000000000003,,,31.0,0.003921,['Fail'],Fail,0.7400000000000005,-0.7400000000000005,0.0,7.0,0.5
667.0,17.0,wc_17,,0.0,,,,0.0,,,,Fail,,,,,
667.0,17.0,wc_17,wc_15,1.0,"[('wc_15', 0.8200000000000006), ('wc_17', 0.7500000000000006), ('wc_12', 0.7400000000000005)]",0.9883000000000001,,,34.0,0.045624000000000005,['Fail'],Fail,0.8200000000000006,-0.153333333333334,2.0,3.0,0.7
672.0,17.0,wc_17,,0.0,,,,0.0,,,,Pass,,,,,
672.0,17.0,wc_17,,0.0,,,78.0,,,,,Pass,,,,,
672.0,17.0,wc_17,,0.0,,,,0.0,,,,Pass,,,,,
672.0,17.0,wc_17,wc_17,0.0,"[('wc_17', 0.7500000000000006)]",0.7500000000000006,,,33.0,0.002482,['Pass'],Pass,0.7500000000000006,-0.08333333333333393,4.0,6.0,0.9
672.0,17.0,wc_17,,0.0,,,,342.0,,,,Pass,,,,,
672.0,17.0,wc_17,wc_10,0.0,"[('wc_17', 0.7500000000000006)]",0.7500000000000006,,,34.0,0.004592000000000001,['Pass'],Pass,0.09000000000000002,0.15999999999999998,1.0,4.0,0.1
672.0,17.0,wc_17,,0.0,,,,61.0,,,,Pass,,,,,
672.0,17.0,wc_17,wc_7,0.0,"[('wc_17', 0.7500000000000006)]",0.7500000000000006,,,31.0,0.006453,['Pass'],Pass,0.40000000000000024,-0.34444444444444466,0.0,0.0,0.2
672.0,17.0,wc_17,,0.0,,,,301.0,,,,Pass,,,,,
672.0,17.0,wc_17,wc_3,0.0,"[('wc_3', 0.8400000000000006), ('wc_17', 0.7500000000000006)]",0.9600000000000003,,,35.0,0.007592,['Pass'],Pass,0.8400000000000006,-0.6971428571428577,1.0,7.0,0.9
672.0,17.0,wc_17,,0.0,,,,162.0,,,,Pass,,,,,
672.0,17.0,wc_17,wc_9,0.0,"[('wc_17', 0.7500000000000006), ('wc_3', 0.8400000000000006)]",0.9600000000000003,,,23.0,0.009222000000000001,['Pass'],Pass,0.39000000000000024,-0.19000000000000022,1.0,5.0,0.3
672.0,17.0,wc_17,,0.0,,,,61.0,,,,Pass,,,,,
672.0,17.0,wc_17,wc_6,1.0,"[('wc_6', 0.9900000000000008), ('wc_17', 0.7500000000000006), ('wc_3', 0.8400000000000006)]",0.9996,,,38.0,0.051595,['Pass'],Pass,0.9900000000000008,-0.6566666666666674,2.0,6.0,1.0
