mpecck/BCQC/bcqc_with_qdt/results/raw/input_1/independent_qc/training/20_workpiece/20200429_084306/wp_4_qc_majority_0.9.csv
production_index,step_idx,production_workcell,qc,consent,winner_qc_list,score,production_time,transport_time,inspection_time,network_time,qc_results,actual_quality,qc_score,score_error,in_winner_counter,in_qc_counter,qc_capability
6.0,1.0,wc_1,,0.0,,,79.0,,,,,Fail,,,,,
6.0,1.0,wc_1,,0.0,,,,0.0,,,,Fail,,,,,
6.0,1.0,wc_1,wc_1,0.0,"[('wc_1', 0.4700000000000003)]",0.4700000000000003,,,38.0,0.003674,['Fail'],Fail,0.4700000000000003,-0.2700000000000003,1.0,5.0,1.0
6.0,1.0,wc_1,,0.0,,,,243.0,,,,Fail,,,,,
6.0,1.0,wc_1,wc_11,0.0,"[('wc_11', 0.40000000000000024), ('wc_1', 0.4700000000000003)]",0.6820000000000004,,,24.0,0.004902999999999999,['Fail'],Fail,0.40000000000000024,0.34999999999999976,3.0,4.0,0.7
6.0,1.0,wc_1,,0.0,,,,362.0,,,,Fail,,,,,
6.0,1.0,wc_1,wc_5,0.0,"[('wc_5', 0.42000000000000026), ('wc_1', 0.4700000000000003), ('wc_11', 0.40000000000000024)]",0.8155600000000003,,,31.0,0.007236,['Fail'],Fail,0.42000000000000026,-0.23250000000000026,0.0,0.0,0.7
6.0,1.0,wc_1,,0.0,,,,122.0,,,,Fail,,,,,
6.0,1.0,wc_1,wc_9,0.0,"[('wc_1', 0.4700000000000003), ('wc_11', 0.40000000000000024), ('wc_5', 0.42000000000000026)]",0.8155600000000003,,,29.0,0.008135,['Fail'],Fail,0.30000000000000016,0.1285714285714284,3.0,7.0,0.3
6.0,1.0,wc_1,,0.0,,,,263.0,,,,Fail,,,,,
6.0,1.0,wc_1,wc_2,0.0,"[('wc_2', 0.28000000000000014), ('wc_1', 0.4700000000000003), ('wc_11', 0.40000000000000024), ('wc_5', 0.42000000000000026)]",0.8672032000000002,,,27.0,0.010748,['Fail'],Fail,0.28000000000000014,-0.05777777777777793,2.0,9.0,0.3
6.0,1.0,wc_1,,0.0,,,,0.0,,,,Fail,,,,,
6.0,1.0,wc_1,wc_3,1.0,"[('wc_3', 0.6100000000000004), ('wc_1', 0.4700000000000003), ('wc_11', 0.40000000000000024), ('wc_5', 0.42000000000000026), ('wc_2', 0.28000000000000014)]",0.9482092480000002,,,27.0,0.044219,['Fail'],Fail,0.6100000000000004,-0.6100000000000004,0.0,0.0,0.9
91.0,1.0,wc_1,,0.0,,,,81.0,,,,Pass,,,,,
91.0,1.0,wc_1,,0.0,,,58.0,,,,,Pass,,,,,
91.0,1.0,wc_1,,0.0,,,,0.0,,,,Pass,,,,,
91.0,1.0,wc_1,wc_1,0.0,"[('wc_1', 0.4700000000000003)]",0.4700000000000003,,,39.0,0.002782,['Pass'],Pass,0.4700000000000003,-0.136666666666667,2.0,6.0,1.0
91.0,1.0,wc_1,,0.0,,,,182.0,,,,Pass,,,,,
91.0,1.0,wc_1,wc_8,0.0,"[('wc_8', 0.41000000000000025), ('wc_1', 0.4700000000000003)]",0.6873000000000002,,,36.0,0.0049,['Pass'],Pass,0.41000000000000025,-0.41000000000000025,0.0,4.0,0.4
91.0,1.0,wc_1,,0.0,,,,301.0,,,,Pass,,,,,
91.0,1.0,wc_1,wc_4,0.0,"[('wc_4', 0.3200000000000002), ('wc_1', 0.4700000000000003), ('wc_8', 0.41000000000000025)]",0.7873640000000003,,,34.0,0.006196999999999999,['Pass'],Pass,0.3200000000000002,-0.034285714285714475,2.0,7.0,0.3
91.0,1.0,wc_1,,0.0,,,,162.0,,,,Pass,,,,,
91.0,1.0,wc_1,wc_10,0.0,"[('wc_1', 0.4700000000000003), ('wc_8', 0.41000000000000025), ('wc_4', 0.3200000000000002)]",0.7873640000000003,,,24.0,0.00802,['Pass'],Pass,0.19000000000000006,-0.11307692307692313,0.0,0.0,0.1
91.0,1.0,wc_1,,0.0,,,,0.0,,,,Pass,,,,,
91.0,1.0,wc_1,wc_11,0.0,"[('wc_11', 0.41000000000000025), ('wc_1', 0.4700000000000003), ('wc_8', 0.41000000000000025), ('wc_4', 0.3200000000000002)]",0.8745447600000003,,,28.0,0.010041000000000001,['Pass'],Pass,0.41000000000000025,0.3899999999999998,4.0,5.0,0.7
91.0,1.0,wc_1,,0.0,,,,223.0,,,,Pass,,,,,
91.0,1.0,wc_1,wc_2,0.0,"[('wc_1', 0.4700000000000003), ('wc_8', 0.41000000000000025), ('wc_4', 0.3200000000000002), ('wc_11', 0.41000000000000025)]",0.8745447600000003,,,25.0,0.012476,['Pass'],Pass,0.29000000000000015,-0.29000000000000015,0.0,0.0,0.3
91.0,1.0,wc_1,,0.0,,,,182.0,,,,Pass,,,,,
91.0,1.0,wc_1,wc_13,1.0,"[('wc_13', 0.4600000000000003), ('wc_1', 0.4700000000000003), ('wc_8', 0.41000000000000025), ('wc_4', 0.3200000000000002), ('wc_11', 0.41000000000000025)]",0.9322541704000001,,,22.0,0.048454,['Pass'],Pass,0.4600000000000003,-0.4600000000000003,0.0,0.0,1.0
107.0,3.0,wc_3,,0.0,,,,341.0,,,,Pass,,,,,
107.0,3.0,wc_3,,0.0,,,66.0,,,,,Pass,,,,,
107.0,3.0,wc_3,,0.0,,,,0.0,,,,Pass,,,,,
107.0,3.0,wc_3,wc_3,0.0,"[('wc_3', 0.6100000000000004)]",0.6100000000000004,,,36.0,0.002146,['Pass'],Pass,0.6100000000000004,-0.6100000000000004,0.0,1.0,0.9
107.0,3.0,wc_3,,0.0,,,,141.0,,,,Pass,,,,,
107.0,3.0,wc_3,wc_12,0.0,"[('wc_12', 0.4400000000000003), ('wc_3', 0.6100000000000004)]",0.7816000000000003,,,28.0,0.004457,['Pass'],Pass,0.4400000000000003,-0.24000000000000027,0.0,0.0,0.5
107.0,3.0,wc_3,,0.0,,,,361.0,,,,Pass,,,,,
107.0,3.0,wc_3,wc_11,0.0,"[('wc_11', 0.42000000000000026), ('wc_3', 0.6100000000000004), ('wc_12', 0.4400000000000003)]",0.8733280000000003,,,38.0,0.006052,['Pass'],Pass,0.42000000000000026,0.4133333333333331,5.0,6.0,0.7
107.0,3.0,wc_3,,0.0,,,,362.0,,,,Pass,,,,,
107.0,3.0,wc_3,wc_5,1.0,"[('wc_5', 0.43000000000000027), ('wc_3', 0.6100000000000004), ('wc_12', 0.4400000000000003), ('wc_11', 0.42000000000000026)]",0.9277969600000002,,,25.0,0.044266,['Pass'],Pass,0.4400000000000003,0.22666666666666635,2.0,3.0,0.7
121.0,4.0,wc_4,,0.0,,,,103.0,,,,Fail,,,,,
121.0,4.0,wc_4,,0.0,,,73.0,,,,,Fail,,,,,
121.0,4.0,wc_4,,0.0,,,,0.0,,,,Fail,,,,,
121.0,4.0,wc_4,wc_4,0.0,"[('wc_4', 0.3300000000000002)]",0.3300000000000002,,,27.0,0.00218,['Pass'],Fail,0.3300000000000002,0.0033333333333331328,3.0,9.0,0.3
121.0,4.0,wc_4,,0.0,,,,182.0,,,,Fail,,,,,
121.0,4.0,wc_4,wc_11,0.0,"[('wc_11', 0.43000000000000027), ('wc_4', 0.3300000000000002)]",0.6181000000000003,,,27.0,0.00398,['Pass'],Fail,0.43000000000000027,0.4271428571428568,6.0,7.0,0.7
121.0,4.0,wc_4,,0.0,,,,162.0,,,,Fail,,,,,
121.0,4.0,wc_4,wc_17,0.0,"[('wc_4', 0.3300000000000002), ('wc_11', 0.43000000000000027)]",0.6181000000000003,,,26.0,0.005722,['Pass'],Fail,0.4600000000000003,-0.31714285714285745,1.0,7.0,0.9
121.0,4.0,wc_4,,0.0,,,,61.0,,,,Fail,,,,,
121.0,4.0,wc_4,wc_14,0.0,"[('wc_14', 0.5100000000000003), ('wc_17', 0.4600000000000003)]",0.7354000000000003,,,26.0,0.009075,['Fail'],Fail,0.5100000000000003,-0.28777777777777813,2.0,9.0,0.7
121.0,4.0,wc_4,,0.0,,,,182.0,,,,Fail,,,,,
121.0,4.0,wc_4,wc_8,0.0,"[('wc_8', 0.41000000000000025), ('wc_4', 0.3300000000000002), ('wc_11', 0.43000000000000027)]",0.7746790000000003,,,27.0,0.009705,['Pass'],Fail,0.41000000000000025,-0.2433333333333336,1.0,6.0,0.4
121.0,4.0,wc_4,,0.0,,,,122.0,,,,Fail,,,,,
121.0,4.0,wc_4,wc_12,0.0,"[('wc_12', 0.4500000000000003), ('wc_17', 0.4600000000000003), ('wc_14', 0.5100000000000003)]",0.8544700000000003,,,35.0,0.011592,['Fail'],Fail,0.4500000000000003,0.5499999999999997,1.0,1.0,0.5
121.0,4.0,wc_4,,0.0,,,,401.0,,,,Fail,,,,,
121.0,4.0,wc_4,wc_5,1.0,"[('wc_5', 0.4400000000000003), ('wc_17', 0.4600000000000003), ('wc_14', 0.5100000000000003), ('wc_12', 0.4500000000000003)]",0.9185032000000002,,,30.0,0.045958,['Fail'],Fail,0.4500000000000003,0.2999999999999997,3.0,4.0,0.7
154.0,4.0,wc_4,,0.0,,,,103.0,,,,Fail,,,,,
154.0,4.0,wc_4,,0.0,,,73.0,,,,,Fail,,,,,
154.0,4.0,wc_4,,0.0,,,,0.0,,,,Fail,,,,,
154.0,4.0,wc_4,wc_4,0.0,"[('wc_4', 0.3200000000000002)]",0.3200000000000002,,,38.0,0.00191,['Pass'],Fail,0.3200000000000002,-0.3200000000000002,0.0,0.0,0.3
154.0,4.0,wc_4,,0.0,,,,81.0,,,,Fail,,,,,
154.0,4.0,wc_4,wc_2,0.0,"[('wc_4', 0.3200000000000002)]",0.3200000000000002,,,34.0,0.004562,['Pass'],Fail,0.28000000000000014,-0.28000000000000014,0.0,3.0,0.3
154.0,4.0,wc_4,,0.0,,,,203.0,,,,Fail,,,,,
154.0,4.0,wc_4,wc_10,0.0,"[('wc_10', 0.18000000000000005), ('wc_2', 0.28000000000000014)]",0.4096000000000002,,,29.0,0.006753,['Fail'],Fail,0.18000000000000005,-0.18000000000000005,0.0,3.0,0.1
154.0,4.0,wc_4,,0.0,,,,382.0,,,,Fail,,,,,
154.0,4.0,wc_4,wc_5,0.0,"[('wc_5', 0.4500000000000003), ('wc_2', 0.28000000000000014), ('wc_10', 0.18000000000000005)]",0.6752800000000002,,,21.0,0.0074659999999999995,['Fail'],Fail,0.4500000000000003,0.2999999999999997,3.0,4.0,0.7
154.0,4.0,wc_4,,0.0,,,,101.0,,,,Fail,,,,,
154.0,4.0,wc_4,wc_12,0.0,"[('wc_12', 0.4600000000000003), ('wc_2', 0.28000000000000014), ('wc_10', 0.18000000000000005), ('wc_5', 0.4500000000000003)]",0.8246512000000003,,,25.0,0.010678,['Fail'],Fail,0.4600000000000003,0.5399999999999997,2.0,2.0,0.5
154.0,4.0,wc_4,,0.0,,,,182.0,,,,Fail,,,,,
154.0,4.0,wc_4,wc_6,1.0,"[('wc_6', 0.6900000000000005), ('wc_2', 0.28000000000000014), ('wc_10', 0.18000000000000005), ('wc_5', 0.4500000000000003), ('wc_12', 0.4600000000000003)]",0.9456418720000002,,,31.0,0.043463,['Fail'],Fail,0.6900000000000005,-0.6900000000000005,0.0,0.0,1.0
196.0,4.0,wc_4,,0.0,,,,341.0,,,,Pass,,,,,
196.0,4.0,wc_4,,0.0,,,65.0,,,,,Pass,,,,,
196.0,4.0,wc_4,,0.0,,,,0.0,,,,Pass,,,,,
196.0,4.0,wc_4,wc_4,0.0,"[('wc_4', 0.31000000000000016)]",0.31000000000000016,,,22.0,0.002047,['Pass'],Pass,0.31000000000000016,-0.31000000000000016,0.0,1.0,0.3
196.0,4.0,wc_4,,0.0,,,,161.0,,,,Pass,,,,,
196.0,4.0,wc_4,wc_14,0.0,"[('wc_14', 0.5100000000000003), ('wc_4', 0.31000000000000016)]",0.6619000000000004,,,31.0,0.003974,['Pass'],Pass,0.5100000000000003,-0.5100000000000003,0.0,1.0,0.7
196.0,4.0,wc_4,,0.0,,,,321.0,,,,Pass,,,,,
196.0,4.0,wc_4,wc_3,0.0,"[('wc_3', 0.6100000000000004), ('wc_4', 0.31000000000000016), ('wc_14', 0.5100000000000003)]",0.8681410000000003,,,22.0,0.006546,['Pass'],Pass,0.6100000000000004,-0.36000000000000043,1.0,4.0,0.9
196.0,4.0,wc_4,,0.0,,,,101.0,,,,Pass,,,,,
196.0,4.0,wc_4,wc_2,1.0,"[('wc_2', 0.28000000000000014), ('wc_4', 0.31000000000000016), ('wc_14', 0.5100000000000003), ('wc_3', 0.6100000000000004)]",0.9050615200000002,,,27.0,0.039694,['Pass'],Pass,0.29000000000000015,0.10999999999999988,2.0,5.0,0.3
268.0,2.0,wc_2,,0.0,,,,0.0,,,,Fail,,,,,
268.0,2.0,wc_2,,0.0,,,70.0,,,,,Fail,,,,,
268.0,2.0,wc_2,,0.0,,,,0.0,,,,Fail,,,,,
268.0,2.0,wc_2,wc_2,0.0,"[('wc_2', 0.29000000000000015)]",0.29000000000000015,,,35.0,0.002137,['Fail'],Fail,0.29000000000000015,0.10999999999999988,2.0,5.0,0.3
268.0,2.0,wc_2,,0.0,,,,122.0,,,,Fail,,,,,
268.0,2.0,wc_2,wc_6,0.0,"[('wc_6', 0.6900000000000005), ('wc_2', 0.29000000000000015)]",0.7799000000000004,,,37.0,0.004271,['Fail'],Fail,0.6900000000000005,-0.6900000000000005,0.0,1.0,1.0
268.0,2.0,wc_2,,0.0,,,,202.0,,,,Fail,,,,,
268.0,2.0,wc_2,wc_14,0.0,"[('wc_14', 0.5100000000000003), ('wc_2', 0.29000000000000015), ('wc_6', 0.6900000000000005)]",0.8921510000000002,,,23.0,0.006363,['Fail'],Fail,0.5100000000000003,-0.010000000000000342,1.0,2.0,0.7
268.0,2.0,wc_2,,0.0,,,,281.0,,,,Fail,,,,,
268.0,2.0,wc_2,wc_9,0.0,"[('wc_2', 0.29000000000000015), ('wc_6', 0.6900000000000005), ('wc_14', 0.5100000000000003)]",0.8921510000000002,,,35.0,0.008536,['Fail'],Fail,0.30000000000000016,-0.06923076923076937,0.0,0.0,0.3
268.0,2.0,wc_2,,0.0,,,,162.0,,,,Fail,,,,,
268.0,2.0,wc_2,wc_15,1.0,"[('wc_15', 0.4400000000000003), ('wc_2', 0.29000000000000015), ('wc_6', 0.6900000000000005), ('wc_14', 0.5100000000000003)]",0.9396045600000001,,,31.0,0.041922999999999995,['Fail'],Fail,0.4400000000000003,-0.4400000000000003,0.0,0.0,0.7
317.0,2.0,wc_2,,0.0,,,,303.0,,,,Pass,,,,,
317.0,2.0,wc_2,,0.0,,,68.0,,,,,Pass,,,,,
317.0,2.0,wc_2,,0.0,,,,0.0,,,,Pass,,,,,
317.0,2.0,wc_2,wc_2,0.0,"[('wc_2', 0.30000000000000016)]",0.30000000000000016,,,25.0,0.002121,['Fail'],Pass,0.30000000000000016,0.19999999999999984,3.0,6.0,0.3
317.0,2.0,wc_2,,0.0,,,,243.0,,,,Pass,,,,,
317.0,2.0,wc_2,wc_16,0.0,"[('wc_16', 0.39000000000000024)]",0.39000000000000024,,,27.0,0.004254,['Pass'],Pass,0.39000000000000024,-0.25666666666666693,0.0,0.0,0.5
317.0,2.0,wc_2,,0.0,,,,243.0,,,,Pass,,,,,
317.0,2.0,wc_2,wc_8,0.0,"[('wc_8', 0.40000000000000024), ('wc_2', 0.30000000000000016)]",0.5800000000000003,,,27.0,0.006585000000000001,['Fail'],Pass,0.40000000000000024,-0.30000000000000027,0.0,0.0,0.4
317.0,2.0,wc_2,,0.0,,,,301.0,,,,Pass,,,,,
317.0,2.0,wc_2,wc_4,0.0,"[('wc_4', 0.3200000000000002), ('wc_16', 0.39000000000000024)]",0.5852000000000003,,,25.0,0.009038000000000001,['Pass'],Pass,0.3200000000000002,0.013333333333333142,1.0,3.0,0.3
317.0,2.0,wc_2,,0.0,,,,101.0,,,,Pass,,,,,
317.0,2.0,wc_2,wc_7,0.0,"[('wc_7', 0.30000000000000016), ('wc_16', 0.39000000000000024), ('wc_4', 0.3200000000000002)]",0.7096400000000003,,,26.0,0.01045,['Pass'],Pass,0.30000000000000016,-0.06923076923076937,0.0,0.0,0.2
317.0,2.0,wc_2,,0.0,,,,301.0,,,,Pass,,,,,
317.0,2.0,wc_2,wc_3,0.0,"[('wc_3', 0.6100000000000004), ('wc_2', 0.30000000000000016), ('wc_8', 0.40000000000000024)]",0.8362000000000003,,,31.0,0.011144000000000001,['Fail'],Pass,0.6100000000000004,-0.2766666666666671,2.0,6.0,0.9
317.0,2.0,wc_2,,0.0,,,,181.0,,,,Pass,,,,,
317.0,2.0,wc_2,wc_14,1.0,"[('wc_14', 0.5200000000000004), ('wc_2', 0.30000000000000016), ('wc_8', 0.40000000000000024), ('wc_3', 0.6100000000000004)]",0.9213760000000002,,,22.0,0.043406,['Fail'],Pass,0.5300000000000004,0.21999999999999964,3.0,4.0,0.7
371.0,2.0,wc_2,,0.0,,,,222.0,,,,Pass,,,,,
371.0,2.0,wc_2,,0.0,,,64.0,,,,,Pass,,,,,
371.0,2.0,wc_2,,0.0,,,,0.0,,,,Pass,,,,,
371.0,2.0,wc_2,wc_2,0.0,"[('wc_2', 0.31000000000000016)]",0.31000000000000016,,,36.0,0.002511,['Pass'],Pass,0.31000000000000016,0.26142857142857123,4.0,7.0,0.3
371.0,2.0,wc_2,,0.0,,,,203.0,,,,Pass,,,,,
371.0,2.0,wc_2,wc_10,0.0,"[('wc_10', 0.19000000000000006), ('wc_2', 0.31000000000000016)]",0.44110000000000016,,,22.0,0.004087,['Pass'],Pass,0.19000000000000006,-0.04714285714285721,1.0,7.0,0.1
371.0,2.0,wc_2,,0.0,,,,182.0,,,,Pass,,,,,
371.0,2.0,wc_2,wc_17,0.0,"[('wc_17', 0.4600000000000003), ('wc_2', 0.31000000000000016), ('wc_10', 0.19000000000000006)]",0.6981940000000002,,,33.0,0.006064,['Pass'],Pass,0.4600000000000003,-0.29333333333333367,0.0,0.0,0.9
371.0,2.0,wc_2,,0.0,,,,203.0,,,,Pass,,,,,
371.0,2.0,wc_2,wc_7,0.0,"[('wc_7', 0.29000000000000015), ('wc_2', 0.31000000000000016), ('wc_10', 0.19000000000000006), ('wc_17', 0.4600000000000003)]",0.7857177400000002,,,31.0,0.008588,['Pass'],Pass,0.29000000000000015,-0.29000000000000015,0.0,1.0,0.2
371.0,2.0,wc_2,,0.0,,,,223.0,,,,Pass,,,,,
371.0,2.0,wc_2,wc_16,0.0,"[('wc_16', 0.3800000000000002), ('wc_2', 0.31000000000000016), ('wc_10', 0.19000000000000006), ('wc_17', 0.4600000000000003), ('wc_7', 0.29000000000000015)]",0.8671449988000002,,,39.0,0.009378999999999998,['Pass'],Pass,0.3800000000000002,-0.3800000000000002,0.0,1.0,0.5
371.0,2.0,wc_2,,0.0,,,,243.0,,,,Pass,,,,,
371.0,2.0,wc_2,wc_8,1.0,"[('wc_8', 0.41000000000000025), ('wc_2', 0.31000000000000016), ('wc_10', 0.19000000000000006), ('wc_17', 0.4600000000000003), ('wc_7', 0.29000000000000015), ('wc_16', 0.3800000000000002)]",0.9216155492920002,,,22.0,0.042763999999999996,['Pass'],Pass,0.42000000000000026,0.5799999999999997,2.0,2.0,0.4
383.0,5.0,wc_5,,0.0,,,,321.0,,,,Fail,,,,,
383.0,5.0,wc_5,,0.0,,,68.0,,,,,Fail,,,,,
383.0,5.0,wc_5,,0.0,,,,0.0,,,,Fail,,,,,
383.0,5.0,wc_5,wc_5,0.0,"[('wc_5', 0.4600000000000003)]",0.4600000000000003,,,35.0,0.002709,['Fail'],Fail,0.4600000000000003,-0.015555555555555878,4.0,9.0,0.7
383.0,5.0,wc_5,,0.0,,,,162.0,,,,Fail,,,,,
383.0,5.0,wc_5,wc_11,0.0,"[('wc_11', 0.43000000000000027), ('wc_5', 0.4600000000000003)]",0.6922000000000004,,,36.0,0.005978,['Fail'],Fail,0.43000000000000027,0.03153846153846129,0.0,0.0,0.7
383.0,5.0,wc_5,,0.0,,,,103.0,,,,Fail,,,,,
383.0,5.0,wc_5,wc_10,0.0,"[('wc_5', 0.4600000000000003), ('wc_11', 0.43000000000000027)]",0.6922000000000004,,,23.0,0.006538,['Fail'],Fail,0.20000000000000007,0.04999999999999993,2.0,8.0,0.1
383.0,5.0,wc_5,,0.0,,,,81.0,,,,Fail,,,,,
383.0,5.0,wc_5,wc_12,0.0,"[('wc_12', 0.4700000000000003), ('wc_5', 0.4600000000000003), ('wc_11', 0.43000000000000027)]",0.8368660000000002,,,27.0,0.008598,['Fail'],Fail,0.4700000000000003,-0.04142857142857176,3.0,7.0,0.5
383.0,5.0,wc_5,,0.0,,,,262.0,,,,Fail,,,,,
383.0,5.0,wc_5,wc_2,0.0,"[('wc_2', 0.3200000000000002), ('wc_5', 0.4600000000000003), ('wc_11', 0.43000000000000027), ('wc_12', 0.4700000000000003)]",0.8890688800000002,,,36.0,0.0113,['Fail'],Fail,0.3200000000000002,0.3049999999999998,5.0,8.0,0.3
383.0,5.0,wc_5,,0.0,,,,142.0,,,,Fail,,,,,
383.0,5.0,wc_5,wc_7,0.0,"[('wc_5', 0.4600000000000003), ('wc_11', 0.43000000000000027), ('wc_12', 0.4700000000000003), ('wc_2', 0.3200000000000002)]",0.8890688800000002,,,35.0,0.011723,['Fail'],Fail,0.30000000000000016,0.19999999999999984,1.0,2.0,0.2
383.0,5.0,wc_5,,0.0,,,,162.0,,,,Fail,,,,,
383.0,5.0,wc_5,wc_13,1.0,"[('wc_13', 0.4600000000000003), ('wc_5', 0.4600000000000003), ('wc_11', 0.43000000000000027), ('wc_12', 0.4700000000000003), ('wc_2', 0.3200000000000002)]",0.9400971952000001,,,29.0,0.045408,['Fail'],Fail,0.4600000000000003,-0.3350000000000003,1.0,8.0,1.0
398.0,5.0,wc_5,,0.0,,,,381.0,,,,Pass,,,,,
398.0,5.0,wc_5,,0.0,,,80.0,,,,,Pass,,,,,
398.0,5.0,wc_5,,0.0,,,,0.0,,,,Pass,,,,,
398.0,5.0,wc_5,wc_5,0.0,"[('wc_5', 0.4700000000000003)]",0.4700000000000003,,,24.0,0.002262,['Pass'],Pass,0.4700000000000003,-0.4700000000000003,0.0,0.0,0.7
398.0,5.0,wc_5,,0.0,,,,41.0,,,,Pass,,,,,
398.0,5.0,wc_5,wc_1,0.0,"[('wc_1', 0.4700000000000003), ('wc_5', 0.4700000000000003)]",0.7191000000000003,,,38.0,0.004237,['Pass'],Pass,0.4700000000000003,-0.2700000000000003,0.0,0.0,1.0
398.0,5.0,wc_5,,0.0,,,,202.0,,,,Pass,,,,,
398.0,5.0,wc_5,wc_13,0.0,"[('wc_13', 0.4600000000000003), ('wc_5', 0.4700000000000003), ('wc_1', 0.4700000000000003)]",0.8483140000000002,,,36.0,0.005973,['Pass'],Pass,0.4600000000000003,-0.3350000000000003,1.0,8.0,1.0
398.0,5.0,wc_5,,0.0,,,,341.0,,,,Pass,,,,,
398.0,5.0,wc_5,wc_11,1.0,"[('wc_11', 0.4400000000000003), ('wc_5', 0.4700000000000003), ('wc_1', 0.4700000000000003), ('wc_13', 0.4600000000000003)]",0.9150558400000002,,,21.0,0.04071,['Pass'],Pass,0.4500000000000003,0.5499999999999997,2.0,2.0,0.7
413.0,6.0,wc_6,,0.0,,,,21.0,,,,Pass,,,,,
413.0,6.0,wc_6,,0.0,,,68.0,,,,,Pass,,,,,
413.0,6.0,wc_6,,0.0,,,,0.0,,,,Pass,,,,,
413.0,6.0,wc_6,wc_6,0.0,"[('wc_6', 0.6900000000000005)]",0.6900000000000005,,,26.0,0.002576,['Pass'],Pass,0.6900000000000005,-0.5233333333333339,1.0,6.0,1.0
413.0,6.0,wc_6,,0.0,,,,0.0,,,,Pass,,,,,
413.0,6.0,wc_6,wc_10,0.0,"[('wc_6', 0.6900000000000005)]",0.6900000000000005,,,25.0,0.004401,['Pass'],Pass,0.20000000000000007,-5.551115123125783e-17,0.0,0.0,0.1
413.0,6.0,wc_6,,0.0,,,,101.0,,,,Pass,,,,,
413.0,6.0,wc_6,wc_13,0.0,"[('wc_6', 0.6900000000000005)]",0.6900000000000005,,,28.0,0.006242,['Pass'],Pass,0.4600000000000003,-0.2377777777777781,2.0,9.0,1.0
413.0,6.0,wc_6,,0.0,,,,0.0,,,,Pass,,,,,
413.0,6.0,wc_6,wc_15,0.0,"[('wc_15', 0.4400000000000003), ('wc_6', 0.6900000000000005)]",0.8264000000000004,,,33.0,0.007373999999999999,['Pass'],Pass,0.4400000000000003,-0.4400000000000003,0.0,4.0,0.7
413.0,6.0,wc_6,,0.0,,,,402.0,,,,Pass,,,,,
413.0,6.0,wc_6,wc_3,1.0,"[('wc_3', 0.6100000000000004), ('wc_6', 0.6900000000000005), ('wc_15', 0.4400000000000003)]",0.9322960000000002,,,40.0,0.046576000000000006,['Pass'],Pass,0.6100000000000004,-0.6100000000000004,0.0,0.0,0.9
454.0,6.0,wc_6,,0.0,,,,101.0,,,,Fail,,,,,
454.0,6.0,wc_6,,0.0,,,72.0,,,,,Fail,,,,,
454.0,6.0,wc_6,,0.0,,,,0.0,,,,Fail,,,,,
454.0,6.0,wc_6,wc_6,0.0,"[('wc_6', 0.6900000000000005)]",0.6900000000000005,,,26.0,0.002174,['Fail'],Fail,0.6900000000000005,-0.4042857142857148,2.0,7.0,1.0
454.0,6.0,wc_6,,0.0,,,,0.0,,,,Fail,,,,,
454.0,6.0,wc_6,wc_7,0.0,"[('wc_7', 0.30000000000000016), ('wc_6', 0.6900000000000005)]",0.7830000000000004,,,36.0,0.00431,['Fail'],Fail,0.30000000000000016,-0.10000000000000014,1.0,5.0,0.2
454.0,6.0,wc_6,,0.0,,,,243.0,,,,Fail,,,,,
454.0,6.0,wc_6,wc_17,0.0,"[('wc_17', 0.4700000000000003), ('wc_6', 0.6900000000000005), ('wc_7', 0.30000000000000016)]",0.8849900000000003,,,32.0,0.006784,['Fail'],Fail,0.4700000000000003,-0.2200000000000003,1.0,4.0,0.9
454.0,6.0,wc_6,,0.0,,,,362.0,,,,Fail,,,,,
454.0,6.0,wc_6,wc_3,1.0,"[('wc_3', 0.6100000000000004), ('wc_6', 0.6900000000000005), ('wc_7', 0.30000000000000016), ('wc_17', 0.4700000000000003)]",0.9551461000000001,,,26.0,0.041907,['Fail'],Fail,0.6200000000000004,0.37999999999999956,1.0,1.0,0.9
494.0,6.0,wc_6,,0.0,,,,101.0,,,,Fail,,,,,
494.0,6.0,wc_6,,0.0,,,65.0,,,,,Fail,,,,,
494.0,6.0,wc_6,,0.0,,,,0.0,,,,Fail,,,,,
494.0,6.0,wc_6,wc_6,0.0,"[('wc_6', 0.6900000000000005)]",0.6900000000000005,,,32.0,0.002108,['Fail'],Fail,0.6900000000000005,-0.3150000000000005,3.0,8.0,1.0
494.0,6.0,wc_6,,0.0,,,,0.0,,,,Fail,,,,,
494.0,6.0,wc_6,wc_8,0.0,"[('wc_8', 0.42000000000000026), ('wc_6', 0.6900000000000005)]",0.8202000000000004,,,32.0,0.004532,['Fail'],Fail,0.42000000000000026,-0.08666666666666695,2.0,6.0,0.4
494.0,6.0,wc_6,,0.0,,,,203.0,,,,Fail,,,,,
494.0,6.0,wc_6,wc_16,0.0,"[('wc_6', 0.6900000000000005), ('wc_8', 0.42000000000000026)]",0.8202000000000004,,,36.0,0.00585,['Fail'],Fail,0.39000000000000024,-0.22333333333333358,1.0,6.0,0.5
494.0,6.0,wc_6,,0.0,,,,362.0,,,,Fail,,,,,
494.0,6.0,wc_6,wc_10,0.0,"[('wc_6', 0.6900000000000005), ('wc_8', 0.42000000000000026)]",0.8202000000000004,,,36.0,0.008146999999999998,['Fail'],Fail,0.19000000000000006,-0.19000000000000006,0.0,2.0,0.1
494.0,6.0,wc_6,,0.0,,,,182.0,,,,Fail,,,,,
494.0,6.0,wc_6,wc_17,1.0,"[('wc_17', 0.4700000000000003), ('wc_6', 0.6900000000000005), ('wc_8', 0.42000000000000026)]",0.9047060000000002,,,38.0,0.04791199999999999,['Fail'],Fail,0.4800000000000003,0.019999999999999685,3.0,6.0,0.9
516.0,6.0,wc_6,,0.0,,,,183.0,,,,Fail,,,,,
516.0,6.0,wc_6,,0.0,,,62.0,,,,,Fail,,,,,
516.0,6.0,wc_6,,0.0,,,,0.0,,,,Fail,,,,,
516.0,6.0,wc_6,wc_6,0.0,"[('wc_6', 0.6900000000000005)]",0.6900000000000005,,,21.0,0.002032,['Fail'],Fail,0.6900000000000005,-0.24555555555555608,4.0,9.0,1.0
516.0,6.0,wc_6,,0.0,,,,202.0,,,,Fail,,,,,
516.0,6.0,wc_6,wc_1,0.0,"[('wc_1', 0.4800000000000003), ('wc_6', 0.6900000000000005)]",0.8388000000000003,,,26.0,0.004789,['Fail'],Fail,0.4800000000000003,-0.23000000000000032,1.0,4.0,1.0
516.0,6.0,wc_6,,0.0,,,,223.0,,,,Fail,,,,,
516.0,6.0,wc_6,wc_10,0.0,"[('wc_10', 0.18000000000000005), ('wc_6', 0.6900000000000005), ('wc_1', 0.4800000000000003)]",0.8678160000000003,,,32.0,0.010343999999999999,['Fail'],Fail,0.18000000000000005,-0.18000000000000005,0.0,3.0,0.1
516.0,6.0,wc_6,,0.0,,,,121.0,,,,Fail,,,,,
516.0,6.0,wc_6,wc_14,1.0,"[('wc_14', 0.5300000000000004), ('wc_6', 0.6900000000000005), ('wc_1', 0.4800000000000003), ('wc_10', 0.18000000000000005)]",0.9378735200000002,,,37.0,0.047505000000000006,['Fail'],Fail,0.5300000000000004,-0.5300000000000004,0.0,0.0,0.7
539.0,6.0,wc_6,,0.0,,,,142.0,,,,Pass,,,,,
539.0,6.0,wc_6,,0.0,,,66.0,,,,,Pass,,,,,
539.0,6.0,wc_6,,0.0,,,,0.0,,,,Pass,,,,,
539.0,6.0,wc_6,wc_6,0.0,"[('wc_6', 0.6900000000000005)]",0.6900000000000005,,,29.0,0.002044,['Pass'],Pass,0.6900000000000005,-0.6900000000000005,0.0,0.0,1.0
539.0,6.0,wc_6,,0.0,,,,0.0,,,,Pass,,,,,
539.0,6.0,wc_6,wc_11,0.0,"[('wc_11', 0.4500000000000003), ('wc_6', 0.6900000000000005)]",0.8295000000000003,,,25.0,0.004573000000000001,['Pass'],Pass,0.4500000000000003,-0.11666666666666697,2.0,6.0,0.7
539.0,6.0,wc_6,,0.0,,,,41.0,,,,Pass,,,,,
539.0,6.0,wc_6,wc_7,0.0,"[('wc_6', 0.6900000000000005), ('wc_11', 0.4500000000000003)]",0.8295000000000003,,,24.0,0.006139,['Pass'],Pass,0.31000000000000016,-0.060000000000000164,2.0,8.0,0.2
539.0,6.0,wc_6,,0.0,,,,182.0,,,,Pass,,,,,
539.0,6.0,wc_6,wc_14,1.0,"[('wc_14', 0.5300000000000004), ('wc_6', 0.6900000000000005), ('wc_11', 0.4500000000000003)]",0.9198650000000003,,,39.0,0.044215000000000004,['Pass'],Pass,0.5400000000000004,0.45999999999999963,1.0,1.0,0.7
545.0,8.0,wc_8,,0.0,,,,182.0,,,,Fail,,,,,
545.0,8.0,wc_8,,0.0,,,50.0,,,,,Fail,,,,,
545.0,8.0,wc_8,,0.0,,,,0.0,,,,Fail,,,,,
545.0,8.0,wc_8,wc_8,0.0,"[('wc_8', 0.42000000000000026)]",0.42000000000000026,,,29.0,0.002429,['Fail'],Fail,0.42000000000000026,-0.08666666666666695,3.0,9.0,0.4
545.0,8.0,wc_8,,0.0,,,,162.0,,,,Fail,,,,,
545.0,8.0,wc_8,wc_14,0.0,"[('wc_14', 0.5400000000000004), ('wc_8', 0.42000000000000026)]",0.7332000000000003,,,26.0,0.004158,['Fail'],Fail,0.5400000000000004,0.45999999999999963,1.0,1.0,0.7
545.0,8.0,wc_8,,0.0,,,,0.0,,,,Fail,,,,,
545.0,8.0,wc_8,wc_16,0.0,"[('wc_16', 0.3800000000000002), ('wc_8', 0.42000000000000026), ('wc_14', 0.5400000000000004)]",0.8345840000000002,,,28.0,0.006311000000000001,['Fail'],Fail,0.3800000000000002,-0.2688888888888891,1.0,9.0,0.5
545.0,8.0,wc_8,,0.0,,,,203.0,,,,Fail,,,,,
545.0,8.0,wc_8,wc_6,1.0,"[('wc_6', 0.7000000000000005), ('wc_8', 0.42000000000000026), ('wc_14', 0.5400000000000004), ('wc_16', 0.3800000000000002)]",0.9503752000000002,,,21.0,0.046531,['Fail'],Fail,0.7100000000000005,0.2899999999999995,2.0,2.0,1.0
553.0,9.0,wc_9,,0.0,,,,0.0,,,,Fail,,,,,
553.0,9.0,wc_9,,0.0,,,72.0,,,,,Fail,,,,,
553.0,9.0,wc_9,,0.0,,,,0.0,,,,Fail,,,,,
553.0,9.0,wc_9,wc_9,0.0,"[('wc_9', 0.29000000000000015)]",0.29000000000000015,,,30.0,0.002398,['Fail'],Fail,0.29000000000000015,-0.29000000000000015,0.0,0.0,0.3
553.0,9.0,wc_9,,0.0,,,,141.0,,,,Fail,,,,,
553.0,9.0,wc_9,wc_14,0.0,"[('wc_14', 0.5500000000000004)]",0.5500000000000004,,,31.0,0.004417,['Pass'],Fail,0.5500000000000004,0.4499999999999996,2.0,2.0,0.7
553.0,9.0,wc_9,,0.0,,,,321.0,,,,Fail,,,,,
553.0,9.0,wc_9,wc_11,0.0,"[('wc_11', 0.4500000000000003), ('wc_9', 0.29000000000000015)]",0.6095000000000003,,,26.0,0.011216,['Fail'],Fail,0.4500000000000003,-0.07500000000000029,3.0,8.0,0.7
553.0,9.0,wc_9,,0.0,,,,41.0,,,,Fail,,,,,
553.0,9.0,wc_9,wc_7,0.0,"[('wc_7', 0.30000000000000016), ('wc_9', 0.29000000000000015), ('wc_11', 0.4500000000000003)]",0.7266500000000002,,,34.0,0.008799000000000001,['Fail'],Fail,0.30000000000000016,-0.10000000000000014,0.0,0.0,0.2
553.0,9.0,wc_9,,0.0,,,,203.0,,,,Fail,,,,,
553.0,9.0,wc_9,wc_15,0.0,"[('wc_15', 0.4400000000000003), ('wc_9', 0.29000000000000015), ('wc_11', 0.4500000000000003), ('wc_7', 0.30000000000000016)]",0.8469240000000002,,,40.0,0.010261000000000001,['Fail'],Fail,0.4400000000000003,-0.3400000000000003,0.0,0.0,0.7
553.0,9.0,wc_9,,0.0,,,,263.0,,,,Fail,,,,,
553.0,9.0,wc_9,wc_8,1.0,"[('wc_8', 0.42000000000000026), ('wc_9', 0.29000000000000015), ('wc_11', 0.4500000000000003), ('wc_7', 0.30000000000000016), ('wc_15', 0.4400000000000003)]",0.9112159200000002,,,30.0,0.045781,['Fail'],Fail,0.43000000000000027,0.5699999999999997,1.0,1.0,0.4
560.0,7.0,wc_7,,0.0,,,,102.0,,,,Pass,,,,,
560.0,7.0,wc_7,,0.0,,,60.0,,,,,Pass,,,,,
560.0,7.0,wc_7,,0.0,,,,0.0,,,,Pass,,,,,
560.0,7.0,wc_7,wc_7,0.0,"[('wc_7', 0.31000000000000016)]",0.31000000000000016,,,27.0,0.002174,['Pass'],Pass,0.31000000000000016,0.6899999999999998,1.0,1.0,0.2
560.0,7.0,wc_7,,0.0,,,,223.0,,,,Pass,,,,,
560.0,7.0,wc_7,wc_16,0.0,"[('wc_16', 0.3800000000000002), ('wc_7', 0.31000000000000016)]",0.5722000000000003,,,35.0,0.004263,['Pass'],Pass,0.3800000000000002,-0.3800000000000002,0.0,1.0,0.5
560.0,7.0,wc_7,,0.0,,,,0.0,,,,Pass,,,,,
560.0,7.0,wc_7,wc_17,0.0,"[('wc_17', 0.4800000000000003), ('wc_7', 0.31000000000000016), ('wc_16', 0.3800000000000002)]",0.7775440000000002,,,23.0,0.007729,['Pass'],Pass,0.4800000000000003,-0.18000000000000033,0.0,0.0,0.9
560.0,7.0,wc_7,,0.0,,,,61.0,,,,Pass,,,,,
560.0,7.0,wc_7,wc_14,0.0,"[('wc_14', 0.5500000000000004), ('wc_7', 0.31000000000000016), ('wc_16', 0.3800000000000002), ('wc_17', 0.4800000000000003)]",0.8998948000000002,,,20.0,0.007814,['Pass'],Pass,0.5500000000000004,0.11666666666666625,2.0,3.0,0.7
560.0,7.0,wc_7,,0.0,,,,222.0,,,,Pass,,,,,
560.0,7.0,wc_7,wc_2,1.0,"[('wc_2', 0.3300000000000002), ('wc_7', 0.31000000000000016), ('wc_16', 0.3800000000000002), ('wc_17', 0.4800000000000003), ('wc_14', 0.5500000000000004)]",0.9329295160000002,,,36.0,0.045076000000000005,['Pass'],Pass,0.3400000000000002,-0.3400000000000002,0.0,0.0,0.3
566.0,9.0,wc_9,,0.0,,,,183.0,,,,Fail,,,,,
566.0,9.0,wc_9,,0.0,,,63.0,,,,,Fail,,,,,
566.0,9.0,wc_9,,0.0,,,,0.0,,,,Fail,,,,,
566.0,9.0,wc_9,wc_9,0.0,"[('wc_9', 0.30000000000000016)]",0.30000000000000016,,,34.0,0.002058,['Pass'],Fail,0.30000000000000016,0.19999999999999984,1.0,2.0,0.3
566.0,9.0,wc_9,,0.0,,,,382.0,,,,Fail,,,,,
566.0,9.0,wc_9,wc_4,0.0,"[('wc_4', 0.31000000000000016)]",0.31000000000000016,,,25.0,0.004489999999999999,['Fail'],Fail,0.31000000000000016,-0.2433333333333335,0.0,0.0,0.3
566.0,9.0,wc_9,,0.0,,,,222.0,,,,Fail,,,,,
566.0,9.0,wc_9,wc_17,0.0,"[('wc_17', 0.4900000000000003), ('wc_4', 0.31000000000000016)]",0.6481000000000003,,,30.0,0.006679,['Fail'],Fail,0.4900000000000003,0.5099999999999997,1.0,1.0,0.9
566.0,9.0,wc_9,,0.0,,,,362.0,,,,Fail,,,,,
566.0,9.0,wc_9,wc_11,0.0,"[('wc_11', 0.4500000000000003), ('wc_4', 0.31000000000000016), ('wc_17', 0.4900000000000003)]",0.8064550000000003,,,29.0,0.010458,['Fail'],Fail,0.4500000000000003,-0.050000000000000266,0.0,0.0,0.7
566.0,9.0,wc_9,,0.0,,,,103.0,,,,Fail,,,,,
566.0,9.0,wc_9,wc_10,0.0,"[('wc_10', 0.19000000000000006), ('wc_4', 0.31000000000000016), ('wc_17', 0.4900000000000003), ('wc_11', 0.4500000000000003)]",0.8432285500000002,,,39.0,0.010493,['Fail'],Fail,0.19000000000000006,-0.06500000000000006,1.0,8.0,0.1
566.0,9.0,wc_9,,0.0,,,,342.0,,,,Fail,,,,,
566.0,9.0,wc_9,wc_3,1.0,"[('wc_3', 0.6200000000000004), ('wc_4', 0.31000000000000016), ('wc_17', 0.4900000000000003), ('wc_11', 0.4500000000000003), ('wc_10', 0.19000000000000006)]",0.9404268490000002,,,34.0,0.04879799999999999,['Fail'],Fail,0.6200000000000004,-0.37000000000000044,2.0,8.0,0.9
573.0,9.0,wc_9,,0.0,,,,162.0,,,,Fail,,,,,
573.0,9.0,wc_9,,0.0,,,54.0,,,,,Fail,,,,,
573.0,9.0,wc_9,,0.0,,,,0.0,,,,Fail,,,,,
573.0,9.0,wc_9,wc_9,0.0,"[('wc_9', 0.30000000000000016)]",0.30000000000000016,,,25.0,0.002277,['Fail'],Fail,0.30000000000000016,0.03333333333333316,1.0,3.0,0.3
573.0,9.0,wc_9,,0.0,,,,382.0,,,,Fail,,,,,
573.0,9.0,wc_9,wc_4,0.0,"[('wc_4', 0.3200000000000002)]",0.3200000000000002,,,20.0,0.004266,['Pass'],Fail,0.3200000000000002,0.6799999999999998,1.0,1.0,0.3
573.0,9.0,wc_9,,0.0,,,,81.0,,,,Fail,,,,,
573.0,9.0,wc_9,wc_6,0.0,"[('wc_6', 0.7100000000000005), ('wc_9', 0.30000000000000016)]",0.7970000000000004,,,20.0,0.006194999999999999,['Fail'],Fail,0.7100000000000005,-0.3100000000000005,2.0,5.0,1.0
573.0,9.0,wc_9,,0.0,,,,0.0,,,,Fail,,,,,
573.0,9.0,wc_9,wc_7,0.0,"[('wc_7', 0.3200000000000002), ('wc_9', 0.30000000000000016), ('wc_6', 0.7100000000000005)]",0.8619600000000003,,,32.0,0.009297999999999999,['Fail'],Fail,0.3200000000000002,0.34666666666666646,2.0,3.0,0.2
573.0,9.0,wc_9,,0.0,,,,162.0,,,,Fail,,,,,
573.0,9.0,wc_9,wc_13,1.0,"[('wc_13', 0.4500000000000003), ('wc_9', 0.30000000000000016), ('wc_6', 0.7100000000000005), ('wc_7', 0.3200000000000002)]",0.9240780000000002,,,24.0,0.052551,['Fail'],Fail,0.4500000000000003,-0.3388888888888892,1.0,9.0,1.0
580.0,10.0,wc_10,,0.0,,,,321.0,,,,Pass,,,,,
580.0,10.0,wc_10,,0.0,,,56.0,,,,,Pass,,,,,
580.0,10.0,wc_10,,0.0,,,,0.0,,,,Pass,,,,,
580.0,10.0,wc_10,wc_10,0.0,"[('wc_10', 0.20000000000000007)]",0.20000000000000007,,,24.0,0.002456,['Pass'],Pass,0.20000000000000007,-5.551115123125783e-17,0.0,0.0,0.1
580.0,10.0,wc_10,,0.0,,,,142.0,,,,Pass,,,,,
580.0,10.0,wc_10,wc_15,0.0,"[('wc_15', 0.4500000000000003)]",0.4500000000000003,,,34.0,0.004302,['Fail'],Pass,0.4500000000000003,-0.2000000000000003,1.0,4.0,0.7
580.0,10.0,wc_10,,0.0,,,,362.0,,,,Pass,,,,,
580.0,10.0,wc_10,wc_9,0.0,"[('wc_15', 0.4500000000000003)]",0.4500000000000003,,,40.0,0.008371,['Fail'],Pass,0.31000000000000016,0.18999999999999984,2.0,4.0,0.3
580.0,10.0,wc_10,,0.0,,,,263.0,,,,Pass,,,,,
580.0,10.0,wc_10,wc_2,0.0,"[('wc_2', 0.3400000000000002), ('wc_10', 0.20000000000000007), ('wc_9', 0.31000000000000016)]",0.6356800000000002,,,27.0,0.008038,['Pass'],Pass,0.3400000000000002,-0.3400000000000002,0.0,2.0,0.3
580.0,10.0,wc_10,,0.0,,,,202.0,,,,Pass,,,,,
580.0,10.0,wc_10,wc_14,0.0,"[('wc_14', 0.5600000000000004), ('wc_10', 0.20000000000000007), ('wc_9', 0.31000000000000016), ('wc_2', 0.3400000000000002)]",0.8396992000000002,,,31.0,0.011319,['Pass'],Pass,0.5600000000000004,-0.060000000000000386,3.0,6.0,0.7
580.0,10.0,wc_10,,0.0,,,,341.0,,,,Pass,,,,,
580.0,10.0,wc_10,wc_4,0.0,"[('wc_10', 0.20000000000000007), ('wc_9', 0.31000000000000016), ('wc_2', 0.3400000000000002), ('wc_14', 0.5600000000000004)]",0.8396992000000003,,,24.0,0.013760000000000001,['Pass'],Pass,0.3200000000000002,0.17999999999999983,1.0,2.0,0.3
580.0,10.0,wc_10,,0.0,,,,182.0,,,,Pass,,,,,
580.0,10.0,wc_10,wc_11,1.0,"[('wc_11', 0.4600000000000003), ('wc_10', 0.20000000000000007), ('wc_9', 0.31000000000000016), ('wc_2', 0.3400000000000002), ('wc_14', 0.5600000000000004)]",0.9134375680000002,,,34.0,0.052431,['Pass'],Pass,0.4700000000000003,0.19666666666666632,2.0,3.0,0.7
586.0,9.0,wc_9,,0.0,,,,83.0,,,,Pass,,,,,
586.0,9.0,wc_9,,0.0,,,72.0,,,,,Pass,,,,,
586.0,9.0,wc_9,,0.0,,,,0.0,,,,Pass,,,,,
586.0,9.0,wc_9,wc_9,0.0,"[('wc_9', 0.3200000000000002)]",0.3200000000000002,,,24.0,0.002452,['Fail'],Pass,0.3200000000000002,0.2799999999999998,3.0,5.0,0.3
586.0,9.0,wc_9,,0.0,,,,362.0,,,,Pass,,,,,
586.0,9.0,wc_9,wc_3,0.0,"[('wc_3', 0.6200000000000004)]",0.6200000000000004,,,36.0,0.004172,['Pass'],Pass,0.6200000000000004,-0.42000000000000043,0.0,0.0,0.9
586.0,9.0,wc_9,,0.0,,,,0.0,,,,Pass,,,,,
586.0,9.0,wc_9,wc_4,0.0,"[('wc_3', 0.6200000000000004)]",0.6200000000000004,,,25.0,0.005663,['Pass'],Pass,0.3200000000000002,0.013333333333333142,1.0,3.0,0.3
586.0,9.0,wc_9,,0.0,,,,161.0,,,,Pass,,,,,
586.0,9.0,wc_9,wc_14,0.0,"[('wc_14', 0.5700000000000004), ('wc_3', 0.6200000000000004)]",0.8366000000000003,,,29.0,0.008595,['Pass'],Pass,0.5700000000000004,0.0014285714285710016,4.0,7.0,0.7
586.0,9.0,wc_9,,0.0,,,,0.0,,,,Pass,,,,,
586.0,9.0,wc_9,wc_16,1.0,"[('wc_16', 0.39000000000000024), ('wc_3', 0.6200000000000004), ('wc_14', 0.5700000000000004)]",0.9003260000000003,,,22.0,0.053206,['Pass'],Pass,0.39000000000000024,-0.05666666666666692,2.0,6.0,0.5
593.0,8.0,wc_8,,0.0,,,,243.0,,,,Pass,,,,,
593.0,8.0,wc_8,,0.0,,,77.0,,,,,Pass,,,,,
593.0,8.0,wc_8,,0.0,,,,0.0,,,,Pass,,,,,
593.0,8.0,wc_8,wc_8,0.0,"[('wc_8', 0.43000000000000027)]",0.43000000000000027,,,20.0,0.002983,['Fail'],Pass,0.43000000000000027,-0.26333333333333364,1.0,6.0,0.4
593.0,8.0,wc_8,,0.0,,,,82.0,,,,Pass,,,,,
593.0,8.0,wc_8,wc_6,0.0,"[('wc_6', 0.7100000000000005)]",0.7100000000000005,,,34.0,0.004597,['Pass'],Pass,0.7100000000000005,-0.3350000000000005,3.0,8.0,1.0
593.0,8.0,wc_8,,0.0,,,,361.0,,,,Pass,,,,,
593.0,8.0,wc_8,wc_5,0.0,"[('wc_5', 0.4800000000000003), ('wc_6', 0.7100000000000005)]",0.8492000000000004,,,23.0,0.005799,['Pass'],Pass,0.4800000000000003,-0.4030769230769234,0.0,0.0,0.7
593.0,8.0,wc_8,,0.0,,,,41.0,,,,Pass,,,,,
593.0,8.0,wc_8,wc_1,1.0,"[('wc_1', 0.4800000000000003), ('wc_6', 0.7100000000000005), ('wc_5', 0.4800000000000003)]",0.9215840000000002,,,40.0,0.047450000000000006,['Pass'],Pass,0.4800000000000003,-0.4800000000000003,0.0,0.0,1.0
600.0,11.0,wc_11,,0.0,,,,243.0,,,,Fail,,,,,
600.0,11.0,wc_11,,0.0,,,71.0,,,,,Fail,,,,,
600.0,11.0,wc_11,,0.0,,,,0.0,,,,Fail,,,,,
600.0,11.0,wc_11,wc_11,0.0,"[('wc_11', 0.4700000000000003)]",0.4700000000000003,,,20.0,0.002122,['Fail'],Fail,0.4700000000000003,-0.07000000000000028,2.0,5.0,0.7
600.0,11.0,wc_11,,0.0,,,,21.0,,,,Fail,,,,,
600.0,11.0,wc_11,wc_6,0.0,"[('wc_6', 0.7100000000000005), ('wc_11', 0.4700000000000003)]",0.8463000000000004,,,28.0,0.004608,['Fail'],Fail,0.7100000000000005,-0.2655555555555561,4.0,9.0,1.0
600.0,11.0,wc_11,,0.0,,,,341.0,,,,Fail,,,,,
600.0,11.0,wc_11,wc_4,0.0,"[('wc_4', 0.31000000000000016), ('wc_11', 0.4700000000000003), ('wc_6', 0.7100000000000005)]",0.8939470000000003,,,21.0,0.005768,['Fail'],Fail,0.31000000000000016,-0.11000000000000015,1.0,5.0,0.3
600.0,11.0,wc_11,,0.0,,,,182.0,,,,Fail,,,,,
600.0,11.0,wc_11,wc_15,1.0,"[('wc_15', 0.4400000000000003), ('wc_11', 0.4700000000000003), ('wc_6', 0.7100000000000005), ('wc_4', 0.31000000000000016)]",0.9406103200000002,,,27.0,0.047793,['Fail'],Fail,0.4400000000000003,-0.19000000000000028,2.0,8.0,0.7
606.0,11.0,wc_11,,0.0,,,,402.0,,,,Fail,,,,,
606.0,11.0,wc_11,,0.0,,,55.0,,,,,Fail,,,,,
606.0,11.0,wc_11,,0.0,,,,0.0,,,,Fail,,,,,
606.0,11.0,wc_11,wc_11,0.0,"[('wc_11', 0.4800000000000003)]",0.4800000000000003,,,20.0,0.002088,['Pass'],Fail,0.4800000000000003,0.019999999999999685,3.0,6.0,0.7
606.0,11.0,wc_11,,0.0,,,,223.0,,,,Fail,,,,,
606.0,11.0,wc_11,wc_2,0.0,"[('wc_11', 0.4800000000000003)]",0.4800000000000003,,,27.0,0.004569,['Pass'],Fail,0.3400000000000002,-0.17333333333333353,1.0,6.0,0.3
606.0,11.0,wc_11,,0.0,,,,202.0,,,,Fail,,,,,
606.0,11.0,wc_11,wc_14,0.0,"[('wc_14', 0.5800000000000004), ('wc_2', 0.3400000000000002)]",0.7228000000000003,,,32.0,0.006055,['Fail'],Fail,0.5800000000000004,-0.0800000000000004,0.0,0.0,0.7
606.0,11.0,wc_11,,0.0,,,,82.0,,,,Fail,,,,,
606.0,11.0,wc_11,wc_12,0.0,"[('wc_12', 0.4800000000000003), ('wc_11', 0.4800000000000003)]",0.7296000000000002,,,22.0,0.009689,['Pass'],Fail,0.4800000000000003,-0.30608695652173945,0.0,0.0,0.5
606.0,11.0,wc_11,,0.0,,,,401.0,,,,Fail,,,,,
606.0,11.0,wc_11,wc_5,0.0,"[('wc_5', 0.4900000000000003), ('wc_11', 0.4800000000000003), ('wc_12', 0.4800000000000003)]",0.8620960000000002,,,20.0,0.015546999999999998,['Pass'],Fail,0.4900000000000003,0.009999999999999676,1.0,2.0,0.7
606.0,11.0,wc_11,,0.0,,,,103.0,,,,Fail,,,,,
606.0,11.0,wc_11,wc_4,1.0,"[('wc_4', 0.3200000000000002), ('wc_11', 0.4800000000000003), ('wc_12', 0.4800000000000003), ('wc_5', 0.4900000000000003)]",0.9062252800000002,,,39.0,0.046740000000000004,['Pass'],Fail,0.3300000000000002,0.09857142857142837,3.0,7.0,0.3
613.0,11.0,wc_11,,0.0,,,,182.0,,,,Pass,,,,,
613.0,11.0,wc_11,,0.0,,,52.0,,,,,Pass,,,,,
613.0,11.0,wc_11,,0.0,,,,0.0,,,,Pass,,,,,
613.0,11.0,wc_11,wc_11,0.0,"[('wc_11', 0.4900000000000003)]",0.4900000000000003,,,21.0,0.002101,['Pass'],Pass,0.4900000000000003,0.08142857142857107,4.0,7.0,0.7
613.0,11.0,wc_11,,0.0,,,,122.0,,,,Pass,,,,,
613.0,11.0,wc_11,wc_15,0.0,"[('wc_15', 0.4400000000000003), ('wc_11', 0.4900000000000003)]",0.7144000000000004,,,38.0,0.003986,['Pass'],Pass,0.4400000000000003,-0.21777777777777807,2.0,9.0,0.7
613.0,11.0,wc_11,,0.0,,,,81.0,,,,Pass,,,,,
613.0,11.0,wc_11,wc_13,0.0,"[('wc_13', 0.4500000000000003), ('wc_11', 0.4900000000000003), ('wc_15', 0.4400000000000003)]",0.8429200000000002,,,26.0,0.0059,['Pass'],Pass,0.4500000000000003,-0.3785714285714289,0.0,0.0,1.0
613.0,11.0,wc_11,,0.0,,,,0.0,,,,Pass,,,,,
613.0,11.0,wc_11,wc_17,1.0,"[('wc_17', 0.5000000000000003), ('wc_11', 0.4900000000000003), ('wc_15', 0.4400000000000003), ('wc_13', 0.4500000000000003)]",0.9214600000000002,,,24.0,0.051733,['Pass'],Pass,0.5000000000000003,-0.16666666666666702,3.0,9.0,0.9
618.0,12.0,wc_12,,0.0,,,,21.0,,,,Fail,,,,,
618.0,12.0,wc_12,,0.0,,,77.0,,,,,Fail,,,,,
618.0,12.0,wc_12,,0.0,,,,0.0,,,,Fail,,,,,
618.0,12.0,wc_12,wc_12,0.0,"[('wc_12', 0.4900000000000003)]",0.4900000000000003,,,37.0,0.002295,['Pass'],Fail,0.4900000000000003,0.009999999999999676,1.0,2.0,0.5
618.0,12.0,wc_12,,0.0,,,,222.0,,,,Fail,,,,,
618.0,12.0,wc_12,wc_8,0.0,"[('wc_8', 0.42000000000000026), ('wc_12', 0.4900000000000003)]",0.7042000000000004,,,35.0,0.004198,['Pass'],Fail,0.42000000000000026,-0.3200000000000003,0.0,0.0,0.4
618.0,12.0,wc_12,,0.0,,,,102.0,,,,Fail,,,,,
618.0,12.0,wc_12,wc_7,0.0,"[('wc_7', 0.3300000000000002), ('wc_12', 0.4900000000000003), ('wc_8', 0.42000000000000026)]",0.8018140000000002,,,20.0,0.005966000000000001,['Pass'],Fail,0.3300000000000002,-0.030000000000000193,0.0,0.0,0.2
618.0,12.0,wc_12,,0.0,,,,0.0,,,,Fail,,,,,
618.0,12.0,wc_12,wc_11,1.0,"[('wc_11', 0.5000000000000003), ('wc_12', 0.4900000000000003), ('wc_8', 0.42000000000000026), ('wc_7', 0.3300000000000002)]",0.9009070000000002,,,35.0,0.048139,['Pass'],Fail,0.5100000000000003,0.1566666666666663,6.0,9.0,0.7
625.0,12.0,wc_12,,0.0,,,,61.0,,,,Pass,,,,,
625.0,12.0,wc_12,,0.0,,,80.0,,,,,Pass,,,,,
625.0,12.0,wc_12,,0.0,,,,0.0,,,,Pass,,,,,
625.0,12.0,wc_12,wc_12,0.0,"[('wc_12', 0.5000000000000003)]",0.5000000000000003,,,40.0,0.001976,['Pass'],Pass,0.5000000000000003,0.1666666666666663,2.0,3.0,0.5
625.0,12.0,wc_12,,0.0,,,,182.0,,,,Pass,,,,,
625.0,12.0,wc_12,wc_6,0.0,"[('wc_6', 0.7100000000000005), ('wc_12', 0.5000000000000003)]",0.8550000000000003,,,38.0,0.003909,['Pass'],Pass,0.7100000000000005,-0.7100000000000005,0.0,3.0,1.0
625.0,12.0,wc_12,,0.0,,,,223.0,,,,Pass,,,,,
625.0,12.0,wc_12,wc_15,1.0,"[('wc_15', 0.4400000000000003), ('wc_12', 0.5000000000000003), ('wc_6', 0.7100000000000005)]",0.9188000000000003,,,28.0,0.045862,['Pass'],Pass,0.4500000000000003,0.04999999999999971,1.0,2.0,0.7
631.0,13.0,wc_13,,0.0,,,,81.0,,,,Fail,,,,,
631.0,13.0,wc_13,,0.0,,,69.0,,,,,Fail,,,,,
631.0,13.0,wc_13,,0.0,,,,0.0,,,,Fail,,,,,
631.0,13.0,wc_13,wc_13,0.0,"[('wc_13', 0.4600000000000003)]",0.4600000000000003,,,33.0,0.001975,['Fail'],Fail,0.4600000000000003,-0.12666666666666698,1.0,3.0,1.0
631.0,13.0,wc_13,,0.0,,,,321.0,,,,Fail,,,,,
631.0,13.0,wc_13,wc_10,0.0,"[('wc_13', 0.4600000000000003)]",0.4600000000000003,,,32.0,0.003935,['Fail'],Fail,0.21000000000000008,-0.08500000000000008,1.0,8.0,0.1
631.0,13.0,wc_13,,0.0,,,,243.0,,,,Fail,,,,,
631.0,13.0,wc_13,wc_2,0.0,"[('wc_2', 0.3300000000000002), ('wc_13', 0.4600000000000003)]",0.6382000000000003,,,37.0,0.006529,['Fail'],Fail,0.3300000000000002,-0.23000000000000018,0.0,0.0,0.3
631.0,13.0,wc_13,,0.0,,,,122.0,,,,Fail,,,,,
631.0,13.0,wc_13,wc_6,0.0,"[('wc_6', 0.7100000000000005), ('wc_13', 0.4600000000000003), ('wc_2', 0.3300000000000002)]",0.8950780000000003,,,31.0,0.008062,['Fail'],Fail,0.7100000000000005,-0.4600000000000005,1.0,4.0,1.0
631.0,13.0,wc_13,,0.0,,,,361.0,,,,Fail,,,,,
631.0,13.0,wc_13,wc_5,1.0,"[('wc_5', 0.5000000000000003), ('wc_13', 0.4600000000000003), ('wc_2', 0.3300000000000002), ('wc_6', 0.7100000000000005)]",0.9475390000000001,,,38.0,0.049345,['Fail'],Fail,0.5000000000000003,-0.07142857142857179,3.0,7.0,0.7
640.0,13.0,wc_13,,0.0,,,,121.0,,,,Fail,,,,,
640.0,13.0,wc_13,,0.0,,,68.0,,,,,Fail,,,,,
640.0,13.0,wc_13,,0.0,,,,0.0,,,,Fail,,,,,
640.0,13.0,wc_13,wc_13,0.0,"[('wc_13', 0.4700000000000003)]",0.4700000000000003,,,36.0,0.001964,['Fail'],Fail,0.4700000000000003,0.029999999999999694,2.0,4.0,1.0
640.0,13.0,wc_13,,0.0,,,,102.0,,,,Fail,,,,,
640.0,13.0,wc_13,wc_12,0.0,"[('wc_12', 0.5100000000000003), ('wc_13', 0.4700000000000003)]",0.7403000000000004,,,37.0,0.0041589999999999995,['Fail'],Fail,0.5100000000000003,0.08999999999999964,3.0,5.0,0.5
640.0,13.0,wc_13,,0.0,,,,242.0,,,,Fail,,,,,
640.0,13.0,wc_13,wc_1,0.0,"[('wc_1', 0.4800000000000003), ('wc_13', 0.4700000000000003), ('wc_12', 0.5100000000000003)]",0.8649560000000003,,,21.0,0.005871,['Fail'],Fail,0.4800000000000003,-0.4800000000000003,0.0,6.0,1.0
640.0,13.0,wc_13,,0.0,,,,182.0,,,,Fail,,,,,
640.0,13.0,wc_13,wc_8,1.0,"[('wc_8', 0.43000000000000027), ('wc_13', 0.4700000000000003), ('wc_12', 0.5100000000000003), ('wc_1', 0.4800000000000003)]",0.9230249200000001,,,35.0,0.046248,['Fail'],Fail,0.4400000000000003,0.05999999999999972,2.0,4.0,0.4
646.0,13.0,wc_13,,0.0,,,,142.0,,,,Fail,,,,,
646.0,13.0,wc_13,,0.0,,,61.0,,,,,Fail,,,,,
646.0,13.0,wc_13,,0.0,,,,0.0,,,,Fail,,,,,
646.0,13.0,wc_13,wc_13,0.0,"[('wc_13', 0.4800000000000003)]",0.4800000000000003,,,37.0,0.002495,['Fail'],Fail,0.4800000000000003,0.11999999999999966,3.0,5.0,1.0
646.0,13.0,wc_13,,0.0,,,,0.0,,,,Fail,,,,,
646.0,13.0,wc_13,wc_15,0.0,"[('wc_15', 0.4500000000000003), ('wc_13', 0.4800000000000003)]",0.7140000000000003,,,40.0,0.004113,['Fail'],Fail,0.4500000000000003,-0.2000000000000003,1.0,4.0,0.7
646.0,13.0,wc_13,,0.0,,,,362.0,,,,Fail,,,,,
646.0,13.0,wc_13,wc_9,0.0,"[('wc_9', 0.3200000000000002), ('wc_13', 0.4800000000000003), ('wc_15', 0.4500000000000003)]",0.8055200000000002,,,34.0,0.005796,['Fail'],Fail,0.3200000000000002,-0.1057142857142859,0.0,0.0,0.3
646.0,13.0,wc_13,,0.0,,,,101.0,,,,Fail,,,,,
646.0,13.0,wc_13,wc_8,0.0,"[('wc_13', 0.4800000000000003), ('wc_15', 0.4500000000000003), ('wc_9', 0.3200000000000002)]",0.8055200000000002,,,27.0,0.010886,['Fail'],Fail,0.4400000000000003,0.05999999999999972,2.0,4.0,0.4
646.0,13.0,wc_13,,0.0,,,,162.0,,,,Fail,,,,,
646.0,13.0,wc_13,wc_14,1.0,"[('wc_14', 0.5700000000000004), ('wc_13', 0.4800000000000003), ('wc_15', 0.4500000000000003), ('wc_9', 0.3200000000000002)]",0.9163736000000002,,,29.0,0.06812,['Fail'],Fail,0.5700000000000004,-0.42714285714285755,1.0,7.0,0.7
652.0,13.0,wc_13,,0.0,,,,102.0,,,,Fail,,,,,
652.0,13.0,wc_13,,0.0,,,78.0,,,,,Fail,,,,,
652.0,13.0,wc_13,,0.0,,,,0.0,,,,Fail,,,,,
652.0,13.0,wc_13,wc_13,0.0,"[('wc_13', 0.4900000000000003)]",0.4900000000000003,,,31.0,0.002081,['Fail'],Fail,0.4900000000000003,0.1766666666666663,4.0,6.0,1.0
652.0,13.0,wc_13,,0.0,,,,341.0,,,,Fail,,,,,
652.0,13.0,wc_13,wc_3,0.0,"[('wc_3', 0.6300000000000004), ('wc_13', 0.4900000000000003)]",0.8113000000000004,,,25.0,0.003975,['Fail'],Fail,0.6300000000000004,-0.5300000000000005,0.0,0.0,0.9
652.0,13.0,wc_13,,0.0,,,,182.0,,,,Fail,,,,,
652.0,13.0,wc_13,wc_10,0.0,"[('wc_13', 0.4900000000000003), ('wc_3', 0.6300000000000004)]",0.8113000000000004,,,29.0,0.006267,['Fail'],Fail,0.20000000000000007,-0.10909090909090915,0.0,0.0,0.1
652.0,13.0,wc_13,,0.0,,,,61.0,,,,Fail,,,,,
652.0,13.0,wc_13,wc_7,0.0,"[('wc_13', 0.4900000000000003), ('wc_3', 0.6300000000000004)]",0.8113000000000004,,,38.0,0.008823000000000001,['Fail'],Fail,0.3400000000000002,-0.14000000000000018,1.0,5.0,0.2
652.0,13.0,wc_13,,0.0,,,,0.0,,,,Fail,,,,,
652.0,13.0,wc_13,wc_8,0.0,"[('wc_8', 0.43000000000000027), ('wc_13', 0.4900000000000003), ('wc_3', 0.6300000000000004)]",0.8924410000000003,,,40.0,0.009779,['Fail'],Fail,0.43000000000000027,-0.03000000000000025,2.0,5.0,0.4
652.0,13.0,wc_13,,0.0,,,,301.0,,,,Fail,,,,,
652.0,13.0,wc_13,wc_4,0.0,"[('wc_13', 0.4900000000000003), ('wc_3', 0.6300000000000004), ('wc_8', 0.43000000000000027)]",0.8924410000000003,,,29.0,0.01134,['Fail'],Fail,0.3300000000000002,-0.0992307692307694,0.0,0.0,0.3
652.0,13.0,wc_13,,0.0,,,,161.0,,,,Fail,,,,,
652.0,13.0,wc_13,wc_14,0.0,"[('wc_13', 0.4900000000000003), ('wc_3', 0.6300000000000004), ('wc_8', 0.43000000000000027)]",0.8924410000000003,,,27.0,0.013689,['Fail'],Fail,0.5700000000000004,-0.42714285714285755,1.0,7.0,0.7
652.0,13.0,wc_13,,0.0,,,,361.0,,,,Fail,,,,,
652.0,13.0,wc_13,wc_5,1.0,"[('wc_5', 0.5000000000000003), ('wc_13', 0.4900000000000003), ('wc_3', 0.6300000000000004), ('wc_8', 0.43000000000000027)]",0.9462205000000001,,,31.0,0.05364000000000001,['Fail'],Fail,0.5000000000000003,-0.5000000000000003,0.0,0.0,0.7
656.0,13.0,wc_13,,0.0,,,,121.0,,,,Fail,,,,,
656.0,13.0,wc_13,,0.0,,,66.0,,,,,Fail,,,,,
656.0,13.0,wc_13,,0.0,,,,0.0,,,,Fail,,,,,
656.0,13.0,wc_13,wc_13,0.0,"[('wc_13', 0.5000000000000003)]",0.5000000000000003,,,20.0,0.001869,['Fail'],Fail,0.5000000000000003,0.21428571428571397,5.0,7.0,1.0
656.0,13.0,wc_13,,0.0,,,,301.0,,,,Fail,,,,,
656.0,13.0,wc_13,wc_9,0.0,"[('wc_13', 0.5000000000000003)]",0.5000000000000003,,,20.0,0.004254,['Fail'],Fail,0.3300000000000002,0.16999999999999982,1.0,2.0,0.3
656.0,13.0,wc_13,,0.0,,,,101.0,,,,Fail,,,,,
656.0,13.0,wc_13,wc_8,0.0,"[('wc_8', 0.4400000000000003), ('wc_13', 0.5000000000000003)]",0.7200000000000003,,,24.0,0.006011,['Fail'],Fail,0.4400000000000003,0.05999999999999972,3.0,6.0,0.4
656.0,13.0,wc_13,,0.0,,,,281.0,,,,Fail,,,,,
656.0,13.0,wc_13,wc_3,0.0,"[('wc_3', 0.6400000000000005), ('wc_13', 0.5000000000000003), ('wc_8', 0.4400000000000003)]",0.8992000000000002,,,29.0,0.008111,['Fail'],Fail,0.6400000000000005,0.35999999999999954,1.0,1.0,0.9
656.0,13.0,wc_13,,0.0,,,,242.0,,,,Fail,,,,,
656.0,13.0,wc_13,wc_17,1.0,"[('wc_17', 0.5000000000000003), ('wc_13', 0.5000000000000003), ('wc_8', 0.4400000000000003), ('wc_3', 0.6400000000000005)]",0.9496000000000001,,,30.0,0.047465,['Fail'],Fail,0.5000000000000003,-0.5000000000000003,0.0,0.0,0.9
660.0,13.0,wc_13,,0.0,,,,41.0,,,,Fail,,,,,
660.0,13.0,wc_13,,0.0,,,59.0,,,,,Fail,,,,,
660.0,13.0,wc_13,,0.0,,,,0.0,,,,Fail,,,,,
660.0,13.0,wc_13,wc_13,0.0,"[('wc_13', 0.5100000000000003)]",0.5100000000000003,,,30.0,0.002103,['Fail'],Fail,0.5100000000000003,0.23999999999999966,6.0,8.0,1.0
660.0,13.0,wc_13,,0.0,,,,202.0,,,,Fail,,,,,
660.0,13.0,wc_13,wc_8,0.0,"[('wc_8', 0.4500000000000003), ('wc_13', 0.5100000000000003)]",0.7305000000000004,,,27.0,0.004038,['Fail'],Fail,0.4500000000000003,0.12142857142857111,4.0,7.0,0.4
660.0,13.0,wc_13,,0.0,,,,162.0,,,,Fail,,,,,
660.0,13.0,wc_13,wc_1,0.0,"[('wc_1', 0.4800000000000003), ('wc_13', 0.5100000000000003), ('wc_8', 0.4500000000000003)]",0.8598600000000003,,,25.0,0.006219000000000001,['Fail'],Fail,0.4800000000000003,-0.38000000000000034,0.0,0.0,1.0
660.0,13.0,wc_13,,0.0,,,,162.0,,,,Fail,,,,,
660.0,13.0,wc_13,wc_7,1.0,"[('wc_7', 0.3300000000000002), ('wc_13', 0.5100000000000003), ('wc_8', 0.4500000000000003), ('wc_1', 0.4800000000000003)]",0.9061062000000002,,,25.0,0.044997,['Fail'],Fail,0.3300000000000002,-0.08000000000000018,2.0,8.0,0.2
663.0,13.0,wc_13,,0.0,,,,162.0,,,,Pass,,,,,
663.0,13.0,wc_13,,0.0,,,79.0,,,,,Pass,,,,,
663.0,13.0,wc_13,,0.0,,,,0.0,,,,Pass,,,,,
663.0,13.0,wc_13,wc_13,0.0,"[('wc_13', 0.5200000000000004)]",0.5200000000000004,,,28.0,0.002394,['Fail'],Pass,0.5200000000000004,0.25777777777777744,7.0,9.0,1.0
663.0,13.0,wc_13,,0.0,,,,0.0,,,,Pass,,,,,
663.0,13.0,wc_13,wc_16,0.0,"[('wc_13', 0.5200000000000004)]",0.5200000000000004,,,38.0,0.003966,['Fail'],Pass,0.39000000000000024,-0.27888888888888913,0.0,0.0,0.5
663.0,13.0,wc_13,,0.0,,,,103.0,,,,Pass,,,,,
663.0,13.0,wc_13,wc_15,0.0,"[('wc_15', 0.4500000000000003), ('wc_16', 0.39000000000000024)]",0.6645000000000003,,,30.0,0.005906,['Pass'],Pass,0.4500000000000003,-0.2000000000000003,2.0,8.0,0.7
663.0,13.0,wc_13,,0.0,,,,243.0,,,,Pass,,,,,
663.0,13.0,wc_13,wc_7,0.0,"[('wc_7', 0.3300000000000002), ('wc_16', 0.39000000000000024), ('wc_15', 0.4500000000000003)]",0.7752150000000002,,,30.0,0.007706,['Pass'],Pass,0.3300000000000002,-0.08000000000000018,2.0,8.0,0.2
663.0,13.0,wc_13,,0.0,,,,341.0,,,,Pass,,,,,
663.0,13.0,wc_13,wc_5,0.0,"[('wc_5', 0.5000000000000003), ('wc_16', 0.39000000000000024), ('wc_15', 0.4500000000000003), ('wc_7', 0.3300000000000002)]",0.8876075000000002,,,34.0,0.009395,['Pass'],Pass,0.5000000000000003,-0.5000000000000003,0.0,2.0,0.7
663.0,13.0,wc_13,,0.0,,,,61.0,,,,Pass,,,,,
663.0,13.0,wc_13,wc_6,1.0,"[('wc_6', 0.7100000000000005), ('wc_16', 0.39000000000000024), ('wc_15', 0.4500000000000003), ('wc_7', 0.3300000000000002), ('wc_5', 0.5000000000000003)]",0.9674061750000001,,,34.0,0.050925,['Pass'],Pass,0.7100000000000005,-0.7100000000000005,0.0,0.0,1.0
666.0,16.0,wc_16,,0.0,,,,243.0,,,,Pass,,,,,
666.0,16.0,wc_16,,0.0,,,80.0,,,,,Pass,,,,,
666.0,16.0,wc_16,,0.0,,,,0.0,,,,Pass,,,,,
666.0,16.0,wc_16,wc_16,0.0,"[('wc_16', 0.40000000000000024)]",0.40000000000000024,,,24.0,0.002219,['Fail'],Pass,0.40000000000000024,0.5999999999999998,1.0,1.0,0.5
666.0,16.0,wc_16,,0.0,,,,422.0,,,,Pass,,,,,
666.0,16.0,wc_16,wc_5,0.0,"[('wc_5', 0.5000000000000003)]",0.5000000000000003,,,38.0,0.004014,['Pass'],Pass,0.5000000000000003,-0.16666666666666702,1.0,3.0,0.7
666.0,16.0,wc_16,,0.0,,,,162.0,,,,Pass,,,,,
666.0,16.0,wc_16,wc_15,0.0,"[('wc_15', 0.4500000000000003), ('wc_5', 0.5000000000000003)]",0.7250000000000003,,,37.0,0.005660999999999999,['Pass'],Pass,0.4500000000000003,-0.11666666666666697,3.0,9.0,0.7
666.0,16.0,wc_16,,0.0,,,,283.0,,,,Pass,,,,,
666.0,16.0,wc_16,wc_1,0.0,"[('wc_1', 0.4900000000000003), ('wc_5', 0.5000000000000003), ('wc_15', 0.4500000000000003)]",0.8597500000000002,,,37.0,0.008466999999999999,['Pass'],Pass,0.4900000000000003,0.009999999999999676,1.0,2.0,1.0
666.0,16.0,wc_16,,0.0,,,,0.0,,,,Pass,,,,,
666.0,16.0,wc_16,wc_3,1.0,"[('wc_3', 0.6500000000000005), ('wc_5', 0.5000000000000003), ('wc_15', 0.4500000000000003), ('wc_1', 0.4900000000000003)]",0.9509125000000002,,,24.0,0.046528,['Pass'],Pass,0.6500000000000005,-0.05000000000000049,3.0,5.0,0.9
668.0,14.0,wc_14,,0.0,,,,181.0,,,,Pass,,,,,
668.0,14.0,wc_14,,0.0,,,56.0,,,,,Pass,,,,,
668.0,14.0,wc_14,,0.0,,,,0.0,,,,Pass,,,,,
668.0,14.0,wc_14,wc_14,0.0,"[('wc_14', 0.5600000000000004)]",0.5600000000000004,,,23.0,0.002139,['Pass'],Pass,0.5600000000000004,-0.47666666666666707,0.0,0.0,0.7
668.0,14.0,wc_14,,0.0,,,,301.0,,,,Pass,,,,,
668.0,14.0,wc_14,wc_10,0.0,"[('wc_14', 0.5600000000000004)]",0.5600000000000004,,,20.0,0.004087,['Pass'],Pass,0.19000000000000006,-0.19000000000000006,0.0,5.0,0.1
668.0,14.0,wc_14,,0.0,,,,182.0,,,,Pass,,,,,
668.0,14.0,wc_14,wc_17,0.0,"[('wc_17', 0.5000000000000003), ('wc_14', 0.5600000000000004)]",0.7800000000000004,,,34.0,0.006505,['Pass'],Pass,0.5000000000000003,-0.5000000000000003,0.0,3.0,0.9
668.0,14.0,wc_14,,0.0,,,,322.0,,,,Pass,,,,,
668.0,14.0,wc_14,wc_9,0.0,"[('wc_14', 0.5600000000000004), ('wc_17', 0.5000000000000003)]",0.7800000000000004,,,23.0,0.008579,['Pass'],Pass,0.3300000000000002,-0.16333333333333352,1.0,6.0,0.3
668.0,14.0,wc_14,,0.0,,,,243.0,,,,Pass,,,,,
668.0,14.0,wc_14,wc_1,0.0,"[('wc_1', 0.5000000000000003), ('wc_14', 0.5600000000000004), ('wc_17', 0.5000000000000003)]",0.8900000000000002,,,22.0,0.010166,['Pass'],Pass,0.5000000000000003,0.1666666666666663,2.0,3.0,1.0
668.0,14.0,wc_14,,0.0,,,,182.0,,,,Pass,,,,,
668.0,14.0,wc_14,wc_8,1.0,"[('wc_8', 0.4600000000000003), ('wc_14', 0.5600000000000004), ('wc_17', 0.5000000000000003), ('wc_1', 0.5000000000000003)]",0.9406000000000002,,,36.0,0.052856,['Pass'],Pass,0.4700000000000003,-0.4700000000000003,0.0,0.0,0.4
670.0,15.0,wc_15,,0.0,,,,183.0,,,,Pass,,,,,
670.0,15.0,wc_15,,0.0,,,66.0,,,,,Pass,,,,,
670.0,15.0,wc_15,,0.0,,,,0.0,,,,Pass,,,,,
670.0,15.0,wc_15,wc_15,0.0,"[('wc_15', 0.4500000000000003)]",0.4500000000000003,,,40.0,0.002172,['Pass'],Pass,0.4500000000000003,-0.4500000000000003,0.0,1.0,0.7
670.0,15.0,wc_15,,0.0,,,,402.0,,,,Pass,,,,,
670.0,15.0,wc_15,wc_3,0.0,"[('wc_3', 0.6500000000000005), ('wc_15', 0.4500000000000003)]",0.8075000000000003,,,22.0,0.004062,['Pass'],Pass,0.6500000000000005,-0.15000000000000047,3.0,6.0,0.9
670.0,15.0,wc_15,,0.0,,,,182.0,,,,Pass,,,,,
670.0,15.0,wc_15,wc_10,0.0,"[('wc_15', 0.4500000000000003), ('wc_3', 0.6500000000000005)]",0.8075000000000003,,,31.0,0.006333999999999999,['Pass'],Pass,0.18000000000000005,-0.18000000000000005,0.0,6.0,0.1
670.0,15.0,wc_15,,0.0,,,,81.0,,,,Pass,,,,,
670.0,15.0,wc_15,wc_8,0.0,"[('wc_15', 0.4500000000000003), ('wc_3', 0.6500000000000005)]",0.8075000000000003,,,21.0,0.009318,['Pass'],Pass,0.4700000000000003,-0.4700000000000003,0.0,0.0,0.4
670.0,15.0,wc_15,,0.0,,,,82.0,,,,Pass,,,,,
670.0,15.0,wc_15,wc_6,1.0,"[('wc_6', 0.7100000000000005), ('wc_15', 0.4500000000000003), ('wc_3', 0.6500000000000005)]",0.9441750000000002,,,24.0,0.05137599999999999,['Pass'],Pass,0.7100000000000005,-0.3766666666666672,1.0,3.0,1.0
673.0,17.0,wc_17,,0.0,,,,263.0,,,,Pass,,,,,
673.0,17.0,wc_17,,0.0,,,71.0,,,,,Pass,,,,,
673.0,17.0,wc_17,,0.0,,,,0.0,,,,Pass,,,,,
673.0,17.0,wc_17,wc_17,0.0,"[('wc_17', 0.5000000000000003)]",0.5000000000000003,,,27.0,0.002212,['Pass'],Pass,0.5000000000000003,-0.3000000000000003,1.0,5.0,0.9
673.0,17.0,wc_17,,0.0,,,,362.0,,,,Pass,,,,,
673.0,17.0,wc_17,wc_3,0.0,"[('wc_3', 0.6500000000000005), ('wc_17', 0.5000000000000003)]",0.8250000000000004,,,22.0,0.004279,['Pass'],Pass,0.6500000000000005,-0.07857142857142907,4.0,7.0,0.9
673.0,17.0,wc_17,,0.0,,,,161.0,,,,Pass,,,,,
673.0,17.0,wc_17,wc_13,1.0,"[('wc_13', 0.5200000000000004), ('wc_17', 0.5000000000000003), ('wc_3', 0.6500000000000005)]",0.9160000000000003,,,26.0,0.04466900000000001,['Pass'],Pass,0.5200000000000004,-0.27000000000000035,1.0,4.0,1.0
