mpecck/BCQC/bcqc_with_qdt/results/raw/input_1/independent_qc/training/20_workpiece/20200429_084306/wp_7_qc_majority_0.9.csv
production_index,step_idx,production_workcell,qc,consent,winner_qc_list,score,production_time,transport_time,inspection_time,network_time,qc_results,actual_quality,qc_score,score_error,in_winner_counter,in_qc_counter,qc_capability
12.0,1.0,wc_1,,0.0,,,53.0,,,,,Fail,,,,,
12.0,1.0,wc_1,,0.0,,,,0.0,,,,Fail,,,,,
12.0,1.0,wc_1,wc_1,0.0,"[('wc_1', 0.6100000000000004)]",0.6100000000000004,,,34.0,0.002343,['Fail'],Fail,0.6100000000000004,-0.3023076923076927,0.0,0.0,1.0
12.0,1.0,wc_1,,0.0,,,,222.0,,,,Fail,,,,,
12.0,1.0,wc_1,wc_14,0.0,"[('wc_14', 0.7100000000000005), ('wc_1', 0.6100000000000004)]",0.8869000000000004,,,23.0,0.004005,['Fail'],Fail,0.7100000000000005,-0.7100000000000005,0.0,1.0,0.7
12.0,1.0,wc_1,,0.0,,,,0.0,,,,Fail,,,,,
12.0,1.0,wc_1,wc_17,1.0,"[('wc_17', 0.5500000000000004), ('wc_1', 0.6100000000000004), ('wc_14', 0.7100000000000005)]",0.9491050000000002,,,25.0,0.038235,['Fail'],Fail,0.5600000000000004,0.03999999999999959,3.0,5.0,0.9
103.0,1.0,wc_1,,0.0,,,,243.0,,,,Pass,,,,,
103.0,1.0,wc_1,,0.0,,,62.0,,,,,Pass,,,,,
103.0,1.0,wc_1,,0.0,,,,0.0,,,,Pass,,,,,
103.0,1.0,wc_1,wc_1,0.0,"[('wc_1', 0.6200000000000004)]",0.6200000000000004,,,33.0,0.002095,['Pass'],Pass,0.6200000000000004,0.37999999999999956,1.0,1.0,1.0
103.0,1.0,wc_1,,0.0,,,,202.0,,,,Pass,,,,,
103.0,1.0,wc_1,wc_13,0.0,"[('wc_13', 0.5800000000000004), ('wc_1', 0.6200000000000004)]",0.8404000000000004,,,20.0,0.0038650000000000004,['Pass'],Pass,0.5800000000000004,-0.4133333333333338,1.0,6.0,1.0
103.0,1.0,wc_1,,0.0,,,,361.0,,,,Pass,,,,,
103.0,1.0,wc_1,wc_4,0.0,"[('wc_4', 0.3600000000000002), ('wc_1', 0.6200000000000004), ('wc_13', 0.5800000000000004)]",0.8978560000000002,,,20.0,0.005828,['Pass'],Pass,0.3600000000000002,-0.1600000000000002,1.0,5.0,0.3
103.0,1.0,wc_1,,0.0,,,,81.0,,,,Pass,,,,,
103.0,1.0,wc_1,wc_6,1.0,"[('wc_6', 0.7900000000000006), ('wc_1', 0.6200000000000004), ('wc_13', 0.5800000000000004), ('wc_4', 0.3600000000000002)]",0.9785497600000002,,,25.0,0.038311000000000005,['Pass'],Pass,0.7900000000000006,-0.7900000000000006,0.0,0.0,1.0
122.0,3.0,wc_3,,0.0,,,,321.0,,,,Fail,,,,,
122.0,3.0,wc_3,,0.0,,,73.0,,,,,Fail,,,,,
122.0,3.0,wc_3,,0.0,,,,0.0,,,,Fail,,,,,
122.0,3.0,wc_3,wc_3,0.0,"[('wc_3', 0.6400000000000005)]",0.6400000000000005,,,25.0,0.002251,['Fail'],Fail,0.6400000000000005,-0.6400000000000005,0.0,2.0,0.9
122.0,3.0,wc_3,,0.0,,,,121.0,,,,Fail,,,,,
122.0,3.0,wc_3,wc_7,0.0,"[('wc_3', 0.6400000000000005)]",0.6400000000000005,,,34.0,0.00409,['Fail'],Fail,0.31000000000000016,0.02333333333333315,1.0,3.0,0.2
122.0,3.0,wc_3,,0.0,,,,0.0,,,,Fail,,,,,
122.0,3.0,wc_3,wc_9,0.0,"[('wc_3', 0.6400000000000005)]",0.6400000000000005,,,22.0,0.006111999999999999,['Fail'],Fail,0.31000000000000016,-0.060000000000000164,1.0,4.0,0.3
122.0,3.0,wc_3,,0.0,,,,121.0,,,,Fail,,,,,
122.0,3.0,wc_3,wc_13,0.0,"[('wc_13', 0.5800000000000004), ('wc_3', 0.6400000000000005)]",0.8488000000000003,,,28.0,0.007457000000000001,['Fail'],Fail,0.5800000000000004,-0.2942857142857147,2.0,7.0,1.0
122.0,3.0,wc_3,,0.0,,,,321.0,,,,Fail,,,,,
122.0,3.0,wc_3,wc_10,0.0,"[('wc_10', 0.11000000000000001), ('wc_3', 0.6400000000000005), ('wc_13', 0.5800000000000004)]",0.8654320000000003,,,22.0,0.009206,['Fail'],Fail,0.11000000000000001,-0.11000000000000001,0.0,4.0,0.1
122.0,3.0,wc_3,,0.0,,,,362.0,,,,Fail,,,,,
122.0,3.0,wc_3,wc_4,0.0,"[('wc_3', 0.6400000000000005), ('wc_13', 0.5800000000000004), ('wc_10', 0.11000000000000001)]",0.8654320000000003,,,23.0,0.012413,['Fail'],Fail,0.3600000000000002,-0.026666666666666894,2.0,6.0,0.3
122.0,3.0,wc_3,,0.0,,,,121.0,,,,Fail,,,,,
122.0,3.0,wc_3,wc_8,0.0,"[('wc_3', 0.6400000000000005), ('wc_13', 0.5800000000000004), ('wc_10', 0.11000000000000001)]",0.8654320000000003,,,40.0,0.013962,['Fail'],Fail,0.43000000000000027,-0.18000000000000027,2.0,8.0,0.4
122.0,3.0,wc_3,,0.0,,,,321.0,,,,Fail,,,,,
122.0,3.0,wc_3,wc_5,1.0,"[('wc_5', 0.5700000000000004), ('wc_7', 0.31000000000000016), ('wc_9', 0.31000000000000016), ('wc_4', 0.3600000000000002), ('wc_8', 0.43000000000000027)]",0.9253170496000002,,,35.0,0.04579199999999999,['Pass'],Fail,0.5700000000000004,-0.5700000000000004,0.0,0.0,0.7
136.0,4.0,wc_4,,0.0,,,,103.0,,,,Pass,,,,,
136.0,4.0,wc_4,,0.0,,,59.0,,,,,Pass,,,,,
136.0,4.0,wc_4,,0.0,,,,0.0,,,,Pass,,,,,
136.0,4.0,wc_4,wc_4,0.0,"[('wc_4', 0.3700000000000002)]",0.3700000000000002,,,38.0,0.002615,['Fail'],Pass,0.3700000000000002,0.05857142857142833,3.0,7.0,0.3
136.0,4.0,wc_4,,0.0,,,,101.0,,,,Pass,,,,,
136.0,4.0,wc_4,wc_7,0.0,"[('wc_7', 0.3200000000000002), ('wc_4', 0.3700000000000002)]",0.5716000000000003,,,27.0,0.004294,['Fail'],Pass,0.3200000000000002,0.17999999999999983,2.0,4.0,0.2
136.0,4.0,wc_4,,0.0,,,,0.0,,,,Pass,,,,,
136.0,4.0,wc_4,wc_8,0.0,"[('wc_4', 0.3700000000000002), ('wc_7', 0.3200000000000002)]",0.5716000000000003,,,24.0,0.00638,['Fail'],Pass,0.43000000000000027,-0.09666666666666696,3.0,9.0,0.4
136.0,4.0,wc_4,,0.0,,,,0.0,,,,Pass,,,,,
136.0,4.0,wc_4,wc_10,0.0,"[('wc_10', 0.10000000000000002), ('wc_4', 0.3700000000000002), ('wc_7', 0.3200000000000002)]",0.6144400000000002,,,36.0,0.008612,['Fail'],Pass,0.10000000000000002,-0.10000000000000002,0.0,5.0,0.1
136.0,4.0,wc_4,,0.0,,,,342.0,,,,Pass,,,,,
136.0,4.0,wc_4,wc_3,0.0,"[('wc_3', 0.6300000000000004), ('wc_8', 0.43000000000000027)]",0.7891000000000004,,,32.0,0.009835,['Pass'],Pass,0.6300000000000004,-0.6300000000000004,0.0,3.0,0.9
136.0,4.0,wc_4,,0.0,,,,181.0,,,,Pass,,,,,
136.0,4.0,wc_4,wc_14,1.0,"[('wc_14', 0.7100000000000005), ('wc_8', 0.43000000000000027), ('wc_3', 0.6300000000000004)]",0.9388390000000002,,,37.0,0.045064999999999994,['Pass'],Pass,0.7100000000000005,-0.3100000000000005,2.0,5.0,0.7
162.0,2.0,wc_2,,0.0,,,,222.0,,,,Fail,,,,,
162.0,2.0,wc_2,,0.0,,,61.0,,,,,Fail,,,,,
162.0,2.0,wc_2,,0.0,,,,0.0,,,,Fail,,,,,
162.0,2.0,wc_2,wc_2,0.0,"[('wc_2', 0.3300000000000002)]",0.3300000000000002,,,26.0,0.002054,['Fail'],Fail,0.3300000000000002,-0.22473684210526335,0.0,0.0,0.3
162.0,2.0,wc_2,,0.0,,,,0.0,,,,Fail,,,,,
162.0,2.0,wc_2,wc_4,0.0,"[('wc_4', 0.3700000000000002), ('wc_2', 0.3300000000000002)]",0.5779000000000003,,,22.0,0.004288999999999999,['Fail'],Fail,0.3700000000000002,0.004999999999999782,3.0,8.0,0.3
162.0,2.0,wc_2,,0.0,,,,162.0,,,,Fail,,,,,
162.0,2.0,wc_2,wc_10,0.0,"[('wc_2', 0.3300000000000002), ('wc_4', 0.3700000000000002)]",0.5779000000000003,,,40.0,0.006641,['Fail'],Fail,0.09000000000000002,-0.09000000000000002,0.0,6.0,0.1
162.0,2.0,wc_2,,0.0,,,,121.0,,,,Fail,,,,,
162.0,2.0,wc_2,wc_14,0.0,"[('wc_14', 0.7100000000000005), ('wc_2', 0.3300000000000002), ('wc_4', 0.3700000000000002)]",0.8775910000000002,,,30.0,0.009017,['Fail'],Fail,0.7100000000000005,-0.3100000000000005,2.0,5.0,0.7
162.0,2.0,wc_2,,0.0,,,,0.0,,,,Fail,,,,,
162.0,2.0,wc_2,wc_16,1.0,"[('wc_16', 0.40000000000000024), ('wc_2', 0.3300000000000002), ('wc_4', 0.3700000000000002), ('wc_14', 0.7100000000000005)]",0.9265546000000002,,,23.0,0.042067,['Fail'],Fail,0.40000000000000024,-0.11428571428571455,2.0,7.0,0.5
184.0,3.0,wc_3,,0.0,,,,382.0,,,,Pass,,,,,
184.0,3.0,wc_3,,0.0,,,79.0,,,,,Pass,,,,,
184.0,3.0,wc_3,,0.0,,,,0.0,,,,Pass,,,,,
184.0,3.0,wc_3,wc_3,0.0,"[('wc_3', 0.6300000000000004)]",0.6300000000000004,,,38.0,0.002305,['Pass'],Pass,0.6300000000000004,-0.43000000000000044,1.0,5.0,0.9
184.0,3.0,wc_3,,0.0,,,,121.0,,,,Pass,,,,,
184.0,3.0,wc_3,wc_7,0.0,"[('wc_3', 0.6300000000000004)]",0.6300000000000004,,,38.0,0.004714,['Pass'],Pass,0.3200000000000002,0.013333333333333142,2.0,6.0,0.2
184.0,3.0,wc_3,,0.0,,,,202.0,,,,Pass,,,,,
184.0,3.0,wc_3,wc_2,0.0,"[('wc_3', 0.6300000000000004)]",0.6300000000000004,,,35.0,0.006484,['Pass'],Pass,0.3400000000000002,0.6599999999999998,1.0,1.0,0.3
184.0,3.0,wc_3,,0.0,,,,102.0,,,,Pass,,,,,
184.0,3.0,wc_3,wc_1,0.0,"[('wc_1', 0.6300000000000004), ('wc_3', 0.6300000000000004)]",0.8631000000000003,,,23.0,0.007302,['Pass'],Pass,0.6300000000000004,-0.23000000000000043,2.0,5.0,1.0
184.0,3.0,wc_3,,0.0,,,,263.0,,,,Pass,,,,,
184.0,3.0,wc_3,wc_16,1.0,"[('wc_16', 0.40000000000000024), ('wc_3', 0.6300000000000004), ('wc_1', 0.6300000000000004)]",0.9178600000000002,,,20.0,0.042473,['Pass'],Pass,0.40000000000000024,-0.025000000000000244,3.0,8.0,0.5
277.0,2.0,wc_2,,0.0,,,,283.0,,,,Fail,,,,,
277.0,2.0,wc_2,,0.0,,,67.0,,,,,Fail,,,,,
277.0,2.0,wc_2,,0.0,,,,0.0,,,,Fail,,,,,
277.0,2.0,wc_2,wc_2,0.0,"[('wc_2', 0.3400000000000002)]",0.3400000000000002,,,33.0,0.002197,['Pass'],Fail,0.3400000000000002,0.1599999999999998,1.0,2.0,0.3
277.0,2.0,wc_2,,0.0,,,,202.0,,,,Fail,,,,,
277.0,2.0,wc_2,wc_14,0.0,"[('wc_14', 0.7100000000000005)]",0.7100000000000005,,,38.0,0.004139,['Fail'],Fail,0.7100000000000005,-0.28142857142857197,3.0,7.0,0.7
277.0,2.0,wc_2,,0.0,,,,102.0,,,,Fail,,,,,
277.0,2.0,wc_2,wc_13,0.0,"[('wc_13', 0.5700000000000004), ('wc_14', 0.7100000000000005)]",0.8753000000000003,,,24.0,0.006174,['Fail'],Fail,0.5700000000000004,-0.38818181818181857,0.0,0.0,1.0
277.0,2.0,wc_2,,0.0,,,,222.0,,,,Fail,,,,,
277.0,2.0,wc_2,wc_1,1.0,"[('wc_1', 0.6300000000000004), ('wc_14', 0.7100000000000005), ('wc_13', 0.5700000000000004)]",0.9538610000000002,,,24.0,0.038539000000000004,['Fail'],Fail,0.6300000000000004,-0.05857142857142905,4.0,7.0,1.0
328.0,2.0,wc_2,,0.0,,,,0.0,,,,Fail,,,,,
328.0,2.0,wc_2,,0.0,,,78.0,,,,,Fail,,,,,
328.0,2.0,wc_2,,0.0,,,,0.0,,,,Fail,,,,,
328.0,2.0,wc_2,wc_2,0.0,"[('wc_2', 0.3400000000000002)]",0.3400000000000002,,,34.0,0.002137,['Fail'],Fail,0.3400000000000002,-0.006666666666666876,1.0,3.0,0.3
328.0,2.0,wc_2,,0.0,,,,162.0,,,,Fail,,,,,
328.0,2.0,wc_2,wc_8,0.0,"[('wc_8', 0.43000000000000027)]",0.43000000000000027,,,32.0,0.004201,['Pass'],Fail,0.43000000000000027,-0.43000000000000027,0.0,3.0,0.4
328.0,2.0,wc_2,,0.0,,,,102.0,,,,Fail,,,,,
328.0,2.0,wc_2,wc_7,0.0,"[('wc_7', 0.31000000000000016), ('wc_2', 0.3400000000000002)]",0.5446000000000002,,,22.0,0.019187,['Fail'],Fail,0.31000000000000016,-0.060000000000000164,2.0,8.0,0.2
328.0,2.0,wc_2,,0.0,,,,0.0,,,,Fail,,,,,
328.0,2.0,wc_2,wc_10,0.0,"[('wc_2', 0.3400000000000002), ('wc_7', 0.31000000000000016)]",0.5446000000000002,,,30.0,0.010052,['Fail'],Fail,0.08000000000000003,-0.08000000000000003,0.0,9.0,0.1
328.0,2.0,wc_2,,0.0,,,,223.0,,,,Fail,,,,,
328.0,2.0,wc_2,wc_1,0.0,"[('wc_1', 0.6300000000000004), ('wc_8', 0.43000000000000027), ('wc_10', 0.08000000000000003)]",0.8059720000000004,,,21.0,0.010588,['Pass'],Fail,0.6300000000000004,-0.05857142857142905,4.0,7.0,1.0
328.0,2.0,wc_2,,0.0,,,,142.0,,,,Fail,,,,,
328.0,2.0,wc_2,wc_6,1.0,"[('wc_6', 0.7900000000000006), ('wc_2', 0.3400000000000002), ('wc_7', 0.31000000000000016)]",0.9043660000000003,,,32.0,0.045745999999999995,['Fail'],Fail,0.7900000000000006,-0.623333333333334,1.0,6.0,1.0
386.0,2.0,wc_2,,0.0,,,,222.0,,,,Fail,,,,,
386.0,2.0,wc_2,,0.0,,,76.0,,,,,Fail,,,,,
386.0,2.0,wc_2,,0.0,,,,0.0,,,,Fail,,,,,
386.0,2.0,wc_2,wc_2,0.0,"[('wc_2', 0.3500000000000002)]",0.3500000000000002,,,30.0,0.002212,['Pass'],Fail,0.3500000000000002,0.1499999999999998,2.0,4.0,0.3
386.0,2.0,wc_2,,0.0,,,,202.0,,,,Fail,,,,,
386.0,2.0,wc_2,wc_14,0.0,"[('wc_14', 0.7100000000000005)]",0.7100000000000005,,,23.0,0.003815,['Fail'],Fail,0.7100000000000005,-0.2655555555555561,4.0,9.0,0.7
386.0,2.0,wc_2,,0.0,,,,281.0,,,,Fail,,,,,
386.0,2.0,wc_2,wc_9,0.0,"[('wc_14', 0.7100000000000005)]",0.7100000000000005,,,28.0,0.005643,['Fail'],Fail,0.3200000000000002,-0.12000000000000016,0.0,0.0,0.3
386.0,2.0,wc_2,,0.0,,,,81.0,,,,Fail,,,,,
386.0,2.0,wc_2,wc_7,0.0,"[('wc_14', 0.7100000000000005)]",0.7100000000000005,,,27.0,0.007359999999999999,['Fail'],Fail,0.3200000000000002,0.013333333333333142,3.0,9.0,0.2
386.0,2.0,wc_2,,0.0,,,,0.0,,,,Fail,,,,,
386.0,2.0,wc_2,wc_11,0.0,"[('wc_11', 0.5800000000000004), ('wc_2', 0.3500000000000002), ('wc_9', 0.3200000000000002), ('wc_7', 0.3200000000000002)]",0.8737648000000002,,,38.0,0.009517,['Pass'],Fail,0.5800000000000004,-0.5800000000000004,0.0,0.0,0.7
386.0,2.0,wc_2,,0.0,,,,61.0,,,,Fail,,,,,
386.0,2.0,wc_2,wc_12,1.0,"[('wc_12', 0.5800000000000004), ('wc_2', 0.3500000000000002), ('wc_9', 0.3200000000000002), ('wc_7', 0.3200000000000002), ('wc_11', 0.5800000000000004)]",0.9469812160000002,,,25.0,0.044198999999999995,['Pass'],Fail,0.5800000000000004,-0.5800000000000004,0.0,0.0,0.5
419.0,2.0,wc_2,,0.0,,,,262.0,,,,Fail,,,,,
419.0,2.0,wc_2,,0.0,,,69.0,,,,,Fail,,,,,
419.0,2.0,wc_2,,0.0,,,,0.0,,,,Fail,,,,,
419.0,2.0,wc_2,wc_2,0.0,"[('wc_2', 0.3600000000000002)]",0.3600000000000002,,,28.0,0.002173,['Fail'],Fail,0.3600000000000002,0.23999999999999977,3.0,5.0,0.3
419.0,2.0,wc_2,,0.0,,,,102.0,,,,Fail,,,,,
419.0,2.0,wc_2,wc_1,0.0,"[('wc_1', 0.6200000000000004), ('wc_2', 0.3600000000000002)]",0.7568000000000004,,,40.0,0.00468,['Fail'],Fail,0.6200000000000004,-0.17555555555555602,4.0,9.0,1.0
419.0,2.0,wc_2,,0.0,,,,283.0,,,,Fail,,,,,
419.0,2.0,wc_2,wc_17,0.0,"[('wc_2', 0.3600000000000002), ('wc_1', 0.6200000000000004)]",0.7568000000000004,,,22.0,0.006711,['Fail'],Fail,0.5600000000000004,-0.3292307692307696,0.0,0.0,0.9
419.0,2.0,wc_2,,0.0,,,,223.0,,,,Fail,,,,,
419.0,2.0,wc_2,wc_8,0.0,"[('wc_8', 0.42000000000000026), ('wc_2', 0.3600000000000002), ('wc_1', 0.6200000000000004)]",0.8589440000000003,,,28.0,0.00847,['Fail'],Fail,0.42000000000000026,-0.42000000000000026,0.0,5.0,0.4
419.0,2.0,wc_2,,0.0,,,,301.0,,,,Fail,,,,,
419.0,2.0,wc_2,wc_4,0.0,"[('wc_2', 0.3600000000000002), ('wc_1', 0.6200000000000004), ('wc_8', 0.42000000000000026)]",0.8589440000000003,,,39.0,0.010029,['Fail'],Fail,0.3800000000000002,-0.07230769230769252,0.0,0.0,0.3
419.0,2.0,wc_2,,0.0,,,,103.0,,,,Fail,,,,,
419.0,2.0,wc_2,wc_3,1.0,"[('wc_3', 0.6300000000000004), ('wc_2', 0.3600000000000002), ('wc_1', 0.6200000000000004), ('wc_8', 0.42000000000000026)]",0.9478092800000002,,,29.0,0.044843,['Fail'],Fail,0.6300000000000004,-0.6300000000000004,0.0,0.0,0.9
437.0,2.0,wc_2,,0.0,,,,101.0,,,,Pass,,,,,
437.0,2.0,wc_2,,0.0,,,59.0,,,,,Pass,,,,,
437.0,2.0,wc_2,,0.0,,,,0.0,,,,Pass,,,,,
437.0,2.0,wc_2,wc_2,0.0,"[('wc_2', 0.3700000000000002)]",0.3700000000000002,,,32.0,0.002066,['Fail'],Pass,0.3700000000000002,0.2966666666666664,4.0,6.0,0.3
437.0,2.0,wc_2,,0.0,,,,162.0,,,,Pass,,,,,
437.0,2.0,wc_2,wc_12,0.0,"[('wc_12', 0.5800000000000004)]",0.5800000000000004,,,40.0,0.0041069999999999995,['Pass'],Pass,0.5800000000000004,-0.5800000000000004,0.0,1.0,0.5
437.0,2.0,wc_2,,0.0,,,,321.0,,,,Pass,,,,,
437.0,2.0,wc_2,wc_9,0.0,"[('wc_9', 0.3300000000000002), ('wc_12', 0.5800000000000004)]",0.7186000000000003,,,25.0,0.005816999999999999,['Pass'],Pass,0.3300000000000002,0.16999999999999982,1.0,2.0,0.3
437.0,2.0,wc_2,,0.0,,,,141.0,,,,Pass,,,,,
437.0,2.0,wc_2,wc_14,1.0,"[('wc_14', 0.7000000000000005), ('wc_12', 0.5800000000000004), ('wc_9', 0.3300000000000002)]",0.9155800000000003,,,29.0,0.039407,['Pass'],Pass,0.7000000000000005,-0.2000000000000005,1.0,2.0,0.7
447.0,5.0,wc_5,,0.0,,,,361.0,,,,Pass,,,,,
447.0,5.0,wc_5,,0.0,,,71.0,,,,,Pass,,,,,
447.0,5.0,wc_5,,0.0,,,,0.0,,,,Pass,,,,,
447.0,5.0,wc_5,wc_5,0.0,"[('wc_5', 0.5700000000000004)]",0.5700000000000004,,,27.0,0.002268,['Pass'],Pass,0.5700000000000004,-0.5700000000000004,0.0,8.0,0.7
447.0,5.0,wc_5,,0.0,,,,142.0,,,,Pass,,,,,
447.0,5.0,wc_5,wc_10,0.0,"[('wc_10', 0.07000000000000003), ('wc_5', 0.5700000000000004)]",0.6001000000000004,,,22.0,0.004679,['Pass'],Pass,0.07000000000000003,-0.07000000000000003,0.0,3.0,0.1
447.0,5.0,wc_5,,0.0,,,,223.0,,,,Pass,,,,,
447.0,5.0,wc_5,wc_1,0.0,"[('wc_1', 0.6200000000000004)]",0.6200000000000004,,,29.0,0.005639,['Fail'],Pass,0.6200000000000004,-0.6200000000000004,0.0,1.0,1.0
447.0,5.0,wc_5,,0.0,,,,0.0,,,,Pass,,,,,
447.0,5.0,wc_5,wc_2,0.0,"[('wc_2', 0.3700000000000002), ('wc_5', 0.5700000000000004), ('wc_10', 0.07000000000000003)]",0.7480630000000004,,,36.0,0.007026,['Pass'],Pass,0.3700000000000002,0.20142857142857118,4.0,7.0,0.3
447.0,5.0,wc_5,,0.0,,,,142.0,,,,Pass,,,,,
447.0,5.0,wc_5,wc_7,0.0,"[('wc_7', 0.3300000000000002), ('wc_5', 0.5700000000000004), ('wc_10', 0.07000000000000003), ('wc_2', 0.3700000000000002)]",0.8312022100000003,,,21.0,0.010722,['Pass'],Pass,0.3300000000000002,-0.3300000000000002,0.0,2.0,0.2
447.0,5.0,wc_5,,0.0,,,,321.0,,,,Pass,,,,,
447.0,5.0,wc_5,wc_4,0.0,"[('wc_4', 0.3700000000000002), ('wc_5', 0.5700000000000004), ('wc_10', 0.07000000000000003), ('wc_2', 0.3700000000000002), ('wc_7', 0.3300000000000002)]",0.8936573923000002,,,21.0,0.012613000000000001,['Pass'],Pass,0.3700000000000002,-0.3700000000000002,0.0,2.0,0.3
447.0,5.0,wc_5,,0.0,,,,81.0,,,,Pass,,,,,
447.0,5.0,wc_5,wc_6,1.0,"[('wc_6', 0.7900000000000006), ('wc_5', 0.5700000000000004), ('wc_10', 0.07000000000000003), ('wc_2', 0.3700000000000002), ('wc_7', 0.3300000000000002), ('wc_4', 0.3700000000000002)]",0.9776680523830001,,,39.0,0.049763,['Pass'],Pass,0.7900000000000006,-0.7900000000000006,0.0,0.0,1.0
461.0,6.0,wc_6,,0.0,,,,0.0,,,,Pass,,,,,
461.0,6.0,wc_6,,0.0,,,79.0,,,,,Pass,,,,,
461.0,6.0,wc_6,,0.0,,,,0.0,,,,Pass,,,,,
461.0,6.0,wc_6,wc_6,0.0,"[('wc_6', 0.7900000000000006)]",0.7900000000000006,,,28.0,0.002132,['Pass'],Pass,0.7900000000000006,-0.7900000000000006,0.0,0.0,1.0
461.0,6.0,wc_6,,0.0,,,,0.0,,,,Pass,,,,,
461.0,6.0,wc_6,wc_7,0.0,"[('wc_7', 0.3300000000000002), ('wc_6', 0.7900000000000006)]",0.8593000000000004,,,32.0,0.003764,['Pass'],Pass,0.3300000000000002,0.0033333333333331328,1.0,3.0,0.2
461.0,6.0,wc_6,,0.0,,,,182.0,,,,Pass,,,,,
461.0,6.0,wc_6,wc_1,1.0,"[('wc_1', 0.6100000000000004), ('wc_6', 0.7900000000000006), ('wc_7', 0.3300000000000002)]",0.9451270000000003,,,21.0,0.04240699999999999,['Pass'],Pass,0.6100000000000004,-0.2766666666666671,1.0,3.0,1.0
468.0,9.0,wc_9,,0.0,,,,203.0,,,,Pass,,,,,
468.0,9.0,wc_9,,0.0,,,61.0,,,,,Pass,,,,,
468.0,9.0,wc_9,,0.0,,,,0.0,,,,Pass,,,,,
468.0,9.0,wc_9,wc_9,0.0,"[('wc_9', 0.3400000000000002)]",0.3400000000000002,,,31.0,0.002358,['Fail'],Pass,0.3400000000000002,0.05999999999999983,2.0,5.0,0.3
468.0,9.0,wc_9,,0.0,,,,243.0,,,,Pass,,,,,
468.0,9.0,wc_9,wc_1,0.0,"[('wc_1', 0.6100000000000004)]",0.6100000000000004,,,30.0,0.003902,['Pass'],Pass,0.6100000000000004,-0.2766666666666671,1.0,3.0,1.0
468.0,9.0,wc_9,,0.0,,,,243.0,,,,Pass,,,,,
468.0,9.0,wc_9,wc_15,0.0,"[('wc_15', 0.4900000000000003), ('wc_1', 0.6100000000000004)]",0.8011000000000004,,,24.0,0.005560000000000001,['Pass'],Pass,0.4900000000000003,-0.4900000000000003,0.0,0.0,0.7
468.0,9.0,wc_9,,0.0,,,,61.0,,,,Pass,,,,,
468.0,9.0,wc_9,wc_12,1.0,"[('wc_12', 0.5800000000000004), ('wc_1', 0.6100000000000004), ('wc_15', 0.4900000000000003)]",0.9164620000000002,,,20.0,0.040591,['Pass'],Pass,0.5800000000000004,-0.18000000000000038,2.0,5.0,0.5
477.0,10.0,wc_10,,0.0,,,,341.0,,,,Pass,,,,,
477.0,10.0,wc_10,,0.0,,,60.0,,,,,Pass,,,,,
477.0,10.0,wc_10,,0.0,,,,0.0,,,,Pass,,,,,
477.0,10.0,wc_10,wc_10,0.0,"[('wc_10', 0.08000000000000003)]",0.08000000000000007,,,39.0,0.002113,['Pass'],Pass,0.08000000000000003,0.08666666666666663,1.0,6.0,0.1
477.0,10.0,wc_10,,0.0,,,,142.0,,,,Pass,,,,,
477.0,10.0,wc_10,wc_15,0.0,"[('wc_15', 0.5000000000000003), ('wc_10', 0.08000000000000003)]",0.5400000000000004,,,39.0,0.003755,['Pass'],Pass,0.5000000000000003,0.49999999999999967,1.0,1.0,0.7
477.0,10.0,wc_10,,0.0,,,,101.0,,,,Pass,,,,,
477.0,10.0,wc_10,wc_14,0.0,"[('wc_14', 0.7000000000000005), ('wc_10', 0.08000000000000003), ('wc_15', 0.5000000000000003)]",0.8620000000000003,,,37.0,0.0057610000000000005,['Pass'],Pass,0.7000000000000005,-0.5000000000000004,1.0,5.0,0.7
477.0,10.0,wc_10,,0.0,,,,361.0,,,,Pass,,,,,
477.0,10.0,wc_10,wc_5,1.0,"[('wc_5', 0.5700000000000004), ('wc_10', 0.08000000000000003), ('wc_15', 0.5000000000000003), ('wc_14', 0.7000000000000005)]",0.9406600000000002,,,27.0,0.041682,['Pass'],Pass,0.5700000000000004,-0.5700000000000004,0.0,0.0,0.7
483.0,7.0,wc_7,,0.0,,,,81.0,,,,Fail,,,,,
483.0,7.0,wc_7,,0.0,,,51.0,,,,,Fail,,,,,
483.0,7.0,wc_7,,0.0,,,,0.0,,,,Fail,,,,,
483.0,7.0,wc_7,wc_7,0.0,"[('wc_7', 0.3400000000000002)]",0.3400000000000002,,,27.0,0.002057,['Pass'],Fail,0.3400000000000002,-0.006666666666666876,2.0,6.0,0.2
483.0,7.0,wc_7,,0.0,,,,182.0,,,,Fail,,,,,
483.0,7.0,wc_7,wc_14,0.0,"[('wc_14', 0.7000000000000005)]",0.7000000000000005,,,31.0,0.004784,['Fail'],Fail,0.7000000000000005,-0.3666666666666672,2.0,6.0,0.7
483.0,7.0,wc_7,,0.0,,,,102.0,,,,Fail,,,,,
483.0,7.0,wc_7,wc_13,0.0,"[('wc_13', 0.5800000000000004), ('wc_14', 0.7000000000000005)]",0.8740000000000003,,,20.0,0.006184,['Fail'],Fail,0.5800000000000004,-0.4688888888888893,1.0,9.0,1.0
483.0,7.0,wc_7,,0.0,,,,321.0,,,,Fail,,,,,
483.0,7.0,wc_7,wc_10,0.0,"[('wc_10', 0.09000000000000002), ('wc_14', 0.7000000000000005), ('wc_13', 0.5800000000000004)]",0.8853400000000003,,,36.0,0.008225,['Fail'],Fail,0.09000000000000002,0.19571428571428567,2.0,7.0,0.1
483.0,7.0,wc_7,,0.0,,,,142.0,,,,Fail,,,,,
483.0,7.0,wc_7,wc_15,1.0,"[('wc_15', 0.5100000000000003), ('wc_14', 0.7000000000000005), ('wc_13', 0.5800000000000004), ('wc_10', 0.09000000000000002)]",0.9438166000000002,,,32.0,0.045290000000000004,['Fail'],Fail,0.5200000000000004,0.47999999999999965,3.0,3.0,0.7
492.0,7.0,wc_7,,0.0,,,,243.0,,,,Pass,,,,,
492.0,7.0,wc_7,,0.0,,,78.0,,,,,Pass,,,,,
492.0,7.0,wc_7,,0.0,,,,0.0,,,,Pass,,,,,
492.0,7.0,wc_7,wc_7,0.0,"[('wc_7', 0.3300000000000002)]",0.3300000000000002,,,33.0,0.001983,['Pass'],Pass,0.3300000000000002,-0.044285714285714484,2.0,7.0,0.2
492.0,7.0,wc_7,,0.0,,,,0.0,,,,Pass,,,,,
492.0,7.0,wc_7,wc_11,0.0,"[('wc_11', 0.5900000000000004), ('wc_7', 0.3300000000000002)]",0.7253000000000003,,,21.0,0.00414,['Pass'],Pass,0.5900000000000004,-0.4650000000000004,1.0,8.0,0.7
492.0,7.0,wc_7,,0.0,,,,61.0,,,,Pass,,,,,
492.0,7.0,wc_7,wc_12,0.0,"[('wc_12', 0.5800000000000004), ('wc_7', 0.3300000000000002), ('wc_11', 0.5900000000000004)]",0.8846260000000002,,,20.0,0.005963,['Pass'],Pass,0.5800000000000004,-0.2942857142857147,2.0,7.0,0.5
492.0,7.0,wc_7,,0.0,,,,321.0,,,,Pass,,,,,
492.0,7.0,wc_7,wc_9,1.0,"[('wc_9', 0.3400000000000002), ('wc_7', 0.3300000000000002), ('wc_11', 0.5900000000000004), ('wc_12', 0.5800000000000004)]",0.9238531600000002,,,23.0,0.039026000000000005,['Pass'],Pass,0.3400000000000002,-0.006666666666666876,3.0,9.0,0.3
501.0,11.0,wc_11,,0.0,,,,0.0,,,,Pass,,,,,
501.0,11.0,wc_11,,0.0,,,63.0,,,,,Pass,,,,,
501.0,11.0,wc_11,,0.0,,,,0.0,,,,Pass,,,,,
501.0,11.0,wc_11,wc_11,0.0,"[('wc_11', 0.5900000000000004)]",0.5900000000000004,,,27.0,0.002284,['Pass'],Pass,0.5900000000000004,-0.3677777777777782,2.0,9.0,0.7
501.0,11.0,wc_11,,0.0,,,,322.0,,,,Pass,,,,,
501.0,11.0,wc_11,wc_3,0.0,"[('wc_3', 0.6300000000000004), ('wc_11', 0.5900000000000004)]",0.8483000000000003,,,34.0,0.004393,['Pass'],Pass,0.6300000000000004,-0.6300000000000004,0.0,7.0,0.9
501.0,11.0,wc_11,,0.0,,,,162.0,,,,Pass,,,,,
501.0,11.0,wc_11,wc_9,0.0,"[('wc_9', 0.3400000000000002), ('wc_11', 0.5900000000000004), ('wc_3', 0.6300000000000004)]",0.8998780000000003,,,23.0,0.00605,['Pass'],Pass,0.3400000000000002,-0.006666666666666876,3.0,9.0,0.3
501.0,11.0,wc_11,,0.0,,,,182.0,,,,Pass,,,,,
501.0,11.0,wc_11,wc_16,0.0,"[('wc_11', 0.5900000000000004), ('wc_3', 0.6300000000000004), ('wc_9', 0.3400000000000002)]",0.8998780000000003,,,29.0,0.008233,['Pass'],Pass,0.40000000000000024,-0.242105263157895,0.0,0.0,0.5
501.0,11.0,wc_11,,0.0,,,,81.0,,,,Pass,,,,,
501.0,11.0,wc_11,wc_14,1.0,"[('wc_14', 0.7000000000000005), ('wc_11', 0.5900000000000004), ('wc_3', 0.6300000000000004), ('wc_9', 0.3400000000000002)]",0.9699634000000001,,,36.0,0.04693599999999999,['Pass'],Pass,0.7000000000000005,-0.2555555555555561,4.0,9.0,0.7
514.0,8.0,wc_8,,0.0,,,,182.0,,,,Pass,,,,,
514.0,8.0,wc_8,,0.0,,,62.0,,,,,Pass,,,,,
514.0,8.0,wc_8,,0.0,,,,0.0,,,,Pass,,,,,
514.0,8.0,wc_8,wc_8,0.0,"[('wc_8', 0.42000000000000026)]",0.42000000000000026,,,28.0,0.002378,['Pass'],Pass,0.42000000000000026,-0.34857142857142887,0.0,0.0,0.4
514.0,8.0,wc_8,,0.0,,,,321.0,,,,Pass,,,,,
514.0,8.0,wc_8,wc_5,0.0,"[('wc_5', 0.5700000000000004), ('wc_8', 0.42000000000000026)]",0.7506000000000004,,,40.0,0.003959,['Pass'],Pass,0.5700000000000004,-0.5700000000000004,0.0,3.0,0.7
514.0,8.0,wc_8,,0.0,,,,61.0,,,,Pass,,,,,
514.0,8.0,wc_8,wc_6,1.0,"[('wc_6', 0.8000000000000006), ('wc_8', 0.42000000000000026), ('wc_5', 0.5700000000000004)]",0.9501200000000002,,,31.0,0.040286,['Pass'],Pass,0.8000000000000006,-0.5142857142857149,2.0,7.0,1.0
523.0,12.0,wc_12,,0.0,,,,162.0,,,,Fail,,,,,
523.0,12.0,wc_12,,0.0,,,78.0,,,,,Fail,,,,,
523.0,12.0,wc_12,,0.0,,,,0.0,,,,Fail,,,,,
523.0,12.0,wc_12,wc_12,0.0,"[('wc_12', 0.5800000000000004)]",0.5800000000000004,,,32.0,0.002275,['Fail'],Fail,0.5800000000000004,-0.2800000000000004,0.0,0.0,0.5
523.0,12.0,wc_12,,0.0,,,,202.0,,,,Fail,,,,,
523.0,12.0,wc_12,wc_7,0.0,"[('wc_7', 0.3400000000000002), ('wc_12', 0.5800000000000004)]",0.7228000000000003,,,29.0,0.004096000000000001,['Fail'],Fail,0.3400000000000002,-0.0400000000000002,0.0,0.0,0.2
523.0,12.0,wc_12,,0.0,,,,182.0,,,,Fail,,,,,
523.0,12.0,wc_12,wc_1,0.0,"[('wc_1', 0.6100000000000004), ('wc_12', 0.5800000000000004), ('wc_7', 0.3400000000000002)]",0.8918920000000002,,,24.0,0.005737000000000001,['Fail'],Fail,0.6100000000000004,-0.3877777777777782,2.0,9.0,1.0
523.0,12.0,wc_12,,0.0,,,,203.0,,,,Fail,,,,,
523.0,12.0,wc_12,wc_9,1.0,"[('wc_9', 0.3500000000000002), ('wc_12', 0.5800000000000004), ('wc_7', 0.3400000000000002), ('wc_1', 0.6100000000000004)]",0.9297298000000002,,,40.0,0.042438000000000003,['Fail'],Fail,0.3600000000000002,0.1399999999999998,1.0,2.0,0.3
537.0,12.0,wc_12,,0.0,,,,101.0,,,,Fail,,,,,
537.0,12.0,wc_12,,0.0,,,51.0,,,,,Fail,,,,,
537.0,12.0,wc_12,,0.0,,,,0.0,,,,Fail,,,,,
537.0,12.0,wc_12,wc_12,0.0,"[('wc_12', 0.5900000000000004)]",0.5900000000000004,,,38.0,0.002117,['Fail'],Fail,0.5900000000000004,0.4099999999999996,1.0,1.0,0.5
537.0,12.0,wc_12,,0.0,,,,341.0,,,,Fail,,,,,
537.0,12.0,wc_12,wc_10,0.0,"[('wc_10', 0.10000000000000002), ('wc_12', 0.5900000000000004)]",0.6310000000000003,,,29.0,0.003884,['Fail'],Fail,0.10000000000000002,0.14999999999999997,0.0,0.0,0.1
537.0,12.0,wc_12,,0.0,,,,0.0,,,,Fail,,,,,
537.0,12.0,wc_12,wc_11,0.0,"[('wc_11', 0.5900000000000004), ('wc_12', 0.5900000000000004), ('wc_10', 0.10000000000000002)]",0.8487100000000003,,,26.0,0.006931,['Fail'],Fail,0.5900000000000004,-0.5900000000000004,0.0,2.0,0.7
537.0,12.0,wc_12,,0.0,,,,362.0,,,,Fail,,,,,
537.0,12.0,wc_12,wc_5,1.0,"[('wc_5', 0.5700000000000004), ('wc_12', 0.5900000000000004), ('wc_10', 0.10000000000000002), ('wc_11', 0.5900000000000004)]",0.9349453000000002,,,26.0,0.044867,['Fail'],Fail,0.5700000000000004,-0.23666666666666708,2.0,6.0,0.7
551.0,12.0,wc_12,,0.0,,,,101.0,,,,Fail,,,,,
551.0,12.0,wc_12,,0.0,,,50.0,,,,,Fail,,,,,
551.0,12.0,wc_12,,0.0,,,,0.0,,,,Fail,,,,,
551.0,12.0,wc_12,wc_12,0.0,"[('wc_12', 0.6000000000000004)]",0.6000000000000004,,,35.0,0.002387,['Pass'],Fail,0.6000000000000004,0.3999999999999996,2.0,2.0,0.5
551.0,12.0,wc_12,,0.0,,,,0.0,,,,Fail,,,,,
551.0,12.0,wc_12,wc_16,0.0,"[('wc_12', 0.6000000000000004)]",0.6000000000000004,,,36.0,0.004227,['Pass'],Fail,0.39000000000000024,-0.39000000000000024,0.0,4.0,0.5
551.0,12.0,wc_12,,0.0,,,,243.0,,,,Fail,,,,,
551.0,12.0,wc_12,wc_8,0.0,"[('wc_8', 0.43000000000000027), ('wc_12', 0.6000000000000004)]",0.7720000000000004,,,29.0,0.006281999999999999,['Pass'],Fail,0.43000000000000027,-0.09666666666666696,1.0,3.0,0.4
551.0,12.0,wc_12,,0.0,,,,301.0,,,,Fail,,,,,
551.0,12.0,wc_12,wc_4,0.0,"[('wc_4', 0.3700000000000002), ('wc_12', 0.6000000000000004), ('wc_8', 0.43000000000000027)]",0.8563600000000002,,,40.0,0.0077,['Pass'],Fail,0.3700000000000002,-0.2866666666666669,0.0,0.0,0.3
551.0,12.0,wc_12,,0.0,,,,161.0,,,,Fail,,,,,
551.0,12.0,wc_12,wc_14,0.0,"[('wc_12', 0.6000000000000004), ('wc_8', 0.43000000000000027), ('wc_4', 0.3700000000000002)]",0.8563600000000002,,,26.0,0.010227,['Pass'],Fail,0.7000000000000005,-0.3666666666666672,0.0,0.0,0.7
551.0,12.0,wc_12,,0.0,,,,0.0,,,,Fail,,,,,
551.0,12.0,wc_12,wc_15,1.0,"[('wc_15', 0.5200000000000004), ('wc_12', 0.6000000000000004), ('wc_8', 0.43000000000000027), ('wc_4', 0.3700000000000002)]",0.9310528000000002,,,32.0,0.049296,['Pass'],Fail,0.5200000000000004,-0.07555555555555593,4.0,9.0,0.7
565.0,12.0,wc_12,,0.0,,,,61.0,,,,Fail,,,,,
565.0,12.0,wc_12,,0.0,,,65.0,,,,,Fail,,,,,
565.0,12.0,wc_12,,0.0,,,,0.0,,,,Fail,,,,,
565.0,12.0,wc_12,wc_12,0.0,"[('wc_12', 0.6100000000000004)]",0.6100000000000004,,,35.0,0.002286,['Fail'],Fail,0.6100000000000004,0.38999999999999957,3.0,3.0,0.5
565.0,12.0,wc_12,,0.0,,,,0.0,,,,Fail,,,,,
565.0,12.0,wc_12,wc_14,0.0,"[('wc_14', 0.6900000000000005), ('wc_12', 0.6100000000000004)]",0.8791000000000003,,,33.0,0.004147,['Fail'],Fail,0.6900000000000005,-0.6900000000000005,0.0,1.0,0.7
565.0,12.0,wc_12,,0.0,,,,0.0,,,,Fail,,,,,
565.0,12.0,wc_12,wc_15,1.0,"[('wc_15', 0.5200000000000004), ('wc_12', 0.6100000000000004), ('wc_14', 0.6900000000000005)]",0.9419680000000002,,,33.0,0.045461999999999995,['Fail'],Fail,0.5200000000000004,-0.5200000000000004,0.0,0.0,0.7
576.0,12.0,wc_12,,0.0,,,,61.0,,,,Fail,,,,,
576.0,12.0,wc_12,,0.0,,,52.0,,,,,Fail,,,,,
576.0,12.0,wc_12,,0.0,,,,0.0,,,,Fail,,,,,
576.0,12.0,wc_12,wc_12,0.0,"[('wc_12', 0.6200000000000004)]",0.6200000000000004,,,35.0,0.002064,['Pass'],Fail,0.6200000000000004,0.37999999999999956,4.0,4.0,0.5
576.0,12.0,wc_12,,0.0,,,,242.0,,,,Fail,,,,,
576.0,12.0,wc_12,wc_1,0.0,"[('wc_12', 0.6200000000000004)]",0.6200000000000004,,,30.0,0.00419,['Pass'],Fail,0.6100000000000004,-0.6100000000000004,0.0,3.0,1.0
576.0,12.0,wc_12,,0.0,,,,0.0,,,,Fail,,,,,
576.0,12.0,wc_12,wc_3,0.0,"[('wc_3', 0.6300000000000004), ('wc_1', 0.6100000000000004)]",0.8557000000000003,,,20.0,0.0057209999999999995,['Fail'],Fail,0.6300000000000004,-0.5530769230769235,0.0,0.0,0.9
576.0,12.0,wc_12,,0.0,,,,222.0,,,,Fail,,,,,
576.0,12.0,wc_12,wc_16,1.0,"[('wc_16', 0.3800000000000002), ('wc_1', 0.6100000000000004), ('wc_3', 0.6300000000000004)]",0.9105340000000002,,,38.0,0.044993,['Fail'],Fail,0.3800000000000002,-0.23714285714285738,1.0,7.0,0.5
587.0,12.0,wc_12,,0.0,,,,41.0,,,,Fail,,,,,
587.0,12.0,wc_12,,0.0,,,52.0,,,,,Fail,,,,,
587.0,12.0,wc_12,,0.0,,,,0.0,,,,Fail,,,,,
587.0,12.0,wc_12,wc_12,0.0,"[('wc_12', 0.6200000000000004)]",0.6200000000000004,,,26.0,0.002097,['Pass'],Fail,0.6200000000000004,0.1799999999999996,4.0,5.0,0.5
587.0,12.0,wc_12,,0.0,,,,0.0,,,,Fail,,,,,
587.0,12.0,wc_12,wc_15,0.0,"[('wc_12', 0.6200000000000004)]",0.6200000000000004,,,30.0,0.004063,['Pass'],Fail,0.5200000000000004,-0.5200000000000004,0.0,1.0,0.7
587.0,12.0,wc_12,,0.0,,,,402.0,,,,Fail,,,,,
587.0,12.0,wc_12,wc_11,0.0,"[('wc_11', 0.5900000000000004), ('wc_15', 0.5200000000000004)]",0.8032000000000004,,,26.0,0.005949,['Fail'],Fail,0.5900000000000004,-0.4233333333333338,1.0,6.0,0.7
587.0,12.0,wc_12,,0.0,,,,103.0,,,,Fail,,,,,
587.0,12.0,wc_12,wc_10,0.0,"[('wc_10', 0.11000000000000001), ('wc_15', 0.5200000000000004), ('wc_11', 0.5900000000000004)]",0.8248480000000002,,,34.0,0.008298,['Fail'],Fail,0.11000000000000001,0.13999999999999999,1.0,4.0,0.1
587.0,12.0,wc_12,,0.0,,,,362.0,,,,Fail,,,,,
587.0,12.0,wc_12,wc_4,0.0,"[('wc_4', 0.3800000000000002), ('wc_15', 0.5200000000000004), ('wc_11', 0.5900000000000004), ('wc_10', 0.11000000000000001)]",0.8914057600000003,,,27.0,0.01153,['Fail'],Fail,0.3800000000000002,-0.04666666666666691,1.0,3.0,0.3
587.0,12.0,wc_12,,0.0,,,,202.0,,,,Fail,,,,,
587.0,12.0,wc_12,wc_16,1.0,"[('wc_16', 0.3800000000000002), ('wc_15', 0.5200000000000004), ('wc_11', 0.5900000000000004), ('wc_10', 0.11000000000000001), ('wc_4', 0.3800000000000002)]",0.9326715712000002,,,23.0,0.047422000000000006,['Fail'],Fail,0.3800000000000002,-0.13000000000000023,2.0,8.0,0.5
602.0,12.0,wc_12,,0.0,,,,41.0,,,,Fail,,,,,
602.0,12.0,wc_12,,0.0,,,60.0,,,,,Fail,,,,,
602.0,12.0,wc_12,,0.0,,,,0.0,,,,Fail,,,,,
602.0,12.0,wc_12,wc_12,0.0,"[('wc_12', 0.6200000000000004)]",0.6200000000000004,,,39.0,0.002008,['Fail'],Fail,0.6200000000000004,0.04666666666666619,4.0,6.0,0.5
602.0,12.0,wc_12,,0.0,,,,361.0,,,,Fail,,,,,
602.0,12.0,wc_12,wc_3,0.0,"[('wc_3', 0.6400000000000005), ('wc_12', 0.6200000000000004)]",0.8632000000000003,,,23.0,0.00404,['Fail'],Fail,0.6400000000000005,-0.14000000000000046,1.0,2.0,0.9
602.0,12.0,wc_12,,0.0,,,,202.0,,,,Fail,,,,,
602.0,12.0,wc_12,wc_11,1.0,"[('wc_11', 0.5900000000000004), ('wc_12', 0.6200000000000004), ('wc_3', 0.6400000000000005)]",0.9439120000000002,,,39.0,0.042058,['Fail'],Fail,0.5900000000000004,-0.2150000000000004,3.0,8.0,0.7
607.0,12.0,wc_12,,0.0,,,,61.0,,,,Pass,,,,,
607.0,12.0,wc_12,,0.0,,,58.0,,,,,Pass,,,,,
607.0,12.0,wc_12,,0.0,,,,0.0,,,,Pass,,,,,
607.0,12.0,wc_12,wc_12,0.0,"[('wc_12', 0.6300000000000004)]",0.6300000000000004,,,39.0,0.00211,['Pass'],Pass,0.6300000000000004,0.08428571428571385,5.0,7.0,0.5
607.0,12.0,wc_12,,0.0,,,,0.0,,,,Pass,,,,,
607.0,12.0,wc_12,wc_14,0.0,"[('wc_14', 0.6900000000000005), ('wc_12', 0.6300000000000004)]",0.8853000000000003,,,40.0,0.004395,['Pass'],Pass,0.6900000000000005,-0.4900000000000005,1.0,5.0,0.7
607.0,12.0,wc_12,,0.0,,,,0.0,,,,Pass,,,,,
607.0,12.0,wc_12,wc_15,1.0,"[('wc_15', 0.5200000000000004), ('wc_12', 0.6300000000000004), ('wc_14', 0.6900000000000005)]",0.9449440000000002,,,25.0,0.041990999999999994,['Pass'],Pass,0.5200000000000004,-0.02000000000000035,2.0,4.0,0.7
616.0,13.0,wc_13,,0.0,,,,81.0,,,,Fail,,,,,
616.0,13.0,wc_13,,0.0,,,78.0,,,,,Fail,,,,,
616.0,13.0,wc_13,,0.0,,,,0.0,,,,Fail,,,,,
616.0,13.0,wc_13,wc_13,0.0,"[('wc_13', 0.5800000000000004)]",0.5800000000000004,,,30.0,0.004193,['Fail'],Fail,0.5800000000000004,-0.5800000000000004,0.0,0.0,1.0
616.0,13.0,wc_13,,0.0,,,,341.0,,,,Fail,,,,,
616.0,13.0,wc_13,wc_11,0.0,"[('wc_11', 0.5900000000000004), ('wc_13', 0.5800000000000004)]",0.8278000000000003,,,30.0,0.00415,['Fail'],Fail,0.5900000000000004,-0.2566666666666671,3.0,9.0,0.7
616.0,13.0,wc_13,,0.0,,,,203.0,,,,Fail,,,,,
616.0,13.0,wc_13,wc_1,1.0,"[('wc_1', 0.6100000000000004), ('wc_13', 0.5800000000000004), ('wc_11', 0.5900000000000004)]",0.9328420000000002,,,25.0,0.047505,['Fail'],Fail,0.6100000000000004,-0.36000000000000043,2.0,8.0,1.0
621.0,13.0,wc_13,,0.0,,,,202.0,,,,Fail,,,,,
621.0,13.0,wc_13,,0.0,,,61.0,,,,,Fail,,,,,
621.0,13.0,wc_13,,0.0,,,,0.0,,,,Fail,,,,,
621.0,13.0,wc_13,wc_13,0.0,"[('wc_13', 0.5900000000000004)]",0.5900000000000004,,,35.0,0.002323,['Fail'],Fail,0.5900000000000004,0.4099999999999996,1.0,1.0,1.0
621.0,13.0,wc_13,,0.0,,,,242.0,,,,Fail,,,,,
621.0,13.0,wc_13,wc_2,0.0,"[('wc_13', 0.5900000000000004)]",0.5900000000000004,,,39.0,0.003903,['Fail'],Fail,0.3800000000000002,-0.17166666666666688,0.0,0.0,0.3
621.0,13.0,wc_13,,0.0,,,,162.0,,,,Fail,,,,,
621.0,13.0,wc_13,wc_8,0.0,"[('wc_8', 0.4400000000000003), ('wc_13', 0.5900000000000004)]",0.7704000000000003,,,20.0,0.005897,['Fail'],Fail,0.4400000000000003,-0.24000000000000027,0.0,0.0,0.4
621.0,13.0,wc_13,,0.0,,,,183.0,,,,Fail,,,,,
621.0,13.0,wc_13,wc_15,0.0,"[('wc_15', 0.5200000000000004), ('wc_13', 0.5900000000000004), ('wc_8', 0.4400000000000003)]",0.8897920000000002,,,40.0,0.007343,['Fail'],Fail,0.5200000000000004,-0.12000000000000033,2.0,5.0,0.7
621.0,13.0,wc_13,,0.0,,,,283.0,,,,Fail,,,,,
621.0,13.0,wc_13,wc_1,1.0,"[('wc_1', 0.6100000000000004), ('wc_13', 0.5900000000000004), ('wc_8', 0.4400000000000003), ('wc_15', 0.5200000000000004)]",0.9570188800000001,,,38.0,0.046773,['Fail'],Fail,0.6100000000000004,-0.2766666666666671,3.0,9.0,1.0
626.0,13.0,wc_13,,0.0,,,,202.0,,,,Fail,,,,,
626.0,13.0,wc_13,,0.0,,,62.0,,,,,Fail,,,,,
626.0,13.0,wc_13,,0.0,,,,0.0,,,,Fail,,,,,
626.0,13.0,wc_13,wc_13,0.0,"[('wc_13', 0.6000000000000004)]",0.6000000000000004,,,34.0,0.002043,['Fail'],Fail,0.6000000000000004,0.3999999999999996,2.0,2.0,1.0
626.0,13.0,wc_13,,0.0,,,,341.0,,,,Fail,,,,,
626.0,13.0,wc_13,wc_11,0.0,"[('wc_13', 0.6000000000000004)]",0.6000000000000004,,,35.0,0.004251,['Fail'],Fail,0.5900000000000004,-0.5900000000000004,0.0,1.0,0.7
626.0,13.0,wc_13,,0.0,,,,21.0,,,,Fail,,,,,
626.0,13.0,wc_13,wc_6,0.0,"[('wc_6', 0.8000000000000006), ('wc_13', 0.6000000000000004)]",0.9200000000000004,,,27.0,0.005913000000000001,['Fail'],Fail,0.8000000000000006,-0.6823529411764712,0.0,0.0,1.0
626.0,13.0,wc_13,,0.0,,,,0.0,,,,Fail,,,,,
626.0,13.0,wc_13,wc_9,0.0,"[('wc_13', 0.6000000000000004), ('wc_6', 0.8000000000000006)]",0.9200000000000004,,,20.0,0.007658,['Fail'],Fail,0.3600000000000002,-0.26909090909090927,0.0,0.0,0.3
626.0,13.0,wc_13,,0.0,,,,362.0,,,,Fail,,,,,
626.0,13.0,wc_13,wc_3,1.0,"[('wc_3', 0.6500000000000005), ('wc_13', 0.6000000000000004), ('wc_6', 0.8000000000000006)]",0.9720000000000002,,,40.0,0.047463,['Fail'],Fail,0.6500000000000005,-0.22142857142857192,3.0,7.0,0.9
635.0,13.0,wc_13,,0.0,,,,161.0,,,,Pass,,,,,
635.0,13.0,wc_13,,0.0,,,56.0,,,,,Pass,,,,,
635.0,13.0,wc_13,,0.0,,,,0.0,,,,Pass,,,,,
635.0,13.0,wc_13,wc_13,0.0,"[('wc_13', 0.6100000000000004)]",0.6100000000000004,,,29.0,0.002478,['Pass'],Pass,0.6100000000000004,0.38999999999999957,3.0,3.0,1.0
635.0,13.0,wc_13,,0.0,,,,0.0,,,,Pass,,,,,
635.0,13.0,wc_13,wc_15,0.0,"[('wc_15', 0.5200000000000004), ('wc_13', 0.6100000000000004)]",0.8128000000000004,,,38.0,0.00436,['Pass'],Pass,0.5200000000000004,-0.0914285714285718,3.0,7.0,0.7
635.0,13.0,wc_13,,0.0,,,,422.0,,,,Pass,,,,,
635.0,13.0,wc_13,wc_4,0.0,"[('wc_13', 0.6100000000000004), ('wc_15', 0.5200000000000004)]",0.8128000000000004,,,29.0,0.006317,['Pass'],Pass,0.39000000000000024,-0.16777777777777803,2.0,9.0,0.3
635.0,13.0,wc_13,,0.0,,,,142.0,,,,Pass,,,,,
635.0,13.0,wc_13,wc_9,0.0,"[('wc_9', 0.3500000000000002), ('wc_13', 0.6100000000000004), ('wc_15', 0.5200000000000004)]",0.8783200000000002,,,21.0,0.008447999999999999,['Pass'],Pass,0.3500000000000002,-0.3500000000000002,0.0,1.0,0.3
635.0,13.0,wc_13,,0.0,,,,81.0,,,,Pass,,,,,
635.0,13.0,wc_13,wc_7,0.0,"[('wc_13', 0.6100000000000004), ('wc_15', 0.5200000000000004), ('wc_9', 0.3500000000000002)]",0.8783200000000002,,,20.0,0.009559000000000002,['Pass'],Pass,0.3500000000000002,-0.25909090909090926,0.0,0.0,0.2
635.0,13.0,wc_13,,0.0,,,,0.0,,,,Pass,,,,,
635.0,13.0,wc_13,wc_8,1.0,"[('wc_8', 0.4500000000000003), ('wc_13', 0.6100000000000004), ('wc_15', 0.5200000000000004), ('wc_9', 0.3500000000000002)]",0.9330760000000002,,,31.0,0.048878,['Pass'],Pass,0.4600000000000003,0.20666666666666633,2.0,3.0,0.4
639.0,15.0,wc_15,,0.0,,,,183.0,,,,Fail,,,,,
639.0,15.0,wc_15,,0.0,,,64.0,,,,,Fail,,,,,
639.0,15.0,wc_15,,0.0,,,,0.0,,,,Fail,,,,,
639.0,15.0,wc_15,wc_15,0.0,"[('wc_15', 0.5200000000000004)]",0.5200000000000004,,,35.0,0.002285,['Fail'],Fail,0.5200000000000004,-0.02000000000000035,4.0,8.0,0.7
639.0,15.0,wc_15,,0.0,,,,101.0,,,,Fail,,,,,
639.0,15.0,wc_15,wc_14,0.0,"[('wc_14', 0.6900000000000005), ('wc_15', 0.5200000000000004)]",0.8512000000000004,,,28.0,0.004489,['Fail'],Fail,0.6900000000000005,-0.4900000000000005,0.0,0.0,0.7
639.0,15.0,wc_15,,0.0,,,,281.0,,,,Fail,,,,,
639.0,15.0,wc_15,wc_9,0.0,"[('wc_15', 0.5200000000000004), ('wc_14', 0.6900000000000005)]",0.8512000000000004,,,34.0,0.006024999999999999,['Fail'],Fail,0.3600000000000002,0.1399999999999998,1.0,2.0,0.3
639.0,15.0,wc_15,,0.0,,,,101.0,,,,Fail,,,,,
639.0,15.0,wc_15,wc_8,1.0,"[('wc_8', 0.4600000000000003), ('wc_15', 0.5200000000000004), ('wc_14', 0.6900000000000005)]",0.9196480000000002,,,38.0,0.054676999999999996,['Fail'],Fail,0.4700000000000003,0.2799999999999997,3.0,4.0,0.4
642.0,15.0,wc_15,,0.0,,,,183.0,,,,Pass,,,,,
642.0,15.0,wc_15,,0.0,,,51.0,,,,,Pass,,,,,
642.0,15.0,wc_15,,0.0,,,,0.0,,,,Pass,,,,,
642.0,15.0,wc_15,wc_15,0.0,"[('wc_15', 0.5300000000000004)]",0.5300000000000004,,,34.0,0.002183,['Pass'],Pass,0.5300000000000004,0.02555555555555522,5.0,9.0,0.7
642.0,15.0,wc_15,,0.0,,,,303.0,,,,Pass,,,,,
642.0,15.0,wc_15,wc_2,0.0,"[('wc_2', 0.3700000000000002), ('wc_15', 0.5300000000000004)]",0.7039000000000003,,,33.0,0.004094,['Pass'],Pass,0.3700000000000002,-0.3700000000000002,0.0,4.0,0.3
642.0,15.0,wc_15,,0.0,,,,183.0,,,,Pass,,,,,
642.0,15.0,wc_15,wc_9,0.0,"[('wc_9', 0.3500000000000002), ('wc_15', 0.5300000000000004), ('wc_2', 0.3700000000000002)]",0.8075350000000003,,,36.0,0.00571,['Pass'],Pass,0.3500000000000002,-0.016666666666666885,1.0,3.0,0.3
642.0,15.0,wc_15,,0.0,,,,402.0,,,,Pass,,,,,
642.0,15.0,wc_15,wc_5,1.0,"[('wc_5', 0.5700000000000004), ('wc_15', 0.5300000000000004), ('wc_2', 0.3700000000000002), ('wc_9', 0.3500000000000002)]",0.9172400500000002,,,36.0,0.046052,['Pass'],Pass,0.5700000000000004,-0.5700000000000004,0.0,0.0,0.7
648.0,16.0,wc_16,,0.0,,,,182.0,,,,Pass,,,,,
648.0,16.0,wc_16,,0.0,,,78.0,,,,,Pass,,,,,
648.0,16.0,wc_16,,0.0,,,,0.0,,,,Pass,,,,,
648.0,16.0,wc_16,wc_16,0.0,"[('wc_16', 0.3800000000000002)]",0.3800000000000002,,,35.0,0.002221,['Pass'],Pass,0.3800000000000002,-0.2550000000000002,0.0,0.0,0.5
648.0,16.0,wc_16,,0.0,,,,243.0,,,,Pass,,,,,
648.0,16.0,wc_16,wc_8,0.0,"[('wc_8', 0.4700000000000003), ('wc_16', 0.3800000000000002)]",0.6714000000000003,,,38.0,0.0044150000000000005,['Pass'],Pass,0.4700000000000003,0.12999999999999967,3.0,5.0,0.4
648.0,16.0,wc_16,,0.0,,,,183.0,,,,Pass,,,,,
648.0,16.0,wc_16,wc_15,0.0,"[('wc_15', 0.5400000000000004), ('wc_16', 0.3800000000000002), ('wc_8', 0.4700000000000003)]",0.8488440000000003,,,26.0,0.006848,['Pass'],Pass,0.5400000000000004,-0.5400000000000004,0.0,0.0,0.7
648.0,16.0,wc_16,,0.0,,,,442.0,,,,Pass,,,,,
648.0,16.0,wc_16,wc_5,1.0,"[('wc_5', 0.5700000000000004), ('wc_16', 0.3800000000000002), ('wc_8', 0.4700000000000003), ('wc_15', 0.5400000000000004)]",0.9350029200000002,,,28.0,0.07241399999999999,['Pass'],Pass,0.5800000000000004,0.4199999999999996,1.0,1.0,0.7
658.0,14.0,wc_14,,0.0,,,,141.0,,,,Pass,,,,,
658.0,14.0,wc_14,,0.0,,,66.0,,,,,Pass,,,,,
658.0,14.0,wc_14,,0.0,,,,0.0,,,,Pass,,,,,
658.0,14.0,wc_14,wc_14,0.0,"[('wc_14', 0.7000000000000005)]",0.7000000000000005,,,22.0,0.002267,['Pass'],Pass,0.7000000000000005,-0.3666666666666672,1.0,3.0,0.7
658.0,14.0,wc_14,,0.0,,,,202.0,,,,Pass,,,,,
658.0,14.0,wc_14,wc_1,0.0,"[('wc_1', 0.6100000000000004), ('wc_14', 0.7000000000000005)]",0.8830000000000003,,,39.0,0.005441,['Pass'],Pass,0.6100000000000004,-0.39571428571428613,0.0,0.0,1.0
658.0,14.0,wc_14,,0.0,,,,223.0,,,,Pass,,,,,
658.0,14.0,wc_14,wc_10,0.0,"[('wc_14', 0.7000000000000005), ('wc_1', 0.6100000000000004)]",0.8830000000000003,,,30.0,0.006319,['Pass'],Pass,0.12000000000000001,0.02285714285714284,0.0,0.0,0.1
658.0,14.0,wc_14,,0.0,,,,162.0,,,,Pass,,,,,
658.0,14.0,wc_14,wc_16,0.0,"[('wc_14', 0.7000000000000005), ('wc_1', 0.6100000000000004)]",0.8830000000000003,,,30.0,0.008116,['Pass'],Pass,0.39000000000000024,0.6099999999999998,1.0,1.0,0.5
658.0,14.0,wc_14,,0.0,,,,61.0,,,,Pass,,,,,
658.0,14.0,wc_14,wc_13,1.0,"[('wc_13', 0.6200000000000004), ('wc_14', 0.7000000000000005), ('wc_1', 0.6100000000000004)]",0.9555400000000002,,,34.0,0.051107,['Pass'],Pass,0.6200000000000004,0.00499999999999956,5.0,8.0,1.0
662.0,17.0,wc_17,,0.0,,,,0.0,,,,Pass,,,,,
662.0,17.0,wc_17,,0.0,,,69.0,,,,,Pass,,,,,
662.0,17.0,wc_17,,0.0,,,,0.0,,,,Pass,,,,,
662.0,17.0,wc_17,wc_17,0.0,"[('wc_17', 0.5500000000000004)]",0.5500000000000004,,,26.0,0.002503,['Pass'],Pass,0.5500000000000004,-0.5500000000000004,0.0,0.0,0.9
662.0,17.0,wc_17,,0.0,,,,203.0,,,,Pass,,,,,
662.0,17.0,wc_17,wc_7,0.0,"[('wc_7', 0.3400000000000002), ('wc_17', 0.5500000000000004)]",0.7030000000000003,,,20.0,0.004679,['Pass'],Pass,0.3400000000000002,-0.3400000000000002,0.0,5.0,0.2
662.0,17.0,wc_17,,0.0,,,,202.0,,,,Pass,,,,,
662.0,17.0,wc_17,wc_2,0.0,"[('wc_17', 0.5500000000000004), ('wc_7', 0.3400000000000002)]",0.7030000000000003,,,35.0,0.0066430000000000005,['Pass'],Pass,0.3700000000000002,-0.22714285714285737,1.0,7.0,0.3
662.0,17.0,wc_17,,0.0,,,,0.0,,,,Pass,,,,,
662.0,17.0,wc_17,wc_4,0.0,"[('wc_17', 0.5500000000000004), ('wc_7', 0.3400000000000002)]",0.7030000000000003,,,35.0,0.0077080000000000004,['Pass'],Pass,0.3800000000000002,-0.3800000000000002,0.0,4.0,0.3
662.0,17.0,wc_17,,0.0,,,,162.0,,,,Pass,,,,,
662.0,17.0,wc_17,wc_10,0.0,"[('wc_10', 0.11000000000000001), ('wc_17', 0.5500000000000004), ('wc_7', 0.3400000000000002)]",0.7356700000000003,,,25.0,0.009162,['Pass'],Pass,0.11000000000000001,-0.11000000000000001,0.0,1.0,0.1
662.0,17.0,wc_17,,0.0,,,,81.0,,,,Pass,,,,,
662.0,17.0,wc_17,wc_8,0.0,"[('wc_8', 0.4800000000000003), ('wc_17', 0.5500000000000004), ('wc_7', 0.3400000000000002), ('wc_10', 0.11000000000000001)]",0.8625484000000002,,,20.0,0.013048999999999998,['Pass'],Pass,0.4800000000000003,0.09142857142857108,4.0,7.0,0.4
662.0,17.0,wc_17,,0.0,,,,82.0,,,,Pass,,,,,
662.0,17.0,wc_17,wc_6,1.0,"[('wc_6', 0.8100000000000006), ('wc_17', 0.5500000000000004), ('wc_7', 0.3400000000000002), ('wc_10', 0.11000000000000001), ('wc_8', 0.4800000000000003)]",0.9738841960000001,,,29.0,0.050060999999999994,['Pass'],Pass,0.8100000000000006,-0.5242857142857149,2.0,7.0,1.0
