mpecck/BCQC/bcqc_with_qdt/results/raw/input_4/independent_qc/training/20_workpiece/20200429_084410/wp_19_qc_majority_0.9.csv
production_index,step_idx,production_workcell,qc,consent,winner_qc_list,score,production_time,transport_time,inspection_time,network_time,qc_results,actual_quality,qc_score,score_error,in_winner_counter,in_qc_counter,qc_capability
72.0,1.0,wc_1,,0.0,,,79.0,,,,,Fail,,,,,
72.0,1.0,wc_1,,0.0,,,,0.0,,,,Fail,,,,,
72.0,1.0,wc_1,wc_1,0.0,"[('wc_1', 0.27000000000000013)]",0.27000000000000013,,,24.0,0.002365,['Pass'],Fail,0.27000000000000013,-0.27000000000000013,0.0,3.0,0.1
72.0,1.0,wc_1,,0.0,,,,0.0,,,,Fail,,,,,
72.0,1.0,wc_1,wc_5,0.0,"[('wc_5', 0.5500000000000004)]",0.5500000000000004,,,26.0,0.003961,['Fail'],Fail,0.5500000000000004,-0.4166666666666671,0.0,0.0,0.4
72.0,1.0,wc_1,,0.0,,,,61.0,,,,Fail,,,,,
72.0,1.0,wc_1,wc_6,0.0,"[('wc_6', 0.8100000000000006), ('wc_5', 0.5500000000000004)]",0.9145000000000003,,,31.0,0.0058070000000000005,['Fail'],Fail,0.8100000000000006,-0.3554545454545461,0.0,0.0,0.9
72.0,1.0,wc_1,,0.0,,,,162.0,,,,Fail,,,,,
72.0,1.0,wc_1,wc_12,1.0,"[('wc_12', 0.4900000000000003), ('wc_5', 0.5500000000000004), ('wc_6', 0.8100000000000006)]",0.9563950000000002,,,35.0,0.039114,['Fail'],Fail,0.5000000000000003,0.09999999999999964,3.0,5.0,0.3
163.0,1.0,wc_1,,0.0,,,,242.0,,,,Fail,,,,,
163.0,1.0,wc_1,,0.0,,,55.0,,,,,Fail,,,,,
163.0,1.0,wc_1,,0.0,,,,0.0,,,,Fail,,,,,
163.0,1.0,wc_1,wc_1,0.0,"[('wc_1', 0.2600000000000001)]",0.2600000000000001,,,37.0,0.002382,['Fail'],Fail,0.2600000000000001,-0.2600000000000001,0.0,4.0,0.1
163.0,1.0,wc_1,,0.0,,,,263.0,,,,Fail,,,,,
163.0,1.0,wc_1,wc_16,0.0,"[('wc_16', 0.8800000000000007), ('wc_1', 0.2600000000000001)]",0.9112000000000005,,,25.0,0.003843,['Fail'],Fail,0.8800000000000007,-0.594285714285715,2.0,7.0,0.8
163.0,1.0,wc_1,,0.0,,,,243.0,,,,Fail,,,,,
163.0,1.0,wc_1,wc_8,1.0,"[('wc_8', 0.5500000000000004), ('wc_1', 0.2600000000000001), ('wc_16', 0.8800000000000007)]",0.9600400000000002,,,29.0,0.035560999999999995,['Fail'],Fail,0.5500000000000004,-0.3000000000000004,1.0,4.0,0.6
218.0,1.0,wc_1,,0.0,,,,162.0,,,,Fail,,,,,
218.0,1.0,wc_1,,0.0,,,78.0,,,,,Fail,,,,,
218.0,1.0,wc_1,,0.0,,,,0.0,,,,Fail,,,,,
218.0,1.0,wc_1,wc_1,0.0,"[('wc_1', 0.2600000000000001)]",0.2600000000000001,,,33.0,0.002123,['Fail'],Fail,0.2600000000000001,-0.06000000000000011,1.0,5.0,0.1
218.0,1.0,wc_1,,0.0,,,,0.0,,,,Fail,,,,,
218.0,1.0,wc_1,wc_3,0.0,"[('wc_3', 0.8100000000000006), ('wc_1', 0.2600000000000001)]",0.8594000000000005,,,31.0,0.004878,['Fail'],Fail,0.8100000000000006,-0.7573684210526321,0.0,0.0,0.9
218.0,1.0,wc_1,,0.0,,,,161.0,,,,Fail,,,,,
218.0,1.0,wc_1,wc_13,1.0,"[('wc_13', 0.41000000000000025), ('wc_1', 0.2600000000000001), ('wc_3', 0.8100000000000006)]",0.9170460000000002,,,37.0,0.036466,['Fail'],Fail,0.41000000000000025,-0.41000000000000025,0.0,0.0,0.3
251.0,1.0,wc_1,,0.0,,,,222.0,,,,Pass,,,,,
251.0,1.0,wc_1,,0.0,,,54.0,,,,,Pass,,,,,
251.0,1.0,wc_1,,0.0,,,,0.0,,,,Pass,,,,,
251.0,1.0,wc_1,wc_1,0.0,"[('wc_1', 0.27000000000000013)]",0.27000000000000013,,,37.0,0.002285,['Fail'],Pass,0.27000000000000013,0.06333333333333319,2.0,6.0,0.1
251.0,1.0,wc_1,,0.0,,,,203.0,,,,Pass,,,,,
251.0,1.0,wc_1,wc_9,0.0,"[('wc_9', 0.4800000000000003), ('wc_1', 0.27000000000000013)]",0.6204000000000003,,,38.0,0.003915,['Fail'],Pass,0.4800000000000003,-0.2800000000000003,1.0,5.0,0.4
251.0,1.0,wc_1,,0.0,,,,382.0,,,,Pass,,,,,
251.0,1.0,wc_1,wc_4,0.0,"[('wc_4', 0.7500000000000006)]",0.7500000000000006,,,40.0,0.006056,['Pass'],Pass,0.7500000000000006,-0.6250000000000006,1.0,8.0,0.7
251.0,1.0,wc_1,,0.0,,,,121.0,,,,Pass,,,,,
251.0,1.0,wc_1,wc_12,0.0,"[('wc_12', 0.5000000000000003), ('wc_4', 0.7500000000000006)]",0.8750000000000003,,,26.0,0.0092,['Pass'],Pass,0.5000000000000003,-0.07142857142857179,3.0,7.0,0.3
251.0,1.0,wc_1,,0.0,,,,0.0,,,,Pass,,,,,
251.0,1.0,wc_1,wc_16,1.0,"[('wc_16', 0.8800000000000007), ('wc_4', 0.7500000000000006), ('wc_12', 0.5000000000000003)]",0.9850000000000001,,,29.0,0.042531,['Pass'],Pass,0.8800000000000007,-0.8800000000000007,0.0,0.0,0.8
260.0,3.0,wc_3,,0.0,,,,382.0,,,,Fail,,,,,
260.0,3.0,wc_3,,0.0,,,52.0,,,,,Fail,,,,,
260.0,3.0,wc_3,,0.0,,,,0.0,,,,Fail,,,,,
260.0,3.0,wc_3,wc_3,0.0,"[('wc_3', 0.8200000000000006)]",0.8200000000000006,,,26.0,0.002107,['Fail'],Fail,0.8200000000000006,-0.3200000000000006,1.0,2.0,0.9
260.0,3.0,wc_3,,0.0,,,,141.0,,,,Fail,,,,,
260.0,3.0,wc_3,wc_12,0.0,"[('wc_12', 0.5000000000000003), ('wc_3', 0.8200000000000006)]",0.9100000000000004,,,31.0,0.004383,['Fail'],Fail,0.5000000000000003,-3.3306690738754696e-16,4.0,8.0,0.3
260.0,3.0,wc_3,,0.0,,,,222.0,,,,Fail,,,,,
260.0,3.0,wc_3,wc_8,1.0,"[('wc_8', 0.5500000000000004), ('wc_3', 0.8200000000000006), ('wc_12', 0.5000000000000003)]",0.9595000000000002,,,37.0,0.034678999999999995,['Fail'],Fail,0.5500000000000004,-0.2642857142857147,2.0,7.0,0.6
273.0,3.0,wc_3,,0.0,,,,281.0,,,,Fail,,,,,
273.0,3.0,wc_3,,0.0,,,71.0,,,,,Fail,,,,,
273.0,3.0,wc_3,,0.0,,,,0.0,,,,Fail,,,,,
273.0,3.0,wc_3,wc_3,0.0,"[('wc_3', 0.8200000000000006)]",0.8200000000000006,,,25.0,0.002119,['Fail'],Fail,0.8200000000000006,-0.153333333333334,2.0,3.0,0.9
273.0,3.0,wc_3,,0.0,,,,141.0,,,,Fail,,,,,
273.0,3.0,wc_3,wc_8,0.0,"[('wc_3', 0.8200000000000006)]",0.8200000000000006,,,22.0,0.004262,['Fail'],Fail,0.5500000000000004,-0.2642857142857147,2.0,7.0,0.6
273.0,3.0,wc_3,,0.0,,,,0.0,,,,Fail,,,,,
273.0,3.0,wc_3,wc_10,0.0,"[('wc_10', 0.8300000000000006), ('wc_3', 0.8200000000000006)]",0.9694000000000003,,,29.0,0.005699,['Fail'],Fail,0.8300000000000006,-0.6300000000000006,0.0,0.0,1.0
273.0,3.0,wc_3,,0.0,,,,0.0,,,,Fail,,,,,
273.0,3.0,wc_3,wc_11,0.0,"[('wc_3', 0.8200000000000006), ('wc_10', 0.8300000000000006)]",0.9694000000000003,,,34.0,0.007885,['Fail'],Fail,0.7300000000000005,-0.6466666666666672,0.0,0.0,0.8
273.0,3.0,wc_3,,0.0,,,,223.0,,,,Fail,,,,,
273.0,3.0,wc_3,wc_2,1.0,"[('wc_2', 0.8700000000000007), ('wc_8', 0.5500000000000004), ('wc_11', 0.7300000000000005)]",0.9842050000000001,,,26.0,0.038518,['Pass'],Fail,0.8700000000000007,-0.8700000000000007,0.0,0.0,0.8
284.0,3.0,wc_3,,0.0,,,,0.0,,,,Fail,,,,,
284.0,3.0,wc_3,,0.0,,,65.0,,,,,Fail,,,,,
284.0,3.0,wc_3,,0.0,,,,0.0,,,,Fail,,,,,
284.0,3.0,wc_3,wc_3,0.0,"[('wc_3', 0.8100000000000006)]",0.8100000000000006,,,26.0,0.002005,['Fail'],Fail,0.8100000000000006,-0.3100000000000006,2.0,4.0,0.9
284.0,3.0,wc_3,,0.0,,,,181.0,,,,Fail,,,,,
284.0,3.0,wc_3,wc_14,0.0,"[('wc_14', 0.6900000000000005), ('wc_3', 0.8100000000000006)]",0.9411000000000003,,,32.0,0.004507000000000001,['Fail'],Fail,0.6900000000000005,-0.5788888888888895,1.0,9.0,0.5
284.0,3.0,wc_3,,0.0,,,,162.0,,,,Fail,,,,,
284.0,3.0,wc_3,wc_7,0.0,"[('wc_3', 0.8100000000000006), ('wc_14', 0.6900000000000005)]",0.9411000000000003,,,34.0,0.005844,['Fail'],Fail,0.6700000000000005,-0.6700000000000005,0.0,0.0,0.6
284.0,3.0,wc_3,,0.0,,,,182.0,,,,Fail,,,,,
284.0,3.0,wc_3,wc_1,0.0,"[('wc_3', 0.8100000000000006), ('wc_14', 0.6900000000000005)]",0.9411000000000003,,,39.0,0.007923,['Fail'],Fail,0.27000000000000013,-0.04777777777777792,2.0,9.0,0.1
284.0,3.0,wc_3,,0.0,,,,202.0,,,,Fail,,,,,
284.0,3.0,wc_3,wc_13,1.0,"[('wc_13', 0.41000000000000025), ('wc_3', 0.8100000000000006), ('wc_14', 0.6900000000000005)]",0.9652490000000001,,,38.0,0.041430999999999996,['Fail'],Fail,0.41000000000000025,-0.16000000000000025,1.0,4.0,0.3
296.0,3.0,wc_3,,0.0,,,,341.0,,,,Pass,,,,,
296.0,3.0,wc_3,,0.0,,,65.0,,,,,Pass,,,,,
296.0,3.0,wc_3,,0.0,,,,0.0,,,,Pass,,,,,
296.0,3.0,wc_3,wc_3,0.0,"[('wc_3', 0.8100000000000006)]",0.8100000000000006,,,35.0,0.002172,['Pass'],Pass,0.8100000000000006,-0.21000000000000063,3.0,5.0,0.9
296.0,3.0,wc_3,,0.0,,,,141.0,,,,Pass,,,,,
296.0,3.0,wc_3,wc_8,0.0,"[('wc_8', 0.5500000000000004), ('wc_3', 0.8100000000000006)]",0.9145000000000003,,,40.0,0.004114,['Pass'],Pass,0.5500000000000004,-0.21666666666666706,3.0,9.0,0.6
296.0,3.0,wc_3,,0.0,,,,162.0,,,,Pass,,,,,
296.0,3.0,wc_3,wc_14,0.0,"[('wc_3', 0.8100000000000006), ('wc_8', 0.5500000000000004)]",0.9145000000000003,,,22.0,0.006059,['Pass'],Pass,0.6900000000000005,-0.6900000000000005,0.0,0.0,0.5
296.0,3.0,wc_3,,0.0,,,,0.0,,,,Pass,,,,,
296.0,3.0,wc_3,wc_17,1.0,"[('wc_17', 0.40000000000000024), ('wc_3', 0.8100000000000006), ('wc_8', 0.5500000000000004)]",0.9487000000000002,,,28.0,0.037703,['Pass'],Pass,0.40000000000000024,-0.40000000000000024,0.0,0.0,0.4
312.0,4.0,wc_4,,0.0,,,,382.0,,,,Fail,,,,,
312.0,4.0,wc_4,,0.0,,,59.0,,,,,Fail,,,,,
312.0,4.0,wc_4,,0.0,,,,0.0,,,,Fail,,,,,
312.0,4.0,wc_4,wc_4,0.0,"[('wc_4', 0.7500000000000006)]",0.7500000000000006,,,21.0,0.002128,['Pass'],Fail,0.7500000000000006,-0.5961538461538467,0.0,0.0,0.7
312.0,4.0,wc_4,,0.0,,,,121.0,,,,Fail,,,,,
312.0,4.0,wc_4,wc_8,0.0,"[('wc_4', 0.7500000000000006)]",0.7500000000000006,,,28.0,0.0037530000000000003,['Pass'],Fail,0.5500000000000004,-0.5500000000000004,0.0,0.0,0.6
312.0,4.0,wc_4,,0.0,,,,162.0,,,,Fail,,,,,
312.0,4.0,wc_4,wc_14,0.0,"[('wc_14', 0.6800000000000005), ('wc_8', 0.5500000000000004)]",0.8560000000000003,,,33.0,0.005762,['Fail'],Fail,0.6800000000000005,-0.6800000000000005,0.0,1.0,0.5
312.0,4.0,wc_4,,0.0,,,,202.0,,,,Fail,,,,,
312.0,4.0,wc_4,wc_1,0.0,"[('wc_8', 0.5500000000000004), ('wc_14', 0.6800000000000005)]",0.8560000000000003,,,23.0,0.007345000000000001,['Fail'],Fail,0.2600000000000001,-0.2600000000000001,0.0,1.0,0.1
312.0,4.0,wc_4,,0.0,,,,0.0,,,,Fail,,,,,
312.0,4.0,wc_4,wc_5,1.0,"[('wc_5', 0.5600000000000004), ('wc_8', 0.5500000000000004), ('wc_14', 0.6800000000000005)]",0.9366400000000003,,,22.0,0.04449,['Fail'],Fail,0.5600000000000004,-0.3377777777777782,2.0,9.0,0.4
346.0,2.0,wc_2,,0.0,,,,61.0,,,,Pass,,,,,
346.0,2.0,wc_2,,0.0,,,70.0,,,,,Pass,,,,,
346.0,2.0,wc_2,,0.0,,,,0.0,,,,Pass,,,,,
346.0,2.0,wc_2,wc_2,0.0,"[('wc_2', 0.8700000000000007)]",0.8700000000000007,,,21.0,0.002596,['Pass'],Pass,0.8700000000000007,-0.8700000000000007,0.0,3.0,0.8
346.0,2.0,wc_2,,0.0,,,,0.0,,,,Pass,,,,,
346.0,2.0,wc_2,wc_3,0.0,"[('wc_3', 0.8100000000000006), ('wc_2', 0.8700000000000007)]",0.9753000000000002,,,25.0,0.004246,['Pass'],Pass,0.8100000000000006,-0.2385714285714292,4.0,7.0,0.9
346.0,2.0,wc_2,,0.0,,,,161.0,,,,Pass,,,,,
346.0,2.0,wc_2,wc_13,0.0,"[('wc_2', 0.8700000000000007), ('wc_3', 0.8100000000000006)]",0.9753000000000002,,,26.0,0.006139,['Pass'],Pass,0.41000000000000025,-0.2433333333333336,1.0,6.0,0.3
346.0,2.0,wc_2,,0.0,,,,0.0,,,,Pass,,,,,
346.0,2.0,wc_2,wc_14,1.0,"[('wc_14', 0.6800000000000005), ('wc_2', 0.8700000000000007), ('wc_3', 0.8100000000000006)]",0.9920960000000001,,,29.0,0.044632000000000005,['Pass'],Pass,0.6800000000000005,-0.013333333333333863,2.0,3.0,0.5
366.0,4.0,wc_4,,0.0,,,,341.0,,,,Pass,,,,,
366.0,4.0,wc_4,,0.0,,,72.0,,,,,Pass,,,,,
366.0,4.0,wc_4,,0.0,,,,0.0,,,,Pass,,,,,
366.0,4.0,wc_4,wc_4,0.0,"[('wc_4', 0.7400000000000005)]",0.7400000000000005,,,20.0,0.002239,['Pass'],Pass,0.7400000000000005,-0.7400000000000005,0.0,2.0,0.7
366.0,4.0,wc_4,,0.0,,,,101.0,,,,Pass,,,,,
366.0,4.0,wc_4,wc_7,0.0,"[('wc_7', 0.6600000000000005), ('wc_4', 0.7400000000000005)]",0.9116000000000003,,,29.0,0.004149,['Pass'],Pass,0.6600000000000005,-0.6600000000000005,0.0,4.0,0.6
366.0,4.0,wc_4,,0.0,,,,0.0,,,,Pass,,,,,
366.0,4.0,wc_4,wc_8,1.0,"[('wc_8', 0.5600000000000004), ('wc_4', 0.7400000000000005), ('wc_7', 0.6600000000000005)]",0.9611040000000002,,,25.0,0.039359000000000005,['Pass'],Pass,0.5700000000000004,0.09666666666666623,2.0,3.0,0.6
380.0,5.0,wc_5,,0.0,,,,321.0,,,,Pass,,,,,
380.0,5.0,wc_5,,0.0,,,77.0,,,,,Pass,,,,,
380.0,5.0,wc_5,,0.0,,,,0.0,,,,Pass,,,,,
380.0,5.0,wc_5,wc_5,0.0,"[('wc_5', 0.5600000000000004)]",0.5600000000000004,,,34.0,0.002221,['Pass'],Pass,0.5600000000000004,-0.37818181818181856,0.0,0.0,0.4
380.0,5.0,wc_5,,0.0,,,,101.0,,,,Pass,,,,,
380.0,5.0,wc_5,wc_8,0.0,"[('wc_8', 0.5700000000000004), ('wc_5', 0.5600000000000004)]",0.8108000000000004,,,33.0,0.004114,['Pass'],Pass,0.5700000000000004,0.09666666666666623,2.0,3.0,0.6
380.0,5.0,wc_5,,0.0,,,,0.0,,,,Pass,,,,,
380.0,5.0,wc_5,wc_10,1.0,"[('wc_10', 0.8200000000000006), ('wc_5', 0.5600000000000004), ('wc_8', 0.5700000000000004)]",0.9659440000000001,,,38.0,0.039601000000000004,['Pass'],Pass,0.8200000000000006,-0.6771428571428577,1.0,7.0,1.0
392.0,6.0,wc_6,,0.0,,,,41.0,,,,Fail,,,,,
392.0,6.0,wc_6,,0.0,,,60.0,,,,,Fail,,,,,
392.0,6.0,wc_6,,0.0,,,,0.0,,,,Fail,,,,,
392.0,6.0,wc_6,wc_6,0.0,"[('wc_6', 0.8200000000000006)]",0.8200000000000006,,,35.0,0.002758,['Fail'],Fail,0.8200000000000006,-0.7366666666666672,0.0,0.0,0.9
392.0,6.0,wc_6,,0.0,,,,0.0,,,,Fail,,,,,
392.0,6.0,wc_6,wc_7,0.0,"[('wc_7', 0.6600000000000005), ('wc_6', 0.8200000000000006)]",0.9388000000000003,,,40.0,0.00425,['Fail'],Fail,0.6600000000000005,-0.49333333333333385,1.0,6.0,0.6
392.0,6.0,wc_6,,0.0,,,,341.0,,,,Fail,,,,,
392.0,6.0,wc_6,wc_5,1.0,"[('wc_5', 0.5700000000000004), ('wc_6', 0.8200000000000006), ('wc_7', 0.6600000000000005)]",0.9736840000000001,,,32.0,0.040871000000000005,['Fail'],Fail,0.5800000000000004,0.4199999999999996,2.0,2.0,0.4
400.0,6.0,wc_6,,0.0,,,,61.0,,,,Fail,,,,,
400.0,6.0,wc_6,,0.0,,,78.0,,,,,Fail,,,,,
400.0,6.0,wc_6,,0.0,,,,0.0,,,,Fail,,,,,
400.0,6.0,wc_6,wc_6,0.0,"[('wc_6', 0.8300000000000006)]",0.8300000000000006,,,34.0,0.002275,['Fail'],Fail,0.8300000000000006,0.16999999999999937,1.0,1.0,0.9
400.0,6.0,wc_6,,0.0,,,,202.0,,,,Fail,,,,,
400.0,6.0,wc_6,wc_1,0.0,"[('wc_6', 0.8300000000000006)]",0.8300000000000006,,,27.0,0.00541,['Fail'],Fail,0.2500000000000001,-0.2500000000000001,0.0,6.0,0.1
400.0,6.0,wc_6,,0.0,,,,0.0,,,,Fail,,,,,
400.0,6.0,wc_6,wc_4,0.0,"[('wc_6', 0.8300000000000006)]",0.8300000000000006,,,25.0,0.008343,['Fail'],Fail,0.7400000000000005,-0.5400000000000005,1.0,5.0,0.7
400.0,6.0,wc_6,,0.0,,,,121.0,,,,Fail,,,,,
400.0,6.0,wc_6,wc_8,0.0,"[('wc_8', 0.5800000000000004), ('wc_6', 0.8300000000000006)]",0.9286000000000003,,,38.0,0.00771,['Fail'],Fail,0.5800000000000004,0.019999999999999574,3.0,5.0,0.6
400.0,6.0,wc_6,,0.0,,,,0.0,,,,Fail,,,,,
400.0,6.0,wc_6,wc_10,1.0,"[('wc_10', 0.8200000000000006), ('wc_1', 0.2500000000000001), ('wc_4', 0.7400000000000005)]",0.9649000000000002,,,22.0,0.044037999999999994,['Pass'],Fail,0.8200000000000006,-0.5977777777777784,2.0,9.0,1.0
410.0,6.0,wc_6,,0.0,,,,41.0,,,,Pass,,,,,
410.0,6.0,wc_6,,0.0,,,64.0,,,,,Pass,,,,,
410.0,6.0,wc_6,,0.0,,,,0.0,,,,Pass,,,,,
410.0,6.0,wc_6,wc_6,0.0,"[('wc_6', 0.8200000000000006)]",0.8200000000000006,,,25.0,0.002045,['Pass'],Pass,0.8200000000000006,-0.3200000000000006,1.0,2.0,0.9
410.0,6.0,wc_6,,0.0,,,,263.0,,,,Pass,,,,,
410.0,6.0,wc_6,wc_17,0.0,"[('wc_17', 0.40000000000000024), ('wc_6', 0.8200000000000006)]",0.8920000000000005,,,38.0,0.004122,['Pass'],Pass,0.40000000000000024,-0.40000000000000024,0.0,6.0,0.4
410.0,6.0,wc_6,,0.0,,,,382.0,,,,Pass,,,,,
410.0,6.0,wc_6,wc_4,1.0,"[('wc_4', 0.7400000000000005), ('wc_6', 0.8200000000000006), ('wc_17', 0.40000000000000024)]",0.9719200000000001,,,32.0,0.039657,['Pass'],Pass,0.7400000000000005,-0.311428571428572,3.0,7.0,0.7
420.0,10.0,wc_10,,0.0,,,,162.0,,,,Fail,,,,,
420.0,10.0,wc_10,,0.0,,,58.0,,,,,Fail,,,,,
420.0,10.0,wc_10,,0.0,,,,0.0,,,,Fail,,,,,
420.0,10.0,wc_10,wc_10,0.0,"[('wc_10', 0.8200000000000006)]",0.8200000000000006,,,27.0,0.003096,['Fail'],Fail,0.8200000000000006,-0.6200000000000006,0.0,0.0,1.0
420.0,10.0,wc_10,,0.0,,,,81.0,,,,Fail,,,,,
420.0,10.0,wc_10,wc_12,0.0,"[('wc_10', 0.8200000000000006)]",0.8200000000000006,,,35.0,0.0040149999999999995,['Fail'],Fail,0.5100000000000003,-0.24684210526315825,0.0,0.0,0.3
420.0,10.0,wc_10,,0.0,,,,401.0,,,,Fail,,,,,
420.0,10.0,wc_10,wc_5,0.0,"[('wc_5', 0.5800000000000004), ('wc_10', 0.8200000000000006)]",0.9244000000000003,,,32.0,0.006292,['Fail'],Fail,0.5800000000000004,-0.0800000000000004,2.0,4.0,0.4
420.0,10.0,wc_10,,0.0,,,,81.0,,,,Fail,,,,,
420.0,10.0,wc_10,wc_7,1.0,"[('wc_7', 0.6600000000000005), ('wc_10', 0.8200000000000006), ('wc_5', 0.5800000000000004)]",0.9742960000000002,,,39.0,0.04313800000000001,['Fail'],Fail,0.6600000000000005,-0.6600000000000005,0.0,0.0,0.6
431.0,8.0,wc_8,,0.0,,,,0.0,,,,Fail,,,,,
431.0,8.0,wc_8,,0.0,,,66.0,,,,,Fail,,,,,
431.0,8.0,wc_8,,0.0,,,,0.0,,,,Fail,,,,,
431.0,8.0,wc_8,wc_8,0.0,"[('wc_8', 0.5700000000000004)]",0.5700000000000004,,,38.0,0.002493,['Fail'],Fail,0.5700000000000004,-0.1950000000000004,3.0,8.0,0.6
431.0,8.0,wc_8,,0.0,,,,82.0,,,,Fail,,,,,
431.0,8.0,wc_8,wc_6,0.0,"[('wc_6', 0.8200000000000006), ('wc_8', 0.5700000000000004)]",0.9226000000000003,,,33.0,0.0038450000000000003,['Fail'],Fail,0.8200000000000006,-0.3200000000000006,2.0,4.0,0.9
431.0,8.0,wc_8,,0.0,,,,202.0,,,,Fail,,,,,
431.0,8.0,wc_8,wc_14,1.0,"[('wc_14', 0.6800000000000005), ('wc_8', 0.5700000000000004), ('wc_6', 0.8200000000000006)]",0.9752320000000001,,,27.0,0.043986,['Fail'],Fail,0.6800000000000005,-0.6800000000000005,0.0,0.0,0.5
442.0,8.0,wc_8,,0.0,,,,182.0,,,,Pass,,,,,
442.0,8.0,wc_8,,0.0,,,75.0,,,,,Pass,,,,,
442.0,8.0,wc_8,,0.0,,,,0.0,,,,Pass,,,,,
442.0,8.0,wc_8,wc_8,0.0,"[('wc_8', 0.5700000000000004)]",0.5700000000000004,,,25.0,0.002037,['Pass'],Pass,0.5700000000000004,-0.12555555555555598,4.0,9.0,0.6
442.0,8.0,wc_8,,0.0,,,,122.0,,,,Pass,,,,,
442.0,8.0,wc_8,wc_12,0.0,"[('wc_12', 0.5000000000000003), ('wc_8', 0.5700000000000004)]",0.7850000000000004,,,34.0,0.004111,['Pass'],Pass,0.5000000000000003,-0.5000000000000003,0.0,2.0,0.3
442.0,8.0,wc_8,,0.0,,,,361.0,,,,Pass,,,,,
442.0,8.0,wc_8,wc_3,1.0,"[('wc_3', 0.8100000000000006), ('wc_8', 0.5700000000000004), ('wc_12', 0.5000000000000003)]",0.9591500000000002,,,32.0,0.07197800000000001,['Pass'],Pass,0.8100000000000006,-0.8100000000000006,0.0,0.0,0.9
453.0,10.0,wc_10,,0.0,,,,182.0,,,,Pass,,,,,
453.0,10.0,wc_10,,0.0,,,66.0,,,,,Pass,,,,,
453.0,10.0,wc_10,,0.0,,,,0.0,,,,Pass,,,,,
453.0,10.0,wc_10,wc_10,0.0,"[('wc_10', 0.8300000000000006)]",0.8300000000000006,,,31.0,0.001973,['Pass'],Pass,0.8300000000000006,-0.4966666666666673,1.0,3.0,1.0
453.0,10.0,wc_10,,0.0,,,,61.0,,,,Pass,,,,,
453.0,10.0,wc_10,wc_7,0.0,"[('wc_7', 0.6600000000000005), ('wc_10', 0.8300000000000006)]",0.9422000000000003,,,33.0,0.00436,['Pass'],Pass,0.6600000000000005,-0.6600000000000005,0.0,2.0,0.6
453.0,10.0,wc_10,,0.0,,,,203.0,,,,Pass,,,,,
453.0,10.0,wc_10,wc_15,1.0,"[('wc_15', 0.17000000000000004), ('wc_10', 0.8300000000000006), ('wc_7', 0.6600000000000005)]",0.9520260000000003,,,40.0,0.040422999999999994,['Pass'],Pass,0.17000000000000004,-0.17000000000000004,0.0,0.0,0.2
463.0,7.0,wc_7,,0.0,,,,243.0,,,,Pass,,,,,
463.0,7.0,wc_7,,0.0,,,78.0,,,,,Pass,,,,,
463.0,7.0,wc_7,,0.0,,,,0.0,,,,Pass,,,,,
463.0,7.0,wc_7,wc_7,0.0,"[('wc_7', 0.6600000000000005)]",0.6600000000000005,,,23.0,0.002155,['Pass'],Pass,0.6600000000000005,-0.32666666666666716,1.0,3.0,0.6
463.0,7.0,wc_7,,0.0,,,,142.0,,,,Pass,,,,,
463.0,7.0,wc_7,wc_12,0.0,"[('wc_7', 0.6600000000000005)]",0.6600000000000005,,,22.0,0.0044469999999999996,['Pass'],Pass,0.5000000000000003,-0.25000000000000033,1.0,4.0,0.3
463.0,7.0,wc_7,,0.0,,,,321.0,,,,Pass,,,,,
463.0,7.0,wc_7,wc_9,0.0,"[('wc_9', 0.4700000000000003), ('wc_12', 0.5000000000000003)]",0.7350000000000003,,,36.0,0.006056,['Fail'],Pass,0.4700000000000003,-0.4223809523809527,0.0,0.0,0.4
463.0,7.0,wc_7,,0.0,,,,0.0,,,,Pass,,,,,
463.0,7.0,wc_7,wc_10,0.0,"[('wc_10', 0.8300000000000006), ('wc_7', 0.6600000000000005)]",0.9422000000000003,,,34.0,0.008185000000000001,['Pass'],Pass,0.8300000000000006,-0.3300000000000006,2.0,4.0,1.0
463.0,7.0,wc_7,,0.0,,,,243.0,,,,Pass,,,,,
463.0,7.0,wc_7,wc_2,1.0,"[('wc_2', 0.8700000000000007), ('wc_7', 0.6600000000000005), ('wc_10', 0.8300000000000006)]",0.9924860000000001,,,21.0,0.043239,['Pass'],Pass,0.8700000000000007,-0.8700000000000007,0.0,0.0,0.8
473.0,11.0,wc_11,,0.0,,,,223.0,,,,Fail,,,,,
473.0,11.0,wc_11,,0.0,,,63.0,,,,,Fail,,,,,
473.0,11.0,wc_11,,0.0,,,,0.0,,,,Fail,,,,,
473.0,11.0,wc_11,wc_11,0.0,"[('wc_11', 0.7400000000000005)]",0.7400000000000005,,,25.0,0.002038,['Fail'],Fail,0.7400000000000005,-0.6733333333333339,0.0,0.0,0.8
473.0,11.0,wc_11,,0.0,,,,61.0,,,,Fail,,,,,
473.0,11.0,wc_11,wc_12,0.0,"[('wc_11', 0.7400000000000005)]",0.7400000000000005,,,31.0,0.004524,['Fail'],Fail,0.4900000000000003,-0.2900000000000003,1.0,5.0,0.3
473.0,11.0,wc_11,,0.0,,,,401.0,,,,Fail,,,,,
473.0,11.0,wc_11,wc_5,0.0,"[('wc_5', 0.5900000000000004), ('wc_11', 0.7400000000000005)]",0.8934000000000003,,,25.0,0.006634,['Fail'],Fail,0.5900000000000004,-0.2566666666666671,3.0,9.0,0.4
473.0,11.0,wc_11,,0.0,,,,202.0,,,,Fail,,,,,
473.0,11.0,wc_11,wc_17,1.0,"[('wc_17', 0.40000000000000024), ('wc_11', 0.7400000000000005), ('wc_5', 0.5900000000000004)]",0.9360400000000002,,,36.0,0.046166,['Fail'],Fail,0.40000000000000024,-0.40000000000000024,0.0,0.0,0.4
483.0,11.0,wc_11,,0.0,,,,362.0,,,,Fail,,,,,
483.0,11.0,wc_11,,0.0,,,66.0,,,,,Fail,,,,,
483.0,11.0,wc_11,,0.0,,,,0.0,,,,Fail,,,,,
483.0,11.0,wc_11,wc_11,0.0,"[('wc_11', 0.7500000000000006)]",0.7500000000000006,,,34.0,0.002133,['Fail'],Fail,0.7500000000000006,0.24999999999999944,1.0,1.0,0.8
483.0,11.0,wc_11,,0.0,,,,83.0,,,,Fail,,,,,
483.0,11.0,wc_11,wc_9,0.0,"[('wc_11', 0.7500000000000006)]",0.7500000000000006,,,21.0,0.0041860000000000005,['Fail'],Fail,0.4600000000000003,-0.4600000000000003,0.0,2.0,0.4
483.0,11.0,wc_11,,0.0,,,,121.0,,,,Fail,,,,,
483.0,11.0,wc_11,wc_13,0.0,"[('wc_11', 0.7500000000000006)]",0.7500000000000006,,,20.0,0.005653,['Fail'],Fail,0.40000000000000024,-0.34444444444444466,0.0,0.0,0.3
483.0,11.0,wc_11,,0.0,,,,341.0,,,,Fail,,,,,
483.0,11.0,wc_11,wc_3,0.0,"[('wc_3', 0.8100000000000006), ('wc_11', 0.7500000000000006)]",0.9525000000000002,,,31.0,0.007719,['Fail'],Fail,0.8100000000000006,-0.8100000000000006,0.0,3.0,0.9
483.0,11.0,wc_11,,0.0,,,,242.0,,,,Fail,,,,,
483.0,11.0,wc_11,wc_17,1.0,"[('wc_17', 0.40000000000000024), ('wc_11', 0.7500000000000006), ('wc_3', 0.8100000000000006)]",0.9715000000000001,,,31.0,0.045107,['Fail'],Fail,0.41000000000000025,0.5899999999999997,1.0,1.0,0.4
491.0,9.0,wc_9,,0.0,,,,322.0,,,,Pass,,,,,
491.0,9.0,wc_9,,0.0,,,62.0,,,,,Pass,,,,,
491.0,9.0,wc_9,,0.0,,,,0.0,,,,Pass,,,,,
491.0,9.0,wc_9,wc_9,0.0,"[('wc_9', 0.4500000000000003)]",0.4500000000000003,,,23.0,0.002537,['Pass'],Pass,0.4500000000000003,-0.4500000000000003,0.0,3.0,0.4
491.0,9.0,wc_9,,0.0,,,,101.0,,,,Pass,,,,,
491.0,9.0,wc_9,wc_8,0.0,"[('wc_8', 0.5700000000000004), ('wc_9', 0.4500000000000003)]",0.7635000000000003,,,28.0,0.004202,['Pass'],Pass,0.5700000000000004,-0.5700000000000004,0.0,4.0,0.6
491.0,9.0,wc_9,,0.0,,,,162.0,,,,Pass,,,,,
491.0,9.0,wc_9,wc_14,0.0,"[('wc_9', 0.4500000000000003), ('wc_8', 0.5700000000000004)]",0.7635000000000003,,,24.0,0.007431,['Pass'],Pass,0.6800000000000005,-0.6800000000000005,0.0,5.0,0.5
491.0,9.0,wc_9,,0.0,,,,0.0,,,,Pass,,,,,
491.0,9.0,wc_9,wc_17,0.0,"[('wc_17', 0.41000000000000025), ('wc_9', 0.4500000000000003), ('wc_8', 0.5700000000000004)]",0.8604650000000003,,,36.0,0.009495,['Pass'],Pass,0.41000000000000025,0.5899999999999997,1.0,1.0,0.4
491.0,9.0,wc_9,,0.0,,,,103.0,,,,Pass,,,,,
491.0,9.0,wc_9,wc_16,1.0,"[('wc_16', 0.8800000000000007), ('wc_9', 0.4500000000000003), ('wc_8', 0.5700000000000004), ('wc_17', 0.41000000000000025)]",0.9832558000000001,,,22.0,0.046825000000000006,['Pass'],Pass,0.8800000000000007,-0.8800000000000007,0.0,0.0,0.8
502.0,11.0,wc_11,,0.0,,,,382.0,,,,Pass,,,,,
502.0,11.0,wc_11,,0.0,,,80.0,,,,,Pass,,,,,
502.0,11.0,wc_11,,0.0,,,,0.0,,,,Pass,,,,,
502.0,11.0,wc_11,wc_11,0.0,"[('wc_11', 0.7600000000000006)]",0.7600000000000006,,,28.0,0.002348,['Pass'],Pass,0.7600000000000006,-0.09333333333333393,2.0,3.0,0.8
502.0,11.0,wc_11,,0.0,,,,61.0,,,,Pass,,,,,
502.0,11.0,wc_11,wc_12,0.0,"[('wc_11', 0.7600000000000006)]",0.7600000000000006,,,36.0,0.004234,['Pass'],Pass,0.4800000000000003,-0.3550000000000003,1.0,8.0,0.3
502.0,11.0,wc_11,,0.0,,,,0.0,,,,Pass,,,,,
502.0,11.0,wc_11,wc_16,0.0,"[('wc_16', 0.8800000000000007), ('wc_11', 0.7600000000000006)]",0.9712000000000003,,,28.0,0.00643,['Pass'],Pass,0.8800000000000007,-0.8800000000000007,0.0,0.0,0.8
502.0,11.0,wc_11,,0.0,,,,362.0,,,,Pass,,,,,
502.0,11.0,wc_11,wc_10,1.0,"[('wc_10', 0.8300000000000006), ('wc_11', 0.7600000000000006), ('wc_16', 0.8800000000000007)]",0.9951040000000001,,,22.0,0.059116,['Pass'],Pass,0.8300000000000006,-0.3855555555555562,4.0,9.0,1.0
515.0,12.0,wc_12,,0.0,,,,81.0,,,,Pass,,,,,
515.0,12.0,wc_12,,0.0,,,76.0,,,,,Pass,,,,,
515.0,12.0,wc_12,,0.0,,,,0.0,,,,Pass,,,,,
515.0,12.0,wc_12,wc_12,0.0,"[('wc_12', 0.4700000000000003)]",0.4700000000000003,,,31.0,0.002307,['Pass'],Pass,0.4700000000000003,-0.3588888888888892,1.0,9.0,0.3
515.0,12.0,wc_12,,0.0,,,,202.0,,,,Pass,,,,,
515.0,12.0,wc_12,wc_7,0.0,"[('wc_7', 0.6600000000000005), ('wc_12', 0.4700000000000003)]",0.8198000000000003,,,39.0,0.004398,['Pass'],Pass,0.6600000000000005,-0.4100000000000005,2.0,8.0,0.6
515.0,12.0,wc_12,,0.0,,,,243.0,,,,Pass,,,,,
515.0,12.0,wc_12,wc_17,0.0,"[('wc_17', 0.42000000000000026), ('wc_12', 0.4700000000000003), ('wc_7', 0.6600000000000005)]",0.8954840000000003,,,40.0,0.0071,['Pass'],Pass,0.42000000000000026,0.24666666666666637,2.0,3.0,0.4
515.0,12.0,wc_12,,0.0,,,,103.0,,,,Pass,,,,,
515.0,12.0,wc_12,wc_16,1.0,"[('wc_16', 0.8900000000000007), ('wc_12', 0.4700000000000003), ('wc_7', 0.6600000000000005), ('wc_17', 0.42000000000000026)]",0.9885032400000001,,,23.0,0.05155599999999999,['Pass'],Pass,0.9000000000000007,0.09999999999999931,2.0,2.0,0.8
525.0,13.0,wc_13,,0.0,,,,61.0,,,,Pass,,,,,
525.0,13.0,wc_13,,0.0,,,67.0,,,,,Pass,,,,,
525.0,13.0,wc_13,,0.0,,,,0.0,,,,Pass,,,,,
525.0,13.0,wc_13,wc_13,0.0,"[('wc_13', 0.39000000000000024)]",0.39000000000000024,,,34.0,0.002481,['Pass'],Pass,0.39000000000000024,-0.39000000000000024,0.0,4.0,0.3
525.0,13.0,wc_13,,0.0,,,,182.0,,,,Pass,,,,,
525.0,13.0,wc_13,wc_7,0.0,"[('wc_7', 0.6600000000000005), ('wc_13', 0.39000000000000024)]",0.7926000000000004,,,33.0,0.004203,['Pass'],Pass,0.6600000000000005,-0.32666666666666716,3.0,9.0,0.6
525.0,13.0,wc_13,,0.0,,,,182.0,,,,Pass,,,,,
525.0,13.0,wc_13,wc_1,0.0,"[('wc_1', 0.2500000000000001), ('wc_13', 0.39000000000000024), ('wc_7', 0.6600000000000005)]",0.8444500000000004,,,34.0,0.006192,['Pass'],Pass,0.2500000000000001,-0.19444444444444456,0.0,0.0,0.1
525.0,13.0,wc_13,,0.0,,,,182.0,,,,Pass,,,,,
525.0,13.0,wc_13,wc_8,1.0,"[('wc_8', 0.5700000000000004), ('wc_13', 0.39000000000000024), ('wc_7', 0.6600000000000005), ('wc_1', 0.2500000000000001)]",0.9331135000000002,,,23.0,0.05112799999999999,['Pass'],Pass,0.5700000000000004,-0.3200000000000004,2.0,8.0,0.6
536.0,14.0,wc_14,,0.0,,,,162.0,,,,Pass,,,,,
536.0,14.0,wc_14,,0.0,,,78.0,,,,,Pass,,,,,
536.0,14.0,wc_14,,0.0,,,,0.0,,,,Pass,,,,,
536.0,14.0,wc_14,wc_14,0.0,"[('wc_14', 0.6700000000000005)]",0.6700000000000005,,,22.0,0.002087,['Fail'],Pass,0.6700000000000005,-0.6700000000000005,0.0,9.0,0.5
536.0,14.0,wc_14,,0.0,,,,0.0,,,,Pass,,,,,
536.0,14.0,wc_14,wc_17,0.0,"[('wc_14', 0.6700000000000005)]",0.6700000000000005,,,22.0,0.004083,['Fail'],Pass,0.43000000000000027,0.1699999999999997,3.0,5.0,0.4
536.0,14.0,wc_14,,0.0,,,,382.0,,,,Pass,,,,,
536.0,14.0,wc_14,wc_4,0.0,"[('wc_4', 0.7400000000000005), ('wc_17', 0.43000000000000027)]",0.8518000000000003,,,24.0,0.005826,['Pass'],Pass,0.7400000000000005,-0.5733333333333339,0.0,0.0,0.7
536.0,14.0,wc_14,,0.0,,,,182.0,,,,Pass,,,,,
536.0,14.0,wc_14,wc_11,1.0,"[('wc_11', 0.7600000000000006), ('wc_17', 0.43000000000000027), ('wc_4', 0.7400000000000005)]",0.9644320000000002,,,27.0,0.046550999999999995,['Pass'],Pass,0.7600000000000006,-0.18857142857142917,4.0,7.0,0.8
546.0,15.0,wc_15,,0.0,,,,122.0,,,,Fail,,,,,
546.0,15.0,wc_15,,0.0,,,74.0,,,,,Fail,,,,,
546.0,15.0,wc_15,,0.0,,,,0.0,,,,Fail,,,,,
546.0,15.0,wc_15,wc_15,0.0,"[('wc_15', 0.17000000000000004)]",0.17000000000000004,,,39.0,0.002201,['Fail'],Fail,0.17000000000000004,-0.17000000000000004,0.0,8.0,0.2
546.0,15.0,wc_15,,0.0,,,,402.0,,,,Fail,,,,,
546.0,15.0,wc_15,wc_11,0.0,"[('wc_11', 0.7600000000000006), ('wc_15', 0.17000000000000004)]",0.8008000000000005,,,27.0,0.004325,['Fail'],Fail,0.7600000000000006,-0.18857142857142917,4.0,7.0,0.8
546.0,15.0,wc_15,,0.0,,,,223.0,,,,Fail,,,,,
546.0,15.0,wc_15,wc_2,1.0,"[('wc_2', 0.8700000000000007), ('wc_15', 0.17000000000000004), ('wc_11', 0.7600000000000006)]",0.9741040000000002,,,40.0,0.04793700000000001,['Fail'],Fail,0.8700000000000007,-0.7450000000000007,1.0,8.0,0.8
552.0,15.0,wc_15,,0.0,,,,223.0,,,,Pass,,,,,
552.0,15.0,wc_15,,0.0,,,53.0,,,,,Pass,,,,,
552.0,15.0,wc_15,,0.0,,,,0.0,,,,Pass,,,,,
552.0,15.0,wc_15,wc_15,0.0,"[('wc_15', 0.17000000000000004)]",0.17000000000000004,,,28.0,0.002437,['Fail'],Pass,0.17000000000000004,-0.058888888888888935,1.0,9.0,0.2
552.0,15.0,wc_15,,0.0,,,,223.0,,,,Pass,,,,,
552.0,15.0,wc_15,wc_6,0.0,"[('wc_6', 0.8200000000000006)]",0.8200000000000006,,,31.0,0.004024,['Pass'],Pass,0.8200000000000006,-0.6325000000000006,0.0,0.0,0.9
552.0,15.0,wc_15,,0.0,,,,263.0,,,,Pass,,,,,
552.0,15.0,wc_15,wc_17,0.0,"[('wc_17', 0.4400000000000003), ('wc_6', 0.8200000000000006)]",0.8992000000000004,,,23.0,0.006854000000000001,['Pass'],Pass,0.4400000000000003,0.13142857142857112,4.0,7.0,0.4
552.0,15.0,wc_15,,0.0,,,,41.0,,,,Pass,,,,,
552.0,15.0,wc_15,wc_13,1.0,"[('wc_13', 0.39000000000000024), ('wc_6', 0.8200000000000006), ('wc_17', 0.4400000000000003)]",0.9385120000000002,,,34.0,0.044115999999999995,['Pass'],Pass,0.39000000000000024,-0.14000000000000024,2.0,8.0,0.3
563.0,16.0,wc_16,,0.0,,,,0.0,,,,Pass,,,,,
563.0,16.0,wc_16,,0.0,,,68.0,,,,,Pass,,,,,
563.0,16.0,wc_16,,0.0,,,,0.0,,,,Pass,,,,,
563.0,16.0,wc_16,wc_16,0.0,"[('wc_16', 0.9000000000000007)]",0.9000000000000007,,,28.0,0.002072,['Pass'],Pass,0.9000000000000007,-0.5666666666666673,2.0,6.0,0.8
563.0,16.0,wc_16,,0.0,,,,362.0,,,,Pass,,,,,
563.0,16.0,wc_16,wc_10,0.0,"[('wc_10', 0.8300000000000006), ('wc_16', 0.9000000000000007)]",0.9830000000000002,,,24.0,0.004233,['Pass'],Pass,0.8300000000000006,-0.5442857142857149,0.0,0.0,1.0
563.0,16.0,wc_16,,0.0,,,,362.0,,,,Pass,,,,,
563.0,16.0,wc_16,wc_4,1.0,"[('wc_4', 0.7500000000000006), ('wc_16', 0.9000000000000007), ('wc_10', 0.8300000000000006)]",0.99575,,,28.0,0.038667,['Pass'],Pass,0.7500000000000006,-0.25000000000000056,2.0,4.0,0.7
578.0,17.0,wc_17,,0.0,,,,222.0,,,,Pass,,,,,
578.0,17.0,wc_17,,0.0,,,75.0,,,,,Pass,,,,,
578.0,17.0,wc_17,,0.0,,,,0.0,,,,Pass,,,,,
578.0,17.0,wc_17,wc_17,0.0,"[('wc_17', 0.4500000000000003)]",0.4500000000000003,,,22.0,0.002016,['Pass'],Pass,0.4500000000000003,0.10555555555555529,5.0,9.0,0.4
578.0,17.0,wc_17,,0.0,,,,402.0,,,,Pass,,,,,
578.0,17.0,wc_17,wc_5,0.0,"[('wc_5', 0.5900000000000004)]",0.5900000000000004,,,29.0,0.004339,['Fail'],Pass,0.5900000000000004,-0.5900000000000004,0.0,9.0,0.4
578.0,17.0,wc_17,,0.0,,,,61.0,,,,Pass,,,,,
578.0,17.0,wc_17,wc_6,0.0,"[('wc_6', 0.8300000000000006), ('wc_17', 0.4500000000000003)]",0.9065000000000004,,,27.0,0.005704,['Pass'],Pass,0.8300000000000006,-0.3300000000000006,1.0,2.0,0.9
578.0,17.0,wc_17,,0.0,,,,0.0,,,,Pass,,,,,
578.0,17.0,wc_17,wc_9,0.0,"[('wc_17', 0.4500000000000003), ('wc_6', 0.8300000000000006)]",0.9065000000000004,,,33.0,0.008218,['Pass'],Pass,0.4500000000000003,-0.35909090909090935,0.0,0.0,0.4
578.0,17.0,wc_17,,0.0,,,,382.0,,,,Pass,,,,,
578.0,17.0,wc_17,wc_4,1.0,"[('wc_4', 0.7500000000000006), ('wc_17', 0.4500000000000003), ('wc_6', 0.8300000000000006)]",0.9766250000000002,,,34.0,0.058487000000000004,['Pass'],Pass,0.7500000000000006,-0.15000000000000058,3.0,5.0,0.7
