mpecck/BCQC/bcqc_with_qdt/results/raw/input_4/independent_qc/training/20_workpiece/20200429_084410/wp_12_qc_majority_0.9.csv
production_index,step_idx,production_workcell,qc,consent,winner_qc_list,score,production_time,transport_time,inspection_time,network_time,qc_results,actual_quality,qc_score,score_error,in_winner_counter,in_qc_counter,qc_capability
30.0,1.0,wc_1,,0.0,,,65.0,,,,,Pass,,,,,
30.0,1.0,wc_1,,0.0,,,,0.0,,,,Pass,,,,,
30.0,1.0,wc_1,wc_1,0.0,"[('wc_1', 0.3200000000000002)]",0.3200000000000002,,,25.0,0.00252,['Fail'],Pass,0.3200000000000002,-0.3200000000000002,0.0,5.0,0.1
30.0,1.0,wc_1,,0.0,,,,243.0,,,,Pass,,,,,
30.0,1.0,wc_1,wc_11,0.0,"[('wc_11', 0.6500000000000005), ('wc_1', 0.3200000000000002)]",0.7620000000000003,,,24.0,0.004137999999999999,['Fail'],Pass,0.6500000000000005,-0.15000000000000047,3.0,6.0,0.8
30.0,1.0,wc_1,,0.0,,,,83.0,,,,Pass,,,,,
30.0,1.0,wc_1,wc_9,0.0,"[('wc_1', 0.3200000000000002), ('wc_11', 0.6500000000000005)]",0.7620000000000003,,,32.0,0.00579,['Fail'],Pass,0.5200000000000004,-0.05846153846153879,0.0,0.0,0.4
30.0,1.0,wc_1,,0.0,,,,382.0,,,,Pass,,,,,
30.0,1.0,wc_1,wc_4,0.0,"[('wc_4', 0.6700000000000005), ('wc_9', 0.5200000000000004)]",0.8416000000000003,,,20.0,0.007306,['Pass'],Pass,0.6700000000000005,-0.48818181818181866,0.0,0.0,0.7
30.0,1.0,wc_1,,0.0,,,,0.0,,,,Pass,,,,,
30.0,1.0,wc_1,wc_5,0.0,"[('wc_5', 0.3600000000000002), ('wc_9', 0.5200000000000004), ('wc_4', 0.6700000000000005)]",0.8986240000000003,,,31.0,0.008972,['Pass'],Pass,0.3600000000000002,-0.17818181818181839,0.0,0.0,0.4
30.0,1.0,wc_1,,0.0,,,,142.0,,,,Pass,,,,,
30.0,1.0,wc_1,wc_10,1.0,"[('wc_10', 0.6900000000000005), ('wc_9', 0.5200000000000004), ('wc_4', 0.6700000000000005), ('wc_5', 0.3600000000000002)]",0.9685734400000001,,,22.0,0.048088,['Pass'],Pass,0.6900000000000005,-0.3150000000000005,3.0,8.0,1.0
33.0,2.0,wc_2,,0.0,,,,243.0,,,,Fail,,,,,
33.0,2.0,wc_2,,0.0,,,62.0,,,,,Fail,,,,,
33.0,2.0,wc_2,,0.0,,,,0.0,,,,Fail,,,,,
33.0,2.0,wc_2,wc_2,0.0,"[('wc_2', 0.7400000000000005)]",0.7400000000000005,,,24.0,0.002591,['Fail'],Fail,0.7400000000000005,-0.6630769230769236,0.0,0.0,0.8
33.0,2.0,wc_2,,0.0,,,,183.0,,,,Fail,,,,,
33.0,2.0,wc_2,wc_9,0.0,"[('wc_9', 0.5300000000000004), ('wc_2', 0.7400000000000005)]",0.8778000000000004,,,23.0,0.004327,['Fail'],Fail,0.5300000000000004,0.46999999999999964,1.0,1.0,0.4
33.0,2.0,wc_2,,0.0,,,,81.0,,,,Fail,,,,,
33.0,2.0,wc_2,wc_7,1.0,"[('wc_7', 0.5600000000000004), ('wc_2', 0.7400000000000005), ('wc_9', 0.5300000000000004)]",0.9462320000000002,,,32.0,0.040325,['Fail'],Fail,0.5600000000000004,-0.5600000000000004,0.0,0.0,0.6
41.0,4.0,wc_4,,0.0,,,,321.0,,,,Fail,,,,,
41.0,4.0,wc_4,,0.0,,,76.0,,,,,Fail,,,,,
41.0,4.0,wc_4,,0.0,,,,0.0,,,,Fail,,,,,
41.0,4.0,wc_4,wc_4,0.0,"[('wc_4', 0.6800000000000005)]",0.6800000000000005,,,22.0,0.002255,['Fail'],Fail,0.6800000000000005,-0.1800000000000005,1.0,2.0,0.7
41.0,4.0,wc_4,,0.0,,,,222.0,,,,Fail,,,,,
41.0,4.0,wc_4,wc_17,0.0,"[('wc_4', 0.6800000000000005)]",0.6800000000000005,,,40.0,0.004382,['Fail'],Fail,0.4600000000000003,0.0399999999999997,2.0,4.0,0.4
41.0,4.0,wc_4,,0.0,,,,203.0,,,,Fail,,,,,
41.0,4.0,wc_4,wc_7,0.0,"[('wc_7', 0.5600000000000004), ('wc_4', 0.6800000000000005)]",0.8592000000000004,,,33.0,0.005868,['Fail'],Fail,0.5600000000000004,-0.5600000000000004,0.0,0.0,0.6
41.0,4.0,wc_4,,0.0,,,,301.0,,,,Fail,,,,,
41.0,4.0,wc_4,wc_3,1.0,"[('wc_3', 0.7400000000000005), ('wc_4', 0.6800000000000005), ('wc_7', 0.5600000000000004)]",0.9633920000000001,,,30.0,0.040373,['Fail'],Fail,0.7400000000000005,-0.16857142857142915,4.0,7.0,0.9
50.0,2.0,wc_2,,0.0,,,,101.0,,,,Pass,,,,,
50.0,2.0,wc_2,,0.0,,,56.0,,,,,Pass,,,,,
50.0,2.0,wc_2,,0.0,,,,0.0,,,,Pass,,,,,
50.0,2.0,wc_2,wc_2,0.0,"[('wc_2', 0.7500000000000006)]",0.7500000000000006,,,30.0,0.002474,['Pass'],Pass,0.7500000000000006,-0.25000000000000056,1.0,2.0,0.8
50.0,2.0,wc_2,,0.0,,,,263.0,,,,Pass,,,,,
50.0,2.0,wc_2,wc_17,0.0,"[('wc_2', 0.7500000000000006)]",0.7500000000000006,,,31.0,0.0037860000000000003,['Pass'],Pass,0.4500000000000003,-0.050000000000000266,2.0,5.0,0.4
50.0,2.0,wc_2,,0.0,,,,203.0,,,,Pass,,,,,
50.0,2.0,wc_2,wc_7,0.0,"[('wc_7', 0.5700000000000004), ('wc_17', 0.4500000000000003)]",0.7635000000000003,,,34.0,0.005808000000000001,['Fail'],Pass,0.5700000000000004,0.4299999999999996,1.0,1.0,0.6
50.0,2.0,wc_2,,0.0,,,,321.0,,,,Pass,,,,,
50.0,2.0,wc_2,wc_4,0.0,"[('wc_4', 0.6800000000000005), ('wc_2', 0.7500000000000006)]",0.9200000000000003,,,34.0,0.007726,['Pass'],Pass,0.6800000000000005,-0.013333333333333863,2.0,3.0,0.7
50.0,2.0,wc_2,,0.0,,,,162.0,,,,Pass,,,,,
50.0,2.0,wc_2,wc_10,1.0,"[('wc_10', 0.6900000000000005), ('wc_2', 0.7500000000000006), ('wc_4', 0.6800000000000005)]",0.9752000000000002,,,32.0,0.041943999999999995,['Pass'],Pass,0.6900000000000005,-0.6900000000000005,0.0,0.0,1.0
65.0,4.0,wc_4,,0.0,,,,362.0,,,,Pass,,,,,
65.0,4.0,wc_4,,0.0,,,77.0,,,,,Pass,,,,,
65.0,4.0,wc_4,,0.0,,,,0.0,,,,Pass,,,,,
65.0,4.0,wc_4,wc_4,0.0,"[('wc_4', 0.6900000000000005)]",0.6900000000000005,,,27.0,0.002405,['Pass'],Pass,0.6900000000000005,0.0599999999999995,3.0,4.0,0.7
65.0,4.0,wc_4,,0.0,,,,121.0,,,,Pass,,,,,
65.0,4.0,wc_4,wc_12,0.0,"[('wc_4', 0.6900000000000005)]",0.6900000000000005,,,29.0,0.0039380000000000005,['Pass'],Pass,0.3300000000000002,-0.1800000000000002,0.0,0.0,0.3
65.0,4.0,wc_4,,0.0,,,,262.0,,,,Pass,,,,,
65.0,4.0,wc_4,wc_2,0.0,"[('wc_2', 0.7500000000000006), ('wc_4', 0.6900000000000005)]",0.9225000000000003,,,22.0,0.005765999999999999,['Pass'],Pass,0.7500000000000006,-0.08333333333333393,2.0,3.0,0.8
65.0,4.0,wc_4,,0.0,,,,243.0,,,,Pass,,,,,
65.0,4.0,wc_4,wc_16,1.0,"[('wc_16', 0.7800000000000006), ('wc_4', 0.6900000000000005), ('wc_2', 0.7500000000000006)]",0.9829500000000001,,,21.0,0.038798,['Pass'],Pass,0.7800000000000006,-0.7800000000000006,0.0,0.0,0.8
94.0,3.0,wc_3,,0.0,,,,382.0,,,,Pass,,,,,
94.0,3.0,wc_3,,0.0,,,68.0,,,,,Pass,,,,,
94.0,3.0,wc_3,,0.0,,,,0.0,,,,Pass,,,,,
94.0,3.0,wc_3,wc_3,0.0,"[('wc_3', 0.7400000000000005)]",0.7400000000000005,,,40.0,0.002302,['Pass'],Pass,0.7400000000000005,-0.2955555555555561,4.0,9.0,0.9
94.0,3.0,wc_3,,0.0,,,,202.0,,,,Pass,,,,,
94.0,3.0,wc_3,wc_11,0.0,"[('wc_11', 0.6400000000000005), ('wc_3', 0.7400000000000005)]",0.9064000000000003,,,35.0,0.004018,['Pass'],Pass,0.6400000000000005,-0.36727272727272775,0.0,0.0,0.8
94.0,3.0,wc_3,,0.0,,,,101.0,,,,Pass,,,,,
94.0,3.0,wc_3,wc_14,0.0,"[('wc_3', 0.7400000000000005), ('wc_11', 0.6400000000000005)]",0.9064000000000003,,,35.0,0.00751,['Pass'],Pass,0.6100000000000004,-0.11000000000000043,0.0,0.0,0.5
94.0,3.0,wc_3,,0.0,,,,0.0,,,,Pass,,,,,
94.0,3.0,wc_3,wc_17,1.0,"[('wc_17', 0.4400000000000003), ('wc_3', 0.7400000000000005), ('wc_11', 0.6400000000000005)]",0.9475840000000002,,,27.0,0.036785,['Pass'],Pass,0.4400000000000003,-0.06500000000000028,3.0,8.0,0.4
105.0,5.0,wc_5,,0.0,,,,402.0,,,,Pass,,,,,
105.0,5.0,wc_5,,0.0,,,53.0,,,,,Pass,,,,,
105.0,5.0,wc_5,,0.0,,,,0.0,,,,Pass,,,,,
105.0,5.0,wc_5,wc_5,0.0,"[('wc_5', 0.3700000000000002)]",0.3700000000000002,,,36.0,0.002386,['Pass'],Pass,0.3700000000000002,-0.20333333333333356,1.0,6.0,0.4
105.0,5.0,wc_5,,0.0,,,,202.0,,,,Pass,,,,,
105.0,5.0,wc_5,wc_17,0.0,"[('wc_17', 0.4400000000000003), ('wc_5', 0.3700000000000002)]",0.6472000000000002,,,40.0,0.0049,['Pass'],Pass,0.4400000000000003,-0.06500000000000028,3.0,8.0,0.4
105.0,5.0,wc_5,,0.0,,,,103.0,,,,Pass,,,,,
105.0,5.0,wc_5,wc_16,1.0,"[('wc_16', 0.7800000000000006), ('wc_5', 0.3700000000000002), ('wc_17', 0.4400000000000003)]",0.9223840000000003,,,39.0,0.03915,['Pass'],Pass,0.7800000000000006,-0.2800000000000006,1.0,2.0,0.8
116.0,6.0,wc_6,,0.0,,,,203.0,,,,Pass,,,,,
116.0,6.0,wc_6,,0.0,,,53.0,,,,,Pass,,,,,
116.0,6.0,wc_6,,0.0,,,,0.0,,,,Pass,,,,,
116.0,6.0,wc_6,wc_6,0.0,"[('wc_6', 0.7100000000000005)]",0.7100000000000005,,,23.0,0.002226,['Pass'],Pass,0.7100000000000005,-0.6511764705882358,0.0,0.0,0.9
116.0,6.0,wc_6,,0.0,,,,263.0,,,,Pass,,,,,
116.0,6.0,wc_6,wc_17,0.0,"[('wc_6', 0.7100000000000005)]",0.7100000000000005,,,29.0,0.0037920000000000002,['Pass'],Pass,0.4400000000000003,0.00444444444444414,4.0,9.0,0.4
116.0,6.0,wc_6,,0.0,,,,83.0,,,,Pass,,,,,
116.0,6.0,wc_6,wc_15,0.0,"[('wc_6', 0.7100000000000005)]",0.7100000000000005,,,20.0,0.005533,['Pass'],Pass,0.2300000000000001,-0.2300000000000001,0.0,0.0,0.2
116.0,6.0,wc_6,,0.0,,,,243.0,,,,Pass,,,,,
116.0,6.0,wc_6,wc_7,0.0,"[('wc_7', 0.5600000000000004), ('wc_6', 0.7100000000000005)]",0.8724000000000003,,,30.0,0.008778000000000001,['Pass'],Pass,0.5600000000000004,-0.3600000000000004,1.0,5.0,0.6
116.0,6.0,wc_6,,0.0,,,,182.0,,,,Pass,,,,,
116.0,6.0,wc_6,wc_14,1.0,"[('wc_14', 0.6000000000000004), ('wc_6', 0.7100000000000005), ('wc_7', 0.5600000000000004)]",0.9489600000000001,,,27.0,0.044079999999999994,['Pass'],Pass,0.6000000000000004,-0.2666666666666671,1.0,3.0,0.5
126.0,11.0,wc_11,,0.0,,,,321.0,,,,Fail,,,,,
126.0,11.0,wc_11,,0.0,,,76.0,,,,,Fail,,,,,
126.0,11.0,wc_11,,0.0,,,,0.0,,,,Fail,,,,,
126.0,11.0,wc_11,wc_11,0.0,"[('wc_11', 0.6500000000000005)]",0.6500000000000005,,,40.0,0.002148,['Fail'],Fail,0.6500000000000005,-0.31666666666666715,1.0,3.0,0.8
126.0,11.0,wc_11,,0.0,,,,122.0,,,,Fail,,,,,
126.0,11.0,wc_11,wc_15,0.0,"[('wc_15', 0.22000000000000008), ('wc_11', 0.6500000000000005)]",0.7270000000000003,,,39.0,0.006429,['Fail'],Fail,0.22000000000000008,-0.22000000000000008,0.0,1.0,0.2
126.0,11.0,wc_11,,0.0,,,,442.0,,,,Fail,,,,,
126.0,11.0,wc_11,wc_5,0.0,"[('wc_5', 0.3700000000000002), ('wc_11', 0.6500000000000005), ('wc_15', 0.22000000000000008)]",0.8280100000000004,,,20.0,0.0071589999999999996,['Fail'],Fail,0.3700000000000002,-0.12000000000000022,2.0,8.0,0.4
126.0,11.0,wc_11,,0.0,,,,101.0,,,,Fail,,,,,
126.0,11.0,wc_11,wc_8,1.0,"[('wc_8', 0.5100000000000003), ('wc_11', 0.6500000000000005), ('wc_15', 0.22000000000000008), ('wc_5', 0.3700000000000002)]",0.9157249000000002,,,29.0,0.042394999999999995,['Fail'],Fail,0.5100000000000003,-0.5100000000000003,0.0,0.0,0.6
137.0,11.0,wc_11,,0.0,,,,0.0,,,,Fail,,,,,
137.0,11.0,wc_11,,0.0,,,79.0,,,,,Fail,,,,,
137.0,11.0,wc_11,,0.0,,,,0.0,,,,Fail,,,,,
137.0,11.0,wc_11,wc_11,0.0,"[('wc_11', 0.6500000000000005)]",0.6500000000000005,,,30.0,0.002917,['Fail'],Fail,0.6500000000000005,-0.15000000000000047,2.0,4.0,0.8
137.0,11.0,wc_11,,0.0,,,,83.0,,,,Fail,,,,,
137.0,11.0,wc_11,wc_9,0.0,"[('wc_9', 0.5400000000000004), ('wc_11', 0.6500000000000005)]",0.8390000000000004,,,29.0,0.004259,['Fail'],Fail,0.5400000000000004,-0.31777777777777816,2.0,9.0,0.4
137.0,11.0,wc_11,,0.0,,,,202.0,,,,Fail,,,,,
137.0,11.0,wc_11,wc_17,0.0,"[('wc_11', 0.6500000000000005), ('wc_9', 0.5400000000000004)]",0.8390000000000004,,,36.0,0.006219999999999999,['Fail'],Fail,0.43000000000000027,-0.43000000000000027,0.0,1.0,0.4
137.0,11.0,wc_11,,0.0,,,,61.0,,,,Fail,,,,,
137.0,11.0,wc_11,wc_14,1.0,"[('wc_14', 0.6000000000000004), ('wc_11', 0.6500000000000005), ('wc_9', 0.5400000000000004)]",0.9356000000000002,,,37.0,0.039057999999999995,['Fail'],Fail,0.6000000000000004,-0.2000000000000004,2.0,5.0,0.5
149.0,9.0,wc_9,,0.0,,,,281.0,,,,Fail,,,,,
149.0,9.0,wc_9,,0.0,,,74.0,,,,,Fail,,,,,
149.0,9.0,wc_9,,0.0,,,,0.0,,,,Fail,,,,,
149.0,9.0,wc_9,wc_9,0.0,"[('wc_9', 0.5400000000000004)]",0.5400000000000004,,,38.0,0.002118,['Fail'],Fail,0.5400000000000004,-0.5400000000000004,0.0,0.0,0.4
149.0,9.0,wc_9,,0.0,,,,162.0,,,,Fail,,,,,
149.0,9.0,wc_9,wc_15,0.0,"[('wc_9', 0.5400000000000004)]",0.5400000000000004,,,35.0,0.004757,['Fail'],Fail,0.2300000000000001,0.10333333333333322,1.0,3.0,0.2
149.0,9.0,wc_9,,0.0,,,,402.0,,,,Fail,,,,,
149.0,9.0,wc_9,wc_11,0.0,"[('wc_11', 0.6500000000000005), ('wc_9', 0.5400000000000004)]",0.8390000000000004,,,32.0,0.00648,['Fail'],Fail,0.6500000000000005,-0.05000000000000049,3.0,5.0,0.8
149.0,9.0,wc_9,,0.0,,,,223.0,,,,Fail,,,,,
149.0,9.0,wc_9,wc_2,0.0,"[('wc_9', 0.5400000000000004), ('wc_11', 0.6500000000000005)]",0.8390000000000004,,,21.0,0.007825,['Fail'],Fail,0.7500000000000006,-0.41666666666666724,3.0,9.0,0.8
149.0,9.0,wc_9,,0.0,,,,102.0,,,,Fail,,,,,
149.0,9.0,wc_9,wc_1,0.0,"[('wc_1', 0.31000000000000016), ('wc_15', 0.2300000000000001), ('wc_2', 0.7500000000000006)]",0.8671750000000004,,,26.0,0.010388999999999999,['Pass'],Fail,0.31000000000000016,-0.31000000000000016,0.0,0.0,0.1
149.0,9.0,wc_9,,0.0,,,,142.0,,,,Fail,,,,,
149.0,9.0,wc_9,wc_6,1.0,"[('wc_6', 0.7200000000000005), ('wc_15', 0.2300000000000001), ('wc_2', 0.7500000000000006), ('wc_1', 0.31000000000000016)]",0.9628090000000001,,,25.0,0.046232,['Pass'],Fail,0.7200000000000005,-0.22000000000000053,2.0,4.0,0.9
160.0,11.0,wc_11,,0.0,,,,0.0,,,,Pass,,,,,
160.0,11.0,wc_11,,0.0,,,74.0,,,,,Pass,,,,,
160.0,11.0,wc_11,,0.0,,,,0.0,,,,Pass,,,,,
160.0,11.0,wc_11,wc_11,0.0,"[('wc_11', 0.6400000000000005)]",0.6400000000000005,,,26.0,0.002134,['Pass'],Pass,0.6400000000000005,-0.14000000000000046,3.0,6.0,0.8
160.0,11.0,wc_11,,0.0,,,,342.0,,,,Pass,,,,,
160.0,11.0,wc_11,wc_4,0.0,"[('wc_4', 0.7000000000000005), ('wc_11', 0.6400000000000005)]",0.8920000000000003,,,35.0,0.003929,['Pass'],Pass,0.7000000000000005,-0.33636363636363686,0.0,0.0,0.7
160.0,11.0,wc_11,,0.0,,,,141.0,,,,Pass,,,,,
160.0,11.0,wc_11,wc_13,1.0,"[('wc_13', 0.3300000000000002), ('wc_11', 0.6400000000000005), ('wc_4', 0.7000000000000005)]",0.9276400000000002,,,37.0,0.039089,['Pass'],Pass,0.3300000000000002,-0.3300000000000002,0.0,0.0,0.3
169.0,8.0,wc_8,,0.0,,,,202.0,,,,Fail,,,,,
169.0,8.0,wc_8,,0.0,,,63.0,,,,,Fail,,,,,
169.0,8.0,wc_8,,0.0,,,,0.0,,,,Fail,,,,,
169.0,8.0,wc_8,wc_8,0.0,"[('wc_8', 0.5100000000000003)]",0.5100000000000003,,,24.0,0.00215,['Fail'],Fail,0.5100000000000003,-0.5100000000000003,0.0,3.0,0.6
169.0,8.0,wc_8,,0.0,,,,102.0,,,,Fail,,,,,
169.0,8.0,wc_8,wc_7,0.0,"[('wc_7', 0.5600000000000004), ('wc_8', 0.5100000000000003)]",0.7844000000000003,,,35.0,0.003994,['Fail'],Fail,0.5600000000000004,-0.3600000000000004,0.0,0.0,0.6
169.0,8.0,wc_8,,0.0,,,,301.0,,,,Fail,,,,,
169.0,8.0,wc_8,wc_3,1.0,"[('wc_3', 0.7400000000000005), ('wc_8', 0.5100000000000003), ('wc_7', 0.5600000000000004)]",0.9439440000000002,,,22.0,0.040732000000000004,['Fail'],Fail,0.7400000000000005,-0.5971428571428576,1.0,7.0,0.9
179.0,10.0,wc_10,,0.0,,,,182.0,,,,Pass,,,,,
179.0,10.0,wc_10,,0.0,,,79.0,,,,,Pass,,,,,
179.0,10.0,wc_10,,0.0,,,,0.0,,,,Pass,,,,,
179.0,10.0,wc_10,wc_10,0.0,"[('wc_10', 0.6900000000000005)]",0.6900000000000005,,,35.0,0.002005,['Pass'],Pass,0.6900000000000005,-0.6900000000000005,0.0,9.0,1.0
179.0,10.0,wc_10,,0.0,,,,81.0,,,,Pass,,,,,
179.0,10.0,wc_10,wc_8,0.0,"[('wc_8', 0.5100000000000003), ('wc_10', 0.6900000000000005)]",0.8481000000000003,,,26.0,0.004339,['Pass'],Pass,0.5100000000000003,-0.26000000000000034,1.0,4.0,0.6
179.0,10.0,wc_10,,0.0,,,,301.0,,,,Pass,,,,,
179.0,10.0,wc_10,wc_4,1.0,"[('wc_4', 0.7100000000000005), ('wc_10', 0.6900000000000005), ('wc_8', 0.5100000000000003)]",0.9559490000000002,,,24.0,0.037965,['Pass'],Pass,0.7100000000000005,-0.04333333333333389,2.0,3.0,0.7
189.0,8.0,wc_8,,0.0,,,,121.0,,,,Pass,,,,,
189.0,8.0,wc_8,,0.0,,,70.0,,,,,Pass,,,,,
189.0,8.0,wc_8,,0.0,,,,0.0,,,,Pass,,,,,
189.0,8.0,wc_8,wc_8,0.0,"[('wc_8', 0.5100000000000003)]",0.5100000000000003,,,28.0,0.00232,['Pass'],Pass,0.5100000000000003,-0.11000000000000032,2.0,5.0,0.6
189.0,8.0,wc_8,,0.0,,,,142.0,,,,Pass,,,,,
189.0,8.0,wc_8,wc_13,0.0,"[('wc_8', 0.5100000000000003)]",0.5100000000000003,,,38.0,0.003796,['Pass'],Pass,0.3300000000000002,-0.3300000000000002,0.0,2.0,0.3
189.0,8.0,wc_8,,0.0,,,,0.0,,,,Pass,,,,,
189.0,8.0,wc_8,wc_17,0.0,"[('wc_17', 0.42000000000000026), ('wc_8', 0.5100000000000003)]",0.7158000000000003,,,31.0,0.005687,['Pass'],Pass,0.42000000000000026,-0.42000000000000026,0.0,6.0,0.4
189.0,8.0,wc_8,,0.0,,,,183.0,,,,Pass,,,,,
189.0,8.0,wc_8,wc_6,1.0,"[('wc_6', 0.7200000000000005), ('wc_8', 0.5100000000000003), ('wc_17', 0.42000000000000026)]",0.9204240000000002,,,32.0,0.043393,['Pass'],Pass,0.7200000000000005,-0.34500000000000053,3.0,8.0,0.9
201.0,9.0,wc_9,,0.0,,,,0.0,,,,Fail,,,,,
201.0,9.0,wc_9,,0.0,,,61.0,,,,,Fail,,,,,
201.0,9.0,wc_9,,0.0,,,,0.0,,,,Fail,,,,,
201.0,9.0,wc_9,wc_9,0.0,"[('wc_9', 0.5300000000000004)]",0.5300000000000004,,,30.0,0.002433,['Fail'],Fail,0.5300000000000004,-0.5300000000000004,0.0,5.0,0.4
201.0,9.0,wc_9,,0.0,,,,162.0,,,,Fail,,,,,
201.0,9.0,wc_9,wc_15,0.0,"[('wc_15', 0.2400000000000001), ('wc_9', 0.5300000000000004)]",0.6428000000000003,,,20.0,0.003855,['Fail'],Fail,0.2400000000000001,0.009999999999999898,2.0,8.0,0.2
201.0,9.0,wc_9,,0.0,,,,101.0,,,,Fail,,,,,
201.0,9.0,wc_9,wc_14,0.0,"[('wc_14', 0.6000000000000004), ('wc_9', 0.5300000000000004), ('wc_15', 0.2400000000000001)]",0.8571200000000003,,,24.0,0.006588,['Fail'],Fail,0.6000000000000004,-0.4000000000000004,0.0,0.0,0.5
201.0,9.0,wc_9,,0.0,,,,301.0,,,,Fail,,,,,
201.0,9.0,wc_9,wc_10,1.0,"[('wc_10', 0.6900000000000005), ('wc_9', 0.5300000000000004), ('wc_15', 0.2400000000000001), ('wc_14', 0.6000000000000004)]",0.9557072000000002,,,29.0,0.042422999999999995,['Fail'],Fail,0.6900000000000005,-0.1900000000000005,1.0,2.0,1.0
216.0,7.0,wc_7,,0.0,,,,61.0,,,,Pass,,,,,
216.0,7.0,wc_7,,0.0,,,52.0,,,,,Pass,,,,,
216.0,7.0,wc_7,,0.0,,,,0.0,,,,Pass,,,,,
216.0,7.0,wc_7,wc_7,0.0,"[('wc_7', 0.5700000000000004)]",0.5700000000000004,,,21.0,0.002247,['Pass'],Pass,0.5700000000000004,-0.3200000000000004,1.0,4.0,0.6
216.0,7.0,wc_7,,0.0,,,,0.0,,,,Pass,,,,,
216.0,7.0,wc_7,wc_11,0.0,"[('wc_11', 0.6400000000000005), ('wc_7', 0.5700000000000004)]",0.8452000000000004,,,32.0,0.004956,['Pass'],Pass,0.6400000000000005,-0.2763636363636368,0.0,0.0,0.8
216.0,7.0,wc_7,,0.0,,,,322.0,,,,Pass,,,,,
216.0,7.0,wc_7,wc_3,1.0,"[('wc_3', 0.7400000000000005), ('wc_7', 0.5700000000000004), ('wc_11', 0.6400000000000005)]",0.9597520000000002,,,39.0,0.04324199999999999,['Pass'],Pass,0.7400000000000005,-0.7400000000000005,0.0,0.0,0.9
234.0,9.0,wc_9,,0.0,,,,162.0,,,,Pass,,,,,
234.0,9.0,wc_9,,0.0,,,80.0,,,,,Pass,,,,,
234.0,9.0,wc_9,,0.0,,,,0.0,,,,Pass,,,,,
234.0,9.0,wc_9,wc_9,0.0,"[('wc_9', 0.5300000000000004)]",0.5300000000000004,,,24.0,0.002335,['Fail'],Pass,0.5300000000000004,-0.3871428571428575,1.0,7.0,0.4
234.0,9.0,wc_9,,0.0,,,,0.0,,,,Pass,,,,,
234.0,9.0,wc_9,wc_10,0.0,"[('wc_10', 0.6900000000000005)]",0.6900000000000005,,,26.0,0.004017,['Pass'],Pass,0.6900000000000005,-0.3566666666666672,1.0,3.0,1.0
234.0,9.0,wc_9,,0.0,,,,81.0,,,,Pass,,,,,
234.0,9.0,wc_9,wc_12,0.0,"[('wc_12', 0.3200000000000002), ('wc_10', 0.6900000000000005)]",0.7892000000000003,,,29.0,0.006186,['Pass'],Pass,0.3200000000000002,-0.3200000000000002,0.0,0.0,0.3
234.0,9.0,wc_9,,0.0,,,,381.0,,,,Pass,,,,,
234.0,9.0,wc_9,wc_4,1.0,"[('wc_4', 0.7100000000000005), ('wc_10', 0.6900000000000005), ('wc_12', 0.3200000000000002)]",0.9388680000000003,,,32.0,0.042775999999999995,['Pass'],Pass,0.7100000000000005,-0.28142857142857197,3.0,7.0,0.7
268.0,12.0,wc_12,,0.0,,,,121.0,,,,Fail,,,,,
268.0,12.0,wc_12,,0.0,,,55.0,,,,,Fail,,,,,
268.0,12.0,wc_12,,0.0,,,,0.0,,,,Fail,,,,,
268.0,12.0,wc_12,wc_12,0.0,"[('wc_12', 0.3300000000000002)]",0.3300000000000002,,,25.0,0.002293,['Fail'],Fail,0.3300000000000002,0.6699999999999998,1.0,1.0,0.3
268.0,12.0,wc_12,,0.0,,,,222.0,,,,Fail,,,,,
268.0,12.0,wc_12,wc_8,0.0,"[('wc_8', 0.5100000000000003), ('wc_12', 0.3300000000000002)]",0.6717000000000003,,,37.0,0.004076,['Fail'],Fail,0.5100000000000003,-0.17666666666666703,3.0,9.0,0.6
268.0,12.0,wc_12,,0.0,,,,281.0,,,,Fail,,,,,
268.0,12.0,wc_12,wc_3,1.0,"[('wc_3', 0.7400000000000005), ('wc_12', 0.3300000000000002), ('wc_8', 0.5100000000000003)]",0.9146420000000003,,,26.0,0.040654,['Fail'],Fail,0.7400000000000005,-0.24000000000000055,1.0,2.0,0.9
308.0,12.0,wc_12,,0.0,,,,141.0,,,,Fail,,,,,
308.0,12.0,wc_12,,0.0,,,75.0,,,,,Fail,,,,,
308.0,12.0,wc_12,,0.0,,,,0.0,,,,Fail,,,,,
308.0,12.0,wc_12,wc_12,0.0,"[('wc_12', 0.3400000000000002)]",0.3400000000000002,,,20.0,0.002164,['Pass'],Fail,0.3400000000000002,0.6599999999999998,2.0,2.0,0.3
308.0,12.0,wc_12,,0.0,,,,401.0,,,,Fail,,,,,
308.0,12.0,wc_12,wc_5,0.0,"[('wc_5', 0.3700000000000002)]",0.3700000000000002,,,39.0,0.003825,['Fail'],Fail,0.3700000000000002,-0.21210526315789496,0.0,0.0,0.4
308.0,12.0,wc_12,,0.0,,,,162.0,,,,Fail,,,,,
308.0,12.0,wc_12,wc_11,0.0,"[('wc_11', 0.6500000000000005), ('wc_5', 0.3700000000000002)]",0.7795000000000003,,,23.0,0.006742,['Fail'],Fail,0.6500000000000005,-0.31666666666666715,1.0,3.0,0.8
308.0,12.0,wc_12,,0.0,,,,101.0,,,,Fail,,,,,
308.0,12.0,wc_12,wc_14,1.0,"[('wc_14', 0.6100000000000004), ('wc_5', 0.3700000000000002), ('wc_11', 0.6500000000000005)]",0.9140050000000002,,,21.0,0.050409999999999996,['Fail'],Fail,0.6100000000000004,-0.2100000000000004,2.0,5.0,0.5
333.0,12.0,wc_12,,0.0,,,,82.0,,,,Pass,,,,,
333.0,12.0,wc_12,,0.0,,,68.0,,,,,Pass,,,,,
333.0,12.0,wc_12,,0.0,,,,0.0,,,,Pass,,,,,
333.0,12.0,wc_12,wc_12,0.0,"[('wc_12', 0.3400000000000002)]",0.3400000000000002,,,34.0,0.00213,['Pass'],Pass,0.3400000000000002,0.32666666666666644,2.0,3.0,0.3
333.0,12.0,wc_12,,0.0,,,,0.0,,,,Pass,,,,,
333.0,12.0,wc_12,wc_14,0.0,"[('wc_14', 0.6100000000000004), ('wc_12', 0.3400000000000002)]",0.7426000000000004,,,36.0,0.004417,['Pass'],Pass,0.6100000000000004,-0.2100000000000004,2.0,5.0,0.5
333.0,12.0,wc_12,,0.0,,,,321.0,,,,Pass,,,,,
333.0,12.0,wc_12,wc_11,1.0,"[('wc_11', 0.6500000000000005), ('wc_12', 0.3400000000000002), ('wc_14', 0.6100000000000004)]",0.9099100000000002,,,37.0,0.038542,['Pass'],Pass,0.6500000000000005,-0.05000000000000049,3.0,5.0,0.8
348.0,13.0,wc_13,,0.0,,,,81.0,,,,Fail,,,,,
348.0,13.0,wc_13,,0.0,,,77.0,,,,,Fail,,,,,
348.0,13.0,wc_13,,0.0,,,,0.0,,,,Fail,,,,,
348.0,13.0,wc_13,wc_13,0.0,"[('wc_13', 0.3200000000000002)]",0.3200000000000002,,,22.0,0.002176,['Pass'],Fail,0.3200000000000002,-0.3200000000000002,0.0,9.0,0.3
348.0,13.0,wc_13,,0.0,,,,0.0,,,,Fail,,,,,
348.0,13.0,wc_13,wc_15,0.0,"[('wc_15', 0.2500000000000001), ('wc_13', 0.3200000000000002)]",0.4900000000000002,,,27.0,0.004052,['Pass'],Fail,0.2500000000000001,-0.03571428571428584,0.0,0.0,0.2
348.0,13.0,wc_13,,0.0,,,,402.0,,,,Fail,,,,,
348.0,13.0,wc_13,wc_11,0.0,"[('wc_11', 0.6500000000000005)]",0.6500000000000005,,,26.0,0.005801,['Fail'],Fail,0.6500000000000005,-0.05000000000000049,3.0,5.0,0.8
348.0,13.0,wc_13,,0.0,,,,203.0,,,,Fail,,,,,
348.0,13.0,wc_13,wc_1,0.0,"[('wc_1', 0.3200000000000002), ('wc_11', 0.6500000000000005)]",0.7620000000000003,,,37.0,0.007788,['Fail'],Fail,0.3200000000000002,-0.22909090909090926,0.0,0.0,0.1
348.0,13.0,wc_13,,0.0,,,,162.0,,,,Fail,,,,,
348.0,13.0,wc_13,wc_7,0.0,"[('wc_7', 0.5700000000000004), ('wc_11', 0.6500000000000005), ('wc_1', 0.3200000000000002)]",0.8976600000000002,,,32.0,0.01005,['Fail'],Fail,0.5700000000000004,-0.3477777777777782,2.0,9.0,0.6
348.0,13.0,wc_13,,0.0,,,,301.0,,,,Fail,,,,,
348.0,13.0,wc_13,wc_3,1.0,"[('wc_3', 0.7400000000000005), ('wc_11', 0.6500000000000005), ('wc_1', 0.3200000000000002), ('wc_7', 0.5700000000000004)]",0.9733916000000001,,,26.0,0.044522,['Fail'],Fail,0.7400000000000005,-0.3400000000000005,2.0,5.0,0.9
388.0,13.0,wc_13,,0.0,,,,161.0,,,,Fail,,,,,
388.0,13.0,wc_13,,0.0,,,73.0,,,,,Fail,,,,,
388.0,13.0,wc_13,,0.0,,,,0.0,,,,Fail,,,,,
388.0,13.0,wc_13,wc_13,0.0,"[('wc_13', 0.31000000000000016)]",0.31000000000000016,,,26.0,0.002078,['Fail'],Fail,0.31000000000000016,-0.31000000000000016,0.0,0.0,0.3
388.0,13.0,wc_13,,0.0,,,,102.0,,,,Fail,,,,,
388.0,13.0,wc_13,wc_12,0.0,"[('wc_12', 0.3500000000000002)]",0.3500000000000002,,,24.0,0.003995,['Pass'],Fail,0.3500000000000002,0.24999999999999978,3.0,5.0,0.3
388.0,13.0,wc_13,,0.0,,,,0.0,,,,Fail,,,,,
388.0,13.0,wc_13,wc_17,0.0,"[('wc_17', 0.42000000000000026), ('wc_13', 0.31000000000000016)]",0.5998000000000003,,,36.0,0.005573,['Fail'],Fail,0.42000000000000026,-0.34857142857142887,0.0,0.0,0.4
388.0,13.0,wc_13,,0.0,,,,183.0,,,,Fail,,,,,
388.0,13.0,wc_13,wc_6,0.0,"[('wc_6', 0.7200000000000005), ('wc_13', 0.31000000000000016), ('wc_17', 0.42000000000000026)]",0.8879440000000003,,,21.0,0.007618999999999999,['Fail'],Fail,0.7200000000000005,-0.5200000000000005,0.0,0.0,0.9
388.0,13.0,wc_13,,0.0,,,,321.0,,,,Fail,,,,,
388.0,13.0,wc_13,wc_3,0.0,"[('wc_13', 0.31000000000000016), ('wc_17', 0.42000000000000026), ('wc_6', 0.7200000000000005)]",0.8879440000000003,,,29.0,0.010422,['Fail'],Fail,0.7400000000000005,-0.3400000000000005,2.0,5.0,0.9
388.0,13.0,wc_13,,0.0,,,,202.0,,,,Fail,,,,,
388.0,13.0,wc_13,wc_15,1.0,"[('wc_15', 0.2400000000000001), ('wc_13', 0.31000000000000016), ('wc_17', 0.42000000000000026), ('wc_6', 0.7200000000000005)]",0.9148374400000002,,,37.0,0.05043400000000001,['Fail'],Fail,0.2500000000000001,0.2499999999999999,1.0,2.0,0.2
419.0,13.0,wc_13,,0.0,,,,81.0,,,,Pass,,,,,
419.0,13.0,wc_13,,0.0,,,79.0,,,,,Pass,,,,,
419.0,13.0,wc_13,,0.0,,,,0.0,,,,Pass,,,,,
419.0,13.0,wc_13,wc_13,0.0,"[('wc_13', 0.3200000000000002)]",0.3200000000000002,,,33.0,0.002137,['Pass'],Pass,0.3200000000000002,0.6799999999999998,1.0,1.0,0.3
419.0,13.0,wc_13,,0.0,,,,242.0,,,,Pass,,,,,
419.0,13.0,wc_13,wc_2,0.0,"[('wc_2', 0.7500000000000006), ('wc_13', 0.3200000000000002)]",0.8300000000000004,,,27.0,0.003757,['Pass'],Pass,0.7500000000000006,-0.7500000000000006,0.0,0.0,0.8
419.0,13.0,wc_13,,0.0,,,,162.0,,,,Pass,,,,,
419.0,13.0,wc_13,wc_8,0.0,"[('wc_13', 0.3200000000000002), ('wc_2', 0.7500000000000006)]",0.8300000000000004,,,35.0,0.006245,['Pass'],Pass,0.5100000000000003,-0.5100000000000003,0.0,4.0,0.6
419.0,13.0,wc_13,,0.0,,,,122.0,,,,Pass,,,,,
419.0,13.0,wc_13,wc_12,0.0,"[('wc_13', 0.3200000000000002), ('wc_2', 0.7500000000000006)]",0.8300000000000004,,,37.0,0.008126000000000001,['Pass'],Pass,0.3500000000000002,0.1499999999999998,3.0,6.0,0.3
419.0,13.0,wc_13,,0.0,,,,202.0,,,,Pass,,,,,
419.0,13.0,wc_13,wc_7,1.0,"[('wc_7', 0.5700000000000004), ('wc_13', 0.3200000000000002), ('wc_2', 0.7500000000000006)]",0.9269000000000003,,,35.0,0.046148999999999996,['Pass'],Pass,0.5700000000000004,-0.0700000000000004,1.0,2.0,0.6
427.0,14.0,wc_14,,0.0,,,,182.0,,,,Pass,,,,,
427.0,14.0,wc_14,,0.0,,,52.0,,,,,Pass,,,,,
427.0,14.0,wc_14,,0.0,,,,0.0,,,,Pass,,,,,
427.0,14.0,wc_14,wc_14,0.0,"[('wc_14', 0.6100000000000004)]",0.6100000000000004,,,24.0,0.002207,['Pass'],Pass,0.6100000000000004,-0.2766666666666671,3.0,9.0,0.5
427.0,14.0,wc_14,,0.0,,,,0.0,,,,Pass,,,,,
427.0,14.0,wc_14,wc_16,0.0,"[('wc_16', 0.7800000000000006), ('wc_14', 0.6100000000000004)]",0.9142000000000003,,,31.0,0.004007,['Pass'],Pass,0.7800000000000006,-0.7273684210526321,0.0,0.0,0.8
427.0,14.0,wc_14,,0.0,,,,41.0,,,,Pass,,,,,
427.0,14.0,wc_14,wc_12,1.0,"[('wc_12', 0.3500000000000002), ('wc_14', 0.6100000000000004), ('wc_16', 0.7800000000000006)]",0.9442300000000002,,,35.0,0.038819000000000006,['Pass'],Pass,0.3600000000000002,0.1399999999999998,4.0,8.0,0.3
438.0,16.0,wc_16,,0.0,,,,0.0,,,,Pass,,,,,
438.0,16.0,wc_16,,0.0,,,69.0,,,,,Pass,,,,,
438.0,16.0,wc_16,,0.0,,,,0.0,,,,Pass,,,,,
438.0,16.0,wc_16,wc_16,0.0,"[('wc_16', 0.7900000000000006)]",0.7900000000000006,,,23.0,0.002191,['Pass'],Pass,0.7900000000000006,0.2099999999999994,1.0,1.0,0.8
438.0,16.0,wc_16,,0.0,,,,223.0,,,,Pass,,,,,
438.0,16.0,wc_16,wc_7,0.0,"[('wc_7', 0.5700000000000004), ('wc_16', 0.7900000000000006)]",0.9097000000000004,,,31.0,0.00407,['Pass'],Pass,0.5700000000000004,-0.23666666666666708,1.0,3.0,0.6
438.0,16.0,wc_16,,0.0,,,,142.0,,,,Pass,,,,,
438.0,16.0,wc_16,wc_12,1.0,"[('wc_12', 0.3600000000000002), ('wc_16', 0.7900000000000006), ('wc_7', 0.5700000000000004)]",0.9422080000000003,,,36.0,0.04016999999999999,['Pass'],Pass,0.3700000000000002,0.18555555555555536,5.0,9.0,0.3
448.0,15.0,wc_15,,0.0,,,,0.0,,,,Fail,,,,,
448.0,15.0,wc_15,,0.0,,,53.0,,,,,Fail,,,,,
448.0,15.0,wc_15,,0.0,,,,0.0,,,,Fail,,,,,
448.0,15.0,wc_15,wc_15,0.0,"[('wc_15', 0.2500000000000001)]",0.2500000000000001,,,25.0,0.002325,['Fail'],Fail,0.2500000000000001,-0.0500000000000001,1.0,5.0,0.2
448.0,15.0,wc_15,,0.0,,,,223.0,,,,Fail,,,,,
448.0,15.0,wc_15,wc_6,0.0,"[('wc_6', 0.7300000000000005), ('wc_15', 0.2500000000000001)]",0.7975000000000004,,,31.0,0.003916,['Fail'],Fail,0.7300000000000005,-0.48000000000000054,1.0,4.0,0.9
448.0,15.0,wc_15,,0.0,,,,0.0,,,,Fail,,,,,
448.0,15.0,wc_15,wc_7,1.0,"[('wc_7', 0.5700000000000004), ('wc_15', 0.2500000000000001), ('wc_6', 0.7300000000000005)]",0.9129250000000002,,,20.0,0.048534999999999995,['Fail'],Fail,0.5800000000000004,0.019999999999999574,3.0,5.0,0.6
469.0,15.0,wc_15,,0.0,,,,203.0,,,,Pass,,,,,
469.0,15.0,wc_15,,0.0,,,78.0,,,,,Pass,,,,,
469.0,15.0,wc_15,,0.0,,,,0.0,,,,Pass,,,,,
469.0,15.0,wc_15,wc_15,0.0,"[('wc_15', 0.2600000000000001)]",0.2600000000000001,,,28.0,0.002137,['Pass'],Pass,0.2600000000000001,0.0733333333333332,2.0,6.0,0.2
469.0,15.0,wc_15,,0.0,,,,81.0,,,,Pass,,,,,
469.0,15.0,wc_15,wc_13,0.0,"[('wc_13', 0.3300000000000002), ('wc_15', 0.2600000000000001)]",0.5042000000000002,,,33.0,0.004266000000000001,['Pass'],Pass,0.3300000000000002,0.06999999999999984,2.0,5.0,0.3
469.0,15.0,wc_15,,0.0,,,,0.0,,,,Pass,,,,,
469.0,15.0,wc_15,wc_16,1.0,"[('wc_16', 0.8000000000000006), ('wc_15', 0.2600000000000001), ('wc_13', 0.3300000000000002)]",0.9008400000000003,,,28.0,0.044503,['Pass'],Pass,0.8000000000000006,-0.0500000000000006,3.0,4.0,0.8
479.0,17.0,wc_17,,0.0,,,,0.0,,,,Fail,,,,,
479.0,17.0,wc_17,,0.0,,,71.0,,,,,Fail,,,,,
479.0,17.0,wc_17,,0.0,,,,0.0,,,,Fail,,,,,
479.0,17.0,wc_17,wc_17,0.0,"[('wc_17', 0.43000000000000027)]",0.43000000000000027,,,33.0,0.002353,['Fail'],Fail,0.43000000000000027,-0.26333333333333364,1.0,6.0,0.4
479.0,17.0,wc_17,,0.0,,,,61.0,,,,Fail,,,,,
479.0,17.0,wc_17,wc_14,0.0,"[('wc_14', 0.6100000000000004), ('wc_17', 0.43000000000000027)]",0.7777000000000004,,,34.0,0.004093,['Fail'],Fail,0.6100000000000004,-0.6100000000000004,0.0,3.0,0.5
479.0,17.0,wc_17,,0.0,,,,301.0,,,,Fail,,,,,
479.0,17.0,wc_17,wc_10,1.0,"[('wc_10', 0.6900000000000005), ('wc_17', 0.43000000000000027), ('wc_14', 0.6100000000000004)]",0.9310870000000002,,,32.0,0.045011,['Fail'],Fail,0.6900000000000005,-0.6900000000000005,0.0,0.0,1.0
490.0,17.0,wc_17,,0.0,,,,182.0,,,,Pass,,,,,
490.0,17.0,wc_17,,0.0,,,68.0,,,,,Pass,,,,,
490.0,17.0,wc_17,,0.0,,,,0.0,,,,Pass,,,,,
490.0,17.0,wc_17,wc_17,0.0,"[('wc_17', 0.43000000000000027)]",0.43000000000000027,,,21.0,0.001934,['Pass'],Pass,0.43000000000000027,-0.14428571428571457,2.0,7.0,0.4
490.0,17.0,wc_17,,0.0,,,,83.0,,,,Pass,,,,,
490.0,17.0,wc_17,wc_15,0.0,"[('wc_17', 0.43000000000000027)]",0.43000000000000027,,,32.0,0.004173,['Pass'],Pass,0.27000000000000013,0.10499999999999987,3.0,8.0,0.2
490.0,17.0,wc_17,,0.0,,,,442.0,,,,Pass,,,,,
490.0,17.0,wc_17,wc_5,0.0,"[('wc_5', 0.3800000000000002), ('wc_17', 0.43000000000000027)]",0.6466000000000003,,,33.0,0.006168,['Pass'],Pass,0.3800000000000002,-0.28000000000000025,0.0,0.0,0.4
490.0,17.0,wc_17,,0.0,,,,41.0,,,,Pass,,,,,
490.0,17.0,wc_17,wc_1,0.0,"[('wc_1', 0.3300000000000002), ('wc_17', 0.43000000000000027), ('wc_5', 0.3800000000000002)]",0.7632220000000003,,,31.0,0.007282,['Pass'],Pass,0.3300000000000002,-0.20500000000000018,1.0,8.0,0.1
490.0,17.0,wc_17,,0.0,,,,203.0,,,,Pass,,,,,
490.0,17.0,wc_17,wc_9,0.0,"[('wc_9', 0.5200000000000004), ('wc_17', 0.43000000000000027), ('wc_5', 0.3800000000000002), ('wc_1', 0.3300000000000002)]",0.8863465600000002,,,38.0,0.010169,['Pass'],Pass,0.5200000000000004,-0.46736842105263193,0.0,0.0,0.4
490.0,17.0,wc_17,,0.0,,,,362.0,,,,Pass,,,,,
490.0,17.0,wc_17,wc_3,1.0,"[('wc_3', 0.7300000000000005), ('wc_17', 0.43000000000000027), ('wc_5', 0.3800000000000002), ('wc_1', 0.3300000000000002), ('wc_9', 0.5200000000000004)]",0.9693135712000002,,,25.0,0.046241,['Pass'],Pass,0.7300000000000005,-0.7300000000000005,0.0,0.0,0.9
