mpecck/BCQC/bcqc_with_qdt/results/raw/input_4/independent_qc/training/20_workpiece/20200429_084410/wp_10_qc_majority_0.9.csv
production_index,step_idx,production_workcell,qc,consent,winner_qc_list,score,production_time,transport_time,inspection_time,network_time,qc_results,actual_quality,qc_score,score_error,in_winner_counter,in_qc_counter,qc_capability
21.0,1.0,wc_1,,0.0,,,78.0,,,,,Pass,,,,,
21.0,1.0,wc_1,,0.0,,,,0.0,,,,Pass,,,,,
21.0,1.0,wc_1,wc_1,0.0,"[('wc_1', 0.3400000000000002)]",0.3400000000000002,,,22.0,0.002063,['Fail'],Pass,0.3400000000000002,0.6599999999999998,1.0,1.0,0.1
21.0,1.0,wc_1,,0.0,,,,223.0,,,,Pass,,,,,
21.0,1.0,wc_1,wc_10,0.0,"[('wc_10', 0.6700000000000005)]",0.6700000000000005,,,30.0,0.003913,['Pass'],Pass,0.6700000000000005,-0.5033333333333339,1.0,6.0,1.0
21.0,1.0,wc_1,,0.0,,,,382.0,,,,Pass,,,,,
21.0,1.0,wc_1,wc_5,0.0,"[('wc_5', 0.3500000000000002), ('wc_10', 0.6700000000000005)]",0.7855000000000004,,,30.0,0.005457,['Pass'],Pass,0.3500000000000002,-0.3500000000000002,0.0,1.0,0.4
21.0,1.0,wc_1,,0.0,,,,61.0,,,,Pass,,,,,
21.0,1.0,wc_1,wc_6,1.0,"[('wc_6', 0.6800000000000005), ('wc_10', 0.6700000000000005), ('wc_5', 0.3500000000000002)]",0.9313600000000002,,,32.0,0.0412,['Pass'],Pass,0.6800000000000005,-0.6800000000000005,0.0,0.0,0.9
26.0,4.0,wc_4,,0.0,,,,341.0,,,,Fail,,,,,
26.0,4.0,wc_4,,0.0,,,66.0,,,,,Fail,,,,,
26.0,4.0,wc_4,,0.0,,,,0.0,,,,Fail,,,,,
26.0,4.0,wc_4,wc_4,0.0,"[('wc_4', 0.6400000000000005)]",0.6400000000000005,,,21.0,0.00211,['Fail'],Fail,0.6400000000000005,-0.6400000000000005,0.0,0.0,0.7
26.0,4.0,wc_4,,0.0,,,,142.0,,,,Fail,,,,,
26.0,4.0,wc_4,wc_9,0.0,"[('wc_9', 0.4400000000000003), ('wc_4', 0.6400000000000005)]",0.7984000000000003,,,40.0,0.003873,['Fail'],Fail,0.4400000000000003,-0.37333333333333363,0.0,0.0,0.4
26.0,4.0,wc_4,,0.0,,,,141.0,,,,Fail,,,,,
26.0,4.0,wc_4,wc_14,1.0,"[('wc_14', 0.5700000000000004), ('wc_4', 0.6400000000000005), ('wc_9', 0.4400000000000003)]",0.9133120000000002,,,37.0,0.039542999999999995,['Fail'],Fail,0.5800000000000004,0.08666666666666623,2.0,3.0,0.5
31.0,4.0,wc_4,,0.0,,,,341.0,,,,Pass,,,,,
31.0,4.0,wc_4,,0.0,,,72.0,,,,,Pass,,,,,
31.0,4.0,wc_4,,0.0,,,,0.0,,,,Pass,,,,,
31.0,4.0,wc_4,wc_4,0.0,"[('wc_4', 0.6500000000000005)]",0.6500000000000005,,,24.0,0.002662,['Pass'],Pass,0.6500000000000005,0.34999999999999953,1.0,1.0,0.7
31.0,4.0,wc_4,,0.0,,,,182.0,,,,Pass,,,,,
31.0,4.0,wc_4,wc_15,0.0,"[('wc_4', 0.6500000000000005)]",0.6500000000000005,,,31.0,0.004007,['Pass'],Pass,0.2300000000000001,-0.2300000000000001,0.0,9.0,0.2
31.0,4.0,wc_4,,0.0,,,,303.0,,,,Pass,,,,,
31.0,4.0,wc_4,wc_2,0.0,"[('wc_2', 0.7500000000000006), ('wc_4', 0.6500000000000005)]",0.9125000000000003,,,34.0,0.006475999999999999,['Pass'],Pass,0.7500000000000006,-0.19444444444444497,5.0,9.0,0.8
31.0,4.0,wc_4,,0.0,,,,142.0,,,,Pass,,,,,
31.0,4.0,wc_4,wc_7,0.0,"[('wc_4', 0.6500000000000005), ('wc_2', 0.7500000000000006)]",0.9125000000000003,,,30.0,0.007894,['Pass'],Pass,0.5100000000000003,-0.38500000000000034,0.0,0.0,0.6
31.0,4.0,wc_4,,0.0,,,,182.0,,,,Pass,,,,,
31.0,4.0,wc_4,wc_1,0.0,"[('wc_4', 0.6500000000000005), ('wc_2', 0.7500000000000006)]",0.9125000000000003,,,27.0,0.008983,['Pass'],Pass,0.3400000000000002,-0.006666666666666876,1.0,3.0,0.1
31.0,4.0,wc_4,,0.0,,,,243.0,,,,Pass,,,,,
31.0,4.0,wc_4,wc_11,1.0,"[('wc_11', 0.6200000000000004), ('wc_4', 0.6500000000000005), ('wc_2', 0.7500000000000006)]",0.9667500000000001,,,31.0,0.040323000000000005,['Pass'],Pass,0.6200000000000004,-0.6200000000000004,0.0,0.0,0.8
37.0,2.0,wc_2,,0.0,,,,223.0,,,,Fail,,,,,
37.0,2.0,wc_2,,0.0,,,53.0,,,,,Fail,,,,,
37.0,2.0,wc_2,,0.0,,,,0.0,,,,Fail,,,,,
37.0,2.0,wc_2,wc_2,0.0,"[('wc_2', 0.7500000000000006)]",0.7500000000000006,,,26.0,0.002142,['Pass'],Fail,0.7500000000000006,-0.7500000000000006,0.0,0.0,0.8
37.0,2.0,wc_2,,0.0,,,,202.0,,,,Fail,,,,,
37.0,2.0,wc_2,wc_14,0.0,"[('wc_2', 0.7500000000000006)]",0.7500000000000006,,,25.0,0.004404,['Pass'],Fail,0.5800000000000004,-0.0800000000000004,2.0,4.0,0.5
37.0,2.0,wc_2,,0.0,,,,162.0,,,,Fail,,,,,
37.0,2.0,wc_2,wc_7,0.0,"[('wc_7', 0.5000000000000003), ('wc_14', 0.5800000000000004)]",0.7900000000000004,,,37.0,0.005948999999999999,['Fail'],Fail,0.5000000000000003,-0.5000000000000003,0.0,1.0,0.6
37.0,2.0,wc_2,,0.0,,,,0.0,,,,Fail,,,,,
37.0,2.0,wc_2,wc_9,0.0,"[('wc_9', 0.4500000000000003), ('wc_2', 0.7500000000000006)]",0.8625000000000004,,,37.0,0.007938,['Pass'],Fail,0.4500000000000003,0.04999999999999971,1.0,2.0,0.4
37.0,2.0,wc_2,,0.0,,,,362.0,,,,Fail,,,,,
37.0,2.0,wc_2,wc_3,1.0,"[('wc_3', 0.6600000000000005), ('wc_14', 0.5800000000000004), ('wc_7', 0.5000000000000003)]",0.9286000000000002,,,21.0,0.046206000000000004,['Fail'],Fail,0.6600000000000005,-0.16000000000000048,3.0,6.0,0.9
46.0,3.0,wc_3,,0.0,,,,0.0,,,,Fail,,,,,
46.0,3.0,wc_3,,0.0,,,60.0,,,,,Fail,,,,,
46.0,3.0,wc_3,,0.0,,,,0.0,,,,Fail,,,,,
46.0,3.0,wc_3,wc_3,0.0,"[('wc_3', 0.6600000000000005)]",0.6600000000000005,,,21.0,0.002201,['Fail'],Fail,0.6600000000000005,-0.16000000000000048,3.0,6.0,0.9
46.0,3.0,wc_3,,0.0,,,,0.0,,,,Fail,,,,,
46.0,3.0,wc_3,wc_5,0.0,"[('wc_3', 0.6600000000000005)]",0.6600000000000005,,,24.0,0.004035,['Fail'],Fail,0.3600000000000002,-0.1600000000000002,1.0,5.0,0.4
46.0,3.0,wc_3,,0.0,,,,121.0,,,,Fail,,,,,
46.0,3.0,wc_3,wc_13,0.0,"[('wc_13', 0.27000000000000013), ('wc_3', 0.6600000000000005)]",0.7518000000000004,,,25.0,0.006328,['Fail'],Fail,0.27000000000000013,-0.27000000000000013,0.0,5.0,0.3
46.0,3.0,wc_3,,0.0,,,,162.0,,,,Fail,,,,,
46.0,3.0,wc_3,wc_6,1.0,"[('wc_6', 0.6800000000000005), ('wc_3', 0.6600000000000005), ('wc_13', 0.27000000000000013)]",0.9205760000000003,,,33.0,0.038578999999999995,['Fail'],Fail,0.6800000000000005,-0.4300000000000005,1.0,4.0,0.9
58.0,3.0,wc_3,,0.0,,,,321.0,,,,Pass,,,,,
58.0,3.0,wc_3,,0.0,,,66.0,,,,,Pass,,,,,
58.0,3.0,wc_3,,0.0,,,,0.0,,,,Pass,,,,,
58.0,3.0,wc_3,wc_3,0.0,"[('wc_3', 0.6600000000000005)]",0.6600000000000005,,,40.0,0.002208,['Fail'],Pass,0.6600000000000005,-0.08857142857142908,4.0,7.0,0.9
58.0,3.0,wc_3,,0.0,,,,242.0,,,,Pass,,,,,
58.0,3.0,wc_3,wc_17,0.0,"[('wc_3', 0.6600000000000005)]",0.6600000000000005,,,38.0,0.004235,['Fail'],Pass,0.4600000000000003,-0.2100000000000003,2.0,8.0,0.4
58.0,3.0,wc_3,,0.0,,,,342.0,,,,Pass,,,,,
58.0,3.0,wc_3,wc_10,0.0,"[('wc_10', 0.6700000000000005), ('wc_17', 0.4600000000000003)]",0.8218000000000003,,,32.0,0.006694,['Pass'],Pass,0.6700000000000005,-0.48818181818181866,0.0,0.0,1.0
58.0,3.0,wc_3,,0.0,,,,81.0,,,,Pass,,,,,
58.0,3.0,wc_3,wc_8,1.0,"[('wc_8', 0.4600000000000003), ('wc_17', 0.4600000000000003), ('wc_10', 0.6700000000000005)]",0.9037720000000002,,,37.0,0.04546,['Pass'],Pass,0.4600000000000003,-0.4600000000000003,0.0,0.0,0.6
68.0,2.0,wc_2,,0.0,,,,182.0,,,,Pass,,,,,
68.0,2.0,wc_2,,0.0,,,56.0,,,,,Pass,,,,,
68.0,2.0,wc_2,,0.0,,,,0.0,,,,Pass,,,,,
68.0,2.0,wc_2,wc_2,0.0,"[('wc_2', 0.7400000000000005)]",0.7400000000000005,,,28.0,0.001947,['Pass'],Pass,0.7400000000000005,-0.7400000000000005,0.0,3.0,0.8
68.0,2.0,wc_2,,0.0,,,,102.0,,,,Pass,,,,,
68.0,2.0,wc_2,wc_1,0.0,"[('wc_1', 0.3300000000000002), ('wc_2', 0.7400000000000005)]",0.8258000000000004,,,36.0,0.004304,['Pass'],Pass,0.3300000000000002,-0.18714285714285733,1.0,7.0,0.1
68.0,2.0,wc_2,,0.0,,,,182.0,,,,Pass,,,,,
68.0,2.0,wc_2,wc_12,0.0,"[('wc_12', 0.3500000000000002), ('wc_2', 0.7400000000000005), ('wc_1', 0.3300000000000002)]",0.8867700000000003,,,25.0,0.007171,['Pass'],Pass,0.3500000000000002,-0.18333333333333354,0.0,0.0,0.3
68.0,2.0,wc_2,,0.0,,,,401.0,,,,Pass,,,,,
68.0,2.0,wc_2,wc_5,1.0,"[('wc_5', 0.3500000000000002), ('wc_2', 0.7400000000000005), ('wc_1', 0.3300000000000002), ('wc_12', 0.3500000000000002)]",0.9264005000000002,,,40.0,0.040701,['Pass'],Pass,0.3500000000000002,-0.1000000000000002,2.0,8.0,0.4
76.0,5.0,wc_5,,0.0,,,,0.0,,,,Pass,,,,,
76.0,5.0,wc_5,,0.0,,,72.0,,,,,Pass,,,,,
76.0,5.0,wc_5,,0.0,,,,0.0,,,,Pass,,,,,
76.0,5.0,wc_5,wc_5,0.0,"[('wc_5', 0.3500000000000002)]",0.3500000000000002,,,37.0,0.00243,['Fail'],Pass,0.3500000000000002,-0.1000000000000002,2.0,8.0,0.4
76.0,5.0,wc_5,,0.0,,,,83.0,,,,Pass,,,,,
76.0,5.0,wc_5,wc_3,0.0,"[('wc_3', 0.6500000000000005)]",0.6500000000000005,,,27.0,0.004478,['Pass'],Pass,0.6500000000000005,-0.20555555555555605,4.0,9.0,0.9
76.0,5.0,wc_5,,0.0,,,,222.0,,,,Pass,,,,,
76.0,5.0,wc_5,wc_16,0.0,"[('wc_16', 0.7500000000000006), ('wc_3', 0.6500000000000005)]",0.9125000000000003,,,22.0,0.006588,['Pass'],Pass,0.7500000000000006,-0.5357142857142863,0.0,0.0,0.8
76.0,5.0,wc_5,,0.0,,,,41.0,,,,Pass,,,,,
76.0,5.0,wc_5,wc_12,0.0,"[('wc_3', 0.6500000000000005), ('wc_16', 0.7500000000000006)]",0.9125000000000003,,,39.0,0.008065,['Pass'],Pass,0.3600000000000002,0.6399999999999998,1.0,1.0,0.3
76.0,5.0,wc_5,,0.0,,,,361.0,,,,Pass,,,,,
76.0,5.0,wc_5,wc_11,1.0,"[('wc_11', 0.6200000000000004), ('wc_3', 0.6500000000000005), ('wc_16', 0.7500000000000006)]",0.9667500000000001,,,26.0,0.049450999999999995,['Pass'],Pass,0.6200000000000004,-0.42000000000000043,1.0,5.0,0.8
85.0,6.0,wc_6,,0.0,,,,21.0,,,,Fail,,,,,
85.0,6.0,wc_6,,0.0,,,80.0,,,,,Fail,,,,,
85.0,6.0,wc_6,,0.0,,,,0.0,,,,Fail,,,,,
85.0,6.0,wc_6,wc_6,0.0,"[('wc_6', 0.6800000000000005)]",0.6800000000000005,,,26.0,0.002228,['Fail'],Fail,0.6800000000000005,-0.5371428571428576,1.0,7.0,0.9
85.0,6.0,wc_6,,0.0,,,,361.0,,,,Fail,,,,,
85.0,6.0,wc_6,wc_5,0.0,"[('wc_5', 0.3400000000000002), ('wc_6', 0.6800000000000005)]",0.7888000000000004,,,32.0,0.004639,['Fail'],Fail,0.3400000000000002,-0.11777777777777798,2.0,9.0,0.4
85.0,6.0,wc_6,,0.0,,,,103.0,,,,Fail,,,,,
85.0,6.0,wc_6,wc_4,1.0,"[('wc_4', 0.6600000000000005), ('wc_6', 0.6800000000000005), ('wc_5', 0.3400000000000002)]",0.9281920000000002,,,31.0,0.059439,['Fail'],Fail,0.6600000000000005,-0.2850000000000005,3.0,8.0,0.7
95.0,6.0,wc_6,,0.0,,,,81.0,,,,Pass,,,,,
95.0,6.0,wc_6,,0.0,,,79.0,,,,,Pass,,,,,
95.0,6.0,wc_6,,0.0,,,,0.0,,,,Pass,,,,,
95.0,6.0,wc_6,wc_6,0.0,"[('wc_6', 0.6800000000000005)]",0.6800000000000005,,,27.0,0.002128,['Pass'],Pass,0.6800000000000005,-0.4300000000000005,2.0,8.0,0.9
95.0,6.0,wc_6,,0.0,,,,321.0,,,,Pass,,,,,
95.0,6.0,wc_6,wc_3,0.0,"[('wc_3', 0.6500000000000005), ('wc_6', 0.6800000000000005)]",0.8880000000000003,,,35.0,0.003982,['Pass'],Pass,0.6500000000000005,-0.6500000000000005,0.0,1.0,0.9
95.0,6.0,wc_6,,0.0,,,,141.0,,,,Pass,,,,,
95.0,6.0,wc_6,wc_8,1.0,"[('wc_8', 0.4600000000000003), ('wc_6', 0.6800000000000005), ('wc_3', 0.6500000000000005)]",0.9395200000000002,,,27.0,0.040548,['Pass'],Pass,0.4600000000000003,-0.2100000000000003,1.0,4.0,0.6
104.0,11.0,wc_11,,0.0,,,,0.0,,,,Fail,,,,,
104.0,11.0,wc_11,,0.0,,,63.0,,,,,Fail,,,,,
104.0,11.0,wc_11,,0.0,,,,0.0,,,,Fail,,,,,
104.0,11.0,wc_11,wc_11,0.0,"[('wc_11', 0.6200000000000004)]",0.6200000000000004,,,40.0,0.002164,['Pass'],Fail,0.6200000000000004,-0.4771428571428576,1.0,7.0,0.8
104.0,11.0,wc_11,,0.0,,,,101.0,,,,Fail,,,,,
104.0,11.0,wc_11,wc_14,0.0,"[('wc_11', 0.6200000000000004)]",0.6200000000000004,,,40.0,0.004281999999999999,['Pass'],Fail,0.5900000000000004,-0.3172727272727277,0.0,0.0,0.5
104.0,11.0,wc_11,,0.0,,,,341.0,,,,Fail,,,,,
104.0,11.0,wc_11,wc_4,0.0,"[('wc_4', 0.6600000000000005), ('wc_14', 0.5900000000000004)]",0.8606000000000004,,,28.0,0.006816000000000001,['Fail'],Fail,0.6600000000000005,-0.32666666666666716,3.0,9.0,0.7
104.0,11.0,wc_11,,0.0,,,,182.0,,,,Fail,,,,,
104.0,11.0,wc_11,wc_15,0.0,"[('wc_14', 0.5900000000000004), ('wc_4', 0.6600000000000005)]",0.8606000000000004,,,33.0,0.008602,['Fail'],Fail,0.22000000000000008,-0.22000000000000008,0.0,7.0,0.2
104.0,11.0,wc_11,,0.0,,,,243.0,,,,Fail,,,,,
104.0,11.0,wc_11,wc_7,0.0,"[('wc_14', 0.5900000000000004), ('wc_4', 0.6600000000000005)]",0.8606000000000004,,,27.0,0.010049000000000002,['Fail'],Fail,0.5000000000000003,-0.37500000000000033,1.0,8.0,0.6
104.0,11.0,wc_11,,0.0,,,,162.0,,,,Fail,,,,,
104.0,11.0,wc_11,wc_13,0.0,"[('wc_13', 0.27000000000000013), ('wc_11', 0.6200000000000004), ('wc_15', 0.22000000000000008), ('wc_7', 0.5000000000000003)]",0.8918140000000002,,,35.0,0.012285000000000003,['Pass'],Fail,0.27000000000000013,-0.17909090909090922,0.0,0.0,0.3
104.0,11.0,wc_11,,0.0,,,,0.0,,,,Fail,,,,,
104.0,11.0,wc_11,wc_17,1.0,"[('wc_17', 0.4600000000000003), ('wc_11', 0.6200000000000004), ('wc_15', 0.22000000000000008), ('wc_7', 0.5000000000000003), ('wc_13', 0.27000000000000013)]",0.9415795600000001,,,33.0,0.046698,['Pass'],Fail,0.4600000000000003,-0.4600000000000003,0.0,0.0,0.4
114.0,11.0,wc_11,,0.0,,,,362.0,,,,Pass,,,,,
114.0,11.0,wc_11,,0.0,,,71.0,,,,,Pass,,,,,
114.0,11.0,wc_11,,0.0,,,,0.0,,,,Pass,,,,,
114.0,11.0,wc_11,wc_11,0.0,"[('wc_11', 0.6200000000000004)]",0.6200000000000004,,,22.0,0.002397,['Pass'],Pass,0.6200000000000004,-0.37000000000000044,2.0,8.0,0.8
114.0,11.0,wc_11,,0.0,,,,103.0,,,,Pass,,,,,
114.0,11.0,wc_11,wc_10,0.0,"[('wc_10', 0.6800000000000005), ('wc_11', 0.6200000000000004)]",0.8784000000000003,,,28.0,0.004006,['Pass'],Pass,0.6800000000000005,-0.5133333333333339,1.0,6.0,1.0
114.0,11.0,wc_11,,0.0,,,,362.0,,,,Pass,,,,,
114.0,11.0,wc_11,wc_4,1.0,"[('wc_4', 0.6500000000000005), ('wc_11', 0.6200000000000004), ('wc_10', 0.6800000000000005)]",0.9574400000000002,,,22.0,0.038737,['Pass'],Pass,0.6600000000000005,0.3399999999999995,1.0,1.0,0.7
125.0,10.0,wc_10,,0.0,,,,162.0,,,,Pass,,,,,
125.0,10.0,wc_10,,0.0,,,66.0,,,,,Pass,,,,,
125.0,10.0,wc_10,,0.0,,,,0.0,,,,Pass,,,,,
125.0,10.0,wc_10,wc_10,0.0,"[('wc_10', 0.6800000000000005)]",0.6800000000000005,,,34.0,0.002053,['Pass'],Pass,0.6800000000000005,-0.3942857142857148,2.0,7.0,1.0
125.0,10.0,wc_10,,0.0,,,,162.0,,,,Pass,,,,,
125.0,10.0,wc_10,wc_16,0.0,"[('wc_16', 0.7600000000000006), ('wc_10', 0.6800000000000005)]",0.9232000000000002,,,26.0,0.004491,['Pass'],Pass,0.7600000000000006,-0.5600000000000005,1.0,5.0,0.8
125.0,10.0,wc_10,,0.0,,,,342.0,,,,Pass,,,,,
125.0,10.0,wc_10,wc_9,1.0,"[('wc_9', 0.4400000000000003), ('wc_10', 0.6800000000000005), ('wc_16', 0.7600000000000006)]",0.9569920000000002,,,27.0,0.038952,['Pass'],Pass,0.4400000000000003,-0.4400000000000003,0.0,0.0,0.4
138.0,9.0,wc_9,,0.0,,,,0.0,,,,Fail,,,,,
138.0,9.0,wc_9,,0.0,,,63.0,,,,,Fail,,,,,
138.0,9.0,wc_9,,0.0,,,,0.0,,,,Fail,,,,,
138.0,9.0,wc_9,wc_9,0.0,"[('wc_9', 0.4400000000000003)]",0.4400000000000003,,,26.0,0.002167,['Fail'],Fail,0.4400000000000003,-0.4400000000000003,0.0,0.0,0.4
138.0,9.0,wc_9,,0.0,,,,263.0,,,,Fail,,,,,
138.0,9.0,wc_9,wc_2,0.0,"[('wc_2', 0.7400000000000005), ('wc_9', 0.4400000000000003)]",0.8544000000000004,,,40.0,0.004343,['Fail'],Fail,0.7400000000000005,-0.6400000000000006,0.0,0.0,0.8
138.0,9.0,wc_9,,0.0,,,,203.0,,,,Fail,,,,,
138.0,9.0,wc_9,wc_10,1.0,"[('wc_10', 0.6800000000000005), ('wc_9', 0.4400000000000003), ('wc_2', 0.7400000000000005)]",0.9534080000000001,,,20.0,0.03946399999999999,['Fail'],Fail,0.6800000000000005,-0.23555555555555607,4.0,9.0,1.0
150.0,8.0,wc_8,,0.0,,,,81.0,,,,Pass,,,,,
150.0,8.0,wc_8,,0.0,,,73.0,,,,,Pass,,,,,
150.0,8.0,wc_8,,0.0,,,,0.0,,,,Pass,,,,,
150.0,8.0,wc_8,wc_8,0.0,"[('wc_8', 0.4600000000000003)]",0.4600000000000003,,,22.0,0.002119,['Pass'],Pass,0.4600000000000003,-0.3350000000000003,1.0,8.0,0.6
150.0,8.0,wc_8,,0.0,,,,223.0,,,,Pass,,,,,
150.0,8.0,wc_8,wc_17,0.0,"[('wc_17', 0.4600000000000003), ('wc_8', 0.4600000000000003)]",0.7084000000000004,,,28.0,0.004254000000000001,['Pass'],Pass,0.4600000000000003,-0.4600000000000003,0.0,3.0,0.4
150.0,8.0,wc_8,,0.0,,,,243.0,,,,Pass,,,,,
150.0,8.0,wc_8,wc_1,0.0,"[('wc_1', 0.3300000000000002), ('wc_8', 0.4600000000000003), ('wc_17', 0.4600000000000003)]",0.8046280000000003,,,20.0,0.006116999999999999,['Pass'],Pass,0.3300000000000002,-0.19666666666666685,0.0,0.0,0.1
150.0,8.0,wc_8,,0.0,,,,142.0,,,,Pass,,,,,
150.0,8.0,wc_8,wc_6,1.0,"[('wc_6', 0.6800000000000005), ('wc_8', 0.4600000000000003), ('wc_17', 0.4600000000000003), ('wc_1', 0.3300000000000002)]",0.9374809600000001,,,31.0,0.043015,['Pass'],Pass,0.6800000000000005,-0.6800000000000005,0.0,0.0,0.9
176.0,9.0,wc_9,,0.0,,,,0.0,,,,Pass,,,,,
176.0,9.0,wc_9,,0.0,,,60.0,,,,,Pass,,,,,
176.0,9.0,wc_9,,0.0,,,,0.0,,,,Pass,,,,,
176.0,9.0,wc_9,wc_9,0.0,"[('wc_9', 0.4500000000000003)]",0.4500000000000003,,,40.0,0.002093,['Pass'],Pass,0.4500000000000003,0.04999999999999971,1.0,2.0,0.4
176.0,9.0,wc_9,,0.0,,,,81.0,,,,Pass,,,,,
176.0,9.0,wc_9,wc_7,0.0,"[('wc_7', 0.5000000000000003), ('wc_9', 0.4500000000000003)]",0.7250000000000003,,,23.0,0.004385,['Pass'],Pass,0.5000000000000003,-0.3461538461538465,0.0,0.0,0.6
176.0,9.0,wc_9,,0.0,,,,182.0,,,,Pass,,,,,
176.0,9.0,wc_9,wc_1,0.0,"[('wc_1', 0.3400000000000002), ('wc_9', 0.4500000000000003), ('wc_7', 0.5000000000000003)]",0.8185000000000002,,,20.0,0.0059299999999999995,['Pass'],Pass,0.3400000000000002,0.6599999999999998,1.0,1.0,0.1
176.0,9.0,wc_9,,0.0,,,,223.0,,,,Pass,,,,,
176.0,9.0,wc_9,wc_10,1.0,"[('wc_10', 0.6800000000000005), ('wc_9', 0.4500000000000003), ('wc_7', 0.5000000000000003), ('wc_1', 0.3400000000000002)]",0.9419200000000002,,,39.0,0.045913,['Pass'],Pass,0.6800000000000005,-0.6800000000000005,0.0,0.0,1.0
196.0,7.0,wc_7,,0.0,,,,61.0,,,,Fail,,,,,
196.0,7.0,wc_7,,0.0,,,75.0,,,,,Fail,,,,,
196.0,7.0,wc_7,,0.0,,,,0.0,,,,Fail,,,,,
196.0,7.0,wc_7,wc_7,0.0,"[('wc_7', 0.5100000000000003)]",0.5100000000000003,,,28.0,0.002443,['Fail'],Fail,0.5100000000000003,0.48999999999999966,1.0,1.0,0.6
196.0,7.0,wc_7,,0.0,,,,223.0,,,,Fail,,,,,
196.0,7.0,wc_7,wc_16,0.0,"[('wc_16', 0.7600000000000006), ('wc_7', 0.5100000000000003)]",0.8824000000000004,,,20.0,0.00442,['Fail'],Fail,0.7600000000000006,-0.5377777777777784,2.0,9.0,0.8
196.0,7.0,wc_7,,0.0,,,,103.0,,,,Fail,,,,,
196.0,7.0,wc_7,wc_15,1.0,"[('wc_15', 0.22000000000000008), ('wc_7', 0.5100000000000003), ('wc_16', 0.7600000000000006)]",0.9082720000000003,,,30.0,0.040657,['Fail'],Fail,0.22000000000000008,-0.22000000000000008,0.0,0.0,0.2
211.0,7.0,wc_7,,0.0,,,,243.0,,,,Fail,,,,,
211.0,7.0,wc_7,,0.0,,,53.0,,,,,Fail,,,,,
211.0,7.0,wc_7,,0.0,,,,0.0,,,,Fail,,,,,
211.0,7.0,wc_7,wc_7,0.0,"[('wc_7', 0.5200000000000004)]",0.5200000000000004,,,39.0,0.002114,['Pass'],Fail,0.5200000000000004,0.47999999999999965,2.0,2.0,0.6
211.0,7.0,wc_7,,0.0,,,,162.0,,,,Fail,,,,,
211.0,7.0,wc_7,wc_13,0.0,"[('wc_7', 0.5200000000000004)]",0.5200000000000004,,,29.0,0.003977,['Pass'],Fail,0.28000000000000014,-0.1371428571428573,1.0,7.0,0.3
211.0,7.0,wc_7,,0.0,,,,381.0,,,,Fail,,,,,
211.0,7.0,wc_7,wc_5,0.0,"[('wc_5', 0.3400000000000002), ('wc_13', 0.28000000000000014)]",0.5248000000000002,,,23.0,0.0075379999999999996,['Fail'],Fail,0.3400000000000002,-0.3400000000000002,0.0,8.0,0.4
211.0,7.0,wc_7,,0.0,,,,101.0,,,,Fail,,,,,
211.0,7.0,wc_7,wc_12,0.0,"[('wc_12', 0.3600000000000002), ('wc_7', 0.5200000000000004)]",0.6928000000000003,,,35.0,0.007932999999999999,['Pass'],Fail,0.3600000000000002,-0.26909090909090927,0.0,0.0,0.3
211.0,7.0,wc_7,,0.0,,,,0.0,,,,Fail,,,,,
211.0,7.0,wc_7,wc_15,0.0,"[('wc_15', 0.22000000000000008), ('wc_7', 0.5200000000000004), ('wc_12', 0.3600000000000002)]",0.7603840000000003,,,40.0,0.009351,['Pass'],Fail,0.22000000000000008,-0.22000000000000008,0.0,0.0,0.2
211.0,7.0,wc_7,,0.0,,,,382.0,,,,Fail,,,,,
211.0,7.0,wc_7,wc_10,0.0,"[('wc_10', 0.6800000000000005), ('wc_13', 0.28000000000000014), ('wc_5', 0.3400000000000002)]",0.8479360000000002,,,31.0,0.011578,['Fail'],Fail,0.6800000000000005,-0.6800000000000005,0.0,1.0,1.0
211.0,7.0,wc_7,,0.0,,,,103.0,,,,Fail,,,,,
211.0,7.0,wc_7,wc_9,1.0,"[('wc_9', 0.4600000000000003), ('wc_13', 0.28000000000000014), ('wc_5', 0.3400000000000002), ('wc_10', 0.6800000000000005)]",0.9178854400000003,,,20.0,0.050609,['Fail'],Fail,0.4700000000000003,0.12999999999999967,3.0,5.0,0.4
225.0,7.0,wc_7,,0.0,,,,81.0,,,,Fail,,,,,
225.0,7.0,wc_7,,0.0,,,78.0,,,,,Fail,,,,,
225.0,7.0,wc_7,,0.0,,,,0.0,,,,Fail,,,,,
225.0,7.0,wc_7,wc_7,0.0,"[('wc_7', 0.5200000000000004)]",0.5200000000000004,,,21.0,0.002265,['Fail'],Fail,0.5200000000000004,0.14666666666666628,2.0,3.0,0.6
225.0,7.0,wc_7,,0.0,,,,243.0,,,,Fail,,,,,
225.0,7.0,wc_7,wc_17,0.0,"[('wc_17', 0.4600000000000003), ('wc_7', 0.5200000000000004)]",0.7408000000000003,,,39.0,0.003943,['Fail'],Fail,0.4600000000000003,-0.31714285714285745,1.0,7.0,0.4
225.0,7.0,wc_7,,0.0,,,,83.0,,,,Fail,,,,,
225.0,7.0,wc_7,wc_15,0.0,"[('wc_15', 0.21000000000000008), ('wc_7', 0.5200000000000004), ('wc_17', 0.4600000000000003)]",0.7952320000000003,,,32.0,0.006379,['Fail'],Fail,0.21000000000000008,-0.21000000000000008,0.0,1.0,0.2
225.0,7.0,wc_7,,0.0,,,,263.0,,,,Fail,,,,,
225.0,7.0,wc_7,wc_8,0.0,"[('wc_8', 0.4600000000000003), ('wc_7', 0.5200000000000004), ('wc_17', 0.4600000000000003), ('wc_15', 0.21000000000000008)]",0.8894252800000002,,,28.0,0.008322,['Fail'],Fail,0.4600000000000003,-0.29333333333333367,0.0,0.0,0.6
225.0,7.0,wc_7,,0.0,,,,0.0,,,,Fail,,,,,
225.0,7.0,wc_7,wc_9,0.0,"[('wc_7', 0.5200000000000004), ('wc_17', 0.4600000000000003), ('wc_15', 0.21000000000000008), ('wc_8', 0.4600000000000003)]",0.8894252800000002,,,36.0,0.012653000000000001,['Fail'],Fail,0.4700000000000003,0.12999999999999967,3.0,5.0,0.4
225.0,7.0,wc_7,,0.0,,,,0.0,,,,Fail,,,,,
225.0,7.0,wc_7,wc_11,1.0,"[('wc_11', 0.6200000000000004), ('wc_7', 0.5200000000000004), ('wc_17', 0.4600000000000003), ('wc_15', 0.21000000000000008), ('wc_8', 0.4600000000000003)]",0.9579816064000002,,,37.0,0.044408,['Fail'],Fail,0.6200000000000004,-0.6200000000000004,0.0,0.0,0.8
232.0,7.0,wc_7,,0.0,,,,41.0,,,,Pass,,,,,
232.0,7.0,wc_7,,0.0,,,52.0,,,,,Pass,,,,,
232.0,7.0,wc_7,,0.0,,,,0.0,,,,Pass,,,,,
232.0,7.0,wc_7,wc_7,0.0,"[('wc_7', 0.5300000000000004)]",0.5300000000000004,,,21.0,0.002104,['Pass'],Pass,0.5300000000000004,0.21999999999999964,3.0,4.0,0.6
232.0,7.0,wc_7,,0.0,,,,0.0,,,,Pass,,,,,
232.0,7.0,wc_7,wc_11,0.0,"[('wc_11', 0.6200000000000004), ('wc_7', 0.5300000000000004)]",0.8214000000000004,,,25.0,0.003984,['Pass'],Pass,0.6200000000000004,-0.6200000000000004,0.0,0.0,0.8
232.0,7.0,wc_7,,0.0,,,,61.0,,,,Pass,,,,,
232.0,7.0,wc_7,wc_8,1.0,"[('wc_8', 0.4700000000000003), ('wc_7', 0.5300000000000004), ('wc_11', 0.6200000000000004)]",0.9053420000000002,,,36.0,0.04523599999999999,['Pass'],Pass,0.4800000000000003,0.5199999999999997,2.0,2.0,0.6
258.0,12.0,wc_12,,0.0,,,,122.0,,,,Pass,,,,,
258.0,12.0,wc_12,,0.0,,,61.0,,,,,Pass,,,,,
258.0,12.0,wc_12,,0.0,,,,0.0,,,,Pass,,,,,
258.0,12.0,wc_12,wc_12,0.0,"[('wc_12', 0.3500000000000002)]",0.3500000000000002,,,29.0,0.002458,['Pass'],Pass,0.3500000000000002,-0.3500000000000002,0.0,3.0,0.3
258.0,12.0,wc_12,,0.0,,,,0.0,,,,Pass,,,,,
258.0,12.0,wc_12,wc_17,0.0,"[('wc_17', 0.4600000000000003), ('wc_12', 0.3500000000000002)]",0.6490000000000002,,,31.0,0.004274,['Pass'],Pass,0.4600000000000003,-0.2377777777777781,2.0,9.0,0.4
258.0,12.0,wc_12,,0.0,,,,243.0,,,,Pass,,,,,
258.0,12.0,wc_12,wc_1,0.0,"[('wc_12', 0.3500000000000002), ('wc_17', 0.4600000000000003)]",0.6490000000000002,,,37.0,0.005915,['Pass'],Pass,0.3500000000000002,-0.016666666666666885,2.0,6.0,0.1
258.0,12.0,wc_12,,0.0,,,,222.0,,,,Pass,,,,,
258.0,12.0,wc_12,wc_14,0.0,"[('wc_14', 0.5800000000000004), ('wc_12', 0.3500000000000002), ('wc_17', 0.4600000000000003)]",0.8525800000000003,,,27.0,0.009764,['Pass'],Pass,0.5800000000000004,-0.5800000000000004,0.0,0.0,0.5
258.0,12.0,wc_12,,0.0,,,,321.0,,,,Pass,,,,,
258.0,12.0,wc_12,wc_11,1.0,"[('wc_11', 0.6300000000000004), ('wc_12', 0.3500000000000002), ('wc_17', 0.4600000000000003), ('wc_14', 0.5800000000000004)]",0.9454546000000001,,,21.0,0.04642800000000001,['Pass'],Pass,0.6400000000000005,0.35999999999999954,2.0,2.0,0.8
282.0,13.0,wc_13,,0.0,,,,81.0,,,,Fail,,,,,
282.0,13.0,wc_13,,0.0,,,59.0,,,,,Fail,,,,,
282.0,13.0,wc_13,,0.0,,,,0.0,,,,Fail,,,,,
282.0,13.0,wc_13,wc_13,0.0,"[('wc_13', 0.28000000000000014)]",0.28000000000000014,,,35.0,0.002068,['Fail'],Fail,0.28000000000000014,-0.09818181818181831,0.0,0.0,0.3
282.0,13.0,wc_13,,0.0,,,,242.0,,,,Fail,,,,,
282.0,13.0,wc_13,wc_2,0.0,"[('wc_2', 0.7500000000000006), ('wc_13', 0.28000000000000014)]",0.8200000000000004,,,21.0,0.003754,['Fail'],Fail,0.7500000000000006,-0.6250000000000006,1.0,8.0,0.8
282.0,13.0,wc_13,,0.0,,,,142.0,,,,Fail,,,,,
282.0,13.0,wc_13,wc_7,0.0,"[('wc_13', 0.28000000000000014), ('wc_2', 0.7500000000000006)]",0.8200000000000004,,,24.0,0.005765,['Fail'],Fail,0.5400000000000004,0.12666666666666626,4.0,6.0,0.6
282.0,13.0,wc_13,,0.0,,,,321.0,,,,Fail,,,,,
282.0,13.0,wc_13,wc_4,1.0,"[('wc_4', 0.6600000000000005), ('wc_13', 0.28000000000000014), ('wc_2', 0.7500000000000006)]",0.9388000000000002,,,32.0,0.041759,['Fail'],Fail,0.6600000000000005,-0.6600000000000005,0.0,0.0,0.7
310.0,13.0,wc_13,,0.0,,,,141.0,,,,Fail,,,,,
310.0,13.0,wc_13,,0.0,,,57.0,,,,,Fail,,,,,
310.0,13.0,wc_13,,0.0,,,,0.0,,,,Fail,,,,,
310.0,13.0,wc_13,wc_13,0.0,"[('wc_13', 0.29000000000000015)]",0.29000000000000015,,,36.0,0.002141,['Fail'],Fail,0.29000000000000015,0.7099999999999999,1.0,1.0,0.3
310.0,13.0,wc_13,,0.0,,,,0.0,,,,Fail,,,,,
310.0,13.0,wc_13,wc_14,0.0,"[('wc_14', 0.5900000000000004), ('wc_13', 0.29000000000000015)]",0.7089000000000003,,,32.0,0.004252,['Fail'],Fail,0.5900000000000004,-0.09000000000000041,1.0,2.0,0.5
310.0,13.0,wc_13,,0.0,,,,321.0,,,,Fail,,,,,
310.0,13.0,wc_13,wc_3,0.0,"[('wc_3', 0.6500000000000005), ('wc_13', 0.29000000000000015), ('wc_14', 0.5900000000000004)]",0.8981150000000002,,,21.0,0.006331999999999999,['Fail'],Fail,0.6500000000000005,-0.5785714285714291,0.0,0.0,0.9
310.0,13.0,wc_13,,0.0,,,,81.0,,,,Fail,,,,,
310.0,13.0,wc_13,wc_1,1.0,"[('wc_1', 0.3400000000000002), ('wc_13', 0.29000000000000015), ('wc_14', 0.5900000000000004), ('wc_3', 0.6500000000000005)]",0.9327559000000002,,,20.0,0.049307000000000004,['Fail'],Fail,0.3400000000000002,-0.006666666666666876,3.0,9.0,0.1
335.0,13.0,wc_13,,0.0,,,,202.0,,,,Fail,,,,,
335.0,13.0,wc_13,,0.0,,,72.0,,,,,Fail,,,,,
335.0,13.0,wc_13,,0.0,,,,0.0,,,,Fail,,,,,
335.0,13.0,wc_13,wc_13,0.0,"[('wc_13', 0.30000000000000016)]",0.30000000000000016,,,39.0,0.002318,['Fail'],Fail,0.30000000000000016,0.6999999999999998,2.0,2.0,0.3
335.0,13.0,wc_13,,0.0,,,,0.0,,,,Fail,,,,,
335.0,13.0,wc_13,wc_17,0.0,"[('wc_17', 0.4600000000000003), ('wc_13', 0.30000000000000016)]",0.6220000000000003,,,24.0,0.004094,['Fail'],Fail,0.4600000000000003,-0.4600000000000003,0.0,2.0,0.4
335.0,13.0,wc_13,,0.0,,,,223.0,,,,Fail,,,,,
335.0,13.0,wc_13,wc_8,0.0,"[('wc_8', 0.4800000000000003), ('wc_13', 0.30000000000000016), ('wc_17', 0.4600000000000003)]",0.8034400000000003,,,40.0,0.006014,['Fail'],Fail,0.4800000000000003,-0.0800000000000003,2.0,5.0,0.6
335.0,13.0,wc_13,,0.0,,,,102.0,,,,Fail,,,,,
335.0,13.0,wc_13,wc_7,1.0,"[('wc_7', 0.5400000000000004), ('wc_13', 0.30000000000000016), ('wc_17', 0.4600000000000003), ('wc_8', 0.4800000000000003)]",0.9095824000000002,,,26.0,0.046414,['Fail'],Fail,0.5500000000000004,0.005555555555555203,5.0,9.0,0.6
371.0,13.0,wc_13,,0.0,,,,162.0,,,,Pass,,,,,
371.0,13.0,wc_13,,0.0,,,69.0,,,,,Pass,,,,,
371.0,13.0,wc_13,,0.0,,,,0.0,,,,Pass,,,,,
371.0,13.0,wc_13,wc_13,0.0,"[('wc_13', 0.31000000000000016)]",0.31000000000000016,,,39.0,0.00228,['Pass'],Pass,0.31000000000000016,0.6899999999999998,3.0,3.0,0.3
371.0,13.0,wc_13,,0.0,,,,202.0,,,,Pass,,,,,
371.0,13.0,wc_13,wc_8,0.0,"[('wc_8', 0.4900000000000003), ('wc_13', 0.31000000000000016)]",0.6481000000000003,,,20.0,0.004376,['Pass'],Pass,0.4900000000000003,0.009999999999999676,3.0,6.0,0.6
371.0,13.0,wc_13,,0.0,,,,321.0,,,,Pass,,,,,
371.0,13.0,wc_13,wc_5,0.0,"[('wc_5', 0.3400000000000002), ('wc_13', 0.31000000000000016), ('wc_8', 0.4900000000000003)]",0.7677460000000003,,,36.0,0.0058449999999999995,['Pass'],Pass,0.3400000000000002,-0.27333333333333354,0.0,0.0,0.4
371.0,13.0,wc_13,,0.0,,,,61.0,,,,Pass,,,,,
371.0,13.0,wc_13,wc_6,1.0,"[('wc_6', 0.6800000000000005), ('wc_13', 0.31000000000000016), ('wc_8', 0.4900000000000003), ('wc_5', 0.3400000000000002)]",0.9256787200000002,,,21.0,0.0451,['Pass'],Pass,0.6800000000000005,-0.6800000000000005,0.0,0.0,0.9
384.0,14.0,wc_14,,0.0,,,,202.0,,,,Fail,,,,,
384.0,14.0,wc_14,,0.0,,,63.0,,,,,Fail,,,,,
384.0,14.0,wc_14,,0.0,,,,0.0,,,,Fail,,,,,
384.0,14.0,wc_14,wc_14,0.0,"[('wc_14', 0.6000000000000004)]",0.6000000000000004,,,20.0,0.002031,['Fail'],Fail,0.6000000000000004,-0.2000000000000004,2.0,5.0,0.5
384.0,14.0,wc_14,,0.0,,,,82.0,,,,Fail,,,,,
384.0,14.0,wc_14,wc_12,0.0,"[('wc_12', 0.3500000000000002), ('wc_14', 0.6000000000000004)]",0.7400000000000004,,,23.0,0.0050539999999999995,['Fail'],Fail,0.3500000000000002,-0.2250000000000002,1.0,8.0,0.3
384.0,14.0,wc_14,,0.0,,,,341.0,,,,Fail,,,,,
384.0,14.0,wc_14,wc_10,1.0,"[('wc_10', 0.6800000000000005), ('wc_14', 0.6000000000000004), ('wc_12', 0.3500000000000002)]",0.9168000000000003,,,24.0,0.043157,['Fail'],Fail,0.6800000000000005,-0.6800000000000005,0.0,0.0,1.0
393.0,16.0,wc_16,,0.0,,,,162.0,,,,Pass,,,,,
393.0,16.0,wc_16,,0.0,,,53.0,,,,,Pass,,,,,
393.0,16.0,wc_16,,0.0,,,,0.0,,,,Pass,,,,,
393.0,16.0,wc_16,wc_16,0.0,"[('wc_16', 0.7600000000000006)]",0.7600000000000006,,,36.0,0.002135,['Pass'],Pass,0.7600000000000006,-0.7600000000000006,0.0,9.0,0.8
393.0,16.0,wc_16,,0.0,,,,41.0,,,,Pass,,,,,
393.0,16.0,wc_16,wc_12,0.0,"[('wc_16', 0.7600000000000006)]",0.7600000000000006,,,34.0,0.0038380000000000003,['Pass'],Pass,0.3500000000000002,-0.127777777777778,2.0,9.0,0.3
393.0,16.0,wc_16,,0.0,,,,0.0,,,,Pass,,,,,
393.0,16.0,wc_16,wc_14,0.0,"[('wc_14', 0.6000000000000004), ('wc_16', 0.7600000000000006)]",0.9040000000000004,,,21.0,0.0058720000000000005,['Pass'],Pass,0.6000000000000004,-0.10000000000000042,3.0,6.0,0.5
393.0,16.0,wc_16,,0.0,,,,162.0,,,,Pass,,,,,
393.0,16.0,wc_16,wc_7,1.0,"[('wc_7', 0.5500000000000004), ('wc_16', 0.7600000000000006), ('wc_14', 0.6000000000000004)]",0.9568000000000002,,,21.0,0.04354200000000001,['Pass'],Pass,0.5500000000000004,-0.5500000000000004,0.0,0.0,0.6
404.0,14.0,wc_14,,0.0,,,,182.0,,,,Pass,,,,,
404.0,14.0,wc_14,,0.0,,,68.0,,,,,Pass,,,,,
404.0,14.0,wc_14,,0.0,,,,0.0,,,,Pass,,,,,
404.0,14.0,wc_14,wc_14,0.0,"[('wc_14', 0.6000000000000004)]",0.6000000000000004,,,26.0,0.002314,['Fail'],Pass,0.6000000000000004,-0.028571428571429025,4.0,7.0,0.5
404.0,14.0,wc_14,,0.0,,,,281.0,,,,Pass,,,,,
404.0,14.0,wc_14,wc_9,0.0,"[('wc_9', 0.4700000000000003), ('wc_14', 0.6000000000000004)]",0.7880000000000004,,,33.0,0.003962,['Fail'],Pass,0.4700000000000003,-0.255714285714286,0.0,0.0,0.4
404.0,14.0,wc_14,,0.0,,,,162.0,,,,Pass,,,,,
404.0,14.0,wc_14,wc_15,0.0,"[('wc_14', 0.6000000000000004), ('wc_9', 0.4700000000000003)]",0.7880000000000004,,,23.0,0.005808000000000001,['Fail'],Pass,0.22000000000000008,-0.12000000000000008,0.0,0.0,0.2
404.0,14.0,wc_14,,0.0,,,,382.0,,,,Pass,,,,,
404.0,14.0,wc_14,wc_10,0.0,"[('wc_14', 0.6000000000000004), ('wc_9', 0.4700000000000003)]",0.7880000000000004,,,38.0,0.00768,['Fail'],Pass,0.6800000000000005,-0.6800000000000005,0.0,1.0,1.0
404.0,14.0,wc_14,,0.0,,,,162.0,,,,Pass,,,,,
404.0,14.0,wc_14,wc_16,1.0,"[('wc_16', 0.7600000000000006), ('wc_15', 0.22000000000000008), ('wc_10', 0.6800000000000005)]",0.9400960000000003,,,29.0,0.046668999999999995,['Pass'],Pass,0.7700000000000006,0.22999999999999943,1.0,1.0,0.8
411.0,15.0,wc_15,,0.0,,,,103.0,,,,Fail,,,,,
411.0,15.0,wc_15,,0.0,,,59.0,,,,,Fail,,,,,
411.0,15.0,wc_15,,0.0,,,,0.0,,,,Fail,,,,,
411.0,15.0,wc_15,wc_15,0.0,"[('wc_15', 0.2300000000000001)]",0.2300000000000001,,,30.0,0.002737,['Fail'],Fail,0.2300000000000001,0.7699999999999999,1.0,1.0,0.2
411.0,15.0,wc_15,,0.0,,,,243.0,,,,Fail,,,,,
411.0,15.0,wc_15,wc_7,0.0,"[('wc_7', 0.5500000000000004), ('wc_15', 0.2300000000000001)]",0.6535000000000004,,,35.0,0.00408,['Fail'],Fail,0.5500000000000004,-0.5500000000000004,0.0,1.0,0.6
411.0,15.0,wc_15,,0.0,,,,0.0,,,,Fail,,,,,
411.0,15.0,wc_15,wc_11,0.0,"[('wc_11', 0.6400000000000005), ('wc_15', 0.2300000000000001), ('wc_7', 0.5500000000000004)]",0.8752600000000003,,,26.0,0.006150000000000001,['Fail'],Fail,0.6400000000000005,-0.41777777777777825,2.0,9.0,0.8
411.0,15.0,wc_15,,0.0,,,,362.0,,,,Fail,,,,,
411.0,15.0,wc_15,wc_5,1.0,"[('wc_5', 0.3500000000000002), ('wc_15', 0.2300000000000001), ('wc_7', 0.5500000000000004), ('wc_11', 0.6400000000000005)]",0.9189190000000002,,,31.0,0.04342800000000001,['Fail'],Fail,0.3600000000000002,0.039999999999999813,2.0,5.0,0.4
421.0,15.0,wc_15,,0.0,,,,162.0,,,,Fail,,,,,
421.0,15.0,wc_15,,0.0,,,56.0,,,,,Fail,,,,,
421.0,15.0,wc_15,,0.0,,,,0.0,,,,Fail,,,,,
421.0,15.0,wc_15,wc_15,0.0,"[('wc_15', 0.2400000000000001)]",0.2400000000000001,,,35.0,0.002122,['Pass'],Fail,0.2400000000000001,0.7599999999999999,2.0,2.0,0.2
421.0,15.0,wc_15,,0.0,,,,101.0,,,,Fail,,,,,
421.0,15.0,wc_15,wc_14,0.0,"[('wc_14', 0.5900000000000004), ('wc_15', 0.2400000000000001)]",0.6884000000000003,,,31.0,0.00408,['Pass'],Fail,0.5900000000000004,-0.145555555555556,4.0,9.0,0.5
421.0,15.0,wc_15,,0.0,,,,0.0,,,,Fail,,,,,
421.0,15.0,wc_15,wc_17,0.0,"[('wc_15', 0.2400000000000001), ('wc_14', 0.5900000000000004)]",0.6884000000000003,,,22.0,0.006116999999999999,['Pass'],Fail,0.4600000000000003,-0.3350000000000003,1.0,8.0,0.4
421.0,15.0,wc_15,,0.0,,,,263.0,,,,Fail,,,,,
421.0,15.0,wc_15,wc_2,0.0,"[('wc_2', 0.7500000000000006), ('wc_17', 0.4600000000000003)]",0.8650000000000004,,,34.0,0.008523000000000001,['Fail'],Fail,0.7500000000000006,-0.6250000000000006,0.0,0.0,0.8
421.0,15.0,wc_15,,0.0,,,,162.0,,,,Fail,,,,,
421.0,15.0,wc_15,wc_8,1.0,"[('wc_8', 0.5000000000000003), ('wc_17', 0.4600000000000003), ('wc_2', 0.7500000000000006)]",0.9325000000000002,,,26.0,0.049199999999999994,['Fail'],Fail,0.5000000000000003,-0.5000000000000003,0.0,0.0,0.6
430.0,15.0,wc_15,,0.0,,,,183.0,,,,Pass,,,,,
430.0,15.0,wc_15,,0.0,,,51.0,,,,,Pass,,,,,
430.0,15.0,wc_15,,0.0,,,,0.0,,,,Pass,,,,,
430.0,15.0,wc_15,wc_15,0.0,"[('wc_15', 0.2400000000000001)]",0.2400000000000001,,,22.0,0.002379,['Pass'],Pass,0.2400000000000001,0.4266666666666665,2.0,3.0,0.2
430.0,15.0,wc_15,,0.0,,,,101.0,,,,Pass,,,,,
430.0,15.0,wc_15,wc_14,0.0,"[('wc_14', 0.5800000000000004)]",0.5800000000000004,,,25.0,0.003829,['Fail'],Pass,0.5800000000000004,-0.5800000000000004,0.0,0.0,0.5
430.0,15.0,wc_15,,0.0,,,,281.0,,,,Pass,,,,,
430.0,15.0,wc_15,wc_9,0.0,"[('wc_9', 0.4600000000000003), ('wc_15', 0.2400000000000001)]",0.5896000000000003,,,28.0,0.0064919999999999995,['Pass'],Pass,0.4600000000000003,-0.4600000000000003,0.0,3.0,0.4
430.0,15.0,wc_15,,0.0,,,,202.0,,,,Pass,,,,,
430.0,15.0,wc_15,wc_17,0.0,"[('wc_17', 0.4600000000000003), ('wc_14', 0.5800000000000004)]",0.7732000000000003,,,21.0,0.007275,['Fail'],Pass,0.4600000000000003,-0.2377777777777781,2.0,9.0,0.4
430.0,15.0,wc_15,,0.0,,,,21.0,,,,Pass,,,,,
430.0,15.0,wc_15,wc_12,0.0,"[('wc_12', 0.3400000000000002), ('wc_14', 0.5800000000000004), ('wc_17', 0.4600000000000003)]",0.8503120000000003,,,32.0,0.010654,['Fail'],Pass,0.3400000000000002,-0.3400000000000002,0.0,3.0,0.3
430.0,15.0,wc_15,,0.0,,,,361.0,,,,Pass,,,,,
430.0,15.0,wc_15,wc_3,0.0,"[('wc_3', 0.6600000000000005), ('wc_15', 0.2400000000000001), ('wc_9', 0.4600000000000003)]",0.8604640000000003,,,24.0,0.012332000000000001,['Pass'],Pass,0.6600000000000005,-0.5350000000000005,1.0,8.0,0.9
430.0,15.0,wc_15,,0.0,,,,141.0,,,,Pass,,,,,
430.0,15.0,wc_15,wc_8,1.0,"[('wc_8', 0.5000000000000003), ('wc_15', 0.2400000000000001), ('wc_9', 0.4600000000000003), ('wc_3', 0.6600000000000005)]",0.9302320000000002,,,24.0,0.051344,['Pass'],Pass,0.5100000000000003,0.48999999999999966,1.0,1.0,0.6
441.0,17.0,wc_17,,0.0,,,,223.0,,,,Pass,,,,,
441.0,17.0,wc_17,,0.0,,,66.0,,,,,Pass,,,,,
441.0,17.0,wc_17,,0.0,,,,0.0,,,,Pass,,,,,
441.0,17.0,wc_17,wc_17,0.0,"[('wc_17', 0.4500000000000003)]",0.4500000000000003,,,24.0,0.00238,['Fail'],Pass,0.4500000000000003,-0.4500000000000003,0.0,0.0,0.4
441.0,17.0,wc_17,,0.0,,,,322.0,,,,Pass,,,,,
441.0,17.0,wc_17,wc_9,0.0,"[('wc_9', 0.4600000000000003)]",0.4600000000000003,,,27.0,0.003921,['Pass'],Pass,0.4600000000000003,-0.2100000000000003,1.0,4.0,0.4
441.0,17.0,wc_17,,0.0,,,,402.0,,,,Pass,,,,,
441.0,17.0,wc_17,wc_5,0.0,"[('wc_5', 0.3600000000000002), ('wc_17', 0.4500000000000003)]",0.6480000000000004,,,24.0,0.00715,['Fail'],Pass,0.3600000000000002,-0.07428571428571451,2.0,7.0,0.4
441.0,17.0,wc_17,,0.0,,,,141.0,,,,Pass,,,,,
441.0,17.0,wc_17,wc_14,0.0,"[('wc_14', 0.5700000000000004), ('wc_9', 0.4600000000000003)]",0.7678000000000004,,,37.0,0.007962,['Pass'],Pass,0.5700000000000004,-0.5700000000000004,0.0,1.0,0.5
441.0,17.0,wc_17,,0.0,,,,82.0,,,,Pass,,,,,
441.0,17.0,wc_17,wc_12,0.0,"[('wc_12', 0.3300000000000002), ('wc_9', 0.4600000000000003), ('wc_14', 0.5700000000000004)]",0.8444260000000003,,,20.0,0.009281,['Pass'],Pass,0.3300000000000002,-0.3300000000000002,0.0,4.0,0.3
441.0,17.0,wc_17,,0.0,,,,0.0,,,,Pass,,,,,
441.0,17.0,wc_17,wc_13,0.0,"[('wc_9', 0.4600000000000003), ('wc_14', 0.5700000000000004), ('wc_12', 0.3300000000000002)]",0.8444260000000002,,,32.0,0.011922,['Pass'],Pass,0.3200000000000002,0.07999999999999985,0.0,0.0,0.3
441.0,17.0,wc_17,,0.0,,,,222.0,,,,Pass,,,,,
441.0,17.0,wc_17,wc_1,0.0,"[('wc_1', 0.3400000000000002), ('wc_9', 0.4600000000000003), ('wc_14', 0.5700000000000004), ('wc_12', 0.3300000000000002)]",0.8973211600000002,,,38.0,0.016069,['Pass'],Pass,0.3400000000000002,-0.16352941176470606,0.0,0.0,0.1
441.0,17.0,wc_17,,0.0,,,,0.0,,,,Pass,,,,,
441.0,17.0,wc_17,wc_4,1.0,"[('wc_4', 0.6600000000000005), ('wc_9', 0.4600000000000003), ('wc_14', 0.5700000000000004), ('wc_12', 0.3300000000000002), ('wc_1', 0.3400000000000002)]",0.9650891944000001,,,22.0,0.051669,['Pass'],Pass,0.6600000000000005,-0.6600000000000005,0.0,0.0,0.7
