mpecck/BCQC/bcqc_with_qdt/results/raw/input_4/independent_qc/training/20_workpiece/20200429_084410/wp_14_qc_majority_0.9.csv
production_index,step_idx,production_workcell,qc,consent,winner_qc_list,score,production_time,transport_time,inspection_time,network_time,qc_results,actual_quality,qc_score,score_error,in_winner_counter,in_qc_counter,qc_capability
42.0,1.0,wc_1,,0.0,,,72.0,,,,,Pass,,,,,
42.0,1.0,wc_1,,0.0,,,,0.0,,,,Pass,,,,,
42.0,1.0,wc_1,wc_1,0.0,"[('wc_1', 0.29000000000000015)]",0.29000000000000015,,,31.0,0.00209,['Fail'],Pass,0.29000000000000015,-0.19909090909090923,0.0,0.0,0.1
42.0,1.0,wc_1,,0.0,,,,243.0,,,,Pass,,,,,
42.0,1.0,wc_1,wc_11,0.0,"[('wc_11', 0.6600000000000005)]",0.6600000000000005,,,27.0,0.003934999999999999,['Pass'],Pass,0.6600000000000005,0.3399999999999995,1.0,1.0,0.8
42.0,1.0,wc_1,,0.0,,,,103.0,,,,Pass,,,,,
42.0,1.0,wc_1,wc_10,0.0,"[('wc_10', 0.7400000000000005), ('wc_11', 0.6600000000000005)]",0.9116000000000003,,,38.0,0.006149999999999999,['Pass'],Pass,0.7400000000000005,-0.42750000000000055,0.0,0.0,1.0
42.0,1.0,wc_1,,0.0,,,,342.0,,,,Pass,,,,,
42.0,1.0,wc_1,wc_3,1.0,"[('wc_3', 0.7300000000000005), ('wc_11', 0.6600000000000005), ('wc_10', 0.7400000000000005)]",0.9761320000000001,,,26.0,0.039034000000000006,['Pass'],Pass,0.7300000000000005,-0.5871428571428576,1.0,7.0,0.9
49.0,4.0,wc_4,,0.0,,,,0.0,,,,Fail,,,,,
49.0,4.0,wc_4,,0.0,,,50.0,,,,,Fail,,,,,
49.0,4.0,wc_4,,0.0,,,,0.0,,,,Fail,,,,,
49.0,4.0,wc_4,wc_4,0.0,"[('wc_4', 0.7100000000000005)]",0.7100000000000005,,,35.0,0.002258,['Pass'],Fail,0.7100000000000005,-0.5100000000000005,1.0,5.0,0.7
49.0,4.0,wc_4,,0.0,,,,182.0,,,,Fail,,,,,
49.0,4.0,wc_4,wc_15,0.0,"[('wc_15', 0.2600000000000001), ('wc_4', 0.7100000000000005)]",0.7854000000000004,,,38.0,0.005069,['Pass'],Fail,0.2600000000000001,-0.1766666666666668,0.0,0.0,0.2
49.0,4.0,wc_4,,0.0,,,,283.0,,,,Fail,,,,,
49.0,4.0,wc_4,wc_1,0.0,"[('wc_1', 0.28000000000000014), ('wc_4', 0.7100000000000005), ('wc_15', 0.2600000000000001)]",0.8454880000000004,,,27.0,0.006108,['Pass'],Fail,0.28000000000000014,-0.28000000000000014,0.0,1.0,0.1
49.0,4.0,wc_4,,0.0,,,,182.0,,,,Fail,,,,,
49.0,4.0,wc_4,wc_8,0.0,"[('wc_4', 0.7100000000000005), ('wc_15', 0.2600000000000001), ('wc_1', 0.28000000000000014)]",0.8454880000000004,,,37.0,0.007542999999999999,['Pass'],Fail,0.4900000000000003,-0.4900000000000003,0.0,2.0,0.6
49.0,4.0,wc_4,,0.0,,,,142.0,,,,Fail,,,,,
49.0,4.0,wc_4,wc_13,0.0,"[('wc_4', 0.7100000000000005), ('wc_15', 0.2600000000000001), ('wc_1', 0.28000000000000014)]",0.8454880000000004,,,32.0,0.010077000000000001,['Pass'],Fail,0.31000000000000016,-0.08777777777777795,2.0,9.0,0.3
49.0,4.0,wc_4,,0.0,,,,162.0,,,,Fail,,,,,
49.0,4.0,wc_4,wc_6,1.0,"[('wc_6', 0.7500000000000006), ('wc_4', 0.7100000000000005), ('wc_15', 0.2600000000000001), ('wc_1', 0.28000000000000014)]",0.9613720000000001,,,34.0,0.04217,['Pass'],Fail,0.7500000000000006,-0.5500000000000005,1.0,5.0,0.9
56.0,2.0,wc_2,,0.0,,,,222.0,,,,Fail,,,,,
56.0,2.0,wc_2,,0.0,,,65.0,,,,,Fail,,,,,
56.0,2.0,wc_2,,0.0,,,,0.0,,,,Fail,,,,,
56.0,2.0,wc_2,wc_2,0.0,"[('wc_2', 0.7700000000000006)]",0.7700000000000006,,,33.0,0.00222,['Fail'],Fail,0.7700000000000006,-0.6700000000000006,0.0,0.0,0.8
56.0,2.0,wc_2,,0.0,,,,0.0,,,,Fail,,,,,
56.0,2.0,wc_2,wc_3,0.0,"[('wc_3', 0.7300000000000005), ('wc_2', 0.7700000000000006)]",0.9379000000000003,,,20.0,0.004155,['Fail'],Fail,0.7300000000000005,-0.6050000000000005,1.0,8.0,0.9
56.0,2.0,wc_2,,0.0,,,,141.0,,,,Fail,,,,,
56.0,2.0,wc_2,wc_8,0.0,"[('wc_2', 0.7700000000000006), ('wc_3', 0.7300000000000005)]",0.9379000000000003,,,25.0,0.006677000000000001,['Fail'],Fail,0.4800000000000003,-0.4800000000000003,0.0,3.0,0.6
56.0,2.0,wc_2,,0.0,,,,102.0,,,,Fail,,,,,
56.0,2.0,wc_2,wc_7,1.0,"[('wc_7', 0.5700000000000004), ('wc_2', 0.7700000000000006), ('wc_3', 0.7300000000000005)]",0.9732970000000002,,,40.0,0.038547,['Fail'],Fail,0.5700000000000004,-0.5700000000000004,0.0,0.0,0.6
69.0,3.0,wc_3,,0.0,,,,301.0,,,,Fail,,,,,
69.0,3.0,wc_3,,0.0,,,61.0,,,,,Fail,,,,,
69.0,3.0,wc_3,,0.0,,,,0.0,,,,Fail,,,,,
69.0,3.0,wc_3,wc_3,0.0,"[('wc_3', 0.7300000000000005)]",0.7300000000000005,,,37.0,0.002453,['Fail'],Fail,0.7300000000000005,-0.5077777777777783,2.0,9.0,0.9
69.0,3.0,wc_3,,0.0,,,,202.0,,,,Fail,,,,,
69.0,3.0,wc_3,wc_11,0.0,"[('wc_11', 0.6700000000000005), ('wc_3', 0.7300000000000005)]",0.9109000000000003,,,23.0,0.004307999999999999,['Fail'],Fail,0.6700000000000005,-0.17000000000000048,2.0,4.0,0.8
69.0,3.0,wc_3,,0.0,,,,203.0,,,,Fail,,,,,
69.0,3.0,wc_3,wc_1,1.0,"[('wc_1', 0.29000000000000015), ('wc_3', 0.7300000000000005), ('wc_11', 0.6700000000000005)]",0.9367390000000002,,,38.0,0.040638,['Fail'],Fail,0.30000000000000016,0.19999999999999984,2.0,4.0,0.1
79.0,4.0,wc_4,,0.0,,,,0.0,,,,Fail,,,,,
79.0,4.0,wc_4,,0.0,,,61.0,,,,,Fail,,,,,
79.0,4.0,wc_4,,0.0,,,,0.0,,,,Fail,,,,,
79.0,4.0,wc_4,wc_4,0.0,"[('wc_4', 0.7100000000000005)]",0.7100000000000005,,,25.0,0.002028,['Fail'],Fail,0.7100000000000005,-0.4600000000000005,2.0,8.0,0.7
79.0,4.0,wc_4,,0.0,,,,141.0,,,,Fail,,,,,
79.0,4.0,wc_4,wc_13,0.0,"[('wc_13', 0.30000000000000016), ('wc_4', 0.7100000000000005)]",0.7970000000000004,,,35.0,0.004543999999999999,['Fail'],Fail,0.30000000000000016,-0.30000000000000016,0.0,2.0,0.3
79.0,4.0,wc_4,,0.0,,,,341.0,,,,Fail,,,,,
79.0,4.0,wc_4,wc_3,1.0,"[('wc_3', 0.7300000000000005), ('wc_4', 0.7100000000000005), ('wc_13', 0.30000000000000016)]",0.9451900000000002,,,30.0,0.044598,['Fail'],Fail,0.7400000000000005,0.25999999999999945,1.0,1.0,0.9
90.0,2.0,wc_2,,0.0,,,,101.0,,,,Pass,,,,,
90.0,2.0,wc_2,,0.0,,,58.0,,,,,Pass,,,,,
90.0,2.0,wc_2,,0.0,,,,0.0,,,,Pass,,,,,
90.0,2.0,wc_2,wc_2,0.0,"[('wc_2', 0.7800000000000006)]",0.7800000000000006,,,21.0,0.002297,['Fail'],Pass,0.7800000000000006,-0.44666666666666727,1.0,3.0,0.8
90.0,2.0,wc_2,,0.0,,,,0.0,,,,Pass,,,,,
90.0,2.0,wc_2,wc_4,0.0,"[('wc_4', 0.7100000000000005), ('wc_2', 0.7800000000000006)]",0.9362000000000003,,,30.0,0.004319,['Fail'],Pass,0.7100000000000005,-0.3766666666666672,3.0,9.0,0.7
90.0,2.0,wc_2,,0.0,,,,121.0,,,,Pass,,,,,
90.0,2.0,wc_2,wc_12,0.0,"[('wc_2', 0.7800000000000006), ('wc_4', 0.7100000000000005)]",0.9362000000000003,,,25.0,0.005966000000000001,['Fail'],Pass,0.3800000000000002,-0.2890909090909093,0.0,0.0,0.3
90.0,2.0,wc_2,,0.0,,,,361.0,,,,Pass,,,,,
90.0,2.0,wc_2,wc_11,1.0,"[('wc_11', 0.6700000000000005), ('wc_2', 0.7800000000000006), ('wc_4', 0.7100000000000005)]",0.9789460000000001,,,25.0,0.041801,['Fail'],Pass,0.6700000000000005,-0.09857142857142909,4.0,7.0,0.8
106.0,4.0,wc_4,,0.0,,,,342.0,,,,Pass,,,,,
106.0,4.0,wc_4,,0.0,,,63.0,,,,,Pass,,,,,
106.0,4.0,wc_4,,0.0,,,,0.0,,,,Pass,,,,,
106.0,4.0,wc_4,wc_4,0.0,"[('wc_4', 0.7100000000000005)]",0.7100000000000005,,,36.0,0.002842,['Fail'],Pass,0.7100000000000005,-0.7100000000000005,0.0,0.0,0.7
106.0,4.0,wc_4,,0.0,,,,61.0,,,,Pass,,,,,
106.0,4.0,wc_4,wc_1,0.0,"[('wc_1', 0.30000000000000016), ('wc_4', 0.7100000000000005)]",0.7970000000000004,,,23.0,0.004181,['Fail'],Pass,0.30000000000000016,0.03333333333333316,2.0,6.0,0.1
106.0,4.0,wc_4,,0.0,,,,202.0,,,,Pass,,,,,
106.0,4.0,wc_4,wc_13,0.0,"[('wc_4', 0.7100000000000005), ('wc_1', 0.30000000000000016)]",0.7970000000000004,,,38.0,0.005825,['Fail'],Pass,0.31000000000000016,-0.060000000000000164,1.0,4.0,0.3
106.0,4.0,wc_4,,0.0,,,,0.0,,,,Pass,,,,,
106.0,4.0,wc_4,wc_14,0.0,"[('wc_4', 0.7100000000000005), ('wc_1', 0.30000000000000016)]",0.7970000000000004,,,39.0,0.007999000000000001,['Fail'],Pass,0.6300000000000004,-0.34428571428571475,0.0,0.0,0.5
106.0,4.0,wc_4,,0.0,,,,0.0,,,,Pass,,,,,
106.0,4.0,wc_4,wc_15,0.0,"[('wc_15', 0.27000000000000013), ('wc_4', 0.7100000000000005), ('wc_1', 0.30000000000000016)]",0.8518100000000003,,,33.0,0.009693,['Fail'],Pass,0.27000000000000013,-0.07000000000000012,1.0,5.0,0.2
106.0,4.0,wc_4,,0.0,,,,223.0,,,,Pass,,,,,
106.0,4.0,wc_4,wc_6,1.0,"[('wc_6', 0.7500000000000006), ('wc_13', 0.31000000000000016), ('wc_14', 0.6300000000000004)]",0.9361750000000002,,,37.0,0.043380999999999996,['Pass'],Pass,0.7500000000000006,-0.7500000000000006,0.0,0.0,0.9
120.0,3.0,wc_3,,0.0,,,,321.0,,,,Pass,,,,,
120.0,3.0,wc_3,,0.0,,,61.0,,,,,Pass,,,,,
120.0,3.0,wc_3,,0.0,,,,0.0,,,,Pass,,,,,
120.0,3.0,wc_3,wc_3,0.0,"[('wc_3', 0.7400000000000005)]",0.7400000000000005,,,28.0,0.002101,['Pass'],Pass,0.7400000000000005,-0.40666666666666723,1.0,3.0,0.9
120.0,3.0,wc_3,,0.0,,,,81.0,,,,Pass,,,,,
120.0,3.0,wc_3,wc_1,0.0,"[('wc_3', 0.7400000000000005)]",0.7400000000000005,,,38.0,0.003955,['Pass'],Pass,0.29000000000000015,-0.004285714285714448,2.0,7.0,0.1
120.0,3.0,wc_3,,0.0,,,,162.0,,,,Pass,,,,,
120.0,3.0,wc_3,wc_7,0.0,"[('wc_7', 0.5700000000000004), ('wc_3', 0.7400000000000005)]",0.8882000000000003,,,40.0,0.006854,['Pass'],Pass,0.5700000000000004,-0.5700000000000004,0.0,4.0,0.6
120.0,3.0,wc_3,,0.0,,,,182.0,,,,Pass,,,,,
120.0,3.0,wc_3,wc_14,1.0,"[('wc_14', 0.6400000000000005), ('wc_3', 0.7400000000000005), ('wc_7', 0.5700000000000004)]",0.9597520000000002,,,30.0,0.04246899999999999,['Pass'],Pass,0.6500000000000005,0.34999999999999953,2.0,2.0,0.5
135.0,5.0,wc_5,,0.0,,,,361.0,,,,Fail,,,,,
135.0,5.0,wc_5,,0.0,,,73.0,,,,,Fail,,,,,
135.0,5.0,wc_5,,0.0,,,,0.0,,,,Fail,,,,,
135.0,5.0,wc_5,wc_5,0.0,"[('wc_5', 0.39000000000000024)]",0.39000000000000024,,,21.0,0.002135,['Fail'],Fail,0.39000000000000024,-0.25666666666666693,0.0,0.0,0.4
135.0,5.0,wc_5,,0.0,,,,103.0,,,,Fail,,,,,
135.0,5.0,wc_5,wc_4,0.0,"[('wc_4', 0.7000000000000005), ('wc_5', 0.39000000000000024)]",0.8170000000000004,,,20.0,0.004465,['Fail'],Fail,0.7000000000000005,-0.7000000000000005,0.0,2.0,0.7
135.0,5.0,wc_5,,0.0,,,,101.0,,,,Fail,,,,,
135.0,5.0,wc_5,wc_7,1.0,"[('wc_7', 0.5700000000000004), ('wc_5', 0.39000000000000024), ('wc_4', 0.7000000000000005)]",0.9213100000000003,,,22.0,0.039562,['Fail'],Fail,0.5700000000000004,-0.23666666666666708,2.0,6.0,0.6
161.0,5.0,wc_5,,0.0,,,,341.0,,,,Fail,,,,,
161.0,5.0,wc_5,,0.0,,,78.0,,,,,Fail,,,,,
161.0,5.0,wc_5,,0.0,,,,0.0,,,,Fail,,,,,
161.0,5.0,wc_5,wc_5,0.0,"[('wc_5', 0.40000000000000024)]",0.40000000000000024,,,30.0,0.002014,['Fail'],Fail,0.40000000000000024,0.5999999999999998,1.0,1.0,0.4
161.0,5.0,wc_5,,0.0,,,,41.0,,,,Fail,,,,,
161.0,5.0,wc_5,wc_1,0.0,"[('wc_1', 0.28000000000000014), ('wc_5', 0.40000000000000024)]",0.5680000000000003,,,34.0,0.00442,['Fail'],Fail,0.28000000000000014,-0.05777777777777793,2.0,9.0,0.1
161.0,5.0,wc_5,,0.0,,,,182.0,,,,Fail,,,,,
161.0,5.0,wc_5,wc_8,0.0,"[('wc_8', 0.4700000000000003), ('wc_5', 0.40000000000000024), ('wc_1', 0.28000000000000014)]",0.7710400000000003,,,28.0,0.005703,['Fail'],Fail,0.4700000000000003,-0.4700000000000003,0.0,0.0,0.6
161.0,5.0,wc_5,,0.0,,,,142.0,,,,Fail,,,,,
161.0,5.0,wc_5,wc_13,0.0,"[('wc_13', 0.3200000000000002), ('wc_5', 0.40000000000000024), ('wc_1', 0.28000000000000014), ('wc_8', 0.4700000000000003)]",0.8443072000000003,,,31.0,0.007836,['Fail'],Fail,0.3200000000000002,-0.034285714285714475,2.0,7.0,0.3
161.0,5.0,wc_5,,0.0,,,,242.0,,,,Fail,,,,,
161.0,5.0,wc_5,wc_2,1.0,"[('wc_2', 0.7800000000000006), ('wc_5', 0.40000000000000024), ('wc_1', 0.28000000000000014), ('wc_8', 0.4700000000000003), ('wc_13', 0.3200000000000002)]",0.9657475840000002,,,32.0,0.044055,['Fail'],Fail,0.7800000000000006,-0.4050000000000006,3.0,8.0,0.8
187.0,5.0,wc_5,,0.0,,,,0.0,,,,Fail,,,,,
187.0,5.0,wc_5,,0.0,,,57.0,,,,,Fail,,,,,
187.0,5.0,wc_5,,0.0,,,,0.0,,,,Fail,,,,,
187.0,5.0,wc_5,wc_5,0.0,"[('wc_5', 0.41000000000000025)]",0.41000000000000025,,,36.0,0.002101,['Fail'],Fail,0.41000000000000025,0.5899999999999997,2.0,2.0,0.4
187.0,5.0,wc_5,,0.0,,,,121.0,,,,Fail,,,,,
187.0,5.0,wc_5,wc_13,0.0,"[('wc_13', 0.3300000000000002), ('wc_5', 0.41000000000000025)]",0.6047000000000002,,,40.0,0.004656,['Fail'],Fail,0.3300000000000002,0.04499999999999982,3.0,8.0,0.3
187.0,5.0,wc_5,,0.0,,,,301.0,,,,Fail,,,,,
187.0,5.0,wc_5,wc_9,0.0,"[('wc_5', 0.41000000000000025), ('wc_13', 0.3300000000000002)]",0.6047000000000002,,,27.0,0.00733,['Fail'],Fail,0.5400000000000004,-0.5400000000000004,0.0,0.0,0.4
187.0,5.0,wc_5,,0.0,,,,0.0,,,,Fail,,,,,
187.0,5.0,wc_5,wc_11,0.0,"[('wc_11', 0.6700000000000005), ('wc_5', 0.41000000000000025), ('wc_13', 0.3300000000000002)]",0.8695510000000003,,,20.0,0.007857000000000001,['Fail'],Fail,0.6700000000000005,-0.30636363636363684,0.0,0.0,0.8
187.0,5.0,wc_5,,0.0,,,,142.0,,,,Fail,,,,,
187.0,5.0,wc_5,wc_16,1.0,"[('wc_16', 0.8100000000000006), ('wc_5', 0.41000000000000025), ('wc_13', 0.3300000000000002), ('wc_11', 0.6700000000000005)]",0.9752146900000002,,,35.0,0.041508,['Fail'],Fail,0.8100000000000006,-0.8100000000000006,0.0,0.0,0.8
214.0,5.0,wc_5,,0.0,,,,422.0,,,,Pass,,,,,
214.0,5.0,wc_5,,0.0,,,66.0,,,,,Pass,,,,,
214.0,5.0,wc_5,,0.0,,,,0.0,,,,Pass,,,,,
214.0,5.0,wc_5,wc_5,0.0,"[('wc_5', 0.42000000000000026)]",0.42000000000000026,,,40.0,0.002008,['Pass'],Pass,0.42000000000000026,0.5799999999999997,3.0,3.0,0.4
214.0,5.0,wc_5,,0.0,,,,103.0,,,,Pass,,,,,
214.0,5.0,wc_5,wc_4,0.0,"[('wc_4', 0.7000000000000005), ('wc_5', 0.42000000000000026)]",0.8260000000000004,,,39.0,0.004375,['Pass'],Pass,0.7000000000000005,-0.5000000000000004,1.0,5.0,0.7
214.0,5.0,wc_5,,0.0,,,,182.0,,,,Pass,,,,,
214.0,5.0,wc_5,wc_11,1.0,"[('wc_11', 0.6800000000000005), ('wc_5', 0.42000000000000026), ('wc_4', 0.7000000000000005)]",0.9443200000000002,,,37.0,0.040339,['Pass'],Pass,0.6900000000000005,0.3099999999999995,2.0,2.0,0.8
224.0,6.0,wc_6,,0.0,,,,21.0,,,,Fail,,,,,
224.0,6.0,wc_6,,0.0,,,77.0,,,,,Fail,,,,,
224.0,6.0,wc_6,,0.0,,,,0.0,,,,Fail,,,,,
224.0,6.0,wc_6,wc_6,0.0,"[('wc_6', 0.7500000000000006)]",0.7500000000000006,,,39.0,0.002551,['Fail'],Fail,0.7500000000000006,-0.7500000000000006,0.0,5.0,0.9
224.0,6.0,wc_6,,0.0,,,,0.0,,,,Fail,,,,,
224.0,6.0,wc_6,wc_7,0.0,"[('wc_7', 0.5700000000000004), ('wc_6', 0.7500000000000006)]",0.8925000000000003,,,36.0,0.00404,['Fail'],Fail,0.5700000000000004,-0.3477777777777782,2.0,9.0,0.6
224.0,6.0,wc_6,,0.0,,,,223.0,,,,Fail,,,,,
224.0,6.0,wc_6,wc_16,1.0,"[('wc_16', 0.8100000000000006), ('wc_6', 0.7500000000000006), ('wc_7', 0.5700000000000004)]",0.9795750000000001,,,39.0,0.041937,['Fail'],Fail,0.8100000000000006,-0.3100000000000006,1.0,2.0,0.8
244.0,6.0,wc_6,,0.0,,,,203.0,,,,Fail,,,,,
244.0,6.0,wc_6,,0.0,,,68.0,,,,,Fail,,,,,
244.0,6.0,wc_6,,0.0,,,,0.0,,,,Fail,,,,,
244.0,6.0,wc_6,wc_6,0.0,"[('wc_6', 0.7500000000000006)]",0.7500000000000006,,,29.0,0.002218,['Fail'],Fail,0.7500000000000006,-0.5833333333333339,1.0,6.0,0.9
244.0,6.0,wc_6,,0.0,,,,202.0,,,,Fail,,,,,
244.0,6.0,wc_6,wc_1,0.0,"[('wc_6', 0.7500000000000006)]",0.7500000000000006,,,33.0,0.004654999999999999,['Fail'],Fail,0.29000000000000015,-0.29000000000000015,0.0,3.0,0.1
244.0,6.0,wc_6,,0.0,,,,162.0,,,,Fail,,,,,
244.0,6.0,wc_6,wc_7,0.0,"[('wc_7', 0.5700000000000004), ('wc_6', 0.7500000000000006)]",0.8925000000000003,,,32.0,0.005939,['Fail'],Fail,0.5700000000000004,-0.5700000000000004,0.0,0.0,0.6
244.0,6.0,wc_6,,0.0,,,,301.0,,,,Fail,,,,,
244.0,6.0,wc_6,wc_3,1.0,"[('wc_3', 0.7400000000000005), ('wc_6', 0.7500000000000006), ('wc_7', 0.5700000000000004)]",0.9720500000000002,,,32.0,0.041195,['Fail'],Fail,0.7400000000000005,-0.7400000000000005,0.0,0.0,0.9
287.0,6.0,wc_6,,0.0,,,,101.0,,,,Pass,,,,,
287.0,6.0,wc_6,,0.0,,,80.0,,,,,Pass,,,,,
287.0,6.0,wc_6,,0.0,,,,0.0,,,,Pass,,,,,
287.0,6.0,wc_6,wc_6,0.0,"[('wc_6', 0.7500000000000006)]",0.7500000000000006,,,28.0,0.002097,['Pass'],Pass,0.7500000000000006,-0.46428571428571486,2.0,7.0,0.9
287.0,6.0,wc_6,,0.0,,,,182.0,,,,Pass,,,,,
287.0,6.0,wc_6,wc_13,0.0,"[('wc_6', 0.7500000000000006)]",0.7500000000000006,,,37.0,0.0040620000000000005,['Pass'],Pass,0.3400000000000002,-0.006666666666666876,0.0,0.0,0.3
287.0,6.0,wc_6,,0.0,,,,381.0,,,,Pass,,,,,
287.0,6.0,wc_6,wc_5,0.0,"[('wc_5', 0.43000000000000027), ('wc_6', 0.7500000000000006)]",0.8575000000000004,,,20.0,0.011811,['Pass'],Pass,0.43000000000000027,0.23666666666666636,4.0,6.0,0.4
287.0,6.0,wc_6,,0.0,,,,61.0,,,,Pass,,,,,
287.0,6.0,wc_6,wc_2,1.0,"[('wc_2', 0.7800000000000006), ('wc_6', 0.7500000000000006), ('wc_5', 0.43000000000000027)]",0.9686500000000001,,,28.0,0.041546,['Pass'],Pass,0.7800000000000006,-0.7800000000000006,0.0,0.0,0.8
301.0,7.0,wc_7,,0.0,,,,142.0,,,,Pass,,,,,
301.0,7.0,wc_7,,0.0,,,66.0,,,,,Pass,,,,,
301.0,7.0,wc_7,,0.0,,,,0.0,,,,Pass,,,,,
301.0,7.0,wc_7,wc_7,0.0,"[('wc_7', 0.5800000000000004)]",0.5800000000000004,,,20.0,0.002251,['Pass'],Pass,0.5800000000000004,-0.0800000000000004,1.0,2.0,0.6
301.0,7.0,wc_7,,0.0,,,,182.0,,,,Pass,,,,,
301.0,7.0,wc_7,wc_1,0.0,"[('wc_1', 0.28000000000000014), ('wc_7', 0.5800000000000004)]",0.6976000000000003,,,23.0,0.003894,['Pass'],Pass,0.28000000000000014,-0.28000000000000014,0.0,5.0,0.1
301.0,7.0,wc_7,,0.0,,,,182.0,,,,Pass,,,,,
301.0,7.0,wc_7,wc_12,0.0,"[('wc_12', 0.3700000000000002), ('wc_7', 0.5800000000000004), ('wc_1', 0.28000000000000014)]",0.8094880000000002,,,27.0,0.006006,['Pass'],Pass,0.3700000000000002,-0.3700000000000002,0.0,0.0,0.3
301.0,7.0,wc_7,,0.0,,,,182.0,,,,Pass,,,,,
301.0,7.0,wc_7,wc_6,1.0,"[('wc_6', 0.7500000000000006), ('wc_7', 0.5800000000000004), ('wc_1', 0.28000000000000014), ('wc_12', 0.3700000000000002)]",0.9523720000000002,,,33.0,0.044939,['Pass'],Pass,0.7500000000000006,-0.30555555555555614,4.0,9.0,0.9
318.0,9.0,wc_9,,0.0,,,,0.0,,,,Fail,,,,,
318.0,9.0,wc_9,,0.0,,,68.0,,,,,Fail,,,,,
318.0,9.0,wc_9,,0.0,,,,0.0,,,,Fail,,,,,
318.0,9.0,wc_9,wc_9,0.0,"[('wc_9', 0.5300000000000004)]",0.5300000000000004,,,27.0,0.002058,['Pass'],Fail,0.5300000000000004,-0.5300000000000004,0.0,6.0,0.4
318.0,9.0,wc_9,,0.0,,,,182.0,,,,Fail,,,,,
318.0,9.0,wc_9,wc_16,0.0,"[('wc_16', 0.8100000000000006)]",0.8100000000000006,,,20.0,0.004018,['Fail'],Fail,0.8100000000000006,-0.6100000000000005,1.0,5.0,0.8
318.0,9.0,wc_9,,0.0,,,,422.0,,,,Fail,,,,,
318.0,9.0,wc_9,wc_5,0.0,"[('wc_16', 0.8100000000000006)]",0.8100000000000006,,,36.0,0.006225,['Fail'],Fail,0.4400000000000003,0.18499999999999972,5.0,8.0,0.4
318.0,9.0,wc_9,,0.0,,,,141.0,,,,Fail,,,,,
318.0,9.0,wc_9,wc_14,0.0,"[('wc_14', 0.6500000000000005), ('wc_16', 0.8100000000000006)]",0.9335000000000003,,,21.0,0.008604,['Fail'],Fail,0.6500000000000005,-0.45000000000000046,0.0,0.0,0.5
318.0,9.0,wc_9,,0.0,,,,142.0,,,,Fail,,,,,
318.0,9.0,wc_9,wc_6,1.0,"[('wc_6', 0.7500000000000006), ('wc_16', 0.8100000000000006), ('wc_14', 0.6500000000000005)]",0.9833750000000001,,,24.0,0.042995000000000005,['Fail'],Fail,0.7500000000000006,-0.7500000000000006,0.0,0.0,0.9
331.0,10.0,wc_10,,0.0,,,,0.0,,,,Pass,,,,,
331.0,10.0,wc_10,,0.0,,,77.0,,,,,Pass,,,,,
331.0,10.0,wc_10,,0.0,,,,0.0,,,,Pass,,,,,
331.0,10.0,wc_10,wc_10,0.0,"[('wc_10', 0.7500000000000006)]",0.7500000000000006,,,35.0,0.002037,['Pass'],Pass,0.7500000000000006,-0.6911764705882358,0.0,0.0,1.0
331.0,10.0,wc_10,,0.0,,,,223.0,,,,Pass,,,,,
331.0,10.0,wc_10,wc_1,0.0,"[('wc_10', 0.7500000000000006)]",0.7500000000000006,,,28.0,0.004685,['Pass'],Pass,0.28000000000000014,-0.1371428571428573,1.0,7.0,0.1
331.0,10.0,wc_10,,0.0,,,,0.0,,,,Pass,,,,,
331.0,10.0,wc_10,wc_3,0.0,"[('wc_3', 0.7400000000000005), ('wc_1', 0.28000000000000014)]",0.8128000000000004,,,39.0,0.005941,['Fail'],Pass,0.7400000000000005,-0.7400000000000005,0.0,3.0,0.9
331.0,10.0,wc_10,,0.0,,,,141.0,,,,Pass,,,,,
331.0,10.0,wc_10,wc_8,0.0,"[('wc_8', 0.4800000000000003), ('wc_10', 0.7500000000000006)]",0.8700000000000003,,,39.0,0.007327,['Pass'],Pass,0.4800000000000003,-0.3550000000000003,1.0,8.0,0.6
331.0,10.0,wc_10,,0.0,,,,301.0,,,,Pass,,,,,
331.0,10.0,wc_10,wc_4,1.0,"[('wc_4', 0.7000000000000005), ('wc_10', 0.7500000000000006), ('wc_8', 0.4800000000000003)]",0.9610000000000002,,,28.0,0.042016000000000005,['Pass'],Pass,0.7000000000000005,-0.7000000000000005,0.0,0.0,0.7
341.0,11.0,wc_11,,0.0,,,,182.0,,,,Fail,,,,,
341.0,11.0,wc_11,,0.0,,,51.0,,,,,Fail,,,,,
341.0,11.0,wc_11,,0.0,,,,0.0,,,,Fail,,,,,
341.0,11.0,wc_11,wc_11,0.0,"[('wc_11', 0.6900000000000005)]",0.6900000000000005,,,26.0,0.002148,['Fail'],Fail,0.6900000000000005,-0.4400000000000005,2.0,8.0,0.8
341.0,11.0,wc_11,,0.0,,,,21.0,,,,Fail,,,,,
341.0,11.0,wc_11,wc_6,0.0,"[('wc_6', 0.7500000000000006), ('wc_11', 0.6900000000000005)]",0.9225000000000003,,,27.0,0.003976,['Fail'],Fail,0.7500000000000006,-0.7500000000000006,0.0,1.0,0.9
341.0,11.0,wc_11,,0.0,,,,263.0,,,,Fail,,,,,
341.0,11.0,wc_11,wc_17,0.0,"[('wc_11', 0.6900000000000005), ('wc_6', 0.7500000000000006)]",0.9225000000000003,,,27.0,0.005888,['Fail'],Fail,0.43000000000000027,-0.39296296296296324,0.0,0.0,0.4
341.0,11.0,wc_11,,0.0,,,,322.0,,,,Fail,,,,,
341.0,11.0,wc_11,wc_9,1.0,"[('wc_9', 0.5200000000000004), ('wc_11', 0.6900000000000005), ('wc_6', 0.7500000000000006)]",0.9628000000000002,,,31.0,0.043501,['Fail'],Fail,0.5200000000000004,-0.40888888888888925,1.0,9.0,0.4
363.0,8.0,wc_8,,0.0,,,,101.0,,,,Pass,,,,,
363.0,8.0,wc_8,,0.0,,,72.0,,,,,Pass,,,,,
363.0,8.0,wc_8,,0.0,,,,0.0,,,,Pass,,,,,
363.0,8.0,wc_8,wc_8,0.0,"[('wc_8', 0.4800000000000003)]",0.4800000000000003,,,28.0,0.002136,['Pass'],Pass,0.4800000000000003,-0.2800000000000003,0.0,0.0,0.6
363.0,8.0,wc_8,,0.0,,,,301.0,,,,Pass,,,,,
363.0,8.0,wc_8,wc_4,0.0,"[('wc_4', 0.7000000000000005), ('wc_8', 0.4800000000000003)]",0.8440000000000003,,,39.0,0.005001,['Pass'],Pass,0.7000000000000005,-0.7000000000000005,0.0,1.0,0.7
363.0,8.0,wc_8,,0.0,,,,121.0,,,,Pass,,,,,
363.0,8.0,wc_8,wc_12,1.0,"[('wc_12', 0.3800000000000002), ('wc_8', 0.4800000000000003), ('wc_4', 0.7000000000000005)]",0.9032800000000003,,,37.0,0.039487,['Pass'],Pass,0.39000000000000024,0.009999999999999787,2.0,5.0,0.3
373.0,9.0,wc_9,,0.0,,,,321.0,,,,Pass,,,,,
373.0,9.0,wc_9,,0.0,,,51.0,,,,,Pass,,,,,
373.0,9.0,wc_9,,0.0,,,,0.0,,,,Pass,,,,,
373.0,9.0,wc_9,wc_9,0.0,"[('wc_9', 0.5200000000000004)]",0.5200000000000004,,,33.0,0.002259,['Pass'],Pass,0.5200000000000004,-0.4200000000000004,0.0,0.0,0.4
373.0,9.0,wc_9,,0.0,,,,61.0,,,,Pass,,,,,
373.0,9.0,wc_9,wc_6,0.0,"[('wc_6', 0.7500000000000006), ('wc_9', 0.5200000000000004)]",0.8800000000000003,,,25.0,0.003932,['Pass'],Pass,0.7500000000000006,-0.41666666666666724,1.0,3.0,0.9
373.0,9.0,wc_9,,0.0,,,,263.0,,,,Pass,,,,,
373.0,9.0,wc_9,wc_17,1.0,"[('wc_17', 0.42000000000000026), ('wc_9', 0.5200000000000004), ('wc_6', 0.7500000000000006)]",0.9304000000000002,,,38.0,0.040116,['Pass'],Pass,0.42000000000000026,-0.08666666666666695,1.0,3.0,0.4
383.0,11.0,wc_11,,0.0,,,,362.0,,,,Fail,,,,,
383.0,11.0,wc_11,,0.0,,,51.0,,,,,Fail,,,,,
383.0,11.0,wc_11,,0.0,,,,0.0,,,,Fail,,,,,
383.0,11.0,wc_11,wc_11,0.0,"[('wc_11', 0.6900000000000005)]",0.6900000000000005,,,29.0,0.002399,['Fail'],Fail,0.6900000000000005,-0.4172727272727278,0.0,0.0,0.8
383.0,11.0,wc_11,,0.0,,,,61.0,,,,Fail,,,,,
383.0,11.0,wc_11,wc_12,0.0,"[('wc_12', 0.39000000000000024), ('wc_11', 0.6900000000000005)]",0.8109000000000004,,,36.0,0.003997,['Fail'],Fail,0.39000000000000024,-0.05666666666666692,2.0,6.0,0.3
383.0,11.0,wc_11,,0.0,,,,182.0,,,,Fail,,,,,
383.0,11.0,wc_11,wc_6,1.0,"[('wc_6', 0.7500000000000006), ('wc_11', 0.6900000000000005), ('wc_12', 0.39000000000000024)]",0.9527250000000002,,,31.0,0.041825999999999995,['Fail'],Fail,0.7500000000000006,-0.15000000000000058,3.0,5.0,0.9
409.0,11.0,wc_11,,0.0,,,,0.0,,,,Fail,,,,,
409.0,11.0,wc_11,,0.0,,,64.0,,,,,Fail,,,,,
409.0,11.0,wc_11,,0.0,,,,0.0,,,,Fail,,,,,
409.0,11.0,wc_11,wc_11,0.0,"[('wc_11', 0.7000000000000005)]",0.7000000000000005,,,22.0,0.002198,['Fail'],Fail,0.7000000000000005,0.2999999999999995,1.0,1.0,0.8
409.0,11.0,wc_11,,0.0,,,,61.0,,,,Fail,,,,,
409.0,11.0,wc_11,wc_12,0.0,"[('wc_12', 0.40000000000000024), ('wc_11', 0.7000000000000005)]",0.8200000000000004,,,31.0,0.004155,['Fail'],Fail,0.40000000000000024,0.028571428571428303,3.0,7.0,0.3
409.0,11.0,wc_11,,0.0,,,,242.0,,,,Fail,,,,,
409.0,11.0,wc_11,wc_1,0.0,"[('wc_11', 0.7000000000000005), ('wc_12', 0.40000000000000024)]",0.8200000000000004,,,28.0,0.006248,['Fail'],Fail,0.27000000000000013,-0.18666666666666681,0.0,0.0,0.1
409.0,11.0,wc_11,,0.0,,,,0.0,,,,Fail,,,,,
409.0,11.0,wc_11,wc_3,1.0,"[('wc_3', 0.7300000000000005), ('wc_11', 0.7000000000000005), ('wc_12', 0.40000000000000024)]",0.9514000000000002,,,39.0,0.04023299999999999,['Fail'],Fail,0.7300000000000005,-0.6188888888888895,1.0,9.0,0.9
417.0,11.0,wc_11,,0.0,,,,202.0,,,,Pass,,,,,
417.0,11.0,wc_11,,0.0,,,64.0,,,,,Pass,,,,,
417.0,11.0,wc_11,,0.0,,,,0.0,,,,Pass,,,,,
417.0,11.0,wc_11,wc_11,0.0,"[('wc_11', 0.7100000000000005)]",0.7100000000000005,,,37.0,0.002401,['Pass'],Pass,0.7100000000000005,0.2899999999999995,2.0,2.0,0.8
417.0,11.0,wc_11,,0.0,,,,223.0,,,,Pass,,,,,
417.0,11.0,wc_11,wc_2,0.0,"[('wc_2', 0.7800000000000006), ('wc_11', 0.7100000000000005)]",0.9362000000000003,,,31.0,0.003972,['Pass'],Pass,0.7800000000000006,-0.7800000000000006,0.0,8.0,0.8
417.0,11.0,wc_11,,0.0,,,,203.0,,,,Pass,,,,,
417.0,11.0,wc_11,wc_10,1.0,"[('wc_10', 0.7600000000000006), ('wc_11', 0.7100000000000005), ('wc_2', 0.7800000000000006)]",0.9846880000000001,,,30.0,0.050912,['Pass'],Pass,0.7600000000000006,-0.47428571428571487,2.0,7.0,1.0
443.0,12.0,wc_12,,0.0,,,,81.0,,,,Pass,,,,,
443.0,12.0,wc_12,,0.0,,,65.0,,,,,Pass,,,,,
443.0,12.0,wc_12,,0.0,,,,0.0,,,,Pass,,,,,
443.0,12.0,wc_12,wc_12,0.0,"[('wc_12', 0.41000000000000025)]",0.41000000000000025,,,39.0,0.002284,['Pass'],Pass,0.41000000000000025,0.03444444444444417,4.0,9.0,0.3
443.0,12.0,wc_12,,0.0,,,,361.0,,,,Pass,,,,,
443.0,12.0,wc_12,wc_11,0.0,"[('wc_11', 0.7200000000000005), ('wc_12', 0.41000000000000025)]",0.8348000000000004,,,23.0,0.004149999999999999,['Pass'],Pass,0.7200000000000005,0.27999999999999947,3.0,3.0,0.8
443.0,12.0,wc_12,,0.0,,,,322.0,,,,Pass,,,,,
443.0,12.0,wc_12,wc_3,1.0,"[('wc_3', 0.7300000000000005), ('wc_12', 0.41000000000000025), ('wc_11', 0.7200000000000005)]",0.9553960000000002,,,30.0,0.039952,['Pass'],Pass,0.7300000000000005,-0.7300000000000005,0.0,0.0,0.9
457.0,13.0,wc_13,,0.0,,,,161.0,,,,Fail,,,,,
457.0,13.0,wc_13,,0.0,,,61.0,,,,,Fail,,,,,
457.0,13.0,wc_13,,0.0,,,,0.0,,,,Fail,,,,,
457.0,13.0,wc_13,wc_13,0.0,"[('wc_13', 0.3300000000000002)]",0.3300000000000002,,,22.0,0.002063,['Pass'],Fail,0.3300000000000002,-0.3300000000000002,0.0,0.0,0.3
457.0,13.0,wc_13,,0.0,,,,0.0,,,,Fail,,,,,
457.0,13.0,wc_13,wc_14,0.0,"[('wc_14', 0.6600000000000005), ('wc_13', 0.3300000000000002)]",0.7722000000000004,,,39.0,0.004652,['Pass'],Fail,0.6600000000000005,-0.5488888888888894,1.0,9.0,0.5
457.0,13.0,wc_13,,0.0,,,,341.0,,,,Fail,,,,,
457.0,13.0,wc_13,wc_4,0.0,"[('wc_13', 0.3300000000000002), ('wc_14', 0.6600000000000005)]",0.7722000000000004,,,20.0,0.005784999999999999,['Pass'],Fail,0.7000000000000005,-0.5571428571428576,1.0,7.0,0.7
457.0,13.0,wc_13,,0.0,,,,121.0,,,,Fail,,,,,
457.0,13.0,wc_13,wc_12,0.0,"[('wc_12', 0.42000000000000026), ('wc_13', 0.3300000000000002), ('wc_14', 0.6600000000000005)]",0.8678760000000003,,,27.0,0.009824000000000001,['Pass'],Fail,0.42000000000000026,-0.42000000000000026,0.0,0.0,0.3
457.0,13.0,wc_13,,0.0,,,,182.0,,,,Fail,,,,,
457.0,13.0,wc_13,wc_6,0.0,"[('wc_6', 0.7500000000000006), ('wc_4', 0.7000000000000005)]",0.9250000000000003,,,38.0,0.01088,['Fail'],Fail,0.7500000000000006,-0.37500000000000056,3.0,8.0,0.9
457.0,13.0,wc_13,,0.0,,,,0.0,,,,Fail,,,,,
457.0,13.0,wc_13,wc_9,1.0,"[('wc_9', 0.5300000000000004), ('wc_4', 0.7000000000000005), ('wc_6', 0.7500000000000006)]",0.9647500000000002,,,37.0,0.049493,['Fail'],Fail,0.5300000000000004,-0.19666666666666704,2.0,6.0,0.4
484.0,13.0,wc_13,,0.0,,,,121.0,,,,Pass,,,,,
484.0,13.0,wc_13,,0.0,,,73.0,,,,,Pass,,,,,
484.0,13.0,wc_13,,0.0,,,,0.0,,,,Pass,,,,,
484.0,13.0,wc_13,wc_13,0.0,"[('wc_13', 0.3200000000000002)]",0.3200000000000002,,,20.0,0.003092,['Fail'],Pass,0.3200000000000002,-0.3200000000000002,0.0,1.0,0.3
484.0,13.0,wc_13,,0.0,,,,182.0,,,,Pass,,,,,
484.0,13.0,wc_13,wc_7,0.0,"[('wc_7', 0.5900000000000004)]",0.5900000000000004,,,40.0,0.003778,['Pass'],Pass,0.5900000000000004,-0.43615384615384656,0.0,0.0,0.6
484.0,13.0,wc_13,,0.0,,,,0.0,,,,Pass,,,,,
484.0,13.0,wc_13,wc_9,0.0,"[('wc_9', 0.5300000000000004), ('wc_7', 0.5900000000000004)]",0.8073000000000004,,,33.0,0.005729,['Pass'],Pass,0.5300000000000004,-0.19666666666666704,2.0,6.0,0.4
484.0,13.0,wc_13,,0.0,,,,61.0,,,,Pass,,,,,
484.0,13.0,wc_13,wc_6,0.0,"[('wc_6', 0.7500000000000006), ('wc_13', 0.3200000000000002)]",0.8300000000000004,,,27.0,0.008294000000000001,['Fail'],Pass,0.7500000000000006,-0.30555555555555614,4.0,9.0,0.9
484.0,13.0,wc_13,,0.0,,,,341.0,,,,Pass,,,,,
484.0,13.0,wc_13,wc_4,1.0,"[('wc_4', 0.7000000000000005), ('wc_7', 0.5900000000000004), ('wc_9', 0.5300000000000004)]",0.9421900000000002,,,33.0,0.04527599999999999,['Pass'],Pass,0.7000000000000005,-0.3666666666666672,3.0,9.0,0.7
494.0,14.0,wc_14,,0.0,,,,161.0,,,,Pass,,,,,
494.0,14.0,wc_14,,0.0,,,63.0,,,,,Pass,,,,,
494.0,14.0,wc_14,,0.0,,,,0.0,,,,Pass,,,,,
494.0,14.0,wc_14,wc_14,0.0,"[('wc_14', 0.6500000000000005)]",0.6500000000000005,,,24.0,0.002043,['Fail'],Pass,0.6500000000000005,-0.6500000000000005,0.0,1.0,0.5
494.0,14.0,wc_14,,0.0,,,,0.0,,,,Pass,,,,,
494.0,14.0,wc_14,wc_15,0.0,"[('wc_15', 0.2600000000000001), ('wc_14', 0.6500000000000005)]",0.7410000000000003,,,37.0,0.003893,['Fail'],Pass,0.2600000000000001,-0.22153846153846166,0.0,0.0,0.2
494.0,14.0,wc_14,,0.0,,,,402.0,,,,Pass,,,,,
494.0,14.0,wc_14,wc_3,0.0,"[('wc_14', 0.6500000000000005), ('wc_15', 0.2600000000000001)]",0.7410000000000003,,,28.0,0.0064010000000000004,['Fail'],Pass,0.7300000000000005,-0.7300000000000005,0.0,2.0,0.9
494.0,14.0,wc_14,,0.0,,,,101.0,,,,Pass,,,,,
494.0,14.0,wc_14,wc_6,0.0,"[('wc_6', 0.7400000000000005), ('wc_3', 0.7300000000000005)]",0.9298000000000003,,,34.0,0.007311,['Pass'],Pass,0.7400000000000005,-0.7400000000000005,0.0,0.0,0.9
494.0,14.0,wc_14,,0.0,,,,0.0,,,,Pass,,,,,
494.0,14.0,wc_14,wc_8,1.0,"[('wc_8', 0.4900000000000003), ('wc_3', 0.7300000000000005), ('wc_6', 0.7400000000000005)]",0.9641980000000002,,,27.0,0.047504,['Pass'],Pass,0.4900000000000003,-0.2677777777777781,2.0,9.0,0.6
501.0,16.0,wc_16,,0.0,,,,203.0,,,,Pass,,,,,
501.0,16.0,wc_16,,0.0,,,59.0,,,,,Pass,,,,,
501.0,16.0,wc_16,,0.0,,,,0.0,,,,Pass,,,,,
501.0,16.0,wc_16,wc_16,0.0,"[('wc_16', 0.8100000000000006)]",0.8100000000000006,,,39.0,0.002025,['Pass'],Pass,0.8100000000000006,-0.6923529411764712,0.0,0.0,0.8
501.0,16.0,wc_16,,0.0,,,,342.0,,,,Pass,,,,,
501.0,16.0,wc_16,wc_9,0.0,"[('wc_9', 0.5300000000000004), ('wc_16', 0.8100000000000006)]",0.9107000000000004,,,32.0,0.0040409999999999995,['Pass'],Pass,0.5300000000000004,-0.15500000000000036,3.0,8.0,0.4
501.0,16.0,wc_16,,0.0,,,,81.0,,,,Pass,,,,,
501.0,16.0,wc_16,wc_7,1.0,"[('wc_7', 0.6000000000000004), ('wc_16', 0.8100000000000006), ('wc_9', 0.5300000000000004)]",0.9642800000000001,,,40.0,0.042726,['Pass'],Pass,0.6100000000000004,0.0566666666666662,2.0,3.0,0.6
511.0,15.0,wc_15,,0.0,,,,203.0,,,,Pass,,,,,
511.0,15.0,wc_15,,0.0,,,51.0,,,,,Pass,,,,,
511.0,15.0,wc_15,,0.0,,,,0.0,,,,Pass,,,,,
511.0,15.0,wc_15,wc_15,0.0,"[('wc_15', 0.2500000000000001)]",0.2500000000000001,,,22.0,0.002105,['Fail'],Pass,0.2500000000000001,-0.2500000000000001,0.0,2.0,0.2
511.0,15.0,wc_15,,0.0,,,,223.0,,,,Pass,,,,,
511.0,15.0,wc_15,wc_6,0.0,"[('wc_6', 0.7500000000000006)]",0.7500000000000006,,,38.0,0.004292000000000001,['Pass'],Pass,0.7500000000000006,-0.25000000000000056,1.0,2.0,0.9
511.0,15.0,wc_15,,0.0,,,,243.0,,,,Pass,,,,,
511.0,15.0,wc_15,wc_16,0.0,"[('wc_16', 0.8200000000000006), ('wc_6', 0.7500000000000006)]",0.9550000000000003,,,37.0,0.007535999999999999,['Pass'],Pass,0.8200000000000006,0.17999999999999938,1.0,1.0,0.8
511.0,15.0,wc_15,,0.0,,,,362.0,,,,Pass,,,,,
511.0,15.0,wc_15,wc_10,1.0,"[('wc_10', 0.7600000000000006), ('wc_6', 0.7500000000000006), ('wc_16', 0.8200000000000006)]",0.9892000000000001,,,36.0,0.044413,['Pass'],Pass,0.7600000000000006,-0.7600000000000006,0.0,0.0,1.0
542.0,17.0,wc_17,,0.0,,,,182.0,,,,Fail,,,,,
542.0,17.0,wc_17,,0.0,,,55.0,,,,,Fail,,,,,
542.0,17.0,wc_17,,0.0,,,,0.0,,,,Fail,,,,,
542.0,17.0,wc_17,wc_17,0.0,"[('wc_17', 0.42000000000000026)]",0.42000000000000026,,,37.0,0.001921,['Pass'],Fail,0.42000000000000026,-0.33666666666666695,0.0,0.0,0.4
542.0,17.0,wc_17,,0.0,,,,83.0,,,,Fail,,,,,
542.0,17.0,wc_17,wc_15,0.0,"[('wc_15', 0.2400000000000001), ('wc_17', 0.42000000000000026)]",0.5592000000000003,,,20.0,0.0047209999999999995,['Pass'],Fail,0.2400000000000001,-0.2400000000000001,0.0,3.0,0.2
542.0,17.0,wc_17,,0.0,,,,362.0,,,,Fail,,,,,
542.0,17.0,wc_17,wc_9,0.0,"[('wc_17', 0.42000000000000026), ('wc_15', 0.2400000000000001)]",0.5592000000000003,,,25.0,0.005960999999999999,['Pass'],Fail,0.5300000000000004,-0.13000000000000034,0.0,0.0,0.4
542.0,17.0,wc_17,,0.0,,,,0.0,,,,Fail,,,,,
542.0,17.0,wc_17,wc_11,0.0,"[('wc_11', 0.7300000000000005), ('wc_9', 0.5300000000000004)]",0.8731000000000003,,,38.0,0.008963,['Fail'],Fail,0.7300000000000005,-0.2855555555555561,4.0,9.0,0.8
542.0,17.0,wc_17,,0.0,,,,41.0,,,,Fail,,,,,
542.0,17.0,wc_17,wc_7,1.0,"[('wc_7', 0.6100000000000004), ('wc_9', 0.5300000000000004), ('wc_11', 0.7300000000000005)]",0.9505090000000002,,,24.0,0.04438999999999999,['Fail'],Fail,0.6100000000000004,-0.010000000000000453,3.0,5.0,0.6
573.0,17.0,wc_17,,0.0,,,,243.0,,,,Pass,,,,,
573.0,17.0,wc_17,,0.0,,,65.0,,,,,Pass,,,,,
573.0,17.0,wc_17,,0.0,,,,0.0,,,,Pass,,,,,
573.0,17.0,wc_17,wc_17,0.0,"[('wc_17', 0.41000000000000025)]",0.41000000000000025,,,34.0,0.002364,['Pass'],Pass,0.41000000000000025,-0.41000000000000025,0.0,1.0,0.4
573.0,17.0,wc_17,,0.0,,,,382.0,,,,Pass,,,,,
573.0,17.0,wc_17,wc_4,0.0,"[('wc_4', 0.7000000000000005), ('wc_17', 0.41000000000000025)]",0.8230000000000004,,,37.0,0.004147,['Pass'],Pass,0.7000000000000005,-0.46923076923076973,0.0,0.0,0.7
573.0,17.0,wc_17,,0.0,,,,61.0,,,,Pass,,,,,
573.0,17.0,wc_17,wc_1,0.0,"[('wc_17', 0.41000000000000025), ('wc_4', 0.7000000000000005)]",0.8230000000000004,,,32.0,0.0054659999999999995,['Pass'],Pass,0.2600000000000001,-0.2600000000000001,0.0,9.0,0.1
573.0,17.0,wc_17,,0.0,,,,162.0,,,,Pass,,,,,
573.0,17.0,wc_17,wc_7,1.0,"[('wc_7', 0.6100000000000004), ('wc_17', 0.41000000000000025), ('wc_4', 0.7000000000000005)]",0.9309700000000002,,,33.0,0.04294,['Pass'],Pass,0.6200000000000004,0.04666666666666619,4.0,6.0,0.6
