mpecck/BCQC/bcqc_with_qdt/results/raw/input_4/independent_qc/training/20_workpiece/20200429_084410/wp_15_qc_majority_0.9.csv
production_index,step_idx,production_workcell,qc,consent,winner_qc_list,score,production_time,transport_time,inspection_time,network_time,qc_results,actual_quality,qc_score,score_error,in_winner_counter,in_qc_counter,qc_capability
48.0,1.0,wc_1,,0.0,,,66.0,,,,,Fail,,,,,
48.0,1.0,wc_1,,0.0,,,,0.0,,,,Fail,,,,,
48.0,1.0,wc_1,wc_1,0.0,"[('wc_1', 0.2500000000000001)]",0.2500000000000001,,,28.0,0.003113,['Pass'],Fail,0.2500000000000001,-0.2500000000000001,0.0,0.0,0.1
48.0,1.0,wc_1,,0.0,,,,0.0,,,,Fail,,,,,
48.0,1.0,wc_1,wc_2,0.0,"[('wc_2', 0.7800000000000006)]",0.7800000000000006,,,35.0,0.003771,['Fail'],Fail,0.7800000000000006,-0.7211764705882359,0.0,0.0,0.8
48.0,1.0,wc_1,,0.0,,,,0.0,,,,Fail,,,,,
48.0,1.0,wc_1,wc_4,0.0,"[('wc_4', 0.7100000000000005), ('wc_2', 0.7800000000000006)]",0.9362000000000003,,,35.0,0.007268,['Fail'],Fail,0.7100000000000005,0.2899999999999995,1.0,1.0,0.7
48.0,1.0,wc_1,,0.0,,,,202.0,,,,Fail,,,,,
48.0,1.0,wc_1,wc_16,1.0,"[('wc_16', 0.8300000000000006), ('wc_2', 0.7800000000000006), ('wc_4', 0.7100000000000005)]",0.9891540000000001,,,25.0,0.046557,['Fail'],Fail,0.8300000000000006,-0.23000000000000065,3.0,5.0,0.8
147.0,1.0,wc_1,,0.0,,,,263.0,,,,Pass,,,,,
147.0,1.0,wc_1,,0.0,,,54.0,,,,,Pass,,,,,
147.0,1.0,wc_1,,0.0,,,,0.0,,,,Pass,,,,,
147.0,1.0,wc_1,wc_1,0.0,"[('wc_1', 0.2400000000000001)]",0.2400000000000001,,,24.0,0.002096,['Pass'],Pass,0.2400000000000001,-0.2400000000000001,0.0,1.0,0.1
147.0,1.0,wc_1,,0.0,,,,182.0,,,,Pass,,,,,
147.0,1.0,wc_1,wc_8,0.0,"[('wc_8', 0.4900000000000003), ('wc_1', 0.2400000000000001)]",0.6124000000000003,,,38.0,0.004063000000000001,['Pass'],Pass,0.4900000000000003,-0.3471428571428575,0.0,0.0,0.6
147.0,1.0,wc_1,,0.0,,,,142.0,,,,Pass,,,,,
147.0,1.0,wc_1,wc_13,0.0,"[('wc_1', 0.2400000000000001), ('wc_8', 0.4900000000000003)]",0.6124000000000003,,,26.0,0.0068509999999999995,['Pass'],Pass,0.31000000000000016,-0.31000000000000016,0.0,8.0,0.3
147.0,1.0,wc_1,,0.0,,,,162.0,,,,Pass,,,,,
147.0,1.0,wc_1,wc_6,1.0,"[('wc_6', 0.7500000000000006), ('wc_1', 0.2400000000000001), ('wc_8', 0.4900000000000003)]",0.9031000000000002,,,31.0,0.041058000000000004,['Pass'],Pass,0.7500000000000006,-0.321428571428572,3.0,7.0,0.9
159.0,3.0,wc_3,,0.0,,,,321.0,,,,Pass,,,,,
159.0,3.0,wc_3,,0.0,,,56.0,,,,,Pass,,,,,
159.0,3.0,wc_3,,0.0,,,,0.0,,,,Pass,,,,,
159.0,3.0,wc_3,wc_3,0.0,"[('wc_3', 0.7300000000000005)]",0.7300000000000005,,,26.0,0.002389,['Pass'],Pass,0.7300000000000005,-0.6188888888888895,1.0,9.0,0.9
159.0,3.0,wc_3,,0.0,,,,101.0,,,,Pass,,,,,
159.0,3.0,wc_3,wc_6,0.0,"[('wc_6', 0.7500000000000006), ('wc_3', 0.7300000000000005)]",0.9325000000000003,,,25.0,0.004114,['Pass'],Pass,0.7500000000000006,-0.321428571428572,3.0,7.0,0.9
159.0,3.0,wc_3,,0.0,,,,0.0,,,,Pass,,,,,
159.0,3.0,wc_3,wc_8,1.0,"[('wc_8', 0.5000000000000003), ('wc_3', 0.7300000000000005), ('wc_6', 0.7500000000000006)]",0.9662500000000002,,,36.0,0.03566,['Pass'],Pass,0.5100000000000003,0.48999999999999966,2.0,2.0,0.6
171.0,2.0,wc_2,,0.0,,,,182.0,,,,Fail,,,,,
171.0,2.0,wc_2,,0.0,,,54.0,,,,,Fail,,,,,
171.0,2.0,wc_2,,0.0,,,,0.0,,,,Fail,,,,,
171.0,2.0,wc_2,wc_2,0.0,"[('wc_2', 0.7900000000000006)]",0.7900000000000006,,,33.0,0.00229,['Fail'],Fail,0.7900000000000006,-0.4566666666666673,1.0,3.0,0.8
171.0,2.0,wc_2,,0.0,,,,0.0,,,,Fail,,,,,
171.0,2.0,wc_2,wc_5,0.0,"[('wc_2', 0.7900000000000006)]",0.7900000000000006,,,33.0,0.004664,['Fail'],Fail,0.4400000000000003,-0.2548148148148151,0.0,0.0,0.4
171.0,2.0,wc_2,,0.0,,,,142.0,,,,Fail,,,,,
171.0,2.0,wc_2,wc_10,0.0,"[('wc_10', 0.7600000000000006), ('wc_2', 0.7900000000000006)]",0.9496000000000002,,,34.0,0.005952,['Fail'],Fail,0.7600000000000006,-0.7600000000000006,0.0,5.0,1.0
171.0,2.0,wc_2,,0.0,,,,81.0,,,,Fail,,,,,
171.0,2.0,wc_2,wc_12,0.0,"[('wc_2', 0.7900000000000006), ('wc_10', 0.7600000000000006)]",0.9496000000000002,,,28.0,0.008139,['Fail'],Fail,0.41000000000000025,-0.41000000000000025,0.0,0.0,0.3
171.0,2.0,wc_2,,0.0,,,,0.0,,,,Fail,,,,,
171.0,2.0,wc_2,wc_16,1.0,"[('wc_16', 0.8300000000000006), ('wc_2', 0.7900000000000006), ('wc_10', 0.7600000000000006)]",0.9914320000000001,,,20.0,0.044379,['Fail'],Fail,0.8300000000000006,-0.3300000000000006,4.0,8.0,0.8
186.0,2.0,wc_2,,0.0,,,,283.0,,,,Fail,,,,,
186.0,2.0,wc_2,,0.0,,,51.0,,,,,Fail,,,,,
186.0,2.0,wc_2,,0.0,,,,0.0,,,,Fail,,,,,
186.0,2.0,wc_2,wc_2,0.0,"[('wc_2', 0.7900000000000006)]",0.7900000000000006,,,26.0,0.002441,['Fail'],Fail,0.7900000000000006,-0.2900000000000006,2.0,4.0,0.8
186.0,2.0,wc_2,,0.0,,,,183.0,,,,Fail,,,,,
186.0,2.0,wc_2,wc_9,0.0,"[('wc_9', 0.5400000000000004), ('wc_2', 0.7900000000000006)]",0.9034000000000003,,,28.0,0.003825,['Fail'],Fail,0.5400000000000004,-0.37333333333333374,1.0,6.0,0.4
186.0,2.0,wc_2,,0.0,,,,382.0,,,,Fail,,,,,
186.0,2.0,wc_2,wc_4,1.0,"[('wc_4', 0.7200000000000005), ('wc_2', 0.7900000000000006), ('wc_9', 0.5400000000000004)]",0.9729520000000002,,,38.0,0.042525,['Fail'],Fail,0.7200000000000005,-0.22000000000000053,3.0,6.0,0.7
194.0,2.0,wc_2,,0.0,,,,81.0,,,,Pass,,,,,
194.0,2.0,wc_2,,0.0,,,52.0,,,,,Pass,,,,,
194.0,2.0,wc_2,,0.0,,,,0.0,,,,Pass,,,,,
194.0,2.0,wc_2,wc_2,0.0,"[('wc_2', 0.7900000000000006)]",0.7900000000000006,,,26.0,0.002052,['Pass'],Pass,0.7900000000000006,-0.1900000000000006,3.0,5.0,0.8
194.0,2.0,wc_2,,0.0,,,,142.0,,,,Pass,,,,,
194.0,2.0,wc_2,wc_7,0.0,"[('wc_7', 0.6200000000000004), ('wc_2', 0.7900000000000006)]",0.9202000000000004,,,28.0,0.0037210000000000003,['Pass'],Pass,0.6200000000000004,-0.2563636363636368,0.0,0.0,0.6
194.0,2.0,wc_2,,0.0,,,,203.0,,,,Pass,,,,,
194.0,2.0,wc_2,wc_15,1.0,"[('wc_15', 0.2300000000000001), ('wc_2', 0.7900000000000006), ('wc_7', 0.6200000000000004)]",0.9385540000000002,,,20.0,0.038926,['Pass'],Pass,0.2300000000000001,-0.2300000000000001,0.0,0.0,0.2
209.0,4.0,wc_4,,0.0,,,,422.0,,,,Pass,,,,,
209.0,4.0,wc_4,,0.0,,,67.0,,,,,Pass,,,,,
209.0,4.0,wc_4,,0.0,,,,0.0,,,,Pass,,,,,
209.0,4.0,wc_4,wc_4,0.0,"[('wc_4', 0.7200000000000005)]",0.7200000000000005,,,25.0,0.002297,['Fail'],Pass,0.7200000000000005,-0.291428571428572,3.0,7.0,0.7
209.0,4.0,wc_4,,0.0,,,,0.0,,,,Pass,,,,,
209.0,4.0,wc_4,wc_5,0.0,"[('wc_5', 0.43000000000000027), ('wc_4', 0.7200000000000005)]",0.8404000000000004,,,31.0,0.004557,['Fail'],Pass,0.43000000000000027,-0.43000000000000027,0.0,3.0,0.4
209.0,4.0,wc_4,,0.0,,,,61.0,,,,Pass,,,,,
209.0,4.0,wc_4,wc_6,0.0,"[('wc_4', 0.7200000000000005), ('wc_5', 0.43000000000000027)]",0.8404000000000004,,,32.0,0.006555,['Fail'],Pass,0.7500000000000006,-0.3863636363636369,0.0,0.0,0.9
209.0,4.0,wc_4,,0.0,,,,243.0,,,,Pass,,,,,
209.0,4.0,wc_4,wc_16,1.0,"[('wc_16', 0.8300000000000006), ('wc_4', 0.7200000000000005), ('wc_5', 0.43000000000000027)]",0.9728680000000002,,,30.0,0.038118,['Fail'],Pass,0.8300000000000006,-0.8300000000000006,0.0,0.0,0.8
255.0,4.0,wc_4,,0.0,,,,402.0,,,,Fail,,,,,
255.0,4.0,wc_4,,0.0,,,73.0,,,,,Fail,,,,,
255.0,4.0,wc_4,,0.0,,,,0.0,,,,Fail,,,,,
255.0,4.0,wc_4,wc_4,0.0,"[('wc_4', 0.7200000000000005)]",0.7200000000000005,,,30.0,0.002288,['Fail'],Fail,0.7200000000000005,-0.22000000000000053,4.0,8.0,0.7
255.0,4.0,wc_4,,0.0,,,,81.0,,,,Fail,,,,,
255.0,4.0,wc_4,wc_2,0.0,"[('wc_2', 0.7900000000000006), ('wc_4', 0.7200000000000005)]",0.9412000000000003,,,25.0,0.0046300000000000004,['Fail'],Fail,0.7900000000000006,-0.2185714285714292,4.0,7.0,0.8
255.0,4.0,wc_4,,0.0,,,,223.0,,,,Fail,,,,,
255.0,4.0,wc_4,wc_11,0.0,"[('wc_4', 0.7200000000000005), ('wc_2', 0.7900000000000006)]",0.9412000000000003,,,20.0,0.007318,['Fail'],Fail,0.7300000000000005,-0.7300000000000005,0.0,8.0,0.8
255.0,4.0,wc_4,,0.0,,,,83.0,,,,Fail,,,,,
255.0,4.0,wc_4,wc_9,0.0,"[('wc_4', 0.7200000000000005), ('wc_2', 0.7900000000000006)]",0.9412000000000003,,,27.0,0.008701,['Fail'],Fail,0.5400000000000004,-0.31777777777777816,2.0,9.0,0.4
255.0,4.0,wc_4,,0.0,,,,402.0,,,,Fail,,,,,
255.0,4.0,wc_4,wc_5,1.0,"[('wc_5', 0.43000000000000027), ('wc_4', 0.7200000000000005), ('wc_2', 0.7900000000000006)]",0.9664840000000001,,,32.0,0.042921,['Fail'],Fail,0.43000000000000027,-0.03000000000000025,2.0,5.0,0.4
300.0,4.0,wc_4,,0.0,,,,103.0,,,,Fail,,,,,
300.0,4.0,wc_4,,0.0,,,50.0,,,,,Fail,,,,,
300.0,4.0,wc_4,,0.0,,,,0.0,,,,Fail,,,,,
300.0,4.0,wc_4,wc_4,0.0,"[('wc_4', 0.7200000000000005)]",0.7200000000000005,,,28.0,0.001955,['Pass'],Fail,0.7200000000000005,-0.16444444444444495,5.0,9.0,0.7
300.0,4.0,wc_4,,0.0,,,,202.0,,,,Fail,,,,,
300.0,4.0,wc_4,wc_16,0.0,"[('wc_16', 0.8300000000000006)]",0.8300000000000006,,,23.0,0.004058,['Fail'],Fail,0.8300000000000006,-0.8300000000000006,0.0,1.0,0.8
300.0,4.0,wc_4,,0.0,,,,422.0,,,,Fail,,,,,
300.0,4.0,wc_4,wc_5,0.0,"[('wc_5', 0.43000000000000027), ('wc_16', 0.8300000000000006)]",0.9031000000000005,,,27.0,0.0062,['Fail'],Fail,0.43000000000000027,-0.03000000000000025,2.0,5.0,0.4
300.0,4.0,wc_4,,0.0,,,,162.0,,,,Fail,,,,,
300.0,4.0,wc_4,wc_15,0.0,"[('wc_16', 0.8300000000000006), ('wc_5', 0.43000000000000027)]",0.9031000000000005,,,33.0,0.007942,['Fail'],Fail,0.2300000000000001,-0.2300000000000001,0.0,2.0,0.2
300.0,4.0,wc_4,,0.0,,,,283.0,,,,Fail,,,,,
300.0,4.0,wc_4,wc_1,1.0,"[('wc_1', 0.2500000000000001), ('wc_16', 0.8300000000000006), ('wc_5', 0.43000000000000027)]",0.9273250000000003,,,30.0,0.04062,['Fail'],Fail,0.2500000000000001,-0.0277777777777779,2.0,9.0,0.1
352.0,4.0,wc_4,,0.0,,,,0.0,,,,Fail,,,,,
352.0,4.0,wc_4,,0.0,,,63.0,,,,,Fail,,,,,
352.0,4.0,wc_4,,0.0,,,,0.0,,,,Fail,,,,,
352.0,4.0,wc_4,wc_4,0.0,"[('wc_4', 0.7100000000000005)]",0.7100000000000005,,,38.0,0.002398,['Fail'],Fail,0.7100000000000005,-0.7100000000000005,0.0,0.0,0.7
352.0,4.0,wc_4,,0.0,,,,0.0,,,,Fail,,,,,
352.0,4.0,wc_4,wc_5,0.0,"[('wc_5', 0.4400000000000003), ('wc_4', 0.7100000000000005)]",0.8376000000000003,,,34.0,0.0041930000000000005,['Fail'],Fail,0.4400000000000003,0.05999999999999972,3.0,6.0,0.4
352.0,4.0,wc_4,,0.0,,,,162.0,,,,Fail,,,,,
352.0,4.0,wc_4,wc_11,1.0,"[('wc_11', 0.7200000000000005), ('wc_4', 0.7100000000000005), ('wc_5', 0.4400000000000003)]",0.9545280000000002,,,38.0,0.03926600000000001,['Fail'],Fail,0.7200000000000005,-0.7200000000000005,0.0,0.0,0.8
397.0,4.0,wc_4,,0.0,,,,342.0,,,,Pass,,,,,
397.0,4.0,wc_4,,0.0,,,60.0,,,,,Pass,,,,,
397.0,4.0,wc_4,,0.0,,,,0.0,,,,Pass,,,,,
397.0,4.0,wc_4,wc_4,0.0,"[('wc_4', 0.7200000000000005)]",0.7200000000000005,,,23.0,0.002121,['Pass'],Pass,0.7200000000000005,0.27999999999999947,1.0,1.0,0.7
397.0,4.0,wc_4,,0.0,,,,202.0,,,,Pass,,,,,
397.0,4.0,wc_4,wc_16,0.0,"[('wc_16', 0.8300000000000006), ('wc_4', 0.7200000000000005)]",0.9524000000000002,,,20.0,0.004106,['Pass'],Pass,0.8300000000000006,-0.4966666666666673,1.0,3.0,0.8
397.0,4.0,wc_4,,0.0,,,,283.0,,,,Pass,,,,,
397.0,4.0,wc_4,wc_2,1.0,"[('wc_2', 0.7900000000000006), ('wc_4', 0.7200000000000005), ('wc_16', 0.8300000000000006)]",0.9900040000000001,,,24.0,0.042707,['Pass'],Pass,0.7900000000000006,-0.7900000000000006,0.0,0.0,0.8
408.0,5.0,wc_5,,0.0,,,,0.0,,,,Fail,,,,,
408.0,5.0,wc_5,,0.0,,,68.0,,,,,Fail,,,,,
408.0,5.0,wc_5,,0.0,,,,0.0,,,,Fail,,,,,
408.0,5.0,wc_5,wc_5,0.0,"[('wc_5', 0.4500000000000003)]",0.4500000000000003,,,36.0,0.002322,['Fail'],Fail,0.4500000000000003,0.04999999999999971,4.0,8.0,0.4
408.0,5.0,wc_5,,0.0,,,,162.0,,,,Fail,,,,,
408.0,5.0,wc_5,wc_11,0.0,"[('wc_11', 0.7200000000000005), ('wc_5', 0.4500000000000003)]",0.8460000000000003,,,39.0,0.004025,['Fail'],Fail,0.7200000000000005,-0.7200000000000005,0.0,1.0,0.8
408.0,5.0,wc_5,,0.0,,,,342.0,,,,Fail,,,,,
408.0,5.0,wc_5,wc_4,1.0,"[('wc_4', 0.7300000000000005), ('wc_5', 0.4500000000000003), ('wc_11', 0.7200000000000005)]",0.9584200000000002,,,23.0,0.040547,['Fail'],Fail,0.7400000000000005,0.25999999999999945,3.0,3.0,0.7
422.0,5.0,wc_5,,0.0,,,,0.0,,,,Fail,,,,,
422.0,5.0,wc_5,,0.0,,,51.0,,,,,Fail,,,,,
422.0,5.0,wc_5,,0.0,,,,0.0,,,,Fail,,,,,
422.0,5.0,wc_5,wc_5,0.0,"[('wc_5', 0.4600000000000003)]",0.4600000000000003,,,39.0,0.002239,['Fail'],Fail,0.4600000000000003,0.09555555555555528,5.0,9.0,0.4
422.0,5.0,wc_5,,0.0,,,,101.0,,,,Fail,,,,,
422.0,5.0,wc_5,wc_12,0.0,"[('wc_5', 0.4600000000000003)]",0.4600000000000003,,,35.0,0.0040349999999999995,['Fail'],Fail,0.40000000000000024,-0.40000000000000024,0.0,9.0,0.3
422.0,5.0,wc_5,,0.0,,,,381.0,,,,Fail,,,,,
422.0,5.0,wc_5,wc_4,0.0,"[('wc_4', 0.7400000000000005), ('wc_5', 0.4600000000000003)]",0.8596000000000004,,,32.0,0.006507000000000001,['Fail'],Fail,0.7400000000000005,0.25999999999999945,3.0,3.0,0.7
422.0,5.0,wc_5,,0.0,,,,222.0,,,,Fail,,,,,
422.0,5.0,wc_5,wc_17,0.0,"[('wc_5', 0.4600000000000003), ('wc_4', 0.7400000000000005)]",0.8596000000000004,,,31.0,0.008283,['Fail'],Fail,0.42000000000000026,-0.34857142857142887,0.0,0.0,0.4
422.0,5.0,wc_5,,0.0,,,,223.0,,,,Fail,,,,,
422.0,5.0,wc_5,wc_8,1.0,"[('wc_8', 0.5100000000000003), ('wc_5', 0.4600000000000003), ('wc_4', 0.7400000000000005)]",0.9312040000000003,,,22.0,0.048226,['Fail'],Fail,0.5100000000000003,-0.5100000000000003,0.0,0.0,0.6
434.0,5.0,wc_5,,0.0,,,,321.0,,,,Pass,,,,,
434.0,5.0,wc_5,,0.0,,,72.0,,,,,Pass,,,,,
434.0,5.0,wc_5,,0.0,,,,0.0,,,,Pass,,,,,
434.0,5.0,wc_5,wc_5,0.0,"[('wc_5', 0.4700000000000003)]",0.4700000000000003,,,34.0,0.002355,['Pass'],Pass,0.4700000000000003,-0.4700000000000003,0.0,0.0,0.4
434.0,5.0,wc_5,,0.0,,,,83.0,,,,Pass,,,,,
434.0,5.0,wc_5,wc_3,0.0,"[('wc_3', 0.7300000000000005), ('wc_5', 0.4700000000000003)]",0.8569000000000003,,,25.0,0.003922,['Pass'],Pass,0.7300000000000005,-0.7300000000000005,0.0,0.0,0.9
434.0,5.0,wc_5,,0.0,,,,141.0,,,,Pass,,,,,
434.0,5.0,wc_5,wc_12,1.0,"[('wc_12', 0.39000000000000024), ('wc_5', 0.4700000000000003), ('wc_3', 0.7300000000000005)]",0.9127090000000002,,,32.0,0.037363,['Pass'],Pass,0.40000000000000024,0.5999999999999998,1.0,1.0,0.3
447.0,6.0,wc_6,,0.0,,,,182.0,,,,Fail,,,,,
447.0,6.0,wc_6,,0.0,,,74.0,,,,,Fail,,,,,
447.0,6.0,wc_6,,0.0,,,,0.0,,,,Fail,,,,,
447.0,6.0,wc_6,wc_6,0.0,"[('wc_6', 0.7400000000000005)]",0.7400000000000005,,,32.0,0.002138,['Fail'],Fail,0.7400000000000005,-0.7400000000000005,0.0,8.0,0.9
447.0,6.0,wc_6,,0.0,,,,222.0,,,,Fail,,,,,
447.0,6.0,wc_6,wc_2,0.0,"[('wc_2', 0.7900000000000006), ('wc_6', 0.7400000000000005)]",0.9454000000000002,,,30.0,0.003947,['Fail'],Fail,0.7900000000000006,-0.7900000000000006,0.0,3.0,0.8
447.0,6.0,wc_6,,0.0,,,,223.0,,,,Fail,,,,,
447.0,6.0,wc_6,wc_11,1.0,"[('wc_11', 0.7200000000000005), ('wc_6', 0.7400000000000005), ('wc_2', 0.7900000000000006)]",0.9847120000000001,,,34.0,0.035892,['Fail'],Fail,0.7200000000000005,-0.3200000000000005,2.0,5.0,0.8
456.0,6.0,wc_6,,0.0,,,,21.0,,,,Pass,,,,,
456.0,6.0,wc_6,,0.0,,,67.0,,,,,Pass,,,,,
456.0,6.0,wc_6,,0.0,,,,0.0,,,,Pass,,,,,
456.0,6.0,wc_6,wc_6,0.0,"[('wc_6', 0.7400000000000005)]",0.7400000000000005,,,22.0,0.002169,['Pass'],Pass,0.7400000000000005,-0.6288888888888895,1.0,9.0,0.9
456.0,6.0,wc_6,,0.0,,,,162.0,,,,Pass,,,,,
456.0,6.0,wc_6,wc_12,0.0,"[('wc_12', 0.40000000000000024), ('wc_6', 0.7400000000000005)]",0.8440000000000004,,,32.0,0.004213,['Pass'],Pass,0.40000000000000024,0.09999999999999976,1.0,2.0,0.3
456.0,6.0,wc_6,,0.0,,,,381.0,,,,Pass,,,,,
456.0,6.0,wc_6,wc_4,1.0,"[('wc_4', 0.7500000000000006), ('wc_6', 0.7400000000000005), ('wc_12', 0.40000000000000024)]",0.9610000000000002,,,40.0,0.046379000000000004,['Pass'],Pass,0.7500000000000006,-0.035714285714286254,5.0,7.0,0.7
465.0,8.0,wc_8,,0.0,,,,121.0,,,,Fail,,,,,
465.0,8.0,wc_8,,0.0,,,60.0,,,,,Fail,,,,,
465.0,8.0,wc_8,,0.0,,,,0.0,,,,Fail,,,,,
465.0,8.0,wc_8,wc_8,0.0,"[('wc_8', 0.5100000000000003)]",0.5100000000000003,,,20.0,0.00202,['Fail'],Fail,0.5100000000000003,-0.5100000000000003,0.0,3.0,0.6
465.0,8.0,wc_8,,0.0,,,,142.0,,,,Fail,,,,,
465.0,8.0,wc_8,wc_13,0.0,"[('wc_13', 0.30000000000000016), ('wc_8', 0.5100000000000003)]",0.6570000000000003,,,32.0,0.004225,['Fail'],Fail,0.30000000000000016,-0.30000000000000016,0.0,0.0,0.3
465.0,8.0,wc_8,,0.0,,,,341.0,,,,Fail,,,,,
465.0,8.0,wc_8,wc_11,1.0,"[('wc_11', 0.7200000000000005), ('wc_8', 0.5100000000000003), ('wc_13', 0.30000000000000016)]",0.9039600000000003,,,21.0,0.037084,['Fail'],Fail,0.7200000000000005,-0.291428571428572,3.0,7.0,0.8
472.0,7.0,wc_7,,0.0,,,,41.0,,,,Pass,,,,,
472.0,7.0,wc_7,,0.0,,,56.0,,,,,Pass,,,,,
472.0,7.0,wc_7,,0.0,,,,0.0,,,,Pass,,,,,
472.0,7.0,wc_7,wc_7,0.0,"[('wc_7', 0.6300000000000004)]",0.6300000000000004,,,21.0,0.002432,['Pass'],Pass,0.6300000000000004,-0.5466666666666671,0.0,0.0,0.6
472.0,7.0,wc_7,,0.0,,,,0.0,,,,Pass,,,,,
472.0,7.0,wc_7,wc_11,0.0,"[('wc_11', 0.7200000000000005), ('wc_7', 0.6300000000000004)]",0.8964000000000003,,,25.0,0.004176,['Pass'],Pass,0.7200000000000005,-0.291428571428572,3.0,7.0,0.8
472.0,7.0,wc_7,,0.0,,,,122.0,,,,Pass,,,,,
472.0,7.0,wc_7,wc_15,1.0,"[('wc_15', 0.22000000000000008), ('wc_7', 0.6300000000000004), ('wc_11', 0.7200000000000005)]",0.9191920000000002,,,28.0,0.040229,['Pass'],Pass,0.22000000000000008,-0.22000000000000008,0.0,0.0,0.2
481.0,9.0,wc_9,,0.0,,,,362.0,,,,Pass,,,,,
481.0,9.0,wc_9,,0.0,,,62.0,,,,,Pass,,,,,
481.0,9.0,wc_9,,0.0,,,,0.0,,,,Pass,,,,,
481.0,9.0,wc_9,wc_9,0.0,"[('wc_9', 0.5300000000000004)]",0.5300000000000004,,,25.0,0.002269,['Pass'],Pass,0.5300000000000004,-0.5300000000000004,0.0,0.0,0.4
481.0,9.0,wc_9,,0.0,,,,0.0,,,,Pass,,,,,
481.0,9.0,wc_9,wc_10,0.0,"[('wc_10', 0.7600000000000006), ('wc_9', 0.5300000000000004)]",0.8872000000000003,,,20.0,0.003901,['Pass'],Pass,0.7600000000000006,-0.7100000000000005,0.0,0.0,1.0
481.0,9.0,wc_9,,0.0,,,,81.0,,,,Pass,,,,,
481.0,9.0,wc_9,wc_12,0.0,"[('wc_9', 0.5300000000000004), ('wc_10', 0.7600000000000006)]",0.8872000000000003,,,22.0,0.00612,['Pass'],Pass,0.41000000000000025,-0.010000000000000231,2.0,5.0,0.3
481.0,9.0,wc_9,,0.0,,,,0.0,,,,Pass,,,,,
481.0,9.0,wc_9,wc_16,1.0,"[('wc_16', 0.8300000000000006), ('wc_9', 0.5300000000000004), ('wc_10', 0.7600000000000006)]",0.9808240000000001,,,32.0,0.03849,['Pass'],Pass,0.8300000000000006,-0.8300000000000006,0.0,0.0,0.8
492.0,7.0,wc_7,,0.0,,,,223.0,,,,Fail,,,,,
492.0,7.0,wc_7,,0.0,,,74.0,,,,,Fail,,,,,
492.0,7.0,wc_7,,0.0,,,,0.0,,,,Fail,,,,,
492.0,7.0,wc_7,wc_7,0.0,"[('wc_7', 0.6400000000000005)]",0.6400000000000005,,,25.0,0.00208,['Fail'],Fail,0.6400000000000005,-0.14000000000000046,1.0,2.0,0.6
492.0,7.0,wc_7,,0.0,,,,162.0,,,,Fail,,,,,
492.0,7.0,wc_7,wc_13,0.0,"[('wc_13', 0.31000000000000016), ('wc_7', 0.6400000000000005)]",0.7516000000000004,,,20.0,0.004675,['Fail'],Fail,0.31000000000000016,0.02333333333333315,1.0,3.0,0.3
492.0,7.0,wc_7,,0.0,,,,0.0,,,,Fail,,,,,
492.0,7.0,wc_7,wc_14,1.0,"[('wc_14', 0.6400000000000005), ('wc_7', 0.6400000000000005), ('wc_13', 0.31000000000000016)]",0.9105760000000003,,,31.0,0.038968,['Fail'],Fail,0.6400000000000005,-0.6400000000000005,0.0,0.0,0.5
500.0,7.0,wc_7,,0.0,,,,162.0,,,,Pass,,,,,
500.0,7.0,wc_7,,0.0,,,53.0,,,,,Pass,,,,,
500.0,7.0,wc_7,,0.0,,,,0.0,,,,Pass,,,,,
500.0,7.0,wc_7,wc_7,0.0,"[('wc_7', 0.6500000000000005)]",0.6500000000000005,,,36.0,0.002183,['Fail'],Pass,0.6500000000000005,0.016666666666666163,2.0,3.0,0.6
500.0,7.0,wc_7,,0.0,,,,243.0,,,,Pass,,,,,
500.0,7.0,wc_7,wc_17,0.0,"[('wc_17', 0.41000000000000025), ('wc_7', 0.6500000000000005)]",0.7935000000000003,,,39.0,0.0039900000000000005,['Fail'],Pass,0.41000000000000025,-0.41000000000000025,0.0,8.0,0.4
500.0,7.0,wc_7,,0.0,,,,243.0,,,,Pass,,,,,
500.0,7.0,wc_7,wc_1,0.0,"[('wc_7', 0.6500000000000005), ('wc_17', 0.41000000000000025)]",0.7935000000000003,,,21.0,0.007877,['Fail'],Pass,0.2500000000000001,-0.1500000000000001,0.0,0.0,0.1
500.0,7.0,wc_7,,0.0,,,,0.0,,,,Pass,,,,,
500.0,7.0,wc_7,wc_3,0.0,"[('wc_3', 0.7400000000000005), ('wc_1', 0.2500000000000001)]",0.8050000000000004,,,22.0,0.008202000000000001,['Pass'],Pass,0.7400000000000005,-0.5971428571428576,1.0,7.0,0.9
500.0,7.0,wc_7,,0.0,,,,141.0,,,,Pass,,,,,
500.0,7.0,wc_7,wc_8,1.0,"[('wc_8', 0.5100000000000003), ('wc_1', 0.2500000000000001), ('wc_3', 0.7400000000000005)]",0.9044500000000003,,,23.0,0.043065,['Pass'],Pass,0.5100000000000003,-0.26000000000000034,2.0,8.0,0.6
510.0,8.0,wc_8,,0.0,,,,0.0,,,,Fail,,,,,
510.0,8.0,wc_8,,0.0,,,70.0,,,,,Fail,,,,,
510.0,8.0,wc_8,,0.0,,,,0.0,,,,Fail,,,,,
510.0,8.0,wc_8,wc_8,0.0,"[('wc_8', 0.5100000000000003)]",0.5100000000000003,,,26.0,0.002017,['Fail'],Fail,0.5100000000000003,-0.26000000000000034,2.0,8.0,0.6
510.0,8.0,wc_8,,0.0,,,,223.0,,,,Fail,,,,,
510.0,8.0,wc_8,wc_17,0.0,"[('wc_17', 0.40000000000000024), ('wc_8', 0.5100000000000003)]",0.7060000000000004,,,29.0,0.004084,['Fail'],Fail,0.40000000000000024,-0.40000000000000024,0.0,9.0,0.4
510.0,8.0,wc_8,,0.0,,,,41.0,,,,Fail,,,,,
510.0,8.0,wc_8,wc_13,0.0,"[('wc_13', 0.3200000000000002), ('wc_8', 0.5100000000000003), ('wc_17', 0.40000000000000024)]",0.8000800000000003,,,23.0,0.006217,['Fail'],Fail,0.3200000000000002,0.07999999999999985,2.0,5.0,0.3
510.0,8.0,wc_8,,0.0,,,,242.0,,,,Fail,,,,,
510.0,8.0,wc_8,wc_2,1.0,"[('wc_2', 0.7900000000000006), ('wc_8', 0.5100000000000003), ('wc_17', 0.40000000000000024), ('wc_13', 0.3200000000000002)]",0.9580168000000002,,,32.0,0.047723999999999996,['Fail'],Fail,0.7900000000000006,-0.7900000000000006,0.0,0.0,0.8
521.0,8.0,wc_8,,0.0,,,,162.0,,,,Pass,,,,,
521.0,8.0,wc_8,,0.0,,,75.0,,,,,Pass,,,,,
521.0,8.0,wc_8,,0.0,,,,0.0,,,,Pass,,,,,
521.0,8.0,wc_8,wc_8,0.0,"[('wc_8', 0.5100000000000003)]",0.5100000000000003,,,27.0,0.00255,['Pass'],Pass,0.5100000000000003,-0.17666666666666703,3.0,9.0,0.6
521.0,8.0,wc_8,,0.0,,,,0.0,,,,Pass,,,,,
521.0,8.0,wc_8,wc_9,0.0,"[('wc_9', 0.5400000000000004), ('wc_8', 0.5100000000000003)]",0.7746000000000004,,,28.0,0.004656,['Pass'],Pass,0.5400000000000004,-0.29000000000000037,1.0,4.0,0.4
521.0,8.0,wc_8,,0.0,,,,382.0,,,,Pass,,,,,
521.0,8.0,wc_8,wc_4,1.0,"[('wc_4', 0.7500000000000006), ('wc_8', 0.5100000000000003), ('wc_9', 0.5400000000000004)]",0.9436500000000002,,,27.0,0.04474500000000001,['Pass'],Pass,0.7500000000000006,-0.7500000000000006,0.0,0.0,0.7
532.0,10.0,wc_10,,0.0,,,,162.0,,,,Pass,,,,,
532.0,10.0,wc_10,,0.0,,,79.0,,,,,Pass,,,,,
532.0,10.0,wc_10,,0.0,,,,0.0,,,,Pass,,,,,
532.0,10.0,wc_10,wc_10,0.0,"[('wc_10', 0.7700000000000006)]",0.7700000000000006,,,23.0,0.002445,['Pass'],Pass,0.7700000000000006,-0.5700000000000005,1.0,5.0,1.0
532.0,10.0,wc_10,,0.0,,,,81.0,,,,Pass,,,,,
532.0,10.0,wc_10,wc_12,0.0,"[('wc_12', 0.40000000000000024), ('wc_10', 0.7700000000000006)]",0.8620000000000004,,,31.0,0.0037869999999999996,['Pass'],Pass,0.40000000000000024,-0.20000000000000023,0.0,0.0,0.3
532.0,10.0,wc_10,,0.0,,,,361.0,,,,Pass,,,,,
532.0,10.0,wc_10,wc_11,1.0,"[('wc_11', 0.7200000000000005), ('wc_10', 0.7700000000000006), ('wc_12', 0.40000000000000024)]",0.9613600000000002,,,20.0,0.040342,['Pass'],Pass,0.7200000000000005,-0.7200000000000005,0.0,0.0,0.8
540.0,11.0,wc_11,,0.0,,,,0.0,,,,Pass,,,,,
540.0,11.0,wc_11,,0.0,,,62.0,,,,,Pass,,,,,
540.0,11.0,wc_11,,0.0,,,,0.0,,,,Pass,,,,,
540.0,11.0,wc_11,wc_11,0.0,"[('wc_11', 0.7200000000000005)]",0.7200000000000005,,,30.0,0.002139,['Pass'],Pass,0.7200000000000005,-0.7200000000000005,0.0,0.0,0.8
540.0,11.0,wc_11,,0.0,,,,203.0,,,,Pass,,,,,
540.0,11.0,wc_11,wc_1,0.0,"[('wc_11', 0.7200000000000005)]",0.7200000000000005,,,27.0,0.004312,['Pass'],Pass,0.2600000000000001,-0.01000000000000012,1.0,4.0,0.1
540.0,11.0,wc_11,,0.0,,,,223.0,,,,Pass,,,,,
540.0,11.0,wc_11,wc_10,0.0,"[('wc_10', 0.7700000000000006), ('wc_11', 0.7200000000000005)]",0.9356000000000003,,,37.0,0.005953,['Pass'],Pass,0.7700000000000006,-0.43666666666666726,2.0,6.0,1.0
540.0,11.0,wc_11,,0.0,,,,342.0,,,,Pass,,,,,
540.0,11.0,wc_11,wc_3,1.0,"[('wc_3', 0.7400000000000005), ('wc_11', 0.7200000000000005), ('wc_10', 0.7700000000000006)]",0.9832560000000001,,,27.0,0.045724,['Pass'],Pass,0.7400000000000005,-0.7400000000000005,0.0,0.0,0.9
554.0,12.0,wc_12,,0.0,,,,141.0,,,,Fail,,,,,
554.0,12.0,wc_12,,0.0,,,56.0,,,,,Fail,,,,,
554.0,12.0,wc_12,,0.0,,,,0.0,,,,Fail,,,,,
554.0,12.0,wc_12,wc_12,0.0,"[('wc_12', 0.41000000000000025)]",0.41000000000000025,,,25.0,0.002207,['Fail'],Fail,0.41000000000000025,0.08999999999999975,1.0,2.0,0.3
554.0,12.0,wc_12,,0.0,,,,242.0,,,,Fail,,,,,
554.0,12.0,wc_12,wc_1,0.0,"[('wc_12', 0.41000000000000025)]",0.41000000000000025,,,40.0,0.0037140000000000003,['Fail'],Fail,0.2500000000000001,-0.0500000000000001,1.0,5.0,0.1
554.0,12.0,wc_12,,0.0,,,,162.0,,,,Fail,,,,,
554.0,12.0,wc_12,wc_7,0.0,"[('wc_7', 0.6400000000000005), ('wc_12', 0.41000000000000025)]",0.7876000000000003,,,23.0,0.008526,['Fail'],Fail,0.6400000000000005,-0.39000000000000046,2.0,8.0,0.6
554.0,12.0,wc_12,,0.0,,,,102.0,,,,Fail,,,,,
554.0,12.0,wc_12,wc_6,1.0,"[('wc_6', 0.7400000000000005), ('wc_12', 0.41000000000000025), ('wc_7', 0.6400000000000005)]",0.9447760000000002,,,35.0,0.043646000000000004,['Fail'],Fail,0.7400000000000005,-0.7400000000000005,0.0,0.0,0.9
570.0,12.0,wc_12,,0.0,,,,162.0,,,,Fail,,,,,
570.0,12.0,wc_12,,0.0,,,77.0,,,,,Fail,,,,,
570.0,12.0,wc_12,,0.0,,,,0.0,,,,Fail,,,,,
570.0,12.0,wc_12,wc_12,0.0,"[('wc_12', 0.42000000000000026)]",0.42000000000000026,,,30.0,0.002166,['Fail'],Fail,0.42000000000000026,0.24666666666666637,2.0,3.0,0.3
570.0,12.0,wc_12,,0.0,,,,242.0,,,,Fail,,,,,
570.0,12.0,wc_12,wc_1,0.0,"[('wc_1', 0.2400000000000001), ('wc_12', 0.42000000000000026)]",0.5592000000000003,,,23.0,0.004012,['Fail'],Fail,0.2400000000000001,-0.07333333333333344,1.0,6.0,0.1
570.0,12.0,wc_12,,0.0,,,,223.0,,,,Fail,,,,,
570.0,12.0,wc_12,wc_10,0.0,"[('wc_10', 0.7700000000000006), ('wc_12', 0.42000000000000026), ('wc_1', 0.2400000000000001)]",0.8986160000000003,,,22.0,0.006123999999999999,['Fail'],Fail,0.7700000000000006,-0.3950000000000006,3.0,8.0,1.0
570.0,12.0,wc_12,,0.0,,,,162.0,,,,Fail,,,,,
570.0,12.0,wc_12,wc_16,1.0,"[('wc_16', 0.8300000000000006), ('wc_12', 0.42000000000000026), ('wc_1', 0.2400000000000001), ('wc_10', 0.7700000000000006)]",0.9827647200000001,,,35.0,0.040921000000000006,['Fail'],Fail,0.8300000000000006,-0.7050000000000006,1.0,8.0,0.8
581.0,12.0,wc_12,,0.0,,,,41.0,,,,Fail,,,,,
581.0,12.0,wc_12,,0.0,,,60.0,,,,,Fail,,,,,
581.0,12.0,wc_12,,0.0,,,,0.0,,,,Fail,,,,,
581.0,12.0,wc_12,wc_12,0.0,"[('wc_12', 0.43000000000000027)]",0.43000000000000027,,,22.0,0.002376,['Fail'],Fail,0.43000000000000027,0.31999999999999973,3.0,4.0,0.3
581.0,12.0,wc_12,,0.0,,,,0.0,,,,Fail,,,,,
581.0,12.0,wc_12,wc_13,0.0,"[('wc_13', 0.3300000000000002), ('wc_12', 0.43000000000000027)]",0.6181000000000003,,,29.0,0.0042109999999999995,['Fail'],Fail,0.3300000000000002,-0.057272727272727475,0.0,0.0,0.3
581.0,12.0,wc_12,,0.0,,,,242.0,,,,Fail,,,,,
581.0,12.0,wc_12,wc_2,1.0,"[('wc_2', 0.7900000000000006), ('wc_12', 0.43000000000000027), ('wc_13', 0.3300000000000002)]",0.9198010000000003,,,30.0,0.041055999999999995,['Fail'],Fail,0.7900000000000006,-0.623333333333334,1.0,6.0,0.8
585.0,12.0,wc_12,,0.0,,,,162.0,,,,Fail,,,,,
585.0,12.0,wc_12,,0.0,,,51.0,,,,,Fail,,,,,
585.0,12.0,wc_12,,0.0,,,,0.0,,,,Fail,,,,,
585.0,12.0,wc_12,wc_12,0.0,"[('wc_12', 0.4400000000000003)]",0.4400000000000003,,,35.0,0.002571,['Fail'],Fail,0.4400000000000003,0.35999999999999976,4.0,5.0,0.3
585.0,12.0,wc_12,,0.0,,,,341.0,,,,Fail,,,,,
585.0,12.0,wc_12,wc_10,0.0,"[('wc_10', 0.7700000000000006), ('wc_12', 0.4400000000000003)]",0.8712000000000004,,,30.0,0.005017,['Fail'],Fail,0.7700000000000006,-0.37000000000000055,0.0,0.0,1.0
585.0,12.0,wc_12,,0.0,,,,362.0,,,,Fail,,,,,
585.0,12.0,wc_12,wc_4,1.0,"[('wc_4', 0.7500000000000006), ('wc_12', 0.4400000000000003), ('wc_10', 0.7700000000000006)]",0.9678000000000002,,,21.0,0.050383000000000004,['Fail'],Fail,0.7500000000000006,-0.5833333333333339,1.0,6.0,0.7
592.0,12.0,wc_12,,0.0,,,,121.0,,,,Fail,,,,,
592.0,12.0,wc_12,,0.0,,,68.0,,,,,Fail,,,,,
592.0,12.0,wc_12,,0.0,,,,0.0,,,,Fail,,,,,
592.0,12.0,wc_12,wc_12,0.0,"[('wc_12', 0.4500000000000003)]",0.4500000000000003,,,28.0,0.002178,['Fail'],Fail,0.4500000000000003,0.3833333333333331,5.0,6.0,0.3
592.0,12.0,wc_12,,0.0,,,,341.0,,,,Fail,,,,,
592.0,12.0,wc_12,wc_10,0.0,"[('wc_10', 0.7800000000000006), ('wc_12', 0.4500000000000003)]",0.8790000000000003,,,37.0,0.005416,['Fail'],Fail,0.7800000000000006,0.21999999999999942,1.0,1.0,1.0
592.0,12.0,wc_12,,0.0,,,,41.0,,,,Fail,,,,,
592.0,12.0,wc_12,wc_6,1.0,"[('wc_6', 0.7400000000000005), ('wc_12', 0.4500000000000003), ('wc_10', 0.7800000000000006)]",0.9685400000000002,,,28.0,0.041741999999999994,['Fail'],Fail,0.7400000000000005,-0.49000000000000055,1.0,4.0,0.9
600.0,12.0,wc_12,,0.0,,,,162.0,,,,Fail,,,,,
600.0,12.0,wc_12,,0.0,,,62.0,,,,,Fail,,,,,
600.0,12.0,wc_12,,0.0,,,,0.0,,,,Fail,,,,,
600.0,12.0,wc_12,wc_12,0.0,"[('wc_12', 0.4600000000000003)]",0.4600000000000003,,,20.0,0.002332,['Fail'],Fail,0.4600000000000003,0.3971428571428568,6.0,7.0,0.3
600.0,12.0,wc_12,,0.0,,,,242.0,,,,Fail,,,,,
600.0,12.0,wc_12,wc_1,0.0,"[('wc_12', 0.4600000000000003)]",0.4600000000000003,,,26.0,0.004401,['Fail'],Fail,0.2500000000000001,-0.0500000000000001,0.0,0.0,0.1
600.0,12.0,wc_12,,0.0,,,,0.0,,,,Fail,,,,,
600.0,12.0,wc_12,wc_5,0.0,"[('wc_5', 0.4800000000000003), ('wc_1', 0.2500000000000001)]",0.6100000000000003,,,26.0,0.005971000000000001,['Pass'],Fail,0.4800000000000003,-0.4211764705882356,0.0,0.0,0.4
600.0,12.0,wc_12,,0.0,,,,202.0,,,,Fail,,,,,
600.0,12.0,wc_12,wc_17,0.0,"[('wc_17', 0.40000000000000024), ('wc_12', 0.4600000000000003)]",0.6760000000000004,,,37.0,0.007314000000000001,['Fail'],Fail,0.40000000000000024,-0.40000000000000024,0.0,8.0,0.4
600.0,12.0,wc_12,,0.0,,,,61.0,,,,Fail,,,,,
600.0,12.0,wc_12,wc_14,0.0,"[('wc_14', 0.6400000000000005), ('wc_12', 0.4600000000000003), ('wc_17', 0.40000000000000024)]",0.8833600000000003,,,28.0,0.011212000000000001,['Fail'],Fail,0.6400000000000005,-0.6400000000000005,0.0,0.0,0.5
600.0,12.0,wc_12,,0.0,,,,142.0,,,,Fail,,,,,
600.0,12.0,wc_12,wc_6,1.0,"[('wc_6', 0.7400000000000005), ('wc_12', 0.4600000000000003), ('wc_17', 0.40000000000000024), ('wc_14', 0.6400000000000005)]",0.9696736000000001,,,27.0,0.04909,['Fail'],Fail,0.7400000000000005,-0.3400000000000005,2.0,5.0,0.9
607.0,12.0,wc_12,,0.0,,,,162.0,,,,Pass,,,,,
607.0,12.0,wc_12,,0.0,,,72.0,,,,,Pass,,,,,
607.0,12.0,wc_12,,0.0,,,,0.0,,,,Pass,,,,,
607.0,12.0,wc_12,wc_12,0.0,"[('wc_12', 0.4700000000000003)]",0.4700000000000003,,,30.0,0.002092,['Pass'],Pass,0.4700000000000003,0.4049999999999997,7.0,8.0,0.3
607.0,12.0,wc_12,,0.0,,,,381.0,,,,Pass,,,,,
607.0,12.0,wc_12,wc_4,0.0,"[('wc_4', 0.7500000000000006), ('wc_12', 0.4700000000000003)]",0.8675000000000004,,,26.0,0.00386,['Pass'],Pass,0.7500000000000006,-0.6250000000000006,1.0,8.0,0.7
607.0,12.0,wc_12,,0.0,,,,161.0,,,,Pass,,,,,
607.0,12.0,wc_12,wc_14,1.0,"[('wc_14', 0.6500000000000005), ('wc_12', 0.4700000000000003), ('wc_4', 0.7500000000000006)]",0.9536250000000002,,,22.0,0.04860300000000001,['Pass'],Pass,0.6600000000000005,0.3399999999999995,2.0,2.0,0.5
611.0,13.0,wc_13,,0.0,,,,102.0,,,,Fail,,,,,
611.0,13.0,wc_13,,0.0,,,80.0,,,,,Fail,,,,,
611.0,13.0,wc_13,,0.0,,,,0.0,,,,Fail,,,,,
611.0,13.0,wc_13,wc_13,0.0,"[('wc_13', 0.3400000000000002)]",0.3400000000000002,,,39.0,0.002173,['Fail'],Fail,0.3400000000000002,-0.14000000000000018,1.0,5.0,0.3
611.0,13.0,wc_13,,0.0,,,,321.0,,,,Fail,,,,,
611.0,13.0,wc_13,wc_10,0.0,"[('wc_10', 0.7900000000000006), ('wc_13', 0.3400000000000002)]",0.8614000000000004,,,38.0,0.0048649999999999995,['Fail'],Fail,0.7900000000000006,-0.2900000000000006,2.0,4.0,1.0
611.0,13.0,wc_13,,0.0,,,,182.0,,,,Fail,,,,,
611.0,13.0,wc_13,wc_17,0.0,"[('wc_13', 0.3400000000000002), ('wc_10', 0.7900000000000006)]",0.8614000000000004,,,29.0,0.006071,['Fail'],Fail,0.40000000000000024,-0.30000000000000027,0.0,0.0,0.4
611.0,13.0,wc_13,,0.0,,,,21.0,,,,Fail,,,,,
611.0,13.0,wc_13,wc_12,0.0,"[('wc_13', 0.3400000000000002), ('wc_10', 0.7900000000000006)]",0.8614000000000004,,,39.0,0.007799,['Fail'],Fail,0.4800000000000003,0.4088888888888885,8.0,9.0,0.3
611.0,13.0,wc_13,,0.0,,,,401.0,,,,Fail,,,,,
611.0,13.0,wc_13,wc_5,1.0,"[('wc_5', 0.4700000000000003), ('wc_13', 0.3400000000000002), ('wc_10', 0.7900000000000006)]",0.9265420000000003,,,40.0,0.0476,['Fail'],Fail,0.4700000000000003,-0.136666666666667,1.0,3.0,0.4
614.0,13.0,wc_13,,0.0,,,,121.0,,,,Fail,,,,,
614.0,13.0,wc_13,,0.0,,,74.0,,,,,Fail,,,,,
614.0,13.0,wc_13,,0.0,,,,0.0,,,,Fail,,,,,
614.0,13.0,wc_13,wc_13,0.0,"[('wc_13', 0.3400000000000002)]",0.3400000000000002,,,31.0,0.002204,['Pass'],Fail,0.3400000000000002,-0.006666666666666876,2.0,6.0,0.3
614.0,13.0,wc_13,,0.0,,,,0.0,,,,Fail,,,,,
614.0,13.0,wc_13,wc_16,0.0,"[('wc_16', 0.8300000000000006)]",0.8300000000000006,,,40.0,0.005044,['Fail'],Fail,0.8300000000000006,-0.7585714285714292,0.0,0.0,0.8
614.0,13.0,wc_13,,0.0,,,,283.0,,,,Fail,,,,,
614.0,13.0,wc_13,wc_2,0.0,"[('wc_2', 0.7900000000000006), ('wc_16', 0.8300000000000006)]",0.9643000000000003,,,34.0,0.005877,['Fail'],Fail,0.7900000000000006,-0.6990909090909097,0.0,0.0,0.8
614.0,13.0,wc_13,,0.0,,,,223.0,,,,Fail,,,,,
614.0,13.0,wc_13,wc_11,1.0,"[('wc_11', 0.7300000000000005), ('wc_16', 0.8300000000000006), ('wc_2', 0.7900000000000006)]",0.990361,,,22.0,0.044905,['Fail'],Fail,0.7300000000000005,-0.7300000000000005,0.0,0.0,0.8
617.0,13.0,wc_13,,0.0,,,,81.0,,,,Pass,,,,,
617.0,13.0,wc_13,,0.0,,,54.0,,,,,Pass,,,,,
617.0,13.0,wc_13,,0.0,,,,0.0,,,,Pass,,,,,
617.0,13.0,wc_13,wc_13,0.0,"[('wc_13', 0.3300000000000002)]",0.3300000000000002,,,21.0,0.002338,['Fail'],Pass,0.3300000000000002,-0.044285714285714484,2.0,7.0,0.3
617.0,13.0,wc_13,,0.0,,,,341.0,,,,Pass,,,,,
617.0,13.0,wc_13,wc_3,0.0,"[('wc_3', 0.7400000000000005)]",0.7400000000000005,,,24.0,0.004032,['Pass'],Pass,0.7400000000000005,-0.7400000000000005,0.0,9.0,0.9
617.0,13.0,wc_13,,0.0,,,,81.0,,,,Pass,,,,,
617.0,13.0,wc_13,wc_1,0.0,"[('wc_3', 0.7400000000000005)]",0.7400000000000005,,,38.0,0.005889999999999999,['Pass'],Pass,0.2400000000000001,-0.2400000000000001,0.0,4.0,0.1
617.0,13.0,wc_13,,0.0,,,,283.0,,,,Pass,,,,,
617.0,13.0,wc_13,wc_17,0.0,"[('wc_17', 0.39000000000000024), ('wc_3', 0.7400000000000005)]",0.8414000000000004,,,36.0,0.007836,['Pass'],Pass,0.39000000000000024,-0.39000000000000024,0.0,2.0,0.4
617.0,13.0,wc_13,,0.0,,,,342.0,,,,Pass,,,,,
617.0,13.0,wc_13,wc_10,1.0,"[('wc_10', 0.7900000000000006), ('wc_3', 0.7400000000000005), ('wc_17', 0.39000000000000024)]",0.9666940000000002,,,24.0,0.045125000000000005,['Pass'],Pass,0.7900000000000006,-0.2185714285714292,4.0,7.0,1.0
620.0,14.0,wc_14,,0.0,,,,121.0,,,,Fail,,,,,
620.0,14.0,wc_14,,0.0,,,74.0,,,,,Fail,,,,,
620.0,14.0,wc_14,,0.0,,,,0.0,,,,Fail,,,,,
620.0,14.0,wc_14,wc_14,0.0,"[('wc_14', 0.6600000000000005)]",0.6600000000000005,,,30.0,0.002187,['Fail'],Fail,0.6600000000000005,-0.26000000000000045,2.0,5.0,0.5
620.0,14.0,wc_14,,0.0,,,,361.0,,,,Fail,,,,,
620.0,14.0,wc_14,wc_5,0.0,"[('wc_5', 0.4700000000000003), ('wc_14', 0.6600000000000005)]",0.8198000000000003,,,33.0,0.004677,['Fail'],Fail,0.4700000000000003,-0.2700000000000003,1.0,5.0,0.4
620.0,14.0,wc_14,,0.0,,,,162.0,,,,Fail,,,,,
620.0,14.0,wc_14,wc_15,0.0,"[('wc_14', 0.6600000000000005), ('wc_5', 0.4700000000000003)]",0.8198000000000003,,,35.0,0.005726,['Fail'],Fail,0.22000000000000008,-0.22000000000000008,0.0,0.0,0.2
620.0,14.0,wc_14,,0.0,,,,81.0,,,,Fail,,,,,
620.0,14.0,wc_14,wc_13,0.0,"[('wc_13', 0.3200000000000002), ('wc_14', 0.6600000000000005), ('wc_5', 0.4700000000000003)]",0.8774640000000002,,,21.0,0.00748,['Fail'],Fail,0.3200000000000002,-0.07000000000000017,2.0,8.0,0.3
620.0,14.0,wc_14,,0.0,,,,182.0,,,,Fail,,,,,
620.0,14.0,wc_14,wc_7,1.0,"[('wc_7', 0.6400000000000005), ('wc_14', 0.6600000000000005), ('wc_5', 0.4700000000000003), ('wc_13', 0.3200000000000002)]",0.9558870400000001,,,30.0,0.044824,['Fail'],Fail,0.6400000000000005,-0.6400000000000005,0.0,0.0,0.6
622.0,15.0,wc_15,,0.0,,,,203.0,,,,Pass,,,,,
622.0,15.0,wc_15,,0.0,,,63.0,,,,,Pass,,,,,
622.0,15.0,wc_15,,0.0,,,,0.0,,,,Pass,,,,,
622.0,15.0,wc_15,wc_15,0.0,"[('wc_15', 0.21000000000000008)]",0.21000000000000008,,,32.0,0.002321,['Fail'],Pass,0.21000000000000008,-0.21000000000000008,0.0,1.0,0.2
622.0,15.0,wc_15,,0.0,,,,223.0,,,,Pass,,,,,
622.0,15.0,wc_15,wc_6,0.0,"[('wc_6', 0.7400000000000005)]",0.7400000000000005,,,21.0,0.0039109999999999995,['Pass'],Pass,0.7400000000000005,-0.5400000000000005,0.0,0.0,0.9
622.0,15.0,wc_15,,0.0,,,,263.0,,,,Pass,,,,,
622.0,15.0,wc_15,wc_17,0.0,"[('wc_17', 0.39000000000000024), ('wc_6', 0.7400000000000005)]",0.8414000000000004,,,29.0,0.005906,['Pass'],Pass,0.39000000000000024,-0.14000000000000024,1.0,4.0,0.4
622.0,15.0,wc_15,,0.0,,,,41.0,,,,Pass,,,,,
622.0,15.0,wc_15,wc_13,0.0,"[('wc_6', 0.7400000000000005), ('wc_17', 0.39000000000000024)]",0.8414000000000004,,,40.0,0.007251,['Pass'],Pass,0.3300000000000002,0.0033333333333331328,3.0,9.0,0.3
622.0,15.0,wc_15,,0.0,,,,0.0,,,,Pass,,,,,
622.0,15.0,wc_15,wc_16,1.0,"[('wc_16', 0.8400000000000006), ('wc_6', 0.7400000000000005), ('wc_17', 0.39000000000000024)]",0.9746240000000002,,,20.0,0.043465,['Pass'],Pass,0.8400000000000006,-0.34000000000000064,2.0,4.0,0.8
624.0,14.0,wc_14,,0.0,,,,81.0,,,,Fail,,,,,
624.0,14.0,wc_14,,0.0,,,58.0,,,,,Fail,,,,,
624.0,14.0,wc_14,,0.0,,,,0.0,,,,Fail,,,,,
624.0,14.0,wc_14,wc_14,0.0,"[('wc_14', 0.6600000000000005)]",0.6600000000000005,,,32.0,0.002271,['Pass'],Fail,0.6600000000000005,-0.23142857142857193,3.0,7.0,0.5
624.0,14.0,wc_14,,0.0,,,,301.0,,,,Fail,,,,,
624.0,14.0,wc_14,wc_10,0.0,"[('wc_10', 0.7900000000000006)]",0.7900000000000006,,,23.0,0.004358,['Fail'],Fail,0.7900000000000006,-0.34555555555555617,4.0,9.0,1.0
624.0,14.0,wc_14,,0.0,,,,382.0,,,,Fail,,,,,
624.0,14.0,wc_14,wc_5,0.0,"[('wc_5', 0.4700000000000003), ('wc_14', 0.6600000000000005)]",0.8198000000000003,,,20.0,0.005994,['Pass'],Fail,0.4700000000000003,-0.1842857142857146,2.0,7.0,0.4
624.0,14.0,wc_14,,0.0,,,,182.0,,,,Fail,,,,,
624.0,14.0,wc_14,wc_16,0.0,"[('wc_16', 0.8400000000000006), ('wc_10', 0.7900000000000006)]",0.9664000000000003,,,33.0,0.007444,['Fail'],Fail,0.8400000000000006,-0.34000000000000064,2.0,4.0,0.8
624.0,14.0,wc_14,,0.0,,,,342.0,,,,Fail,,,,,
624.0,14.0,wc_14,wc_9,0.0,"[('wc_10', 0.7900000000000006), ('wc_16', 0.8400000000000006)]",0.9664000000000003,,,29.0,0.009202,['Fail'],Fail,0.5400000000000004,-0.43473684210526353,0.0,0.0,0.4
624.0,14.0,wc_14,,0.0,,,,121.0,,,,Fail,,,,,
624.0,14.0,wc_14,wc_13,0.0,"[('wc_10', 0.7900000000000006), ('wc_16', 0.8400000000000006)]",0.9664000000000003,,,35.0,0.011362,['Fail'],Fail,0.3200000000000002,-0.3200000000000002,0.0,0.0,0.3
624.0,14.0,wc_14,,0.0,,,,341.0,,,,Fail,,,,,
624.0,14.0,wc_14,wc_11,1.0,"[('wc_11', 0.7300000000000005), ('wc_10', 0.7900000000000006), ('wc_16', 0.8400000000000006)]",0.990928,,,35.0,0.050013,['Fail'],Fail,0.7300000000000005,-0.48000000000000054,1.0,4.0,0.8
626.0,14.0,wc_14,,0.0,,,,101.0,,,,Pass,,,,,
626.0,14.0,wc_14,,0.0,,,59.0,,,,,Pass,,,,,
626.0,14.0,wc_14,,0.0,,,,0.0,,,,Pass,,,,,
626.0,14.0,wc_14,wc_14,0.0,"[('wc_14', 0.6500000000000005)]",0.6500000000000005,,,29.0,0.002206,['Pass'],Pass,0.6500000000000005,-0.27500000000000047,3.0,8.0,0.5
626.0,14.0,wc_14,,0.0,,,,0.0,,,,Pass,,,,,
626.0,14.0,wc_14,wc_17,0.0,"[('wc_14', 0.6500000000000005)]",0.6500000000000005,,,34.0,0.004424,['Pass'],Pass,0.39000000000000024,-0.05666666666666692,2.0,6.0,0.4
626.0,14.0,wc_14,,0.0,,,,362.0,,,,Pass,,,,,
626.0,14.0,wc_14,wc_3,0.0,"[('wc_3', 0.7400000000000005), ('wc_14', 0.6500000000000005)]",0.9090000000000003,,,33.0,0.006228,['Pass'],Pass,0.7400000000000005,-0.7400000000000005,0.0,3.0,0.9
626.0,14.0,wc_14,,0.0,,,,162.0,,,,Pass,,,,,
626.0,14.0,wc_14,wc_9,0.0,"[('wc_14', 0.6500000000000005), ('wc_3', 0.7400000000000005)]",0.9090000000000003,,,27.0,0.008846,['Pass'],Pass,0.5300000000000004,-0.5300000000000004,0.0,1.0,0.4
626.0,14.0,wc_14,,0.0,,,,101.0,,,,Pass,,,,,
626.0,14.0,wc_14,wc_12,0.0,"[('wc_14', 0.6500000000000005), ('wc_3', 0.7400000000000005)]",0.9090000000000003,,,20.0,0.009682,['Pass'],Pass,0.4800000000000003,-0.4800000000000003,0.0,5.0,0.3
626.0,14.0,wc_14,,0.0,,,,401.0,,,,Pass,,,,,
626.0,14.0,wc_14,wc_5,1.0,"[('wc_5', 0.4600000000000003), ('wc_14', 0.6500000000000005), ('wc_3', 0.7400000000000005)]",0.9508600000000001,,,33.0,0.047372000000000004,['Pass'],Pass,0.4600000000000003,-0.12666666666666698,3.0,9.0,0.4
628.0,16.0,wc_16,,0.0,,,,182.0,,,,Fail,,,,,
628.0,16.0,wc_16,,0.0,,,56.0,,,,,Fail,,,,,
628.0,16.0,wc_16,,0.0,,,,0.0,,,,Fail,,,,,
628.0,16.0,wc_16,wc_16,0.0,"[('wc_16', 0.8400000000000006)]",0.8400000000000006,,,37.0,0.002088,['Fail'],Fail,0.8400000000000006,-0.34000000000000064,3.0,6.0,0.8
628.0,16.0,wc_16,,0.0,,,,382.0,,,,Fail,,,,,
628.0,16.0,wc_16,wc_3,0.0,"[('wc_3', 0.7400000000000005), ('wc_16', 0.8400000000000006)]",0.9584000000000003,,,38.0,0.004128,['Fail'],Fail,0.7400000000000005,-0.49000000000000055,1.0,4.0,0.9
628.0,16.0,wc_16,,0.0,,,,161.0,,,,Fail,,,,,
628.0,16.0,wc_16,wc_13,1.0,"[('wc_13', 0.31000000000000016), ('wc_16', 0.8400000000000006), ('wc_3', 0.7400000000000005)]",0.9712960000000002,,,23.0,0.041105,['Fail'],Fail,0.3200000000000002,0.013333333333333142,1.0,3.0,0.3
630.0,16.0,wc_16,,0.0,,,,0.0,,,,Pass,,,,,
630.0,16.0,wc_16,,0.0,,,78.0,,,,,Pass,,,,,
630.0,16.0,wc_16,,0.0,,,,0.0,,,,Pass,,,,,
630.0,16.0,wc_16,wc_16,0.0,"[('wc_16', 0.8400000000000006)]",0.8400000000000006,,,21.0,0.002146,['Pass'],Pass,0.8400000000000006,-0.26857142857142924,4.0,7.0,0.8
630.0,16.0,wc_16,,0.0,,,,203.0,,,,Pass,,,,,
630.0,16.0,wc_16,wc_6,0.0,"[('wc_6', 0.7500000000000006), ('wc_16', 0.8400000000000006)]",0.9600000000000003,,,35.0,0.004406,['Pass'],Pass,0.7500000000000006,-0.5000000000000006,1.0,4.0,0.9
630.0,16.0,wc_16,,0.0,,,,361.0,,,,Pass,,,,,
630.0,16.0,wc_16,wc_5,1.0,"[('wc_5', 0.4600000000000003), ('wc_16', 0.8400000000000006), ('wc_6', 0.7500000000000006)]",0.9784000000000002,,,30.0,0.040462,['Pass'],Pass,0.4600000000000003,-0.4600000000000003,0.0,0.0,0.4
632.0,17.0,wc_17,,0.0,,,,202.0,,,,Pass,,,,,
632.0,17.0,wc_17,,0.0,,,62.0,,,,,Pass,,,,,
632.0,17.0,wc_17,,0.0,,,,0.0,,,,Pass,,,,,
632.0,17.0,wc_17,wc_17,0.0,"[('wc_17', 0.3800000000000002)]",0.3800000000000002,,,28.0,0.002106,['Fail'],Pass,0.3800000000000002,-0.15777777777777802,2.0,9.0,0.4
632.0,17.0,wc_17,,0.0,,,,83.0,,,,Pass,,,,,
632.0,17.0,wc_17,wc_15,0.0,"[('wc_15', 0.20000000000000007), ('wc_17', 0.3800000000000002)]",0.5040000000000002,,,27.0,0.0050290000000000005,['Fail'],Pass,0.20000000000000007,-0.20000000000000007,0.0,6.0,0.2
632.0,17.0,wc_17,,0.0,,,,442.0,,,,Pass,,,,,
632.0,17.0,wc_17,wc_5,0.0,"[('wc_17', 0.3800000000000002), ('wc_15', 0.20000000000000007)]",0.5040000000000002,,,20.0,0.006295,['Fail'],Pass,0.4600000000000003,-0.4600000000000003,0.0,0.0,0.4
632.0,17.0,wc_17,,0.0,,,,61.0,,,,Pass,,,,,
632.0,17.0,wc_17,wc_6,0.0,"[('wc_6', 0.7500000000000006), ('wc_5', 0.4600000000000003)]",0.8650000000000004,,,22.0,0.007954,['Pass'],Pass,0.7500000000000006,-0.35000000000000053,2.0,5.0,0.9
632.0,17.0,wc_17,,0.0,,,,0.0,,,,Pass,,,,,
632.0,17.0,wc_17,wc_7,1.0,"[('wc_7', 0.6400000000000005), ('wc_5', 0.4600000000000003), ('wc_6', 0.7500000000000006)]",0.9514000000000002,,,40.0,0.04864700000000001,['Pass'],Pass,0.6400000000000005,-0.4733333333333338,1.0,6.0,0.6
