mpecck/BCQC/bcqc_with_qdt/results/raw/input_4/independent_qc/training/20_workpiece/20200429_084410/wp_5_qc_majority_0.9.csv
production_index,step_idx,production_workcell,qc,consent,winner_qc_list,score,production_time,transport_time,inspection_time,network_time,qc_results,actual_quality,qc_score,score_error,in_winner_counter,in_qc_counter,qc_capability
5.0,1.0,wc_1,,0.0,,,77.0,,,,,Pass,,,,,
5.0,1.0,wc_1,,0.0,,,,0.0,,,,Pass,,,,,
5.0,1.0,wc_1,wc_1,0.0,"[('wc_1', 0.3200000000000002)]",0.3200000000000002,,,20.0,0.002282,['Pass'],Pass,0.3200000000000002,-0.3200000000000002,0.0,1.0,0.1
5.0,1.0,wc_1,,0.0,,,,263.0,,,,Pass,,,,,
5.0,1.0,wc_1,wc_16,0.0,"[('wc_16', 0.5200000000000004), ('wc_1', 0.3200000000000002)]",0.6736000000000003,,,23.0,0.004059,['Pass'],Pass,0.5200000000000004,-0.3661538461538465,0.0,0.0,0.8
5.0,1.0,wc_1,,0.0,,,,243.0,,,,Pass,,,,,
5.0,1.0,wc_1,wc_8,0.0,"[('wc_8', 0.3200000000000002), ('wc_1', 0.3200000000000002), ('wc_16', 0.5200000000000004)]",0.7780480000000003,,,39.0,0.006286,['Pass'],Pass,0.3200000000000002,-0.15333333333333352,1.0,6.0,0.6
5.0,1.0,wc_1,,0.0,,,,162.0,,,,Pass,,,,,
5.0,1.0,wc_1,wc_14,0.0,"[('wc_14', 0.41000000000000025), ('wc_1', 0.3200000000000002), ('wc_16', 0.5200000000000004), ('wc_8', 0.3200000000000002)]",0.8690483200000002,,,37.0,0.007521,['Pass'],Pass,0.41000000000000025,-0.28500000000000025,1.0,8.0,0.5
5.0,1.0,wc_1,,0.0,,,,142.0,,,,Pass,,,,,
5.0,1.0,wc_1,wc_6,1.0,"[('wc_6', 0.6900000000000005), ('wc_1', 0.3200000000000002), ('wc_16', 0.5200000000000004), ('wc_8', 0.3200000000000002), ('wc_14', 0.41000000000000025)]",0.9594049792000001,,,28.0,0.039548,['Pass'],Pass,0.6900000000000005,-0.1900000000000005,2.0,4.0,0.9
6.0,3.0,wc_3,,0.0,,,,321.0,,,,Pass,,,,,
6.0,3.0,wc_3,,0.0,,,56.0,,,,,Pass,,,,,
6.0,3.0,wc_3,,0.0,,,,0.0,,,,Pass,,,,,
6.0,3.0,wc_3,wc_3,0.0,"[('wc_3', 0.5100000000000003)]",0.5100000000000003,,,34.0,0.003185,['Pass'],Pass,0.5100000000000003,-0.26000000000000034,1.0,4.0,0.9
6.0,3.0,wc_3,,0.0,,,,0.0,,,,Pass,,,,,
6.0,3.0,wc_3,wc_4,0.0,"[('wc_4', 0.5500000000000004), ('wc_3', 0.5100000000000003)]",0.7795000000000003,,,37.0,0.00402,['Pass'],Pass,0.5500000000000004,0.005555555555555203,5.0,9.0,0.7
6.0,3.0,wc_3,,0.0,,,,162.0,,,,Pass,,,,,
6.0,3.0,wc_3,wc_10,0.0,"[('wc_10', 0.5200000000000004), ('wc_3', 0.5100000000000003), ('wc_4', 0.5500000000000004)]",0.8941600000000003,,,40.0,0.005696,['Pass'],Pass,0.5200000000000004,-0.29777777777777814,2.0,9.0,1.0
6.0,3.0,wc_3,,0.0,,,,142.0,,,,Pass,,,,,
6.0,3.0,wc_3,wc_15,1.0,"[('wc_15', 0.2300000000000001), ('wc_3', 0.5100000000000003), ('wc_4', 0.5500000000000004), ('wc_10', 0.5200000000000004)]",0.9185032000000002,,,40.0,0.036479,['Pass'],Pass,0.2400000000000001,0.009999999999999898,1.0,4.0,0.2
10.0,4.0,wc_4,,0.0,,,,422.0,,,,Pass,,,,,
10.0,4.0,wc_4,,0.0,,,78.0,,,,,Pass,,,,,
10.0,4.0,wc_4,,0.0,,,,0.0,,,,Pass,,,,,
10.0,4.0,wc_4,wc_4,0.0,"[('wc_4', 0.5600000000000004)]",0.5600000000000004,,,21.0,0.002345,['Pass'],Pass,0.5600000000000004,-0.5600000000000004,0.0,0.0,0.7
10.0,4.0,wc_4,,0.0,,,,101.0,,,,Pass,,,,,
10.0,4.0,wc_4,wc_7,0.0,"[('wc_7', 0.5400000000000004), ('wc_4', 0.5600000000000004)]",0.7976000000000003,,,26.0,0.004012,['Pass'],Pass,0.5400000000000004,-0.04000000000000037,2.0,4.0,0.6
10.0,4.0,wc_4,,0.0,,,,0.0,,,,Pass,,,,,
10.0,4.0,wc_4,wc_8,0.0,"[('wc_8', 0.3200000000000002), ('wc_4', 0.5600000000000004), ('wc_7', 0.5400000000000004)]",0.8623680000000002,,,28.0,0.005572,['Pass'],Pass,0.3200000000000002,-0.07000000000000017,2.0,8.0,0.6
10.0,4.0,wc_4,,0.0,,,,183.0,,,,Pass,,,,,
10.0,4.0,wc_4,wc_15,0.0,"[('wc_15', 0.2400000000000001), ('wc_4', 0.5600000000000004), ('wc_7', 0.5400000000000004), ('wc_8', 0.3200000000000002)]",0.8953996800000003,,,39.0,0.008128,['Pass'],Pass,0.2400000000000001,0.009999999999999898,1.0,4.0,0.2
10.0,4.0,wc_4,,0.0,,,,303.0,,,,Pass,,,,,
10.0,4.0,wc_4,wc_2,1.0,"[('wc_2', 0.5900000000000004), ('wc_4', 0.5600000000000004), ('wc_7', 0.5400000000000004), ('wc_8', 0.3200000000000002), ('wc_15', 0.2400000000000001)]",0.9571138688000002,,,29.0,0.046754000000000004,['Pass'],Pass,0.5900000000000004,-0.5900000000000004,0.0,0.0,0.8
15.0,2.0,wc_2,,0.0,,,,0.0,,,,Fail,,,,,
15.0,2.0,wc_2,,0.0,,,56.0,,,,,Fail,,,,,
15.0,2.0,wc_2,,0.0,,,,0.0,,,,Fail,,,,,
15.0,2.0,wc_2,wc_2,0.0,"[('wc_2', 0.5900000000000004)]",0.5900000000000004,,,29.0,0.00245,['Fail'],Fail,0.5900000000000004,-0.5900000000000004,0.0,0.0,0.8
15.0,2.0,wc_2,,0.0,,,,0.0,,,,Fail,,,,,
15.0,2.0,wc_2,wc_5,0.0,"[('wc_5', 0.28000000000000014), ('wc_2', 0.5900000000000004)]",0.7048000000000003,,,25.0,0.003941999999999999,['Fail'],Fail,0.28000000000000014,-0.08000000000000013,0.0,0.0,0.4
15.0,2.0,wc_2,,0.0,,,,103.0,,,,Fail,,,,,
15.0,2.0,wc_2,wc_4,0.0,"[('wc_4', 0.5700000000000004), ('wc_2', 0.5900000000000004), ('wc_5', 0.28000000000000014)]",0.8730640000000003,,,26.0,0.0062109999999999995,['Fail'],Fail,0.5700000000000004,0.4299999999999996,1.0,1.0,0.7
15.0,2.0,wc_2,,0.0,,,,182.0,,,,Fail,,,,,
15.0,2.0,wc_2,wc_11,1.0,"[('wc_11', 0.5200000000000004), ('wc_2', 0.5900000000000004), ('wc_5', 0.28000000000000014), ('wc_4', 0.5700000000000004)]",0.9390707200000001,,,26.0,0.040566000000000005,['Fail'],Fail,0.5200000000000004,-0.18666666666666704,3.0,9.0,0.8
18.0,2.0,wc_2,,0.0,,,,223.0,,,,Fail,,,,,
18.0,2.0,wc_2,,0.0,,,65.0,,,,,Fail,,,,,
18.0,2.0,wc_2,,0.0,,,,0.0,,,,Fail,,,,,
18.0,2.0,wc_2,wc_2,0.0,"[('wc_2', 0.6000000000000004)]",0.6000000000000004,,,21.0,0.002471,['Fail'],Fail,0.6000000000000004,0.3999999999999996,1.0,1.0,0.8
18.0,2.0,wc_2,,0.0,,,,162.0,,,,Fail,,,,,
18.0,2.0,wc_2,wc_12,0.0,"[('wc_2', 0.6000000000000004)]",0.6000000000000004,,,36.0,0.004099,['Fail'],Fail,0.28000000000000014,-0.12615384615384628,0.0,0.0,0.3
18.0,2.0,wc_2,,0.0,,,,0.0,,,,Fail,,,,,
18.0,2.0,wc_2,wc_15,0.0,"[('wc_15', 0.2500000000000001), ('wc_2', 0.6000000000000004)]",0.7000000000000004,,,37.0,0.0073030000000000005,['Fail'],Fail,0.2500000000000001,0.0833333333333332,2.0,6.0,0.2
18.0,2.0,wc_2,,0.0,,,,0.0,,,,Fail,,,,,
18.0,2.0,wc_2,wc_17,0.0,"[('wc_2', 0.6000000000000004), ('wc_15', 0.2500000000000001)]",0.7000000000000004,,,33.0,0.0105,['Fail'],Fail,0.3300000000000002,-0.3300000000000002,0.0,4.0,0.4
18.0,2.0,wc_2,,0.0,,,,342.0,,,,Fail,,,,,
18.0,2.0,wc_2,wc_10,0.0,"[('wc_10', 0.5200000000000004), ('wc_2', 0.6000000000000004), ('wc_15', 0.2500000000000001)]",0.8560000000000003,,,25.0,0.010245,['Fail'],Fail,0.5200000000000004,-0.5200000000000004,0.0,2.0,1.0
18.0,2.0,wc_2,,0.0,,,,362.0,,,,Fail,,,,,
18.0,2.0,wc_2,wc_4,1.0,"[('wc_4', 0.5800000000000004), ('wc_2', 0.6000000000000004), ('wc_15', 0.2500000000000001), ('wc_10', 0.5200000000000004)]",0.9395200000000001,,,22.0,0.04413600000000001,['Fail'],Fail,0.5900000000000004,0.4099999999999996,3.0,3.0,0.7
22.0,2.0,wc_2,,0.0,,,,81.0,,,,Fail,,,,,
22.0,2.0,wc_2,,0.0,,,65.0,,,,,Fail,,,,,
22.0,2.0,wc_2,,0.0,,,,0.0,,,,Fail,,,,,
22.0,2.0,wc_2,wc_2,0.0,"[('wc_2', 0.6100000000000004)]",0.6100000000000004,,,35.0,0.002221,['Fail'],Fail,0.6100000000000004,0.38999999999999957,2.0,2.0,0.8
22.0,2.0,wc_2,,0.0,,,,102.0,,,,Fail,,,,,
22.0,2.0,wc_2,wc_1,0.0,"[('wc_1', 0.3300000000000002), ('wc_2', 0.6100000000000004)]",0.7387000000000004,,,27.0,0.00521,['Fail'],Fail,0.3300000000000002,-0.16333333333333352,1.0,6.0,0.1
22.0,2.0,wc_2,,0.0,,,,0.0,,,,Fail,,,,,
22.0,2.0,wc_2,wc_5,0.0,"[('wc_5', 0.29000000000000015), ('wc_2', 0.6100000000000004), ('wc_1', 0.3300000000000002)]",0.8144770000000003,,,40.0,0.005967999999999999,['Fail'],Fail,0.29000000000000015,0.20999999999999985,1.0,2.0,0.4
22.0,2.0,wc_2,,0.0,,,,141.0,,,,Fail,,,,,
22.0,2.0,wc_2,wc_14,0.0,"[('wc_14', 0.41000000000000025), ('wc_2', 0.6100000000000004), ('wc_1', 0.3300000000000002), ('wc_5', 0.29000000000000015)]",0.8905414300000002,,,23.0,0.009149,['Fail'],Fail,0.41000000000000025,-0.2561538461538464,0.0,0.0,0.5
22.0,2.0,wc_2,,0.0,,,,321.0,,,,Fail,,,,,
22.0,2.0,wc_2,wc_11,1.0,"[('wc_11', 0.5200000000000004), ('wc_2', 0.6100000000000004), ('wc_1', 0.3300000000000002), ('wc_5', 0.29000000000000015), ('wc_14', 0.41000000000000025)]",0.9474598864000001,,,37.0,0.042970999999999995,['Fail'],Fail,0.5200000000000004,-0.5200000000000004,0.0,0.0,0.8
27.0,2.0,wc_2,,0.0,,,,223.0,,,,Pass,,,,,
27.0,2.0,wc_2,,0.0,,,57.0,,,,,Pass,,,,,
27.0,2.0,wc_2,,0.0,,,,0.0,,,,Pass,,,,,
27.0,2.0,wc_2,wc_2,0.0,"[('wc_2', 0.6200000000000004)]",0.6200000000000004,,,21.0,0.002435,['Pass'],Pass,0.6200000000000004,0.37999999999999956,3.0,3.0,0.8
27.0,2.0,wc_2,,0.0,,,,0.0,,,,Pass,,,,,
27.0,2.0,wc_2,wc_3,0.0,"[('wc_3', 0.5100000000000003), ('wc_2', 0.6200000000000004)]",0.8138000000000003,,,27.0,0.004919,['Pass'],Pass,0.5100000000000003,-0.28777777777777813,2.0,9.0,0.9
27.0,2.0,wc_2,,0.0,,,,202.0,,,,Pass,,,,,
27.0,2.0,wc_2,wc_11,0.0,"[('wc_2', 0.6200000000000004), ('wc_3', 0.5100000000000003)]",0.8138000000000003,,,34.0,0.006352999999999999,['Pass'],Pass,0.5200000000000004,-0.5200000000000004,0.0,0.0,0.8
27.0,2.0,wc_2,,0.0,,,,61.0,,,,Pass,,,,,
27.0,2.0,wc_2,wc_12,0.0,"[('wc_12', 0.27000000000000013), ('wc_2', 0.6200000000000004), ('wc_3', 0.5100000000000003)]",0.8640740000000002,,,39.0,0.007671000000000001,['Pass'],Pass,0.27000000000000013,-0.27000000000000013,0.0,2.0,0.3
27.0,2.0,wc_2,,0.0,,,,182.0,,,,Pass,,,,,
27.0,2.0,wc_2,wc_6,0.0,"[('wc_2', 0.6200000000000004), ('wc_3', 0.5100000000000003), ('wc_12', 0.27000000000000013)]",0.8640740000000002,,,32.0,0.010354,['Pass'],Pass,0.6900000000000005,-0.4677777777777783,2.0,9.0,0.9
27.0,2.0,wc_2,,0.0,,,,0.0,,,,Pass,,,,,
27.0,2.0,wc_2,wc_10,1.0,"[('wc_10', 0.5200000000000004), ('wc_2', 0.6200000000000004), ('wc_3', 0.5100000000000003), ('wc_12', 0.27000000000000013)]",0.9347555200000002,,,35.0,0.045805,['Pass'],Pass,0.5200000000000004,-0.12000000000000033,2.0,5.0,1.0
32.0,5.0,wc_5,,0.0,,,,382.0,,,,Pass,,,,,
32.0,5.0,wc_5,,0.0,,,72.0,,,,,Pass,,,,,
32.0,5.0,wc_5,,0.0,,,,0.0,,,,Pass,,,,,
32.0,5.0,wc_5,wc_5,0.0,"[('wc_5', 0.30000000000000016)]",0.30000000000000016,,,30.0,0.002137,['Pass'],Pass,0.30000000000000016,0.19999999999999984,2.0,4.0,0.4
32.0,5.0,wc_5,,0.0,,,,182.0,,,,Pass,,,,,
32.0,5.0,wc_5,wc_16,0.0,"[('wc_16', 0.5300000000000004), ('wc_5', 0.30000000000000016)]",0.6710000000000003,,,20.0,0.004123,['Pass'],Pass,0.5300000000000004,-0.3871428571428575,1.0,7.0,0.8
32.0,5.0,wc_5,,0.0,,,,61.0,,,,Pass,,,,,
32.0,5.0,wc_5,wc_13,0.0,"[('wc_13', 0.2500000000000001), ('wc_5', 0.30000000000000016), ('wc_16', 0.5300000000000004)]",0.7532500000000003,,,27.0,0.009736,['Pass'],Pass,0.2500000000000001,-0.2500000000000001,0.0,0.0,0.3
32.0,5.0,wc_5,,0.0,,,,361.0,,,,Pass,,,,,
32.0,5.0,wc_5,wc_4,0.0,"[('wc_4', 0.5900000000000004), ('wc_5', 0.30000000000000016), ('wc_16', 0.5300000000000004), ('wc_13', 0.2500000000000001)]",0.8988325000000003,,,30.0,0.00841,['Pass'],Pass,0.5900000000000004,0.009999999999999565,3.0,5.0,0.7
32.0,5.0,wc_5,,0.0,,,,121.0,,,,Pass,,,,,
32.0,5.0,wc_5,wc_8,1.0,"[('wc_8', 0.3300000000000002), ('wc_5', 0.30000000000000016), ('wc_16', 0.5300000000000004), ('wc_13', 0.2500000000000001), ('wc_4', 0.5900000000000004)]",0.9322177750000001,,,36.0,0.047474,['Pass'],Pass,0.3300000000000002,-0.3300000000000002,0.0,0.0,0.6
38.0,6.0,wc_6,,0.0,,,,82.0,,,,Pass,,,,,
38.0,6.0,wc_6,,0.0,,,57.0,,,,,Pass,,,,,
38.0,6.0,wc_6,,0.0,,,,0.0,,,,Pass,,,,,
38.0,6.0,wc_6,wc_6,0.0,"[('wc_6', 0.6800000000000005)]",0.6800000000000005,,,40.0,0.002226,['Pass'],Pass,0.6800000000000005,-0.6800000000000005,0.0,1.0,0.9
38.0,6.0,wc_6,,0.0,,,,202.0,,,,Pass,,,,,
38.0,6.0,wc_6,wc_1,0.0,"[('wc_1', 0.3300000000000002), ('wc_6', 0.6800000000000005)]",0.7856000000000004,,,27.0,0.0040999999999999995,['Pass'],Pass,0.3300000000000002,-0.10777777777777797,2.0,9.0,0.1
38.0,6.0,wc_6,,0.0,,,,0.0,,,,Pass,,,,,
38.0,6.0,wc_6,wc_4,1.0,"[('wc_4', 0.6000000000000004), ('wc_6', 0.6800000000000005), ('wc_1', 0.3300000000000002)]",0.9142400000000003,,,29.0,0.040291999999999994,['Pass'],Pass,0.6100000000000004,0.10428571428571387,5.0,7.0,0.7
43.0,9.0,wc_9,,0.0,,,,142.0,,,,Fail,,,,,
43.0,9.0,wc_9,,0.0,,,64.0,,,,,Fail,,,,,
43.0,9.0,wc_9,,0.0,,,,0.0,,,,Fail,,,,,
43.0,9.0,wc_9,wc_9,0.0,"[('wc_9', 0.3300000000000002)]",0.3300000000000002,,,30.0,0.00255,['Fail'],Fail,0.3300000000000002,-0.3300000000000002,0.0,0.0,0.4
43.0,9.0,wc_9,,0.0,,,,121.0,,,,Fail,,,,,
43.0,9.0,wc_9,wc_13,0.0,"[('wc_9', 0.3300000000000002)]",0.3300000000000002,,,28.0,0.005074,['Fail'],Fail,0.2600000000000001,0.23999999999999988,1.0,2.0,0.3
43.0,9.0,wc_9,,0.0,,,,102.0,,,,Fail,,,,,
43.0,9.0,wc_9,wc_12,0.0,"[('wc_12', 0.28000000000000014), ('wc_13', 0.2600000000000001)]",0.46720000000000017,,,21.0,0.007252000000000001,['Pass'],Fail,0.28000000000000014,-0.08000000000000013,1.0,5.0,0.3
43.0,9.0,wc_9,,0.0,,,,361.0,,,,Fail,,,,,
43.0,9.0,wc_9,wc_3,0.0,"[('wc_3', 0.5100000000000003), ('wc_9', 0.3300000000000002)]",0.6717000000000003,,,28.0,0.008755,['Fail'],Fail,0.5100000000000003,-0.5100000000000003,0.0,2.0,0.9
43.0,9.0,wc_9,,0.0,,,,182.0,,,,Fail,,,,,
43.0,9.0,wc_9,wc_10,0.0,"[('wc_10', 0.5200000000000004), ('wc_9', 0.3300000000000002), ('wc_3', 0.5100000000000003)]",0.8424160000000003,,,28.0,0.010911,['Fail'],Fail,0.5200000000000004,-0.23428571428571465,2.0,7.0,1.0
43.0,9.0,wc_9,,0.0,,,,243.0,,,,Fail,,,,,
43.0,9.0,wc_9,wc_2,1.0,"[('wc_2', 0.6300000000000004), ('wc_9', 0.3300000000000002), ('wc_3', 0.5100000000000003), ('wc_10', 0.5200000000000004)]",0.9416939200000002,,,36.0,0.046624000000000006,['Fail'],Fail,0.6400000000000005,0.07428571428571384,5.0,7.0,0.8
51.0,8.0,wc_8,,0.0,,,,162.0,,,,Fail,,,,,
51.0,8.0,wc_8,,0.0,,,76.0,,,,,Fail,,,,,
51.0,8.0,wc_8,,0.0,,,,0.0,,,,Fail,,,,,
51.0,8.0,wc_8,wc_8,0.0,"[('wc_8', 0.3300000000000002)]",0.3300000000000002,,,39.0,0.002389,['Pass'],Fail,0.3300000000000002,-0.3300000000000002,0.0,2.0,0.6
51.0,8.0,wc_8,,0.0,,,,321.0,,,,Fail,,,,,
51.0,8.0,wc_8,wc_5,0.0,"[('wc_8', 0.3300000000000002)]",0.3300000000000002,,,34.0,0.004397,['Pass'],Fail,0.31000000000000016,0.11857142857142838,3.0,7.0,0.4
51.0,8.0,wc_8,,0.0,,,,162.0,,,,Fail,,,,,
51.0,8.0,wc_8,wc_15,0.0,"[('wc_15', 0.2600000000000001), ('wc_8', 0.3300000000000002)]",0.5042000000000002,,,31.0,0.007343000000000001,['Pass'],Fail,0.2600000000000001,-0.01000000000000012,0.0,0.0,0.2
51.0,8.0,wc_8,,0.0,,,,382.0,,,,Fail,,,,,
51.0,8.0,wc_8,wc_10,0.0,"[('wc_10', 0.5200000000000004), ('wc_5', 0.31000000000000016)]",0.6688000000000003,,,22.0,0.007902,['Fail'],Fail,0.5200000000000004,-0.14500000000000035,3.0,8.0,1.0
51.0,8.0,wc_8,,0.0,,,,342.0,,,,Fail,,,,,
51.0,8.0,wc_8,wc_3,0.0,"[('wc_3', 0.5100000000000003), ('wc_5', 0.31000000000000016), ('wc_10', 0.5200000000000004)]",0.8377120000000002,,,39.0,0.010613999999999998,['Fail'],Fail,0.5100000000000003,-0.17666666666666703,1.0,3.0,0.9
51.0,8.0,wc_8,,0.0,,,,162.0,,,,Fail,,,,,
51.0,8.0,wc_8,wc_9,0.0,"[('wc_9', 0.3400000000000002), ('wc_5', 0.31000000000000016), ('wc_10', 0.5200000000000004), ('wc_3', 0.5100000000000003)]",0.8928899200000002,,,24.0,0.012378,['Fail'],Fail,0.3400000000000002,0.6599999999999998,1.0,1.0,0.4
51.0,8.0,wc_8,,0.0,,,,101.0,,,,Fail,,,,,
51.0,8.0,wc_8,wc_12,1.0,"[('wc_12', 0.27000000000000013), ('wc_5', 0.31000000000000016), ('wc_10', 0.5200000000000004), ('wc_3', 0.5100000000000003), ('wc_9', 0.3400000000000002)]",0.9218096416000001,,,22.0,0.048914000000000006,['Fail'],Fail,0.28000000000000014,0.005714285714285561,2.0,7.0,0.3
59.0,9.0,wc_9,,0.0,,,,321.0,,,,Fail,,,,,
59.0,9.0,wc_9,,0.0,,,70.0,,,,,Fail,,,,,
59.0,9.0,wc_9,,0.0,,,,0.0,,,,Fail,,,,,
59.0,9.0,wc_9,wc_9,0.0,"[('wc_9', 0.3500000000000002)]",0.3500000000000002,,,34.0,0.002254,['Pass'],Fail,0.3500000000000002,0.6499999999999998,2.0,2.0,0.4
59.0,9.0,wc_9,,0.0,,,,382.0,,,,Fail,,,,,
59.0,9.0,wc_9,wc_4,0.0,"[('wc_4', 0.6100000000000004), ('wc_9', 0.3500000000000002)]",0.7465000000000004,,,23.0,0.004229,['Pass'],Fail,0.6100000000000004,-0.05444444444444485,5.0,9.0,0.7
59.0,9.0,wc_9,,0.0,,,,162.0,,,,Fail,,,,,
59.0,9.0,wc_9,wc_10,0.0,"[('wc_9', 0.3500000000000002), ('wc_4', 0.6100000000000004)]",0.7465000000000004,,,32.0,0.0063820000000000005,['Pass'],Fail,0.5200000000000004,-0.07555555555555593,4.0,9.0,1.0
59.0,9.0,wc_9,,0.0,,,,0.0,,,,Fail,,,,,
59.0,9.0,wc_9,wc_11,0.0,"[('wc_11', 0.5100000000000003), ('wc_10', 0.5200000000000004)]",0.7648000000000004,,,37.0,0.007857,['Fail'],Fail,0.5100000000000003,-0.5100000000000003,0.0,5.0,0.8
59.0,9.0,wc_9,,0.0,,,,203.0,,,,Fail,,,,,
59.0,9.0,wc_9,wc_1,0.0,"[('wc_1', 0.3300000000000002), ('wc_9', 0.3500000000000002), ('wc_4', 0.6100000000000004)]",0.8301550000000003,,,24.0,0.010313000000000003,['Pass'],Fail,0.3300000000000002,-0.3300000000000002,0.0,2.0,0.1
59.0,9.0,wc_9,,0.0,,,,243.0,,,,Fail,,,,,
59.0,9.0,wc_9,wc_15,0.0,"[('wc_9', 0.3500000000000002), ('wc_4', 0.6100000000000004), ('wc_1', 0.3300000000000002)]",0.8301550000000003,,,36.0,0.010865,['Pass'],Fail,0.2500000000000001,-0.2500000000000001,0.0,1.0,0.2
59.0,9.0,wc_9,,0.0,,,,442.0,,,,Fail,,,,,
59.0,9.0,wc_9,wc_5,0.0,"[('wc_5', 0.3200000000000002), ('wc_9', 0.3500000000000002), ('wc_4', 0.6100000000000004), ('wc_1', 0.3300000000000002)]",0.8845054000000002,,,29.0,0.015094999999999999,['Pass'],Fail,0.3200000000000002,0.17999999999999983,4.0,8.0,0.4
59.0,9.0,wc_9,,0.0,,,,202.0,,,,Fail,,,,,
59.0,9.0,wc_9,wc_17,1.0,"[('wc_17', 0.3200000000000002), ('wc_9', 0.3500000000000002), ('wc_4', 0.6100000000000004), ('wc_1', 0.3300000000000002), ('wc_5', 0.3200000000000002)]",0.9214636720000002,,,22.0,0.048920000000000005,['Pass'],Fail,0.3200000000000002,-0.3200000000000002,0.0,0.0,0.4
66.0,9.0,wc_9,,0.0,,,,322.0,,,,Fail,,,,,
66.0,9.0,wc_9,,0.0,,,67.0,,,,,Fail,,,,,
66.0,9.0,wc_9,,0.0,,,,0.0,,,,Fail,,,,,
66.0,9.0,wc_9,wc_9,0.0,"[('wc_9', 0.3600000000000002)]",0.3600000000000002,,,21.0,0.002138,['Fail'],Fail,0.3600000000000002,0.6399999999999998,3.0,3.0,0.4
66.0,9.0,wc_9,,0.0,,,,141.0,,,,Fail,,,,,
66.0,9.0,wc_9,wc_14,0.0,"[('wc_14', 0.42000000000000026), ('wc_9', 0.3600000000000002)]",0.6288000000000002,,,40.0,0.0040820000000000006,['Fail'],Fail,0.42000000000000026,-0.2771428571428574,1.0,7.0,0.5
66.0,9.0,wc_9,,0.0,,,,0.0,,,,Fail,,,,,
66.0,9.0,wc_9,wc_15,0.0,"[('wc_15', 0.2400000000000001), ('wc_9', 0.3600000000000002), ('wc_14', 0.42000000000000026)]",0.7178880000000003,,,33.0,0.006829999999999999,['Fail'],Fail,0.2400000000000001,-0.2400000000000001,0.0,2.0,0.2
66.0,9.0,wc_9,,0.0,,,,402.0,,,,Fail,,,,,
66.0,9.0,wc_9,wc_3,0.0,"[('wc_3', 0.5100000000000003), ('wc_9', 0.3600000000000002), ('wc_14', 0.42000000000000026), ('wc_15', 0.2400000000000001)]",0.8617651200000003,,,30.0,0.008655,['Fail'],Fail,0.5100000000000003,-0.11000000000000032,2.0,5.0,0.9
66.0,9.0,wc_9,,0.0,,,,81.0,,,,Fail,,,,,
66.0,9.0,wc_9,wc_1,0.0,"[('wc_9', 0.3600000000000002), ('wc_14', 0.42000000000000026), ('wc_15', 0.2400000000000001), ('wc_3', 0.5100000000000003)]",0.8617651200000003,,,28.0,0.010884999999999999,['Fail'],Fail,0.3300000000000002,0.0033333333333331328,1.0,3.0,0.1
66.0,9.0,wc_9,,0.0,,,,182.0,,,,Fail,,,,,
66.0,9.0,wc_9,wc_8,1.0,"[('wc_8', 0.3200000000000002), ('wc_9', 0.3600000000000002), ('wc_14', 0.42000000000000026), ('wc_15', 0.2400000000000001), ('wc_3', 0.5100000000000003)]",0.9060002816000001,,,34.0,0.04917,['Fail'],Fail,0.3200000000000002,-0.12000000000000016,1.0,5.0,0.6
74.0,9.0,wc_9,,0.0,,,,0.0,,,,Pass,,,,,
74.0,9.0,wc_9,,0.0,,,73.0,,,,,Pass,,,,,
74.0,9.0,wc_9,,0.0,,,,0.0,,,,Pass,,,,,
74.0,9.0,wc_9,wc_9,0.0,"[('wc_9', 0.3700000000000002)]",0.3700000000000002,,,30.0,0.002563,['Pass'],Pass,0.3700000000000002,0.6299999999999998,4.0,4.0,0.4
74.0,9.0,wc_9,,0.0,,,,0.0,,,,Pass,,,,,
74.0,9.0,wc_9,wc_10,0.0,"[('wc_10', 0.5100000000000003), ('wc_9', 0.3700000000000002)]",0.6913000000000002,,,20.0,0.004246,['Pass'],Pass,0.5100000000000003,-0.5100000000000003,0.0,1.0,1.0
74.0,9.0,wc_9,,0.0,,,,81.0,,,,Pass,,,,,
74.0,9.0,wc_9,wc_8,0.0,"[('wc_9', 0.3700000000000002), ('wc_10', 0.5100000000000003)]",0.6913000000000002,,,30.0,0.006385,['Pass'],Pass,0.3200000000000002,-0.12000000000000016,1.0,5.0,0.6
74.0,9.0,wc_9,,0.0,,,,321.0,,,,Pass,,,,,
74.0,9.0,wc_9,wc_5,0.0,"[('wc_5', 0.3300000000000002), ('wc_9', 0.3700000000000002), ('wc_10', 0.5100000000000003)]",0.7931710000000003,,,27.0,0.009660000000000002,['Pass'],Pass,0.3300000000000002,0.16999999999999982,0.0,0.0,0.4
74.0,9.0,wc_9,,0.0,,,,162.0,,,,Pass,,,,,
74.0,9.0,wc_9,wc_11,0.0,"[('wc_11', 0.5000000000000003), ('wc_9', 0.3700000000000002), ('wc_10', 0.5100000000000003), ('wc_5', 0.3300000000000002)]",0.8965855000000003,,,38.0,0.009800999999999999,['Pass'],Pass,0.5000000000000003,-0.5000000000000003,0.0,7.0,0.8
74.0,9.0,wc_9,,0.0,,,,223.0,,,,Pass,,,,,
74.0,9.0,wc_9,wc_2,1.0,"[('wc_2', 0.6400000000000005), ('wc_9', 0.3700000000000002), ('wc_10', 0.5100000000000003), ('wc_5', 0.3300000000000002), ('wc_11', 0.5000000000000003)]",0.9627707800000002,,,38.0,0.048652,['Pass'],Pass,0.6400000000000005,-0.6400000000000005,0.0,0.0,0.8
81.0,8.0,wc_8,,0.0,,,,162.0,,,,Pass,,,,,
81.0,8.0,wc_8,,0.0,,,72.0,,,,,Pass,,,,,
81.0,8.0,wc_8,,0.0,,,,0.0,,,,Pass,,,,,
81.0,8.0,wc_8,wc_8,0.0,"[('wc_8', 0.31000000000000016)]",0.31000000000000016,,,22.0,0.002578,['Pass'],Pass,0.31000000000000016,-0.1433333333333335,1.0,6.0,0.6
81.0,8.0,wc_8,,0.0,,,,182.0,,,,Pass,,,,,
81.0,8.0,wc_8,wc_2,0.0,"[('wc_2', 0.6400000000000005), ('wc_8', 0.31000000000000016)]",0.7516000000000004,,,28.0,0.004333,['Pass'],Pass,0.6400000000000005,-0.6400000000000005,0.0,0.0,0.8
81.0,8.0,wc_8,,0.0,,,,263.0,,,,Pass,,,,,
81.0,8.0,wc_8,wc_17,0.0,"[('wc_17', 0.3200000000000002), ('wc_8', 0.31000000000000016), ('wc_2', 0.6400000000000005)]",0.8310880000000003,,,29.0,0.00671,['Pass'],Pass,0.3200000000000002,-0.3200000000000002,0.0,2.0,0.4
81.0,8.0,wc_8,,0.0,,,,362.0,,,,Pass,,,,,
81.0,8.0,wc_8,wc_11,1.0,"[('wc_11', 0.5000000000000003), ('wc_8', 0.31000000000000016), ('wc_2', 0.6400000000000005), ('wc_17', 0.3200000000000002)]",0.9155440000000002,,,29.0,0.04547499999999999,['Pass'],Pass,0.5000000000000003,-0.2777777777777781,2.0,9.0,0.8
89.0,10.0,wc_10,,0.0,,,,103.0,,,,Fail,,,,,
89.0,10.0,wc_10,,0.0,,,63.0,,,,,Fail,,,,,
89.0,10.0,wc_10,,0.0,,,,0.0,,,,Fail,,,,,
89.0,10.0,wc_10,wc_10,0.0,"[('wc_10', 0.5100000000000003)]",0.5100000000000003,,,28.0,0.002267,['Fail'],Fail,0.5100000000000003,-0.17666666666666703,1.0,3.0,1.0
89.0,10.0,wc_10,,0.0,,,,103.0,,,,Fail,,,,,
89.0,10.0,wc_10,wc_9,0.0,"[('wc_9', 0.3800000000000002), ('wc_10', 0.5100000000000003)]",0.6962000000000004,,,20.0,0.004337000000000001,['Fail'],Fail,0.3800000000000002,0.45333333333333314,5.0,6.0,0.4
89.0,10.0,wc_10,,0.0,,,,243.0,,,,Fail,,,,,
89.0,10.0,wc_10,wc_1,0.0,"[('wc_10', 0.5100000000000003), ('wc_9', 0.3800000000000002)]",0.6962000000000004,,,24.0,0.006025,['Fail'],Fail,0.3200000000000002,-0.15333333333333352,1.0,6.0,0.1
89.0,10.0,wc_10,,0.0,,,,0.0,,,,Fail,,,,,
89.0,10.0,wc_10,wc_3,0.0,"[('wc_3', 0.5100000000000003), ('wc_10', 0.5100000000000003), ('wc_9', 0.3800000000000002)]",0.8511380000000003,,,38.0,0.00933,['Fail'],Fail,0.5100000000000003,-0.13500000000000034,3.0,8.0,0.9
89.0,10.0,wc_10,,0.0,,,,121.0,,,,Fail,,,,,
89.0,10.0,wc_10,wc_7,1.0,"[('wc_7', 0.5500000000000004), ('wc_10', 0.5100000000000003), ('wc_9', 0.3800000000000002), ('wc_3', 0.5100000000000003)]",0.9330121000000001,,,24.0,0.042135,['Fail'],Fail,0.5500000000000004,-0.5500000000000004,0.0,0.0,0.6
98.0,10.0,wc_10,,0.0,,,,0.0,,,,Fail,,,,,
98.0,10.0,wc_10,,0.0,,,58.0,,,,,Fail,,,,,
98.0,10.0,wc_10,,0.0,,,,0.0,,,,Fail,,,,,
98.0,10.0,wc_10,wc_10,0.0,"[('wc_10', 0.5100000000000003)]",0.5100000000000003,,,39.0,0.002177,['Fail'],Fail,0.5100000000000003,-0.010000000000000342,2.0,4.0,1.0
98.0,10.0,wc_10,,0.0,,,,103.0,,,,Fail,,,,,
98.0,10.0,wc_10,wc_9,0.0,"[('wc_10', 0.5100000000000003)]",0.5100000000000003,,,24.0,0.004258,['Fail'],Fail,0.39000000000000024,0.46714285714285686,6.0,7.0,0.4
98.0,10.0,wc_10,,0.0,,,,101.0,,,,Fail,,,,,
98.0,10.0,wc_10,wc_8,0.0,"[('wc_8', 0.31000000000000016), ('wc_9', 0.39000000000000024)]",0.5791000000000003,,,38.0,0.0059240000000000004,['Pass'],Fail,0.31000000000000016,-0.060000000000000164,2.0,8.0,0.6
98.0,10.0,wc_10,,0.0,,,,82.0,,,,Fail,,,,,
98.0,10.0,wc_10,wc_6,0.0,"[('wc_6', 0.6800000000000005), ('wc_10', 0.5100000000000003)]",0.8432000000000004,,,33.0,0.009083,['Fail'],Fail,0.6800000000000005,-0.5688888888888894,1.0,9.0,0.9
98.0,10.0,wc_10,,0.0,,,,321.0,,,,Fail,,,,,
98.0,10.0,wc_10,wc_3,1.0,"[('wc_3', 0.5100000000000003), ('wc_10', 0.5100000000000003), ('wc_6', 0.6800000000000005)]",0.9231680000000002,,,27.0,0.044203000000000006,['Fail'],Fail,0.5100000000000003,-0.5100000000000003,0.0,0.0,0.9
107.0,10.0,wc_10,,0.0,,,,182.0,,,,Pass,,,,,
107.0,10.0,wc_10,,0.0,,,55.0,,,,,Pass,,,,,
107.0,10.0,wc_10,,0.0,,,,0.0,,,,Pass,,,,,
107.0,10.0,wc_10,wc_10,0.0,"[('wc_10', 0.5200000000000004)]",0.5200000000000004,,,40.0,0.002228,['Pass'],Pass,0.5200000000000004,0.07999999999999963,3.0,5.0,1.0
107.0,10.0,wc_10,,0.0,,,,223.0,,,,Pass,,,,,
107.0,10.0,wc_10,wc_1,0.0,"[('wc_10', 0.5200000000000004)]",0.5200000000000004,,,35.0,0.003942,['Pass'],Pass,0.31000000000000016,-0.18500000000000016,1.0,8.0,0.1
107.0,10.0,wc_10,,0.0,,,,203.0,,,,Pass,,,,,
107.0,10.0,wc_10,wc_9,0.0,"[('wc_9', 0.39000000000000024), ('wc_1', 0.31000000000000016)]",0.5791000000000003,,,21.0,0.005729,['Fail'],Pass,0.39000000000000024,0.35999999999999976,6.0,8.0,0.4
107.0,10.0,wc_10,,0.0,,,,0.0,,,,Pass,,,,,
107.0,10.0,wc_10,wc_11,0.0,"[('wc_11', 0.5000000000000003), ('wc_10', 0.5200000000000004)]",0.7600000000000003,,,37.0,0.007988,['Pass'],Pass,0.5000000000000003,-0.3181818181818185,0.0,0.0,0.8
107.0,10.0,wc_10,,0.0,,,,223.0,,,,Pass,,,,,
107.0,10.0,wc_10,wc_2,1.0,"[('wc_2', 0.6500000000000005), ('wc_10', 0.5200000000000004), ('wc_11', 0.5000000000000003)]",0.9160000000000003,,,21.0,0.051934,['Pass'],Pass,0.6500000000000005,-0.15000000000000047,2.0,4.0,0.8
121.0,7.0,wc_7,,0.0,,,,142.0,,,,Fail,,,,,
121.0,7.0,wc_7,,0.0,,,78.0,,,,,Fail,,,,,
121.0,7.0,wc_7,,0.0,,,,0.0,,,,Fail,,,,,
121.0,7.0,wc_7,wc_7,0.0,"[('wc_7', 0.5500000000000004)]",0.5500000000000004,,,35.0,0.002366,['Fail'],Fail,0.5500000000000004,-0.5500000000000004,0.0,2.0,0.6
121.0,7.0,wc_7,,0.0,,,,0.0,,,,Fail,,,,,
121.0,7.0,wc_7,wc_9,0.0,"[('wc_9', 0.39000000000000024), ('wc_7', 0.5500000000000004)]",0.7255000000000003,,,30.0,0.0039640000000000005,['Fail'],Fail,0.39000000000000024,0.2766666666666664,6.0,9.0,0.4
121.0,7.0,wc_7,,0.0,,,,141.0,,,,Fail,,,,,
121.0,7.0,wc_7,wc_14,0.0,"[('wc_14', 0.42000000000000026), ('wc_7', 0.5500000000000004), ('wc_9', 0.39000000000000024)]",0.8407900000000003,,,23.0,0.006681000000000001,['Fail'],Fail,0.42000000000000026,-0.2661538461538464,0.0,0.0,0.5
121.0,7.0,wc_7,,0.0,,,,142.0,,,,Fail,,,,,
121.0,7.0,wc_7,wc_6,1.0,"[('wc_6', 0.6800000000000005), ('wc_7', 0.5500000000000004), ('wc_9', 0.39000000000000024), ('wc_14', 0.42000000000000026)]",0.9490528000000001,,,20.0,0.043477,['Fail'],Fail,0.6800000000000005,-0.1800000000000005,1.0,2.0,0.9
136.0,7.0,wc_7,,0.0,,,,0.0,,,,Fail,,,,,
136.0,7.0,wc_7,,0.0,,,73.0,,,,,Fail,,,,,
136.0,7.0,wc_7,,0.0,,,,0.0,,,,Fail,,,,,
136.0,7.0,wc_7,wc_7,0.0,"[('wc_7', 0.5500000000000004)]",0.5500000000000004,,,25.0,0.002287,['Pass'],Fail,0.5500000000000004,-0.21666666666666706,1.0,3.0,0.6
136.0,7.0,wc_7,,0.0,,,,182.0,,,,Fail,,,,,
136.0,7.0,wc_7,wc_1,0.0,"[('wc_7', 0.5500000000000004)]",0.5500000000000004,,,20.0,0.004307,['Pass'],Fail,0.30000000000000016,-0.20000000000000015,0.0,0.0,0.1
136.0,7.0,wc_7,,0.0,,,,243.0,,,,Fail,,,,,
136.0,7.0,wc_7,wc_15,0.0,"[('wc_7', 0.5500000000000004)]",0.5500000000000004,,,24.0,0.0058460000000000005,['Pass'],Fail,0.2500000000000001,-0.138888888888889,1.0,9.0,0.2
136.0,7.0,wc_7,,0.0,,,,402.0,,,,Fail,,,,,
136.0,7.0,wc_7,wc_11,0.0,"[('wc_11', 0.5100000000000003), ('wc_1', 0.30000000000000016), ('wc_15', 0.2500000000000001)]",0.7427500000000002,,,20.0,0.008774,['Fail'],Fail,0.5100000000000003,-0.010000000000000342,1.0,2.0,0.8
136.0,7.0,wc_7,,0.0,,,,61.0,,,,Fail,,,,,
136.0,7.0,wc_7,wc_12,0.0,"[('wc_12', 0.28000000000000014), ('wc_1', 0.30000000000000016), ('wc_15', 0.2500000000000001), ('wc_11', 0.5100000000000003)]",0.8147800000000003,,,39.0,0.009437000000000001,['Fail'],Fail,0.28000000000000014,-0.1466666666666668,0.0,0.0,0.3
136.0,7.0,wc_7,,0.0,,,,262.0,,,,Fail,,,,,
136.0,7.0,wc_7,wc_2,1.0,"[('wc_2', 0.6500000000000005), ('wc_1', 0.30000000000000016), ('wc_15', 0.2500000000000001), ('wc_11', 0.5100000000000003), ('wc_12', 0.28000000000000014)]",0.9351730000000001,,,24.0,0.04640999999999999,['Fail'],Fail,0.6500000000000005,-0.15000000000000047,3.0,6.0,0.8
148.0,11.0,wc_11,,0.0,,,,223.0,,,,Pass,,,,,
148.0,11.0,wc_11,,0.0,,,73.0,,,,,Pass,,,,,
148.0,11.0,wc_11,,0.0,,,,0.0,,,,Pass,,,,,
148.0,11.0,wc_11,wc_11,0.0,"[('wc_11', 0.5200000000000004)]",0.5200000000000004,,,38.0,0.00212,['Pass'],Pass,0.5200000000000004,0.14666666666666628,2.0,3.0,0.8
148.0,11.0,wc_11,,0.0,,,,342.0,,,,Pass,,,,,
148.0,11.0,wc_11,wc_4,0.0,"[('wc_4', 0.6100000000000004), ('wc_11', 0.5200000000000004)]",0.8128000000000004,,,39.0,0.004069,['Pass'],Pass,0.6100000000000004,-0.6100000000000004,0.0,8.0,0.7
148.0,11.0,wc_11,,0.0,,,,0.0,,,,Pass,,,,,
148.0,11.0,wc_11,wc_5,0.0,"[('wc_5', 0.3400000000000002), ('wc_11', 0.5200000000000004), ('wc_4', 0.6100000000000004)]",0.8764480000000002,,,20.0,0.006576,['Pass'],Pass,0.3400000000000002,-0.19714285714285734,1.0,7.0,0.4
148.0,11.0,wc_11,,0.0,,,,101.0,,,,Pass,,,,,
148.0,11.0,wc_11,wc_8,0.0,"[('wc_11', 0.5200000000000004), ('wc_4', 0.6100000000000004), ('wc_5', 0.3400000000000002)]",0.8764480000000002,,,21.0,0.007861,['Pass'],Pass,0.30000000000000016,-0.1333333333333335,0.0,0.0,0.6
148.0,11.0,wc_11,,0.0,,,,162.0,,,,Pass,,,,,
148.0,11.0,wc_11,wc_14,1.0,"[('wc_14', 0.43000000000000027), ('wc_11', 0.5200000000000004), ('wc_4', 0.6100000000000004), ('wc_5', 0.3400000000000002)]",0.9295753600000002,,,29.0,0.046050999999999995,['Pass'],Pass,0.4400000000000003,0.22666666666666635,2.0,3.0,0.5
184.0,7.0,wc_7,,0.0,,,,162.0,,,,Pass,,,,,
184.0,7.0,wc_7,,0.0,,,71.0,,,,,Pass,,,,,
184.0,7.0,wc_7,,0.0,,,,0.0,,,,Pass,,,,,
184.0,7.0,wc_7,wc_7,0.0,"[('wc_7', 0.5400000000000004)]",0.5400000000000004,,,32.0,0.002131,['Pass'],Pass,0.5400000000000004,-0.34000000000000036,1.0,5.0,0.6
184.0,7.0,wc_7,,0.0,,,,223.0,,,,Pass,,,,,
184.0,7.0,wc_7,wc_16,0.0,"[('wc_16', 0.5300000000000004), ('wc_7', 0.5400000000000004)]",0.7838000000000003,,,37.0,0.004239,['Pass'],Pass,0.5300000000000004,-0.4347619047619051,0.0,0.0,0.8
184.0,7.0,wc_7,,0.0,,,,81.0,,,,Pass,,,,,
184.0,7.0,wc_7,wc_14,0.0,"[('wc_14', 0.4400000000000003), ('wc_7', 0.5400000000000004), ('wc_16', 0.5300000000000004)]",0.8789280000000003,,,34.0,0.0058709999999999995,['Pass'],Pass,0.4400000000000003,0.22666666666666635,2.0,3.0,0.5
184.0,7.0,wc_7,,0.0,,,,301.0,,,,Pass,,,,,
184.0,7.0,wc_7,wc_10,1.0,"[('wc_10', 0.5300000000000004), ('wc_7', 0.5400000000000004), ('wc_16', 0.5300000000000004), ('wc_14', 0.4400000000000003)]",0.9430961600000002,,,40.0,0.04368799999999999,['Pass'],Pass,0.5300000000000004,-0.5300000000000004,0.0,0.0,1.0
195.0,12.0,wc_12,,0.0,,,,81.0,,,,Fail,,,,,
195.0,12.0,wc_12,,0.0,,,69.0,,,,,Fail,,,,,
195.0,12.0,wc_12,,0.0,,,,0.0,,,,Fail,,,,,
195.0,12.0,wc_12,wc_12,0.0,"[('wc_12', 0.29000000000000015)]",0.29000000000000015,,,37.0,0.002373,['Pass'],Fail,0.29000000000000015,0.04333333333333317,1.0,3.0,0.3
195.0,12.0,wc_12,,0.0,,,,321.0,,,,Fail,,,,,
195.0,12.0,wc_12,wc_9,0.0,"[('wc_9', 0.40000000000000024), ('wc_12', 0.29000000000000015)]",0.5740000000000003,,,31.0,0.004841,['Pass'],Fail,0.40000000000000024,-0.40000000000000024,0.0,3.0,0.4
195.0,12.0,wc_12,,0.0,,,,202.0,,,,Fail,,,,,
195.0,12.0,wc_12,wc_17,0.0,"[('wc_12', 0.29000000000000015), ('wc_9', 0.40000000000000024)]",0.5740000000000003,,,33.0,0.005789,['Pass'],Fail,0.3300000000000002,-0.23000000000000018,0.0,0.0,0.4
195.0,12.0,wc_12,,0.0,,,,223.0,,,,Fail,,,,,
195.0,12.0,wc_12,wc_8,0.0,"[('wc_12', 0.29000000000000015), ('wc_9', 0.40000000000000024)]",0.5740000000000003,,,23.0,0.009637999999999999,['Pass'],Fail,0.29000000000000015,-0.29000000000000015,0.0,2.0,0.6
195.0,12.0,wc_12,,0.0,,,,281.0,,,,Fail,,,,,
195.0,12.0,wc_12,wc_3,0.0,"[('wc_3', 0.5100000000000003), ('wc_17', 0.3300000000000002), ('wc_8', 0.29000000000000015)]",0.7669070000000002,,,38.0,0.00915,['Fail'],Fail,0.5100000000000003,-0.5100000000000003,0.0,5.0,0.9
195.0,12.0,wc_12,,0.0,,,,181.0,,,,Fail,,,,,
195.0,12.0,wc_12,wc_14,0.0,"[('wc_14', 0.4500000000000003), ('wc_17', 0.3300000000000002), ('wc_8', 0.29000000000000015), ('wc_3', 0.5100000000000003)]",0.8717988500000002,,,36.0,0.011040999999999999,['Fail'],Fail,0.4500000000000003,0.2999999999999997,3.0,4.0,0.5
195.0,12.0,wc_12,,0.0,,,,301.0,,,,Fail,,,,,
195.0,12.0,wc_12,wc_10,0.0,"[('wc_17', 0.3300000000000002), ('wc_8', 0.29000000000000015), ('wc_3', 0.5100000000000003), ('wc_14', 0.4500000000000003)]",0.8717988500000002,,,34.0,0.012612,['Fail'],Fail,0.5300000000000004,-0.5300000000000004,0.0,0.0,1.0
195.0,12.0,wc_12,,0.0,,,,142.0,,,,Fail,,,,,
195.0,12.0,wc_12,wc_15,0.0,"[('wc_17', 0.3300000000000002), ('wc_8', 0.29000000000000015), ('wc_3', 0.5100000000000003), ('wc_14', 0.4500000000000003)]",0.8717988500000002,,,30.0,0.015474,['Fail'],Fail,0.2500000000000001,-0.2500000000000001,0.0,2.0,0.2
195.0,12.0,wc_12,,0.0,,,,283.0,,,,Fail,,,,,
195.0,12.0,wc_12,wc_1,0.0,"[('wc_1', 0.31000000000000016), ('wc_12', 0.29000000000000015), ('wc_9', 0.40000000000000024), ('wc_10', 0.5300000000000004), ('wc_15', 0.2500000000000001)]",0.8963861500000002,,,35.0,0.017186999999999997,['Pass'],Fail,0.31000000000000016,0.02333333333333315,1.0,3.0,0.1
195.0,12.0,wc_12,,0.0,,,,0.0,,,,Fail,,,,,
195.0,12.0,wc_12,wc_2,1.0,"[('wc_2', 0.6500000000000005), ('wc_17', 0.3300000000000002), ('wc_8', 0.29000000000000015), ('wc_3', 0.5100000000000003), ('wc_14', 0.4500000000000003)]",0.9551295975000001,,,26.0,0.05406,['Fail'],Fail,0.6500000000000005,-0.20555555555555605,4.0,9.0,0.8
202.0,12.0,wc_12,,0.0,,,,162.0,,,,Fail,,,,,
202.0,12.0,wc_12,,0.0,,,63.0,,,,,Fail,,,,,
202.0,12.0,wc_12,,0.0,,,,0.0,,,,Fail,,,,,
202.0,12.0,wc_12,wc_12,0.0,"[('wc_12', 0.28000000000000014)]",0.28000000000000014,,,33.0,0.002232,['Pass'],Fail,0.28000000000000014,-0.030000000000000138,1.0,4.0,0.3
202.0,12.0,wc_12,,0.0,,,,0.0,,,,Fail,,,,,
202.0,12.0,wc_12,wc_15,0.0,"[('wc_12', 0.28000000000000014)]",0.28000000000000014,,,38.0,0.004125,['Pass'],Fail,0.2400000000000001,-0.2400000000000001,0.0,3.0,0.2
202.0,12.0,wc_12,,0.0,,,,223.0,,,,Fail,,,,,
202.0,12.0,wc_12,wc_6,0.0,"[('wc_6', 0.6800000000000005), ('wc_12', 0.28000000000000014)]",0.7696000000000004,,,20.0,0.005765,['Pass'],Fail,0.6800000000000005,-0.5133333333333339,1.0,6.0,0.9
202.0,12.0,wc_12,,0.0,,,,202.0,,,,Fail,,,,,
202.0,12.0,wc_12,wc_1,0.0,"[('wc_12', 0.28000000000000014), ('wc_6', 0.6800000000000005)]",0.7696000000000004,,,36.0,0.009277,['Pass'],Fail,0.30000000000000016,-0.050000000000000155,1.0,4.0,0.1
202.0,12.0,wc_12,,0.0,,,,162.0,,,,Fail,,,,,
202.0,12.0,wc_12,wc_7,0.0,"[('wc_12', 0.28000000000000014), ('wc_6', 0.6800000000000005)]",0.7696000000000004,,,37.0,0.010258999999999999,['Pass'],Fail,0.5400000000000004,-0.25428571428571467,2.0,7.0,0.6
202.0,12.0,wc_12,,0.0,,,,0.0,,,,Fail,,,,,
202.0,12.0,wc_12,wc_10,0.0,"[('wc_10', 0.5200000000000004), ('wc_15', 0.2400000000000001), ('wc_1', 0.30000000000000016), ('wc_7', 0.5400000000000004)]",0.8825344000000003,,,34.0,0.011040000000000001,['Fail'],Fail,0.5200000000000004,-0.5200000000000004,0.0,1.0,1.0
202.0,12.0,wc_12,,0.0,,,,81.0,,,,Fail,,,,,
202.0,12.0,wc_12,wc_8,1.0,"[('wc_8', 0.30000000000000016), ('wc_15', 0.2400000000000001), ('wc_1', 0.30000000000000016), ('wc_7', 0.5400000000000004), ('wc_10', 0.5200000000000004)]",0.9177740800000002,,,29.0,0.047433,['Fail'],Fail,0.31000000000000016,0.18999999999999984,2.0,4.0,0.6
210.0,12.0,wc_12,,0.0,,,,122.0,,,,Fail,,,,,
210.0,12.0,wc_12,,0.0,,,62.0,,,,,Fail,,,,,
210.0,12.0,wc_12,,0.0,,,,0.0,,,,Fail,,,,,
210.0,12.0,wc_12,wc_12,0.0,"[('wc_12', 0.27000000000000013)]",0.27000000000000013,,,30.0,0.002475,['Pass'],Fail,0.27000000000000013,-0.07000000000000012,1.0,5.0,0.3
210.0,12.0,wc_12,,0.0,,,,341.0,,,,Fail,,,,,
210.0,12.0,wc_12,wc_10,0.0,"[('wc_10', 0.5200000000000004)]",0.5200000000000004,,,26.0,0.004231,['Fail'],Fail,0.5200000000000004,-0.02000000000000035,1.0,2.0,1.0
210.0,12.0,wc_12,,0.0,,,,0.0,,,,Fail,,,,,
210.0,12.0,wc_12,wc_11,0.0,"[('wc_11', 0.5300000000000004), ('wc_10', 0.5200000000000004)]",0.7744000000000003,,,35.0,0.006150999999999999,['Fail'],Fail,0.5300000000000004,-0.10142857142857181,3.0,7.0,0.8
210.0,12.0,wc_12,,0.0,,,,83.0,,,,Fail,,,,,
210.0,12.0,wc_12,wc_9,0.0,"[('wc_10', 0.5200000000000004), ('wc_11', 0.5300000000000004)]",0.7744000000000003,,,39.0,0.008702,['Fail'],Fail,0.39000000000000024,-0.39000000000000024,0.0,5.0,0.4
210.0,12.0,wc_12,,0.0,,,,263.0,,,,Fail,,,,,
210.0,12.0,wc_12,wc_2,1.0,"[('wc_2', 0.6500000000000005), ('wc_10', 0.5200000000000004), ('wc_11', 0.5300000000000004)]",0.9210400000000002,,,25.0,0.063614,['Fail'],Fail,0.6500000000000005,-0.6500000000000005,0.0,0.0,0.8
240.0,12.0,wc_12,,0.0,,,,162.0,,,,Fail,,,,,
240.0,12.0,wc_12,,0.0,,,80.0,,,,,Fail,,,,,
240.0,12.0,wc_12,,0.0,,,,0.0,,,,Fail,,,,,
240.0,12.0,wc_12,wc_12,0.0,"[('wc_12', 0.2600000000000001)]",0.2600000000000001,,,23.0,0.002206,['Pass'],Fail,0.2600000000000001,-0.09333333333333346,1.0,6.0,0.3
240.0,12.0,wc_12,,0.0,,,,182.0,,,,Fail,,,,,
240.0,12.0,wc_12,wc_6,0.0,"[('wc_6', 0.6700000000000005), ('wc_12', 0.2600000000000001)]",0.7558000000000004,,,31.0,0.0046440000000000006,['Pass'],Fail,0.6700000000000005,-0.5450000000000005,1.0,8.0,0.9
240.0,12.0,wc_12,,0.0,,,,361.0,,,,Fail,,,,,
240.0,12.0,wc_12,wc_5,0.0,"[('wc_12', 0.2600000000000001), ('wc_6', 0.6700000000000005)]",0.7558000000000004,,,39.0,0.006686,['Pass'],Fail,0.3400000000000002,-0.17333333333333353,0.0,0.0,0.4
240.0,12.0,wc_12,,0.0,,,,101.0,,,,Fail,,,,,
240.0,12.0,wc_12,wc_8,0.0,"[('wc_12', 0.2600000000000001), ('wc_6', 0.6700000000000005)]",0.7558000000000004,,,36.0,0.009661000000000001,['Pass'],Fail,0.31000000000000016,0.08999999999999986,2.0,5.0,0.6
240.0,12.0,wc_12,,0.0,,,,0.0,,,,Fail,,,,,
240.0,12.0,wc_12,wc_10,0.0,"[('wc_10', 0.5300000000000004), ('wc_5', 0.3400000000000002), ('wc_8', 0.31000000000000016)]",0.7859620000000003,,,30.0,0.010647,['Fail'],Fail,0.5300000000000004,0.13666666666666627,2.0,3.0,1.0
240.0,12.0,wc_12,,0.0,,,,362.0,,,,Fail,,,,,
240.0,12.0,wc_12,wc_4,1.0,"[('wc_4', 0.6100000000000004), ('wc_5', 0.3400000000000002), ('wc_8', 0.31000000000000016), ('wc_10', 0.5300000000000004)]",0.9165251800000002,,,21.0,0.058241,['Fail'],Fail,0.6100000000000004,-0.6100000000000004,0.0,0.0,0.7
293.0,12.0,wc_12,,0.0,,,,121.0,,,,Pass,,,,,
293.0,12.0,wc_12,,0.0,,,65.0,,,,,Pass,,,,,
293.0,12.0,wc_12,,0.0,,,,0.0,,,,Pass,,,,,
293.0,12.0,wc_12,wc_12,0.0,"[('wc_12', 0.2500000000000001)]",0.2500000000000001,,,21.0,0.00263,['Fail'],Pass,0.2500000000000001,-0.10714285714285726,1.0,7.0,0.3
293.0,12.0,wc_12,,0.0,,,,381.0,,,,Pass,,,,,
293.0,12.0,wc_12,wc_4,0.0,"[('wc_4', 0.6100000000000004), ('wc_12', 0.2500000000000001)]",0.7075000000000004,,,24.0,0.004973,['Fail'],Pass,0.6100000000000004,-0.6100000000000004,0.0,0.0,0.7
293.0,12.0,wc_12,,0.0,,,,81.0,,,,Pass,,,,,
293.0,12.0,wc_12,wc_6,1.0,"[('wc_6', 0.6600000000000005), ('wc_12', 0.2500000000000001), ('wc_4', 0.6100000000000004)]",0.9005500000000003,,,37.0,0.04064000000000001,['Fail'],Pass,0.6600000000000005,-0.6600000000000005,0.0,0.0,0.9
322.0,13.0,wc_13,,0.0,,,,182.0,,,,Pass,,,,,
322.0,13.0,wc_13,,0.0,,,64.0,,,,,Pass,,,,,
322.0,13.0,wc_13,,0.0,,,,0.0,,,,Pass,,,,,
322.0,13.0,wc_13,wc_13,0.0,"[('wc_13', 0.2600000000000001)]",0.2600000000000001,,,39.0,0.00216,['Fail'],Pass,0.2600000000000001,-0.21000000000000013,0.0,0.0,0.3
322.0,13.0,wc_13,,0.0,,,,321.0,,,,Pass,,,,,
322.0,13.0,wc_13,wc_10,0.0,"[('wc_10', 0.5400000000000004)]",0.5400000000000004,,,34.0,0.004588,['Pass'],Pass,0.5400000000000004,0.05999999999999961,3.0,5.0,1.0
322.0,13.0,wc_13,,0.0,,,,243.0,,,,Pass,,,,,
322.0,13.0,wc_13,wc_2,0.0,"[('wc_2', 0.6500000000000005), ('wc_10', 0.5400000000000004)]",0.8390000000000004,,,23.0,0.005823,['Pass'],Pass,0.6500000000000005,-0.6500000000000005,0.0,2.0,0.8
322.0,13.0,wc_13,,0.0,,,,0.0,,,,Pass,,,,,
322.0,13.0,wc_13,wc_5,0.0,"[('wc_5', 0.3500000000000002), ('wc_10', 0.5400000000000004), ('wc_2', 0.6500000000000005)]",0.8953500000000003,,,40.0,0.008914,['Pass'],Pass,0.3500000000000002,0.1499999999999998,1.0,2.0,0.4
322.0,13.0,wc_13,,0.0,,,,182.0,,,,Pass,,,,,
322.0,13.0,wc_13,wc_16,1.0,"[('wc_16', 0.5400000000000004), ('wc_10', 0.5400000000000004), ('wc_2', 0.6500000000000005), ('wc_5', 0.3500000000000002)]",0.9518610000000002,,,21.0,0.05033699999999999,['Pass'],Pass,0.5400000000000004,-0.25428571428571467,2.0,7.0,0.8
334.0,15.0,wc_15,,0.0,,,,103.0,,,,Pass,,,,,
334.0,15.0,wc_15,,0.0,,,55.0,,,,,Pass,,,,,
334.0,15.0,wc_15,,0.0,,,,0.0,,,,Pass,,,,,
334.0,15.0,wc_15,wc_15,0.0,"[('wc_15', 0.2400000000000001)]",0.2400000000000001,,,39.0,0.002316,['Pass'],Pass,0.2400000000000001,-0.1150000000000001,1.0,8.0,0.2
334.0,15.0,wc_15,,0.0,,,,61.0,,,,Pass,,,,,
334.0,15.0,wc_15,wc_12,0.0,"[('wc_12', 0.2500000000000001), ('wc_15', 0.2400000000000001)]",0.43000000000000016,,,38.0,0.004648,['Pass'],Pass,0.2500000000000001,-0.0277777777777779,2.0,9.0,0.3
334.0,15.0,wc_15,,0.0,,,,262.0,,,,Pass,,,,,
334.0,15.0,wc_15,wc_2,0.0,"[('wc_2', 0.6500000000000005), ('wc_15', 0.2400000000000001), ('wc_12', 0.2500000000000001)]",0.8005000000000003,,,39.0,0.006407,['Pass'],Pass,0.6500000000000005,-0.31666666666666715,1.0,3.0,0.8
334.0,15.0,wc_15,,0.0,,,,223.0,,,,Pass,,,,,
334.0,15.0,wc_15,wc_11,1.0,"[('wc_11', 0.5300000000000004), ('wc_15', 0.2400000000000001), ('wc_12', 0.2500000000000001), ('wc_2', 0.6500000000000005)]",0.9062350000000002,,,24.0,0.044849,['Pass'],Pass,0.5300000000000004,-0.5300000000000004,0.0,0.0,0.8
347.0,14.0,wc_14,,0.0,,,,101.0,,,,Fail,,,,,
347.0,14.0,wc_14,,0.0,,,56.0,,,,,Fail,,,,,
347.0,14.0,wc_14,,0.0,,,,0.0,,,,Fail,,,,,
347.0,14.0,wc_14,wc_14,0.0,"[('wc_14', 0.4600000000000003)]",0.4600000000000003,,,36.0,0.001996,['Fail'],Fail,0.4600000000000003,-0.09636363636363665,0.0,0.0,0.5
347.0,14.0,wc_14,,0.0,,,,82.0,,,,Fail,,,,,
347.0,14.0,wc_14,wc_12,0.0,"[('wc_12', 0.2600000000000001), ('wc_14', 0.4600000000000003)]",0.6004000000000003,,,38.0,0.0042699999999999995,['Fail'],Fail,0.2600000000000001,-0.2600000000000001,0.0,0.0,0.3
347.0,14.0,wc_14,,0.0,,,,361.0,,,,Fail,,,,,
347.0,14.0,wc_14,wc_11,0.0,"[('wc_14', 0.4600000000000003), ('wc_12', 0.2600000000000001)]",0.6004000000000003,,,34.0,0.006762000000000001,['Fail'],Fail,0.5300000000000004,-0.5300000000000004,0.0,0.0,0.8
347.0,14.0,wc_14,,0.0,,,,162.0,,,,Fail,,,,,
347.0,14.0,wc_14,wc_17,0.0,"[('wc_17', 0.3400000000000002), ('wc_11', 0.5300000000000004)]",0.6898000000000003,,,37.0,0.008067,['Pass'],Fail,0.3400000000000002,-0.19714285714285734,1.0,7.0,0.4
347.0,14.0,wc_14,,0.0,,,,103.0,,,,Fail,,,,,
347.0,14.0,wc_14,wc_16,0.0,"[('wc_16', 0.5400000000000004), ('wc_11', 0.5300000000000004), ('wc_17', 0.3400000000000002)]",0.8573080000000003,,,34.0,0.009592999999999999,['Pass'],Fail,0.5400000000000004,-0.29000000000000037,2.0,8.0,0.8
347.0,14.0,wc_14,,0.0,,,,223.0,,,,Fail,,,,,
347.0,14.0,wc_14,wc_7,0.0,"[('wc_11', 0.5300000000000004), ('wc_17', 0.3400000000000002), ('wc_16', 0.5400000000000004)]",0.8573080000000003,,,29.0,0.012898999999999999,['Pass'],Fail,0.5400000000000004,-0.3092307692307696,0.0,0.0,0.6
347.0,14.0,wc_14,,0.0,,,,102.0,,,,Fail,,,,,
347.0,14.0,wc_14,wc_6,1.0,"[('wc_6', 0.6600000000000005), ('wc_11', 0.5300000000000004), ('wc_17', 0.3400000000000002), ('wc_16', 0.5400000000000004)]",0.9514847200000002,,,32.0,0.053269,['Pass'],Fail,0.6600000000000005,-0.32666666666666716,1.0,3.0,0.9
355.0,14.0,wc_14,,0.0,,,,202.0,,,,Pass,,,,,
355.0,14.0,wc_14,,0.0,,,56.0,,,,,Pass,,,,,
355.0,14.0,wc_14,,0.0,,,,0.0,,,,Pass,,,,,
355.0,14.0,wc_14,wc_14,0.0,"[('wc_14', 0.4500000000000003)]",0.4500000000000003,,,32.0,0.002349,['Pass'],Pass,0.4500000000000003,-0.4500000000000003,0.0,1.0,0.5
355.0,14.0,wc_14,,0.0,,,,321.0,,,,Pass,,,,,
355.0,14.0,wc_14,wc_11,0.0,"[('wc_11', 0.5400000000000004), ('wc_14', 0.4500000000000003)]",0.7470000000000003,,,37.0,0.004013,['Pass'],Pass,0.5400000000000004,0.45999999999999963,1.0,1.0,0.8
355.0,14.0,wc_14,,0.0,,,,21.0,,,,Pass,,,,,
355.0,14.0,wc_14,wc_6,1.0,"[('wc_6', 0.6600000000000005), ('wc_14', 0.4500000000000003), ('wc_11', 0.5400000000000004)]",0.9139800000000002,,,23.0,0.043877000000000006,['Pass'],Pass,0.6600000000000005,-0.16000000000000048,2.0,4.0,0.9
364.0,16.0,wc_16,,0.0,,,,243.0,,,,Pass,,,,,
364.0,16.0,wc_16,,0.0,,,60.0,,,,,Pass,,,,,
364.0,16.0,wc_16,,0.0,,,,0.0,,,,Pass,,,,,
364.0,16.0,wc_16,wc_16,0.0,"[('wc_16', 0.5400000000000004)]",0.5400000000000004,,,24.0,0.002303,['Pass'],Pass,0.5400000000000004,-0.24000000000000038,0.0,0.0,0.8
364.0,16.0,wc_16,,0.0,,,,203.0,,,,Pass,,,,,
364.0,16.0,wc_16,wc_6,0.0,"[('wc_6', 0.6600000000000005), ('wc_16', 0.5400000000000004)]",0.8436000000000003,,,36.0,0.003876,['Pass'],Pass,0.6600000000000005,-0.16000000000000048,2.0,4.0,0.9
364.0,16.0,wc_16,,0.0,,,,202.0,,,,Pass,,,,,
364.0,16.0,wc_16,wc_14,1.0,"[('wc_14', 0.4600000000000003), ('wc_16', 0.5400000000000004), ('wc_6', 0.6600000000000005)]",0.9155440000000002,,,28.0,0.042128,['Pass'],Pass,0.4700000000000003,0.19666666666666632,2.0,3.0,0.5
378.0,17.0,wc_17,,0.0,,,,0.0,,,,Pass,,,,,
378.0,17.0,wc_17,,0.0,,,68.0,,,,,Pass,,,,,
378.0,17.0,wc_17,,0.0,,,,0.0,,,,Pass,,,,,
378.0,17.0,wc_17,wc_17,0.0,"[('wc_17', 0.3400000000000002)]",0.3400000000000002,,,38.0,0.002413,['Pass'],Pass,0.3400000000000002,-0.14000000000000018,0.0,0.0,0.4
378.0,17.0,wc_17,,0.0,,,,203.0,,,,Pass,,,,,
378.0,17.0,wc_17,wc_7,0.0,"[('wc_7', 0.5300000000000004), ('wc_17', 0.3400000000000002)]",0.6898000000000003,,,27.0,0.003936,['Pass'],Pass,0.5300000000000004,-0.5300000000000004,0.0,3.0,0.6
378.0,17.0,wc_17,,0.0,,,,321.0,,,,Pass,,,,,
378.0,17.0,wc_17,wc_4,0.0,"[('wc_4', 0.6200000000000004), ('wc_17', 0.3400000000000002), ('wc_7', 0.5300000000000004)]",0.8821240000000002,,,23.0,0.00678,['Pass'],Pass,0.6200000000000004,-0.4533333333333338,1.0,6.0,0.7
378.0,17.0,wc_17,,0.0,,,,182.0,,,,Pass,,,,,
378.0,17.0,wc_17,wc_15,0.0,"[('wc_17', 0.3400000000000002), ('wc_7', 0.5300000000000004), ('wc_4', 0.6200000000000004)]",0.8821240000000002,,,37.0,0.008468,['Pass'],Pass,0.2400000000000001,-0.07333333333333344,0.0,0.0,0.2
378.0,17.0,wc_17,,0.0,,,,382.0,,,,Pass,,,,,
378.0,17.0,wc_17,wc_10,1.0,"[('wc_10', 0.5500000000000004), ('wc_17', 0.3400000000000002), ('wc_7', 0.5300000000000004), ('wc_4', 0.6200000000000004)]",0.9469558000000001,,,36.0,0.05354899999999999,['Pass'],Pass,0.5500000000000004,-0.5500000000000004,0.0,0.0,1.0
